%
(1001)
(origin bottom left anchor hole stock bottom)
(T1  D=6 CR=0 - ZMIN=11 - flat end mill)
G90 G94
G17
G21

(Bore2)
M9
T1 M6
S12000 M3
G54
G0 X-1193.95 Y-383.75
Z46
Z27.4
G1 Z26 F850
X-1194.25
G3 X-1194.5 Y-384 J-0.25
X-1193.5 Z25.5 I0.5
X-1193.889 Y-383.513 Z25.286 I-0.5
X-1194.111 Y-384.487 Z24.786 I-0.111 J-0.487
X-1193.55 Y-384.217 Z24.571 I0.111 J0.487
X-1194.45 Y-383.783 Z24.071 I-0.45 J0.217
X-1193.55 Y-384.217 Z23.571 I0.45 J-0.217
X-1194.45 Y-383.783 Z23.071 I-0.45 J0.217
X-1193.55 Y-384.217 Z22.571 I0.45 J-0.217
Y-383.783 Z22.429 I-0.45 J0.217
X-1194.45 Y-384.217 Z21.929 I-0.45 J-0.217
X-1193.889 Y-384.487 Z21.714 I0.45 J0.217
X-1194.111 Y-383.513 Z21.214 I-0.111 J0.487
X-1193.889 Y-384.487 Z20.714 I0.111 J-0.487
Y-383.513 Z20.286 I-0.111 J0.487
X-1194.111 Y-384.487 Z19.786 I-0.111 J-0.487
X-1193.55 Y-384.217 Z19.571 I0.111 J0.487
X-1194.45 Y-383.783 Z19.071 I-0.45 J0.217
X-1193.55 Y-384.217 Z18.571 I0.45 J-0.217
X-1194.45 Y-383.783 Z18.071 I-0.45 J0.217
X-1193.55 Y-384.217 Z17.571 I0.45 J-0.217
Y-383.783 Z17.429 I-0.45 J0.217
X-1194.45 Y-384.217 Z16.929 I-0.45 J-0.217
X-1193.889 Y-384.487 Z16.714 I0.45 J0.217
X-1194.111 Y-383.513 Z16.214 I-0.111 J0.487
X-1193.889 Y-384.487 Z15.714 I0.111 J-0.487
Y-383.513 Z15.286 I-0.111 J0.487
X-1194.111 Y-384.487 Z14.786 I-0.111 J-0.487
X-1193.55 Y-384.217 Z14.571 I0.111 J0.487
X-1194.45 Y-383.783 Z14.071 I-0.45 J0.217
X-1193.55 Y-384.217 Z13.571 I0.45 J-0.217
X-1194.45 Y-383.783 Z13.071 I-0.45 J0.217
X-1193.55 Y-384.217 Z12.571 I0.45 J-0.217
Y-383.783 Z12.429 I-0.45 J0.217
X-1194.45 Y-384.217 Z11.929 I-0.45 J-0.217
X-1193.889 Y-384.487 Z11.714 I0.45 J0.217
X-1194.111 Y-383.513 Z11.214 I-0.111 J0.487
X-1194.5 Y-384 Z11 I0.111 J-0.487
X-1193.5 I0.5
X-1194.5 I-0.5
X-1194.25 Y-384.25 I0.25
G1 X-1193.95
G0 Z36
Y-191.75
Z27.4
G1 Z26 F850
X-1194.25
G3 X-1194.5 Y-192 J-0.25
X-1193.5 Z25.5 I0.5
X-1193.889 Y-191.513 Z25.286 I-0.5
X-1194.111 Y-192.487 Z24.786 I-0.111 J-0.487
X-1193.55 Y-192.217 Z24.571 I0.111 J0.487
X-1194.45 Y-191.783 Z24.071 I-0.45 J0.217
X-1193.55 Y-192.217 Z23.571 I0.45 J-0.217
X-1194.45 Y-191.783 Z23.071 I-0.45 J0.217
X-1193.55 Y-192.217 Z22.571 I0.45 J-0.217
Y-191.783 Z22.429 I-0.45 J0.217
X-1194.45 Y-192.217 Z21.929 I-0.45 J-0.217
X-1193.889 Y-192.487 Z21.714 I0.45 J0.217
X-1194.111 Y-191.513 Z21.214 I-0.111 J0.487
X-1193.889 Y-192.487 Z20.714 I0.111 J-0.487
Y-191.513 Z20.286 I-0.111 J0.487
X-1194.111 Y-192.487 Z19.786 I-0.111 J-0.487
X-1193.55 Y-192.217 Z19.571 I0.111 J0.487
X-1194.45 Y-191.783 Z19.071 I-0.45 J0.217
X-1193.55 Y-192.217 Z18.571 I0.45 J-0.217
X-1194.45 Y-191.783 Z18.071 I-0.45 J0.217
X-1193.55 Y-192.217 Z17.571 I0.45 J-0.217
Y-191.783 Z17.429 I-0.45 J0.217
X-1194.45 Y-192.217 Z16.929 I-0.45 J-0.217
X-1193.889 Y-192.487 Z16.714 I0.45 J0.217
X-1194.111 Y-191.513 Z16.214 I-0.111 J0.487
X-1193.889 Y-192.487 Z15.714 I0.111 J-0.487
Y-191.513 Z15.286 I-0.111 J0.487
X-1194.111 Y-192.487 Z14.786 I-0.111 J-0.487
X-1193.55 Y-192.217 Z14.571 I0.111 J0.487
X-1194.45 Y-191.783 Z14.071 I-0.45 J0.217
X-1193.55 Y-192.217 Z13.571 I0.45 J-0.217
X-1194.45 Y-191.783 Z13.071 I-0.45 J0.217
X-1193.55 Y-192.217 Z12.571 I0.45 J-0.217
Y-191.783 Z12.429 I-0.45 J0.217
X-1194.45 Y-192.217 Z11.929 I-0.45 J-0.217
X-1193.889 Y-192.487 Z11.714 I0.45 J0.217
X-1194.111 Y-191.513 Z11.214 I-0.111 J0.487
X-1194.5 Y-192 Z11 I0.111 J-0.487
X-1193.5 I0.5
X-1194.5 I-0.5
X-1194.25 Y-192.25 I0.25
G1 X-1193.95
G0 Z36
X-397.95 Y0.25
Z27.4
G1 Z26 F850
X-398.25
G3 X-398.5 Y0 J-0.25
X-397.5 Z25.5 I0.5
X-398.5 Z25 I-0.5
X-397.5 Z24.5 I0.5
X-398.5 Z24 I-0.5
X-397.5 Z23.5 I0.5
X-398.5 Z23 I-0.5
X-397.5 Z22.5 I0.5
X-398.5 Z22 I-0.5
X-397.5 Z21.5 I0.5
X-398.5 Z21 I-0.5
X-397.5 Z20.5 I0.5
X-398.5 Z20 I-0.5
X-397.5 Z19.5 I0.5
X-398.5 Z19 I-0.5
X-397.5 Z18.5 I0.5
X-398.5 Z18 I-0.5
X-397.5 Z17.5 I0.5
X-398.5 Z17 I-0.5
X-397.5 Z16.5 I0.5
X-398.5 Z16 I-0.5
X-397.5 Z15.5 I0.5
X-398.5 Z15 I-0.5
X-397.5 Z14.5 I0.5
X-398.5 Z14 I-0.5
X-397.5 Z13.5 I0.5
X-398.5 Z13 I-0.5
X-397.5 Z12.5 I0.5
X-398.5 Z12 I-0.5
X-397.5 Z11.5 I0.5
X-398.5 Z11 I-0.5
X-397.5 I0.5
X-398.5 I-0.5
X-398.25 Y-0.25 I0.25
G1 X-397.95
G0 Z36
X-795.95 Y0.25
Z27.4
G1 Z26 F850
X-796.25
G3 X-796.5 Y0 J-0.25
X-795.5 Z25.5 I0.5
X-796.5 Z25 I-0.5
X-795.5 Z24.5 I0.5
X-796.5 Z24 I-0.5
X-796.312 Y-0.391 Z23.857 I0.5
X-795.688 Y0.391 Z23.357 I0.312 J0.391
X-796.312 Z23.143 I-0.312 J-0.391
X-795.688 Y-0.391 Z22.643 I0.312 J-0.391
X-795.549 Y0.217 Z22.429 I-0.312 J0.391
X-796.451 Y-0.217 Z21.929 I-0.451 J-0.217
X-795.549 Y0.217 Z21.429 I0.451 J0.217
X-796.451 Y-0.217 Z20.929 I-0.451 J-0.217
X-795.549 Y0.217 Z20.429 I0.451 J0.217
X-796.451 Y-0.217 Z19.929 I-0.451 J-0.217
X-795.549 Y0.217 Z19.429 I0.451 J0.217
X-796.451 Y-0.217 Z18.929 I-0.451 J-0.217
X-796.312 Y-0.391 Z18.857 I0.451 J0.217
X-795.688 Y0.391 Z18.357 I0.312 J0.391
X-796.312 Z18.143 I-0.312 J-0.391
X-795.688 Y-0.391 Z17.643 I0.312 J-0.391
X-795.549 Y0.217 Z17.429 I-0.312 J0.391
X-796.451 Y-0.217 Z16.929 I-0.451 J-0.217
X-795.549 Y0.217 Z16.429 I0.451 J0.217
X-796.451 Y-0.217 Z15.929 I-0.451 J-0.217
X-795.549 Y0.217 Z15.429 I0.451 J0.217
X-796.451 Y-0.217 Z14.929 I-0.451 J-0.217
X-795.549 Y0.217 Z14.429 I0.451 J0.217
X-796.451 Y-0.217 Z13.929 I-0.451 J-0.217
X-796.312 Y-0.391 Z13.857 I0.451 J0.217
X-795.688 Y0.391 Z13.357 I0.312 J0.391
X-796.312 Z13.143 I-0.312 J-0.391
X-795.688 Y-0.391 Z12.643 I0.312 J-0.391
X-795.549 Y0.217 Z12.429 I-0.312 J0.391
X-796.45 Y-0.217 Z11.929 I-0.451 J-0.217
X-795.55 Y0.217 Z11.429 I0.45 J0.217
X-796.5 Y0 Z11 I-0.45 J-0.217
X-795.5 I0.5
X-796.5 I-0.5
X-796.25 Y-0.25 I0.25
G1 X-795.95
G0 Z36
Y-191.75
Z27.4
G1 Z26 F850
X-796.25
G3 X-796.5 Y-192 J-0.25
X-795.5 Z25.5 I0.5
X-796.5 Z25 I-0.5
X-795.5 Z24.5 I0.5
X-796.5 Z24 I-0.5
X-796.312 Y-192.391 Z23.857 I0.5
X-795.688 Y-191.609 Z23.357 I0.312 J0.391
X-796.312 Z23.143 I-0.312 J-0.391
X-795.688 Y-192.391 Z22.643 I0.312 J-0.391
X-796.312 Y-191.609 Z22.143 I-0.312 J0.391
X-795.688 Y-192.391 Z21.643 I0.312 J-0.391
X-796.312 Y-191.609 Z21.143 I-0.312 J0.391
X-795.688 Y-192.391 Z20.643 I0.312 J-0.391
X-796.312 Y-191.609 Z20.143 I-0.312 J0.391
X-795.688 Y-192.391 Z19.643 I0.312 J-0.391
X-796.312 Y-191.609 Z19.143 I-0.312 J0.391
Y-192.391 Z18.857 I0.312 J-0.391
X-795.688 Y-191.609 Z18.357 I0.312 J0.391
X-796.312 Z18.143 I-0.312 J-0.391
X-795.688 Y-192.391 Z17.643 I0.312 J-0.391
X-796.312 Y-191.609 Z17.143 I-0.312 J0.391
X-795.688 Y-192.391 Z16.643 I0.312 J-0.391
X-796.312 Y-191.609 Z16.143 I-0.312 J0.391
X-795.688 Y-192.391 Z15.643 I0.312 J-0.391
X-796.312 Y-191.609 Z15.143 I-0.312 J0.391
X-795.688 Y-192.391 Z14.643 I0.312 J-0.391
X-796.312 Y-191.609 Z14.143 I-0.312 J0.391
Y-192.391 Z13.857 I0.312 J-0.391
X-795.688 Y-191.609 Z13.357 I0.312 J0.391
X-796.312 Z13.143 I-0.312 J-0.391
X-795.688 Y-192.391 Z12.643 I0.312 J-0.391
X-796.312 Y-191.609 Z12.143 I-0.312 J0.391
X-795.688 Y-192.391 Z11.643 I0.312 J-0.391
X-796.312 Y-191.609 Z11.143 I-0.312 J0.391
X-796.5 Y-192 Z11 I0.312 J-0.391
X-795.5 I0.5
X-796.5 I-0.5
X-796.25 Y-192.25 I0.25
G1 X-795.95
G0 Z36
Y-383.75
Z27.4
G1 Z26 F850
X-796.25
G3 X-796.5 Y-384 J-0.25
X-795.5 Z25.5 I0.5
X-796.5 Z25 I-0.5
X-795.5 Z24.5 I0.5
X-796.5 Z24 I-0.5
X-795.5 Z23.5 I0.5
X-796.5 Z23 I-0.5
X-795.5 Z22.5 I0.5
X-796.5 Z22 I-0.5
X-795.5 Z21.5 I0.5
X-796.5 Z21 I-0.5
X-795.5 Z20.5 I0.5
X-796.5 Z20 I-0.5
X-795.5 Z19.5 I0.5
X-796.5 Z19 I-0.5
X-795.5 Z18.5 I0.5
X-796.5 Z18 I-0.5
X-795.5 Z17.5 I0.5
X-796.5 Z17 I-0.5
X-795.5 Z16.5 I0.5
X-796.5 Z16 I-0.5
X-795.5 Z15.5 I0.5
X-796.5 Z15 I-0.5
X-795.5 Z14.5 I0.5
X-796.5 Z14 I-0.5
X-795.5 Z13.5 I0.5
X-796.5 Z13 I-0.5
X-795.5 Z12.5 I0.5
X-796.5 Z12 I-0.5
X-795.5 Z11.5 I0.5
X-796.5 Z11 I-0.5
X-795.5 I0.5
X-796.5 I-0.5
X-796.25 Y-384.25 I0.25
G1 X-795.95
G0 Z36
Y-575.75
Z27.4
G1 Z26 F850
X-796.25
G3 X-796.5 Y-576 J-0.25
X-795.5 Z25.5 I0.5
X-796.5 Z25 I-0.5
X-795.549 Y-576.217 Z24.571 I0.5
X-796.451 Y-575.783 Z24.071 I-0.451 J0.217
X-796.312 Y-576.391 Z23.857 I0.451 J-0.217
X-795.688 Y-575.609 Z23.357 I0.312 J0.391
X-796.312 Z23.143 I-0.312 J-0.391
X-795.688 Y-576.391 Z22.643 I0.312 J-0.391
X-795.549 Y-575.783 Z22.429 I-0.312 J0.391
X-796.451 Y-576.217 Z21.929 I-0.451 J-0.217
X-795.549 Y-575.783 Z21.429 I0.451 J0.217
X-796.451 Y-576.217 Z20.929 I-0.451 J-0.217
X-795.549 Y-575.783 Z20.429 I0.451 J0.217
X-796.451 Y-576.217 Z19.929 I-0.451 J-0.217
X-795.549 Z19.571 I0.451 J0.217
X-796.451 Y-575.783 Z19.071 I-0.451 J0.217
X-796.312 Y-576.391 Z18.857 I0.451 J-0.217
X-795.688 Y-575.609 Z18.357 I0.312 J0.391
X-796.312 Z18.143 I-0.312 J-0.391
X-795.688 Y-576.391 Z17.643 I0.312 J-0.391
X-795.549 Y-575.783 Z17.429 I-0.312 J0.391
X-796.451 Y-576.217 Z16.929 I-0.451 J-0.217
X-795.549 Y-575.783 Z16.429 I0.451 J0.217
X-796.451 Y-576.217 Z15.929 I-0.451 J-0.217
X-795.549 Y-575.783 Z15.429 I0.451 J0.217
X-796.451 Y-576.217 Z14.929 I-0.451 J-0.217
X-795.549 Z14.571 I0.451 J0.217
X-796.451 Y-575.783 Z14.071 I-0.451 J0.217
X-796.312 Y-576.391 Z13.857 I0.451 J-0.217
X-795.688 Y-575.609 Z13.357 I0.312 J0.391
X-796.312 Z13.143 I-0.312 J-0.391
X-795.688 Y-576.391 Z12.643 I0.312 J-0.391
X-795.549 Y-575.783 Z12.429 I-0.312 J0.391
X-796.45 Y-576.217 Z11.929 I-0.451 J-0.217
X-795.55 Y-575.783 Z11.429 I0.45 J0.217
X-796.5 Y-576 Z11 I-0.45 J-0.217
X-795.5 I0.5
X-796.5 I-0.5
X-796.25 Y-576.25 I0.25
G1 X-795.95
G0 Z36
X-397.95 Y-575.75
Z27.4
G1 Z26 F850
X-398.25
G3 X-398.5 Y-576 J-0.25
X-397.5 Z25.5 I0.5
X-398.5 Z25 I-0.5
X-397.5 Z24.5 I0.5
X-398.5 Z24 I-0.5
X-398.312 Y-576.391 Z23.857 I0.5
X-397.688 Y-575.609 Z23.357 I0.312 J0.391
X-398.312 Z23.143 I-0.312 J-0.391
X-397.688 Y-576.391 Z22.643 I0.312 J-0.391
X-398.312 Y-575.609 Z22.143 I-0.312 J0.391
X-397.688 Y-576.391 Z21.643 I0.312 J-0.391
X-398.312 Y-575.609 Z21.143 I-0.312 J0.391
X-397.688 Y-576.391 Z20.643 I0.312 J-0.391
X-398.312 Y-575.609 Z20.143 I-0.312 J0.391
X-397.688 Y-576.391 Z19.643 I0.312 J-0.391
X-398.312 Y-575.609 Z19.143 I-0.312 J0.391
Y-576.391 Z18.857 I0.312 J-0.391
X-397.688 Y-575.609 Z18.357 I0.312 J0.391
X-398.312 Z18.143 I-0.312 J-0.391
X-397.688 Y-576.391 Z17.643 I0.312 J-0.391
X-398.312 Y-575.609 Z17.143 I-0.312 J0.391
X-397.688 Y-576.391 Z16.643 I0.312 J-0.391
X-398.312 Y-575.609 Z16.143 I-0.312 J0.391
X-397.688 Y-576.391 Z15.643 I0.312 J-0.391
X-398.312 Y-575.609 Z15.143 I-0.312 J0.391
X-397.688 Y-576.391 Z14.643 I0.312 J-0.391
X-398.312 Y-575.609 Z14.143 I-0.312 J0.391
Y-576.391 Z13.857 I0.312 J-0.391
X-397.688 Y-575.609 Z13.357 I0.312 J0.391
X-398.312 Y-576.391 Z12.857 I-0.312 J-0.391
X-397.688 Y-575.609 Z12.357 I0.312 J0.391
X-398.312 Y-576.391 Z11.857 I-0.312 J-0.391
X-397.688 Y-575.609 Z11.357 I0.312 J0.391
X-398.5 Y-576 Z11 I-0.312 J-0.391
X-397.5 I0.5
X-398.5 I-0.5
X-398.25 Y-576.25 I0.25
G1 X-397.95
G0 Z36
Y-383.75
Z27.4
G1 Z26 F850
X-398.25
G3 X-398.5 Y-384 J-0.25
X-397.5 Z25.5 I0.5
X-398.5 Z25 I-0.5
X-397.55 Y-384.217 Z24.571 I0.5
X-398.45 Y-383.783 Z24.071 I-0.45 J0.217
X-398.312 Y-384.391 Z23.857 I0.45 J-0.217
X-397.688 Y-383.609 Z23.357 I0.312 J0.391
X-398.312 Z23.143 I-0.312 J-0.391
X-397.688 Y-384.391 Z22.643 I0.312 J-0.391
X-397.55 Y-383.783 Z22.429 I-0.312 J0.391
X-398.45 Y-384.217 Z21.929 I-0.45 J-0.217
X-397.55 Y-383.783 Z21.429 I0.45 J0.217
X-398.45 Y-384.217 Z20.929 I-0.45 J-0.217
X-397.55 Y-383.783 Z20.429 I0.45 J0.217
X-398.45 Y-384.217 Z19.929 I-0.45 J-0.217
X-397.55 Z19.571 I0.45 J0.217
X-398.45 Y-383.783 Z19.071 I-0.45 J0.217
X-398.312 Y-384.391 Z18.857 I0.45 J-0.217
X-397.688 Y-383.609 Z18.357 I0.312 J0.391
X-398.312 Z18.143 I-0.312 J-0.391
X-397.688 Y-384.391 Z17.643 I0.312 J-0.391
X-397.55 Y-383.783 Z17.429 I-0.312 J0.391
X-398.45 Y-384.217 Z16.929 I-0.45 J-0.217
X-397.55 Y-383.783 Z16.429 I0.45 J0.217
X-398.45 Y-384.217 Z15.929 I-0.45 J-0.217
X-397.55 Y-383.783 Z15.429 I0.45 J0.217
X-398.45 Y-384.217 Z14.929 I-0.45 J-0.217
X-397.55 Z14.571 I0.45 J0.217
X-398.45 Y-383.783 Z14.071 I-0.45 J0.217
X-398.312 Y-384.391 Z13.857 I0.45 J-0.217
X-397.688 Y-383.609 Z13.357 I0.312 J0.391
X-398.312 Z13.143 I-0.312 J-0.391
X-397.688 Y-384.391 Z12.643 I0.312 J-0.391
X-397.55 Y-383.783 Z12.429 I-0.312 J0.391
X-398.45 Y-384.217 Z11.929 I-0.45 J-0.217
X-397.55 Y-383.783 Z11.429 I0.45 J0.217
X-398.5 Y-384 Z11 I-0.45 J-0.217
X-397.5 I0.5
X-398.5 I-0.5
X-398.25 Y-384.25 I0.25
G1 X-397.95
G0 Z36
X0.05 Y-383.75
Z27.4
G1 Z26 F850
X-0.25
G3 X-0.5 Y-384 J-0.25
X0.5 Z25.5 I0.5
X-0.5 Z25 I-0.5
X0.5 Z24.5 I0.5
X-0.5 Z24 I-0.5
X0.5 Z23.5 I0.5
X-0.5 Z23 I-0.5
X0.5 Z22.5 I0.5
X-0.5 Z22 I-0.5
X0.5 Z21.5 I0.5
X-0.5 Z21 I-0.5
X0.5 Z20.5 I0.5
X-0.5 Z20 I-0.5
X0.5 Z19.5 I0.5
X-0.5 Z19 I-0.5
X0.5 Z18.5 I0.5
X-0.5 Z18 I-0.5
X0.5 Z17.5 I0.5
X-0.5 Z17 I-0.5
X0.5 Z16.5 I0.5
X-0.5 Z16 I-0.5
X0.5 Z15.5 I0.5
X-0.5 Z15 I-0.5
X0.5 Z14.5 I0.5
X-0.5 Z14 I-0.5
X0.5 Z13.5 I0.5
X-0.5 Z13 I-0.5
X0.5 Z12.5 I0.5
X-0.5 Z12 I-0.5
X0.5 Z11.5 I0.5
X-0.5 Z11 I-0.5
X0.5 I0.5
X-0.5 I-0.5
X-0.25 Y-384.25 I0.25
G1 X0.05
G0 Z36
Y-191.75
Z27.4
G1 Z26 F850
X-0.25
G3 X-0.5 Y-192 J-0.25
X0.5 Z25.5 I0.5
X-0.5 Z25 I-0.5
X0.5 Z24.5 I0.5
X-0.5 Z24 I-0.5
X0.5 Z23.5 I0.5
X-0.5 Z23 I-0.5
X0.5 Z22.5 I0.5
X-0.5 Z22 I-0.5
X0.5 Z21.5 I0.5
X-0.5 Z21 I-0.5
X0.5 Z20.5 I0.5
X-0.5 Z20 I-0.5
X0.5 Z19.5 I0.5
X-0.5 Z19 I-0.5
X0.5 Z18.5 I0.5
X-0.5 Z18 I-0.5
X0.5 Z17.5 I0.5
X-0.5 Z17 I-0.5
X0.5 Z16.5 I0.5
X-0.5 Z16 I-0.5
X0.5 Z15.5 I0.5
X-0.5 Z15 I-0.5
X0.5 Z14.5 I0.5
X-0.5 Z14 I-0.5
X0.5 Z13.5 I0.5
X-0.5 Z13 I-0.5
X0.5 Z12.5 I0.5
X-0.5 Z12 I-0.5
X0.5 Z11.5 I0.5
X-0.5 Z11 I-0.5
X0.5 I0.5
X-0.5 I-0.5
X-0.25 Y-192.25 I0.25
G1 X0.05
G0 Z46
M30
%
