%
(1001)
(origin bottom left anchor hole stock bottom)
(T1  D=4 CR=0 TAPER=118deg - ZMIN=-3.202 - drill)
G90 G94
G17
G21

(pilot holes_1)
M9
T1 M6
(2.5mm tip overhang)
S5000 M3
G54
G0 X0 Y-192
Z46
Z36
Z28
G1 Z20 F400
G0 Z23
G1 Z14 F400
G0 Z17
G1 Z8 F400
G0 Z11
G1 Z2 F400
G0 Z36
Z4
G1 Z-3.202 F400
G0 Z36
Y-384
Z28
G1 Z20 F400
G0 Z23
G1 Z14 F400
G0 Z17
G1 Z8 F400
G0 Z11
G1 Z2 F400
G0 Z36
Z4
G1 Z-3.202 F400
G0 Z36
X-398
Z28
G1 Z20 F400
G0 Z23
G1 Z14 F400
G0 Z17
G1 Z8 F400
G0 Z11
G1 Z2 F400
G0 Z36
Z4
G1 Z-3.202 F400
G0 Z36
Y-576
Z28
G1 Z20 F400
G0 Z23
G1 Z14 F400
G0 Z17
G1 Z8 F400
G0 Z11
G1 Z2 F400
G0 Z36
Z4
G1 Z-3.202 F400
G0 Z36
X-796
Z28
G1 Z20 F400
G0 Z23
G1 Z14 F400
G0 Z17
G1 Z8 F400
G0 Z11
G1 Z2 F400
G0 Z36
Z4
G1 Z-3.202 F400
G0 Z36
Y-384
Z28
G1 Z20 F400
G0 Z23
G1 Z14 F400
G0 Z17
G1 Z8 F400
G0 Z11
G1 Z2 F400
G0 Z36
Z4
G1 Z-3.202 F400
G0 Z36
Y-192
Z28
G1 Z20 F400
G0 Z23
G1 Z14 F400
G0 Z17
G1 Z8 F400
G0 Z11
G1 Z2 F400
G0 Z36
Z4
G1 Z-3.202 F400
G0 Z36
Y0
Z28
G1 Z20 F400
G0 Z23
G1 Z14 F400
G0 Z17
G1 Z8 F400
G0 Z11
G1 Z2 F400
G0 Z36
Z4
G1 Z-3.202 F400
G0 Z36
X-398
Z28
G1 Z20 F400
G0 Z23
G1 Z14 F400
G0 Z17
G1 Z8 F400
G0 Z11
G1 Z2 F400
G0 Z36
Z4
G1 Z-3.202 F400
G0 Z36
X-1194 Y-192
Z28
G1 Z20 F400
G0 Z23
G1 Z14 F400
G0 Z17
G1 Z8 F400
G0 Z11
G1 Z2 F400
G0 Z36
Z4
G1 Z-3.202 F400
G0 Z36
Y-384
Z28
G1 Z20 F400
G0 Z23
G1 Z14 F400
G0 Z17
G1 Z8 F400
G0 Z11
G1 Z2 F400
G0 Z36
Z4
G1 Z-3.202 F400
G0 Z36
Z46
M30
%
