%
(1001)
(origin bottom left anchor hole stock bottom)
(T1  D=4 CR=0 TAPER=118deg - ZMIN=-3.202 - drill)
G90 G94
G17
G21

(pilot holes_2)
M9
T1 M6
(2.5mm tip overhang)
S5500 M3
G54
G0 X45.062 Y49.4
Z46
Z36
Z28
G1 Z20 F400
G0 Z23
G1 Z14 F400
G0 Z17
G1 Z8 F400
G0 Z11
G1 Z2 F400
G0 Z36
Z4
G1 Z-3.202 F400
G0 Z36
Z46

(pilot holes_2)
X45.062 Y-25.6
Z46
Z36
Z28
G1 Z20 F400
G0 Z23
G1 Z14 F400
G0 Z17
G1 Z8 F400
G0 Z11
G1 Z2 F400
G0 Z36
Z4
G1 Z-3.202 F400
G0 Z36
Z46

(pilot holes_2)
X45.062 Y-100.6
Z46
Z36
Z28
G1 Z20 F400
G0 Z23
G1 Z14 F400
G0 Z17
G1 Z8 F400
G0 Z11
G1 Z2 F400
G0 Z36
Z4
G1 Z-3.202 F400
G0 Z36
Z46

(pilot holes_2)
X45.062 Y-175.6
Z46
Z36
Z28
G1 Z20 F400
G0 Z23
G1 Z14 F400
G0 Z17
G1 Z8 F400
G0 Z11
G1 Z2 F400
G0 Z36
Z4
G1 Z-3.202 F400
G0 Z36
Z46

(pilot holes_2)
X45.062 Y-250.6
Z46
Z36
Z28
G1 Z20 F400
G0 Z23
G1 Z14 F400
G0 Z17
G1 Z8 F400
G0 Z11
G1 Z2 F400
G0 Z36
Z4
G1 Z-3.202 F400
G0 Z36
Z46

(pilot holes_2)
X45.062 Y-325.6
Z46
Z36
Z28
G1 Z20 F400
G0 Z23
G1 Z14 F400
G0 Z17
G1 Z8 F400
G0 Z11
G1 Z2 F400
G0 Z36
Z4
G1 Z-3.202 F400
G0 Z36
Z46

(pilot holes_2)
X45.062 Y-400.6
Z46
Z36
Z28
G1 Z20 F400
G0 Z23
G1 Z14 F400
G0 Z17
G1 Z8 F400
G0 Z11
G1 Z2 F400
G0 Z36
Z4
G1 Z-3.202 F400
G0 Z36
Z46

(pilot holes_2)
X45.062 Y-475.6
Z46
Z36
Z28
G1 Z20 F400
G0 Z23
G1 Z14 F400
G0 Z17
G1 Z8 F400
G0 Z11
G1 Z2 F400
G0 Z36
Z4
G1 Z-3.202 F400
G0 Z36
Z46

(pilot holes_2)
X45.062 Y-550.6
Z46
Z36
Z28
G1 Z20 F400
G0 Z23
G1 Z14 F400
G0 Z17
G1 Z8 F400
G0 Z11
G1 Z2 F400
G0 Z36
Z4
G1 Z-3.202 F400
G0 Z36
Z46

(pilot holes_2)
X45.062 Y-625.6
Z46
Z36
Z28
G1 Z20 F400
G0 Z23
G1 Z14 F400
G0 Z17
G1 Z8 F400
G0 Z11
G1 Z2 F400
G0 Z36
Z4
G1 Z-3.202 F400
G0 Z36
Z46

(pilot holes_2)
X-29.938 Y49.4
Z46
Z36
Z28
G1 Z20 F400
G0 Z23
G1 Z14 F400
G0 Z17
G1 Z8 F400
G0 Z11
G1 Z2 F400
G0 Z36
Z4
G1 Z-3.202 F400
G0 Z36
Z46

(pilot holes_2)
X-29.938 Y-25.6
Z46
Z36
Z28
G1 Z20 F400
G0 Z23
G1 Z14 F400
G0 Z17
G1 Z8 F400
G0 Z11
G1 Z2 F400
G0 Z36
Z4
G1 Z-3.202 F400
G0 Z36
Z46

(pilot holes_2)
X-29.938 Y-100.6
Z46
Z36
Z28
G1 Z20 F400
G0 Z23
G1 Z14 F400
G0 Z17
G1 Z8 F400
G0 Z11
G1 Z2 F400
G0 Z36
Z4
G1 Z-3.202 F400
G0 Z36
Z46

(pilot holes_2)
X-29.938 Y-175.6
Z46
Z36
Z28
G1 Z20 F400
G0 Z23
G1 Z14 F400
G0 Z17
G1 Z8 F400
G0 Z11
G1 Z2 F400
G0 Z36
Z4
G1 Z-3.202 F400
G0 Z36
Z46

(pilot holes_2)
X-29.938 Y-250.6
Z46
Z36
Z28
G1 Z20 F400
G0 Z23
G1 Z14 F400
G0 Z17
G1 Z8 F400
G0 Z11
G1 Z2 F400
G0 Z36
Z4
G1 Z-3.202 F400
G0 Z36
Z46

(pilot holes_2)
X-29.938 Y-325.6
Z46
Z36
Z28
G1 Z20 F400
G0 Z23
G1 Z14 F400
G0 Z17
G1 Z8 F400
G0 Z11
G1 Z2 F400
G0 Z36
Z4
G1 Z-3.202 F400
G0 Z36
Z46

(pilot holes_2)
X-29.938 Y-400.6
Z46
Z36
Z28
G1 Z20 F400
G0 Z23
G1 Z14 F400
G0 Z17
G1 Z8 F400
G0 Z11
G1 Z2 F400
G0 Z36
Z4
G1 Z-3.202 F400
G0 Z36
Z46

(pilot holes_2)
X-29.938 Y-475.6
Z46
Z36
Z28
G1 Z20 F400
G0 Z23
G1 Z14 F400
G0 Z17
G1 Z8 F400
G0 Z11
G1 Z2 F400
G0 Z36
Z4
G1 Z-3.202 F400
G0 Z36
Z46

(pilot holes_2)
X-29.938 Y-550.6
Z46
Z36
Z28
G1 Z20 F400
G0 Z23
G1 Z14 F400
G0 Z17
G1 Z8 F400
G0 Z11
G1 Z2 F400
G0 Z36
Z4
G1 Z-3.202 F400
G0 Z36
Z46

(pilot holes_2)
X-29.938 Y-625.6
Z46
Z36
Z28
G1 Z20 F400
G0 Z23
G1 Z14 F400
G0 Z17
G1 Z8 F400
G0 Z11
G1 Z2 F400
G0 Z36
Z4
G1 Z-3.202 F400
G0 Z36
Z46

(pilot holes_2)
X-104.938 Y49.4
Z46
Z36
Z28
G1 Z20 F400
G0 Z23
G1 Z14 F400
G0 Z17
G1 Z8 F400
G0 Z11
G1 Z2 F400
G0 Z36
Z4
G1 Z-3.202 F400
G0 Z36
Z46

(pilot holes_2)
X-104.938 Y-25.6
Z46
Z36
Z28
G1 Z20 F400
G0 Z23
G1 Z14 F400
G0 Z17
G1 Z8 F400
G0 Z11
G1 Z2 F400
G0 Z36
Z4
G1 Z-3.202 F400
G0 Z36
Z46

(pilot holes_2)
X-104.938 Y-100.6
Z46
Z36
Z28
G1 Z20 F400
G0 Z23
G1 Z14 F400
G0 Z17
G1 Z8 F400
G0 Z11
G1 Z2 F400
G0 Z36
Z4
G1 Z-3.202 F400
G0 Z36
Z46

(pilot holes_2)
X-104.938 Y-175.6
Z46
Z36
Z28
G1 Z20 F400
G0 Z23
G1 Z14 F400
G0 Z17
G1 Z8 F400
G0 Z11
G1 Z2 F400
G0 Z36
Z4
G1 Z-3.202 F400
G0 Z36
Z46

(pilot holes_2)
X-104.938 Y-250.6
Z46
Z36
Z28
G1 Z20 F400
G0 Z23
G1 Z14 F400
G0 Z17
G1 Z8 F400
G0 Z11
G1 Z2 F400
G0 Z36
Z4
G1 Z-3.202 F400
G0 Z36
Z46

(pilot holes_2)
X-104.938 Y-325.6
Z46
Z36
Z28
G1 Z20 F400
G0 Z23
G1 Z14 F400
G0 Z17
G1 Z8 F400
G0 Z11
G1 Z2 F400
G0 Z36
Z4
G1 Z-3.202 F400
G0 Z36
Z46

(pilot holes_2)
X-104.938 Y-400.6
Z46
Z36
Z28
G1 Z20 F400
G0 Z23
G1 Z14 F400
G0 Z17
G1 Z8 F400
G0 Z11
G1 Z2 F400
G0 Z36
Z4
G1 Z-3.202 F400
G0 Z36
Z46

(pilot holes_2)
X-104.938 Y-475.6
Z46
Z36
Z28
G1 Z20 F400
G0 Z23
G1 Z14 F400
G0 Z17
G1 Z8 F400
G0 Z11
G1 Z2 F400
G0 Z36
Z4
G1 Z-3.202 F400
G0 Z36
Z46

(pilot holes_2)
X-104.938 Y-550.6
Z46
Z36
Z28
G1 Z20 F400
G0 Z23
G1 Z14 F400
G0 Z17
G1 Z8 F400
G0 Z11
G1 Z2 F400
G0 Z36
Z4
G1 Z-3.202 F400
G0 Z36
Z46

(pilot holes_2)
X-104.938 Y-625.6
Z46
Z36
Z28
G1 Z20 F400
G0 Z23
G1 Z14 F400
G0 Z17
G1 Z8 F400
G0 Z11
G1 Z2 F400
G0 Z36
Z4
G1 Z-3.202 F400
G0 Z36
Z46

(pilot holes_2)
X-179.938 Y49.4
Z46
Z36
Z28
G1 Z20 F400
G0 Z23
G1 Z14 F400
G0 Z17
G1 Z8 F400
G0 Z11
G1 Z2 F400
G0 Z36
Z4
G1 Z-3.202 F400
G0 Z36
Z46

(pilot holes_2)
X-179.938 Y-25.6
Z46
Z36
Z28
G1 Z20 F400
G0 Z23
G1 Z14 F400
G0 Z17
G1 Z8 F400
G0 Z11
G1 Z2 F400
G0 Z36
Z4
G1 Z-3.202 F400
G0 Z36
Z46

(pilot holes_2)
X-179.938 Y-100.6
Z46
Z36
Z28
G1 Z20 F400
G0 Z23
G1 Z14 F400
G0 Z17
G1 Z8 F400
G0 Z11
G1 Z2 F400
G0 Z36
Z4
G1 Z-3.202 F400
G0 Z36
Z46

(pilot holes_2)
X-179.938 Y-175.6
Z46
Z36
Z28
G1 Z20 F400
G0 Z23
G1 Z14 F400
G0 Z17
G1 Z8 F400
G0 Z11
G1 Z2 F400
G0 Z36
Z4
G1 Z-3.202 F400
G0 Z36
Z46

(pilot holes_2)
X-179.938 Y-250.6
Z46
Z36
Z28
G1 Z20 F400
G0 Z23
G1 Z14 F400
G0 Z17
G1 Z8 F400
G0 Z11
G1 Z2 F400
G0 Z36
Z4
G1 Z-3.202 F400
G0 Z36
Z46

(pilot holes_2)
X-179.938 Y-325.6
Z46
Z36
Z28
G1 Z20 F400
G0 Z23
G1 Z14 F400
G0 Z17
G1 Z8 F400
G0 Z11
G1 Z2 F400
G0 Z36
Z4
G1 Z-3.202 F400
G0 Z36
Z46

(pilot holes_2)
X-179.938 Y-400.6
Z46
Z36
Z28
G1 Z20 F400
G0 Z23
G1 Z14 F400
G0 Z17
G1 Z8 F400
G0 Z11
G1 Z2 F400
G0 Z36
Z4
G1 Z-3.202 F400
G0 Z36
Z46

(pilot holes_2)
X-179.938 Y-475.6
Z46
Z36
Z28
G1 Z20 F400
G0 Z23
G1 Z14 F400
G0 Z17
G1 Z8 F400
G0 Z11
G1 Z2 F400
G0 Z36
Z4
G1 Z-3.202 F400
G0 Z36
Z46

(pilot holes_2)
X-179.938 Y-550.6
Z46
Z36
Z28
G1 Z20 F400
G0 Z23
G1 Z14 F400
G0 Z17
G1 Z8 F400
G0 Z11
G1 Z2 F400
G0 Z36
Z4
G1 Z-3.202 F400
G0 Z36
Z46

(pilot holes_2)
X-179.938 Y-625.6
Z46
Z36
Z28
G1 Z20 F400
G0 Z23
G1 Z14 F400
G0 Z17
G1 Z8 F400
G0 Z11
G1 Z2 F400
G0 Z36
Z4
G1 Z-3.202 F400
G0 Z36
Z46

(pilot holes_2)
X-254.938 Y49.4
Z46
Z36
Z28
G1 Z20 F400
G0 Z23
G1 Z14 F400
G0 Z17
G1 Z8 F400
G0 Z11
G1 Z2 F400
G0 Z36
Z4
G1 Z-3.202 F400
G0 Z36
Z46

(pilot holes_2)
X-254.938 Y-25.6
Z46
Z36
Z28
G1 Z20 F400
G0 Z23
G1 Z14 F400
G0 Z17
G1 Z8 F400
G0 Z11
G1 Z2 F400
G0 Z36
Z4
G1 Z-3.202 F400
G0 Z36
Z46

(pilot holes_2)
X-254.938 Y-100.6
Z46
Z36
Z28
G1 Z20 F400
G0 Z23
G1 Z14 F400
G0 Z17
G1 Z8 F400
G0 Z11
G1 Z2 F400
G0 Z36
Z4
G1 Z-3.202 F400
G0 Z36
Z46

(pilot holes_2)
X-254.938 Y-175.6
Z46
Z36
Z28
G1 Z20 F400
G0 Z23
G1 Z14 F400
G0 Z17
G1 Z8 F400
G0 Z11
G1 Z2 F400
G0 Z36
Z4
G1 Z-3.202 F400
G0 Z36
Z46

(pilot holes_2)
X-254.938 Y-250.6
Z46
Z36
Z28
G1 Z20 F400
G0 Z23
G1 Z14 F400
G0 Z17
G1 Z8 F400
G0 Z11
G1 Z2 F400
G0 Z36
Z4
G1 Z-3.202 F400
G0 Z36
Z46

(pilot holes_2)
X-254.938 Y-325.6
Z46
Z36
Z28
G1 Z20 F400
G0 Z23
G1 Z14 F400
G0 Z17
G1 Z8 F400
G0 Z11
G1 Z2 F400
G0 Z36
Z4
G1 Z-3.202 F400
G0 Z36
Z46

(pilot holes_2)
X-254.938 Y-400.6
Z46
Z36
Z28
G1 Z20 F400
G0 Z23
G1 Z14 F400
G0 Z17
G1 Z8 F400
G0 Z11
G1 Z2 F400
G0 Z36
Z4
G1 Z-3.202 F400
G0 Z36
Z46

(pilot holes_2)
X-254.938 Y-475.6
Z46
Z36
Z28
G1 Z20 F400
G0 Z23
G1 Z14 F400
G0 Z17
G1 Z8 F400
G0 Z11
G1 Z2 F400
G0 Z36
Z4
G1 Z-3.202 F400
G0 Z36
Z46

(pilot holes_2)
X-254.938 Y-550.6
Z46
Z36
Z28
G1 Z20 F400
G0 Z23
G1 Z14 F400
G0 Z17
G1 Z8 F400
G0 Z11
G1 Z2 F400
G0 Z36
Z4
G1 Z-3.202 F400
G0 Z36
Z46

(pilot holes_2)
X-254.938 Y-625.6
Z46
Z36
Z28
G1 Z20 F400
G0 Z23
G1 Z14 F400
G0 Z17
G1 Z8 F400
G0 Z11
G1 Z2 F400
G0 Z36
Z4
G1 Z-3.202 F400
G0 Z36
Z46

(pilot holes_2)
X-329.938 Y49.4
Z46
Z36
Z28
G1 Z20 F400
G0 Z23
G1 Z14 F400
G0 Z17
G1 Z8 F400
G0 Z11
G1 Z2 F400
G0 Z36
Z4
G1 Z-3.202 F400
G0 Z36
Z46

(pilot holes_2)
X-329.938 Y-25.6
Z46
Z36
Z28
G1 Z20 F400
G0 Z23
G1 Z14 F400
G0 Z17
G1 Z8 F400
G0 Z11
G1 Z2 F400
G0 Z36
Z4
G1 Z-3.202 F400
G0 Z36
Z46

(pilot holes_2)
X-329.938 Y-100.6
Z46
Z36
Z28
G1 Z20 F400
G0 Z23
G1 Z14 F400
G0 Z17
G1 Z8 F400
G0 Z11
G1 Z2 F400
G0 Z36
Z4
G1 Z-3.202 F400
G0 Z36
Z46

(pilot holes_2)
X-329.938 Y-175.6
Z46
Z36
Z28
G1 Z20 F400
G0 Z23
G1 Z14 F400
G0 Z17
G1 Z8 F400
G0 Z11
G1 Z2 F400
G0 Z36
Z4
G1 Z-3.202 F400
G0 Z36
Z46

(pilot holes_2)
X-329.938 Y-250.6
Z46
Z36
Z28
G1 Z20 F400
G0 Z23
G1 Z14 F400
G0 Z17
G1 Z8 F400
G0 Z11
G1 Z2 F400
G0 Z36
Z4
G1 Z-3.202 F400
G0 Z36
Z46

(pilot holes_2)
X-329.938 Y-325.6
Z46
Z36
Z28
G1 Z20 F400
G0 Z23
G1 Z14 F400
G0 Z17
G1 Z8 F400
G0 Z11
G1 Z2 F400
G0 Z36
Z4
G1 Z-3.202 F400
G0 Z36
Z46

(pilot holes_2)
X-329.938 Y-400.6
Z46
Z36
Z28
G1 Z20 F400
G0 Z23
G1 Z14 F400
G0 Z17
G1 Z8 F400
G0 Z11
G1 Z2 F400
G0 Z36
Z4
G1 Z-3.202 F400
G0 Z36
Z46

(pilot holes_2)
X-329.938 Y-475.6
Z46
Z36
Z28
G1 Z20 F400
G0 Z23
G1 Z14 F400
G0 Z17
G1 Z8 F400
G0 Z11
G1 Z2 F400
G0 Z36
Z4
G1 Z-3.202 F400
G0 Z36
Z46

(pilot holes_2)
X-329.938 Y-550.6
Z46
Z36
Z28
G1 Z20 F400
G0 Z23
G1 Z14 F400
G0 Z17
G1 Z8 F400
G0 Z11
G1 Z2 F400
G0 Z36
Z4
G1 Z-3.202 F400
G0 Z36
Z46

(pilot holes_2)
X-329.938 Y-625.6
Z46
Z36
Z28
G1 Z20 F400
G0 Z23
G1 Z14 F400
G0 Z17
G1 Z8 F400
G0 Z11
G1 Z2 F400
G0 Z36
Z4
G1 Z-3.202 F400
G0 Z36
Z46

(pilot holes_2)
X-404.938 Y49.4
Z46
Z36
Z28
G1 Z20 F400
G0 Z23
G1 Z14 F400
G0 Z17
G1 Z8 F400
G0 Z11
G1 Z2 F400
G0 Z36
Z4
G1 Z-3.202 F400
G0 Z36
Z46

(pilot holes_2)
X-404.938 Y-25.6
Z46
Z36
Z28
G1 Z20 F400
G0 Z23
G1 Z14 F400
G0 Z17
G1 Z8 F400
G0 Z11
G1 Z2 F400
G0 Z36
Z4
G1 Z-3.202 F400
G0 Z36
Z46

(pilot holes_2)
X-404.938 Y-100.6
Z46
Z36
Z28
G1 Z20 F400
G0 Z23
G1 Z14 F400
G0 Z17
G1 Z8 F400
G0 Z11
G1 Z2 F400
G0 Z36
Z4
G1 Z-3.202 F400
G0 Z36
Z46

(pilot holes_2)
X-404.938 Y-175.6
Z46
Z36
Z28
G1 Z20 F400
G0 Z23
G1 Z14 F400
G0 Z17
G1 Z8 F400
G0 Z11
G1 Z2 F400
G0 Z36
Z4
G1 Z-3.202 F400
G0 Z36
Z46

(pilot holes_2)
X-404.938 Y-250.6
Z46
Z36
Z28
G1 Z20 F400
G0 Z23
G1 Z14 F400
G0 Z17
G1 Z8 F400
G0 Z11
G1 Z2 F400
G0 Z36
Z4
G1 Z-3.202 F400
G0 Z36
Z46

(pilot holes_2)
X-404.938 Y-325.6
Z46
Z36
Z28
G1 Z20 F400
G0 Z23
G1 Z14 F400
G0 Z17
G1 Z8 F400
G0 Z11
G1 Z2 F400
G0 Z36
Z4
G1 Z-3.202 F400
G0 Z36
Z46

(pilot holes_2)
X-404.938 Y-400.6
Z46
Z36
Z28
G1 Z20 F400
G0 Z23
G1 Z14 F400
G0 Z17
G1 Z8 F400
G0 Z11
G1 Z2 F400
G0 Z36
Z4
G1 Z-3.202 F400
G0 Z36
Z46

(pilot holes_2)
X-404.938 Y-475.6
Z46
Z36
Z28
G1 Z20 F400
G0 Z23
G1 Z14 F400
G0 Z17
G1 Z8 F400
G0 Z11
G1 Z2 F400
G0 Z36
Z4
G1 Z-3.202 F400
G0 Z36
Z46

(pilot holes_2)
X-404.938 Y-550.6
Z46
Z36
Z28
G1 Z20 F400
G0 Z23
G1 Z14 F400
G0 Z17
G1 Z8 F400
G0 Z11
G1 Z2 F400
G0 Z36
Z4
G1 Z-3.202 F400
G0 Z36
Z46

(pilot holes_2)
X-404.938 Y-625.6
Z46
Z36
Z28
G1 Z20 F400
G0 Z23
G1 Z14 F400
G0 Z17
G1 Z8 F400
G0 Z11
G1 Z2 F400
G0 Z36
Z4
G1 Z-3.202 F400
G0 Z36
Z46

(pilot holes_2)
X-479.938 Y49.4
Z46
Z36
Z28
G1 Z20 F400
G0 Z23
G1 Z14 F400
G0 Z17
G1 Z8 F400
G0 Z11
G1 Z2 F400
G0 Z36
Z4
G1 Z-3.202 F400
G0 Z36
Z46

(pilot holes_2)
X-479.938 Y-25.6
Z46
Z36
Z28
G1 Z20 F400
G0 Z23
G1 Z14 F400
G0 Z17
G1 Z8 F400
G0 Z11
G1 Z2 F400
G0 Z36
Z4
G1 Z-3.202 F400
G0 Z36
Z46

(pilot holes_2)
X-479.938 Y-100.6
Z46
Z36
Z28
G1 Z20 F400
G0 Z23
G1 Z14 F400
G0 Z17
G1 Z8 F400
G0 Z11
G1 Z2 F400
G0 Z36
Z4
G1 Z-3.202 F400
G0 Z36
Z46

(pilot holes_2)
X-479.938 Y-175.6
Z46
Z36
Z28
G1 Z20 F400
G0 Z23
G1 Z14 F400
G0 Z17
G1 Z8 F400
G0 Z11
G1 Z2 F400
G0 Z36
Z4
G1 Z-3.202 F400
G0 Z36
Z46

(pilot holes_2)
X-479.938 Y-250.6
Z46
Z36
Z28
G1 Z20 F400
G0 Z23
G1 Z14 F400
G0 Z17
G1 Z8 F400
G0 Z11
G1 Z2 F400
G0 Z36
Z4
G1 Z-3.202 F400
G0 Z36
Z46

(pilot holes_2)
X-479.938 Y-325.6
Z46
Z36
Z28
G1 Z20 F400
G0 Z23
G1 Z14 F400
G0 Z17
G1 Z8 F400
G0 Z11
G1 Z2 F400
G0 Z36
Z4
G1 Z-3.202 F400
G0 Z36
Z46

(pilot holes_2)
X-479.938 Y-400.6
Z46
Z36
Z28
G1 Z20 F400
G0 Z23
G1 Z14 F400
G0 Z17
G1 Z8 F400
G0 Z11
G1 Z2 F400
G0 Z36
Z4
G1 Z-3.202 F400
G0 Z36
Z46

(pilot holes_2)
X-479.938 Y-475.6
Z46
Z36
Z28
G1 Z20 F400
G0 Z23
G1 Z14 F400
G0 Z17
G1 Z8 F400
G0 Z11
G1 Z2 F400
G0 Z36
Z4
G1 Z-3.202 F400
G0 Z36
Z46

(pilot holes_2)
X-479.938 Y-550.6
Z46
Z36
Z28
G1 Z20 F400
G0 Z23
G1 Z14 F400
G0 Z17
G1 Z8 F400
G0 Z11
G1 Z2 F400
G0 Z36
Z4
G1 Z-3.202 F400
G0 Z36
Z46

(pilot holes_2)
X-479.938 Y-625.6
Z46
Z36
Z28
G1 Z20 F400
G0 Z23
G1 Z14 F400
G0 Z17
G1 Z8 F400
G0 Z11
G1 Z2 F400
G0 Z36
Z4
G1 Z-3.202 F400
G0 Z36
Z46

(pilot holes_2)
X-554.938 Y49.4
Z46
Z36
Z28
G1 Z20 F400
G0 Z23
G1 Z14 F400
G0 Z17
G1 Z8 F400
G0 Z11
G1 Z2 F400
G0 Z36
Z4
G1 Z-3.202 F400
G0 Z36
Z46

(pilot holes_2)
X-554.938 Y-25.6
Z46
Z36
Z28
G1 Z20 F400
G0 Z23
G1 Z14 F400
G0 Z17
G1 Z8 F400
G0 Z11
G1 Z2 F400
G0 Z36
Z4
G1 Z-3.202 F400
G0 Z36
Z46

(pilot holes_2)
X-554.938 Y-100.6
Z46
Z36
Z28
G1 Z20 F400
G0 Z23
G1 Z14 F400
G0 Z17
G1 Z8 F400
G0 Z11
G1 Z2 F400
G0 Z36
Z4
G1 Z-3.202 F400
G0 Z36
Z46

(pilot holes_2)
X-554.938 Y-175.6
Z46
Z36
Z28
G1 Z20 F400
G0 Z23
G1 Z14 F400
G0 Z17
G1 Z8 F400
G0 Z11
G1 Z2 F400
G0 Z36
Z4
G1 Z-3.202 F400
G0 Z36
Z46

(pilot holes_2)
X-554.938 Y-250.6
Z46
Z36
Z28
G1 Z20 F400
G0 Z23
G1 Z14 F400
G0 Z17
G1 Z8 F400
G0 Z11
G1 Z2 F400
G0 Z36
Z4
G1 Z-3.202 F400
G0 Z36
Z46

(pilot holes_2)
X-554.938 Y-325.6
Z46
Z36
Z28
G1 Z20 F400
G0 Z23
G1 Z14 F400
G0 Z17
G1 Z8 F400
G0 Z11
G1 Z2 F400
G0 Z36
Z4
G1 Z-3.202 F400
G0 Z36
Z46

(pilot holes_2)
X-554.938 Y-400.6
Z46
Z36
Z28
G1 Z20 F400
G0 Z23
G1 Z14 F400
G0 Z17
G1 Z8 F400
G0 Z11
G1 Z2 F400
G0 Z36
Z4
G1 Z-3.202 F400
G0 Z36
Z46

(pilot holes_2)
X-554.938 Y-475.6
Z46
Z36
Z28
G1 Z20 F400
G0 Z23
G1 Z14 F400
G0 Z17
G1 Z8 F400
G0 Z11
G1 Z2 F400
G0 Z36
Z4
G1 Z-3.202 F400
G0 Z36
Z46

(pilot holes_2)
X-554.938 Y-550.6
Z46
Z36
Z28
G1 Z20 F400
G0 Z23
G1 Z14 F400
G0 Z17
G1 Z8 F400
G0 Z11
G1 Z2 F400
G0 Z36
Z4
G1 Z-3.202 F400
G0 Z36
Z46

(pilot holes_2)
X-554.938 Y-625.6
Z46
Z36
Z28
G1 Z20 F400
G0 Z23
G1 Z14 F400
G0 Z17
G1 Z8 F400
G0 Z11
G1 Z2 F400
G0 Z36
Z4
G1 Z-3.202 F400
G0 Z36
Z46

(pilot holes_2)
X-629.938 Y49.4
Z46
Z36
Z28
G1 Z20 F400
G0 Z23
G1 Z14 F400
G0 Z17
G1 Z8 F400
G0 Z11
G1 Z2 F400
G0 Z36
Z4
G1 Z-3.202 F400
G0 Z36
Z46

(pilot holes_2)
X-629.938 Y-25.6
Z46
Z36
Z28
G1 Z20 F400
G0 Z23
G1 Z14 F400
G0 Z17
G1 Z8 F400
G0 Z11
G1 Z2 F400
G0 Z36
Z4
G1 Z-3.202 F400
G0 Z36
Z46

(pilot holes_2)
X-629.938 Y-100.6
Z46
Z36
Z28
G1 Z20 F400
G0 Z23
G1 Z14 F400
G0 Z17
G1 Z8 F400
G0 Z11
G1 Z2 F400
G0 Z36
Z4
G1 Z-3.202 F400
G0 Z36
Z46

(pilot holes_2)
X-629.938 Y-175.6
Z46
Z36
Z28
G1 Z20 F400
G0 Z23
G1 Z14 F400
G0 Z17
G1 Z8 F400
G0 Z11
G1 Z2 F400
G0 Z36
Z4
G1 Z-3.202 F400
G0 Z36
Z46

(pilot holes_2)
X-629.938 Y-250.6
Z46
Z36
Z28
G1 Z20 F400
G0 Z23
G1 Z14 F400
G0 Z17
G1 Z8 F400
G0 Z11
G1 Z2 F400
G0 Z36
Z4
G1 Z-3.202 F400
G0 Z36
Z46

(pilot holes_2)
X-629.938 Y-325.6
Z46
Z36
Z28
G1 Z20 F400
G0 Z23
G1 Z14 F400
G0 Z17
G1 Z8 F400
G0 Z11
G1 Z2 F400
G0 Z36
Z4
G1 Z-3.202 F400
G0 Z36
Z46

(pilot holes_2)
X-629.938 Y-400.6
Z46
Z36
Z28
G1 Z20 F400
G0 Z23
G1 Z14 F400
G0 Z17
G1 Z8 F400
G0 Z11
G1 Z2 F400
G0 Z36
Z4
G1 Z-3.202 F400
G0 Z36
Z46

(pilot holes_2)
X-629.938 Y-475.6
Z46
Z36
Z28
G1 Z20 F400
G0 Z23
G1 Z14 F400
G0 Z17
G1 Z8 F400
G0 Z11
G1 Z2 F400
G0 Z36
Z4
G1 Z-3.202 F400
G0 Z36
Z46

(pilot holes_2)
X-629.938 Y-550.6
Z46
Z36
Z28
G1 Z20 F400
G0 Z23
G1 Z14 F400
G0 Z17
G1 Z8 F400
G0 Z11
G1 Z2 F400
G0 Z36
Z4
G1 Z-3.202 F400
G0 Z36
Z46

(pilot holes_2)
X-629.938 Y-625.6
Z46
Z36
Z28
G1 Z20 F400
G0 Z23
G1 Z14 F400
G0 Z17
G1 Z8 F400
G0 Z11
G1 Z2 F400
G0 Z36
Z4
G1 Z-3.202 F400
G0 Z36
Z46

(pilot holes_2)
X-704.938 Y49.4
Z46
Z36
Z28
G1 Z20 F400
G0 Z23
G1 Z14 F400
G0 Z17
G1 Z8 F400
G0 Z11
G1 Z2 F400
G0 Z36
Z4
G1 Z-3.202 F400
G0 Z36
Z46

(pilot holes_2)
X-704.938 Y-25.6
Z46
Z36
Z28
G1 Z20 F400
G0 Z23
G1 Z14 F400
G0 Z17
G1 Z8 F400
G0 Z11
G1 Z2 F400
G0 Z36
Z4
G1 Z-3.202 F400
G0 Z36
Z46

(pilot holes_2)
X-704.938 Y-100.6
Z46
Z36
Z28
G1 Z20 F400
G0 Z23
G1 Z14 F400
G0 Z17
G1 Z8 F400
G0 Z11
G1 Z2 F400
G0 Z36
Z4
G1 Z-3.202 F400
G0 Z36
Z46

(pilot holes_2)
X-704.938 Y-175.6
Z46
Z36
Z28
G1 Z20 F400
G0 Z23
G1 Z14 F400
G0 Z17
G1 Z8 F400
G0 Z11
G1 Z2 F400
G0 Z36
Z4
G1 Z-3.202 F400
G0 Z36
Z46

(pilot holes_2)
X-704.938 Y-250.6
Z46
Z36
Z28
G1 Z20 F400
G0 Z23
G1 Z14 F400
G0 Z17
G1 Z8 F400
G0 Z11
G1 Z2 F400
G0 Z36
Z4
G1 Z-3.202 F400
G0 Z36
Z46

(pilot holes_2)
X-704.938 Y-325.6
Z46
Z36
Z28
G1 Z20 F400
G0 Z23
G1 Z14 F400
G0 Z17
G1 Z8 F400
G0 Z11
G1 Z2 F400
G0 Z36
Z4
G1 Z-3.202 F400
G0 Z36
Z46

(pilot holes_2)
X-704.938 Y-400.6
Z46
Z36
Z28
G1 Z20 F400
G0 Z23
G1 Z14 F400
G0 Z17
G1 Z8 F400
G0 Z11
G1 Z2 F400
G0 Z36
Z4
G1 Z-3.202 F400
G0 Z36
Z46

(pilot holes_2)
X-704.938 Y-475.6
Z46
Z36
Z28
G1 Z20 F400
G0 Z23
G1 Z14 F400
G0 Z17
G1 Z8 F400
G0 Z11
G1 Z2 F400
G0 Z36
Z4
G1 Z-3.202 F400
G0 Z36
Z46

(pilot holes_2)
X-704.938 Y-550.6
Z46
Z36
Z28
G1 Z20 F400
G0 Z23
G1 Z14 F400
G0 Z17
G1 Z8 F400
G0 Z11
G1 Z2 F400
G0 Z36
Z4
G1 Z-3.202 F400
G0 Z36
Z46

(pilot holes_2)
X-704.938 Y-625.6
Z46
Z36
Z28
G1 Z20 F400
G0 Z23
G1 Z14 F400
G0 Z17
G1 Z8 F400
G0 Z11
G1 Z2 F400
G0 Z36
Z4
G1 Z-3.202 F400
G0 Z36
Z46

(pilot holes_2)
X-779.938 Y49.4
Z46
Z36
Z28
G1 Z20 F400
G0 Z23
G1 Z14 F400
G0 Z17
G1 Z8 F400
G0 Z11
G1 Z2 F400
G0 Z36
Z4
G1 Z-3.202 F400
G0 Z36
Z46

(pilot holes_2)
X-779.938 Y-25.6
Z46
Z36
Z28
G1 Z20 F400
G0 Z23
G1 Z14 F400
G0 Z17
G1 Z8 F400
G0 Z11
G1 Z2 F400
G0 Z36
Z4
G1 Z-3.202 F400
G0 Z36
Z46

(pilot holes_2)
X-779.938 Y-100.6
Z46
Z36
Z28
G1 Z20 F400
G0 Z23
G1 Z14 F400
G0 Z17
G1 Z8 F400
G0 Z11
G1 Z2 F400
G0 Z36
Z4
G1 Z-3.202 F400
G0 Z36
Z46

(pilot holes_2)
X-779.938 Y-175.6
Z46
Z36
Z28
G1 Z20 F400
G0 Z23
G1 Z14 F400
G0 Z17
G1 Z8 F400
G0 Z11
G1 Z2 F400
G0 Z36
Z4
G1 Z-3.202 F400
G0 Z36
Z46

(pilot holes_2)
X-779.938 Y-250.6
Z46
Z36
Z28
G1 Z20 F400
G0 Z23
G1 Z14 F400
G0 Z17
G1 Z8 F400
G0 Z11
G1 Z2 F400
G0 Z36
Z4
G1 Z-3.202 F400
G0 Z36
Z46

(pilot holes_2)
X-779.938 Y-325.6
Z46
Z36
Z28
G1 Z20 F400
G0 Z23
G1 Z14 F400
G0 Z17
G1 Z8 F400
G0 Z11
G1 Z2 F400
G0 Z36
Z4
G1 Z-3.202 F400
G0 Z36
Z46

(pilot holes_2)
X-779.938 Y-400.6
Z46
Z36
Z28
G1 Z20 F400
G0 Z23
G1 Z14 F400
G0 Z17
G1 Z8 F400
G0 Z11
G1 Z2 F400
G0 Z36
Z4
G1 Z-3.202 F400
G0 Z36
Z46

(pilot holes_2)
X-779.938 Y-475.6
Z46
Z36
Z28
G1 Z20 F400
G0 Z23
G1 Z14 F400
G0 Z17
G1 Z8 F400
G0 Z11
G1 Z2 F400
G0 Z36
Z4
G1 Z-3.202 F400
G0 Z36
Z46

(pilot holes_2)
X-779.938 Y-550.6
Z46
Z36
Z28
G1 Z20 F400
G0 Z23
G1 Z14 F400
G0 Z17
G1 Z8 F400
G0 Z11
G1 Z2 F400
G0 Z36
Z4
G1 Z-3.202 F400
G0 Z36
Z46

(pilot holes_2)
X-779.938 Y-625.6
Z46
Z36
Z28
G1 Z20 F400
G0 Z23
G1 Z14 F400
G0 Z17
G1 Z8 F400
G0 Z11
G1 Z2 F400
G0 Z36
Z4
G1 Z-3.202 F400
G0 Z36
Z46

(pilot holes_2)
X-854.938 Y49.4
Z46
Z36
Z28
G1 Z20 F400
G0 Z23
G1 Z14 F400
G0 Z17
G1 Z8 F400
G0 Z11
G1 Z2 F400
G0 Z36
Z4
G1 Z-3.202 F400
G0 Z36
Z46

(pilot holes_2)
X-854.938 Y-25.6
Z46
Z36
Z28
G1 Z20 F400
G0 Z23
G1 Z14 F400
G0 Z17
G1 Z8 F400
G0 Z11
G1 Z2 F400
G0 Z36
Z4
G1 Z-3.202 F400
G0 Z36
Z46

(pilot holes_2)
X-854.938 Y-100.6
Z46
Z36
Z28
G1 Z20 F400
G0 Z23
G1 Z14 F400
G0 Z17
G1 Z8 F400
G0 Z11
G1 Z2 F400
G0 Z36
Z4
G1 Z-3.202 F400
G0 Z36
Z46

(pilot holes_2)
X-854.938 Y-175.6
Z46
Z36
Z28
G1 Z20 F400
G0 Z23
G1 Z14 F400
G0 Z17
G1 Z8 F400
G0 Z11
G1 Z2 F400
G0 Z36
Z4
G1 Z-3.202 F400
G0 Z36
Z46

(pilot holes_2)
X-854.938 Y-250.6
Z46
Z36
Z28
G1 Z20 F400
G0 Z23
G1 Z14 F400
G0 Z17
G1 Z8 F400
G0 Z11
G1 Z2 F400
G0 Z36
Z4
G1 Z-3.202 F400
G0 Z36
Z46

(pilot holes_2)
X-854.938 Y-325.6
Z46
Z36
Z28
G1 Z20 F400
G0 Z23
G1 Z14 F400
G0 Z17
G1 Z8 F400
G0 Z11
G1 Z2 F400
G0 Z36
Z4
G1 Z-3.202 F400
G0 Z36
Z46

(pilot holes_2)
X-854.938 Y-400.6
Z46
Z36
Z28
G1 Z20 F400
G0 Z23
G1 Z14 F400
G0 Z17
G1 Z8 F400
G0 Z11
G1 Z2 F400
G0 Z36
Z4
G1 Z-3.202 F400
G0 Z36
Z46

(pilot holes_2)
X-854.938 Y-475.6
Z46
Z36
Z28
G1 Z20 F400
G0 Z23
G1 Z14 F400
G0 Z17
G1 Z8 F400
G0 Z11
G1 Z2 F400
G0 Z36
Z4
G1 Z-3.202 F400
G0 Z36
Z46

(pilot holes_2)
X-854.938 Y-550.6
Z46
Z36
Z28
G1 Z20 F400
G0 Z23
G1 Z14 F400
G0 Z17
G1 Z8 F400
G0 Z11
G1 Z2 F400
G0 Z36
Z4
G1 Z-3.202 F400
G0 Z36
Z46

(pilot holes_2)
X-854.938 Y-625.6
Z46
Z36
Z28
G1 Z20 F400
G0 Z23
G1 Z14 F400
G0 Z17
G1 Z8 F400
G0 Z11
G1 Z2 F400
G0 Z36
Z4
G1 Z-3.202 F400
G0 Z36
Z46

(pilot holes_2)
X-929.938 Y49.4
Z46
Z36
Z28
G1 Z20 F400
G0 Z23
G1 Z14 F400
G0 Z17
G1 Z8 F400
G0 Z11
G1 Z2 F400
G0 Z36
Z4
G1 Z-3.202 F400
G0 Z36
Z46

(pilot holes_2)
X-929.938 Y-25.6
Z46
Z36
Z28
G1 Z20 F400
G0 Z23
G1 Z14 F400
G0 Z17
G1 Z8 F400
G0 Z11
G1 Z2 F400
G0 Z36
Z4
G1 Z-3.202 F400
G0 Z36
Z46

(pilot holes_2)
X-929.938 Y-100.6
Z46
Z36
Z28
G1 Z20 F400
G0 Z23
G1 Z14 F400
G0 Z17
G1 Z8 F400
G0 Z11
G1 Z2 F400
G0 Z36
Z4
G1 Z-3.202 F400
G0 Z36
Z46

(pilot holes_2)
X-929.938 Y-175.6
Z46
Z36
Z28
G1 Z20 F400
G0 Z23
G1 Z14 F400
G0 Z17
G1 Z8 F400
G0 Z11
G1 Z2 F400
G0 Z36
Z4
G1 Z-3.202 F400
G0 Z36
Z46

(pilot holes_2)
X-929.938 Y-250.6
Z46
Z36
Z28
G1 Z20 F400
G0 Z23
G1 Z14 F400
G0 Z17
G1 Z8 F400
G0 Z11
G1 Z2 F400
G0 Z36
Z4
G1 Z-3.202 F400
G0 Z36
Z46

(pilot holes_2)
X-929.938 Y-325.6
Z46
Z36
Z28
G1 Z20 F400
G0 Z23
G1 Z14 F400
G0 Z17
G1 Z8 F400
G0 Z11
G1 Z2 F400
G0 Z36
Z4
G1 Z-3.202 F400
G0 Z36
Z46

(pilot holes_2)
X-929.938 Y-400.6
Z46
Z36
Z28
G1 Z20 F400
G0 Z23
G1 Z14 F400
G0 Z17
G1 Z8 F400
G0 Z11
G1 Z2 F400
G0 Z36
Z4
G1 Z-3.202 F400
G0 Z36
Z46

(pilot holes_2)
X-929.938 Y-475.6
Z46
Z36
Z28
G1 Z20 F400
G0 Z23
G1 Z14 F400
G0 Z17
G1 Z8 F400
G0 Z11
G1 Z2 F400
G0 Z36
Z4
G1 Z-3.202 F400
G0 Z36
Z46

(pilot holes_2)
X-929.938 Y-550.6
Z46
Z36
Z28
G1 Z20 F400
G0 Z23
G1 Z14 F400
G0 Z17
G1 Z8 F400
G0 Z11
G1 Z2 F400
G0 Z36
Z4
G1 Z-3.202 F400
G0 Z36
Z46

(pilot holes_2)
X-929.938 Y-625.6
Z46
Z36
Z28
G1 Z20 F400
G0 Z23
G1 Z14 F400
G0 Z17
G1 Z8 F400
G0 Z11
G1 Z2 F400
G0 Z36
Z4
G1 Z-3.202 F400
G0 Z36
Z46

(pilot holes_2)
X-1004.938 Y49.4
Z46
Z36
Z28
G1 Z20 F400
G0 Z23
G1 Z14 F400
G0 Z17
G1 Z8 F400
G0 Z11
G1 Z2 F400
G0 Z36
Z4
G1 Z-3.202 F400
G0 Z36
Z46

(pilot holes_2)
X-1004.938 Y-25.6
Z46
Z36
Z28
G1 Z20 F400
G0 Z23
G1 Z14 F400
G0 Z17
G1 Z8 F400
G0 Z11
G1 Z2 F400
G0 Z36
Z4
G1 Z-3.202 F400
G0 Z36
Z46

(pilot holes_2)
X-1004.938 Y-100.6
Z46
Z36
Z28
G1 Z20 F400
G0 Z23
G1 Z14 F400
G0 Z17
G1 Z8 F400
G0 Z11
G1 Z2 F400
G0 Z36
Z4
G1 Z-3.202 F400
G0 Z36
Z46

(pilot holes_2)
X-1004.938 Y-175.6
Z46
Z36
Z28
G1 Z20 F400
G0 Z23
G1 Z14 F400
G0 Z17
G1 Z8 F400
G0 Z11
G1 Z2 F400
G0 Z36
Z4
G1 Z-3.202 F400
G0 Z36
Z46

(pilot holes_2)
X-1004.938 Y-250.6
Z46
Z36
Z28
G1 Z20 F400
G0 Z23
G1 Z14 F400
G0 Z17
G1 Z8 F400
G0 Z11
G1 Z2 F400
G0 Z36
Z4
G1 Z-3.202 F400
G0 Z36
Z46

(pilot holes_2)
X-1004.938 Y-325.6
Z46
Z36
Z28
G1 Z20 F400
G0 Z23
G1 Z14 F400
G0 Z17
G1 Z8 F400
G0 Z11
G1 Z2 F400
G0 Z36
Z4
G1 Z-3.202 F400
G0 Z36
Z46

(pilot holes_2)
X-1004.938 Y-400.6
Z46
Z36
Z28
G1 Z20 F400
G0 Z23
G1 Z14 F400
G0 Z17
G1 Z8 F400
G0 Z11
G1 Z2 F400
G0 Z36
Z4
G1 Z-3.202 F400
G0 Z36
Z46

(pilot holes_2)
X-1004.938 Y-475.6
Z46
Z36
Z28
G1 Z20 F400
G0 Z23
G1 Z14 F400
G0 Z17
G1 Z8 F400
G0 Z11
G1 Z2 F400
G0 Z36
Z4
G1 Z-3.202 F400
G0 Z36
Z46

(pilot holes_2)
X-1004.938 Y-550.6
Z46
Z36
Z28
G1 Z20 F400
G0 Z23
G1 Z14 F400
G0 Z17
G1 Z8 F400
G0 Z11
G1 Z2 F400
G0 Z36
Z4
G1 Z-3.202 F400
G0 Z36
Z46

(pilot holes_2)
X-1004.938 Y-625.6
Z46
Z36
Z28
G1 Z20 F400
G0 Z23
G1 Z14 F400
G0 Z17
G1 Z8 F400
G0 Z11
G1 Z2 F400
G0 Z36
Z4
G1 Z-3.202 F400
G0 Z36
Z46

(pilot holes_2)
X-1079.938 Y49.4
Z46
Z36
Z28
G1 Z20 F400
G0 Z23
G1 Z14 F400
G0 Z17
G1 Z8 F400
G0 Z11
G1 Z2 F400
G0 Z36
Z4
G1 Z-3.202 F400
G0 Z36
Z46

(pilot holes_2)
X-1079.938 Y-25.6
Z46
Z36
Z28
G1 Z20 F400
G0 Z23
G1 Z14 F400
G0 Z17
G1 Z8 F400
G0 Z11
G1 Z2 F400
G0 Z36
Z4
G1 Z-3.202 F400
G0 Z36
Z46

(pilot holes_2)
X-1079.938 Y-100.6
Z46
Z36
Z28
G1 Z20 F400
G0 Z23
G1 Z14 F400
G0 Z17
G1 Z8 F400
G0 Z11
G1 Z2 F400
G0 Z36
Z4
G1 Z-3.202 F400
G0 Z36
Z46

(pilot holes_2)
X-1079.938 Y-175.6
Z46
Z36
Z28
G1 Z20 F400
G0 Z23
G1 Z14 F400
G0 Z17
G1 Z8 F400
G0 Z11
G1 Z2 F400
G0 Z36
Z4
G1 Z-3.202 F400
G0 Z36
Z46

(pilot holes_2)
X-1079.938 Y-250.6
Z46
Z36
Z28
G1 Z20 F400
G0 Z23
G1 Z14 F400
G0 Z17
G1 Z8 F400
G0 Z11
G1 Z2 F400
G0 Z36
Z4
G1 Z-3.202 F400
G0 Z36
Z46

(pilot holes_2)
X-1079.938 Y-325.6
Z46
Z36
Z28
G1 Z20 F400
G0 Z23
G1 Z14 F400
G0 Z17
G1 Z8 F400
G0 Z11
G1 Z2 F400
G0 Z36
Z4
G1 Z-3.202 F400
G0 Z36
Z46

(pilot holes_2)
X-1079.938 Y-400.6
Z46
Z36
Z28
G1 Z20 F400
G0 Z23
G1 Z14 F400
G0 Z17
G1 Z8 F400
G0 Z11
G1 Z2 F400
G0 Z36
Z4
G1 Z-3.202 F400
G0 Z36
Z46

(pilot holes_2)
X-1079.938 Y-475.6
Z46
Z36
Z28
G1 Z20 F400
G0 Z23
G1 Z14 F400
G0 Z17
G1 Z8 F400
G0 Z11
G1 Z2 F400
G0 Z36
Z4
G1 Z-3.202 F400
G0 Z36
Z46

(pilot holes_2)
X-1079.938 Y-550.6
Z46
Z36
Z28
G1 Z20 F400
G0 Z23
G1 Z14 F400
G0 Z17
G1 Z8 F400
G0 Z11
G1 Z2 F400
G0 Z36
Z4
G1 Z-3.202 F400
G0 Z36
Z46

(pilot holes_2)
X-1079.938 Y-625.6
Z46
Z36
Z28
G1 Z20 F400
G0 Z23
G1 Z14 F400
G0 Z17
G1 Z8 F400
G0 Z11
G1 Z2 F400
G0 Z36
Z4
G1 Z-3.202 F400
G0 Z36
Z46

(pilot holes_2)
X-1154.938 Y49.4
Z46
Z36
Z28
G1 Z20 F400
G0 Z23
G1 Z14 F400
G0 Z17
G1 Z8 F400
G0 Z11
G1 Z2 F400
G0 Z36
Z4
G1 Z-3.202 F400
G0 Z36
Z46

(pilot holes_2)
X-1154.938 Y-25.6
Z46
Z36
Z28
G1 Z20 F400
G0 Z23
G1 Z14 F400
G0 Z17
G1 Z8 F400
G0 Z11
G1 Z2 F400
G0 Z36
Z4
G1 Z-3.202 F400
G0 Z36
Z46

(pilot holes_2)
X-1154.938 Y-100.6
Z46
Z36
Z28
G1 Z20 F400
G0 Z23
G1 Z14 F400
G0 Z17
G1 Z8 F400
G0 Z11
G1 Z2 F400
G0 Z36
Z4
G1 Z-3.202 F400
G0 Z36
Z46

(pilot holes_2)
X-1154.938 Y-175.6
Z46
Z36
Z28
G1 Z20 F400
G0 Z23
G1 Z14 F400
G0 Z17
G1 Z8 F400
G0 Z11
G1 Z2 F400
G0 Z36
Z4
G1 Z-3.202 F400
G0 Z36
Z46

(pilot holes_2)
X-1154.938 Y-250.6
Z46
Z36
Z28
G1 Z20 F400
G0 Z23
G1 Z14 F400
G0 Z17
G1 Z8 F400
G0 Z11
G1 Z2 F400
G0 Z36
Z4
G1 Z-3.202 F400
G0 Z36
Z46

(pilot holes_2)
X-1154.938 Y-325.6
Z46
Z36
Z28
G1 Z20 F400
G0 Z23
G1 Z14 F400
G0 Z17
G1 Z8 F400
G0 Z11
G1 Z2 F400
G0 Z36
Z4
G1 Z-3.202 F400
G0 Z36
Z46

(pilot holes_2)
X-1154.938 Y-400.6
Z46
Z36
Z28
G1 Z20 F400
G0 Z23
G1 Z14 F400
G0 Z17
G1 Z8 F400
G0 Z11
G1 Z2 F400
G0 Z36
Z4
G1 Z-3.202 F400
G0 Z36
Z46

(pilot holes_2)
X-1154.938 Y-475.6
Z46
Z36
Z28
G1 Z20 F400
G0 Z23
G1 Z14 F400
G0 Z17
G1 Z8 F400
G0 Z11
G1 Z2 F400
G0 Z36
Z4
G1 Z-3.202 F400
G0 Z36
Z46

(pilot holes_2)
X-1154.938 Y-550.6
Z46
Z36
Z28
G1 Z20 F400
G0 Z23
G1 Z14 F400
G0 Z17
G1 Z8 F400
G0 Z11
G1 Z2 F400
G0 Z36
Z4
G1 Z-3.202 F400
G0 Z36
Z46

(pilot holes_2)
X-1154.938 Y-625.6
Z46
Z36
Z28
G1 Z20 F400
G0 Z23
G1 Z14 F400
G0 Z17
G1 Z8 F400
G0 Z11
G1 Z2 F400
G0 Z36
Z4
G1 Z-3.202 F400
G0 Z36
Z46

(pilot holes_2)
X-1229.938 Y49.4
Z46
Z36
Z28
G1 Z20 F400
G0 Z23
G1 Z14 F400
G0 Z17
G1 Z8 F400
G0 Z11
G1 Z2 F400
G0 Z36
Z4
G1 Z-3.202 F400
G0 Z36
Z46

(pilot holes_2)
X-1229.938 Y-25.6
Z46
Z36
Z28
G1 Z20 F400
G0 Z23
G1 Z14 F400
G0 Z17
G1 Z8 F400
G0 Z11
G1 Z2 F400
G0 Z36
Z4
G1 Z-3.202 F400
G0 Z36
Z46

(pilot holes_2)
X-1229.938 Y-100.6
Z46
Z36
Z28
G1 Z20 F400
G0 Z23
G1 Z14 F400
G0 Z17
G1 Z8 F400
G0 Z11
G1 Z2 F400
G0 Z36
Z4
G1 Z-3.202 F400
G0 Z36
Z46

(pilot holes_2)
X-1229.938 Y-175.6
Z46
Z36
Z28
G1 Z20 F400
G0 Z23
G1 Z14 F400
G0 Z17
G1 Z8 F400
G0 Z11
G1 Z2 F400
G0 Z36
Z4
G1 Z-3.202 F400
G0 Z36
Z46

(pilot holes_2)
X-1229.938 Y-250.6
Z46
Z36
Z28
G1 Z20 F400
G0 Z23
G1 Z14 F400
G0 Z17
G1 Z8 F400
G0 Z11
G1 Z2 F400
G0 Z36
Z4
G1 Z-3.202 F400
G0 Z36
Z46

(pilot holes_2)
X-1229.938 Y-325.6
Z46
Z36
Z28
G1 Z20 F400
G0 Z23
G1 Z14 F400
G0 Z17
G1 Z8 F400
G0 Z11
G1 Z2 F400
G0 Z36
Z4
G1 Z-3.202 F400
G0 Z36
Z46

(pilot holes_2)
X-1229.938 Y-400.6
Z46
Z36
Z28
G1 Z20 F400
G0 Z23
G1 Z14 F400
G0 Z17
G1 Z8 F400
G0 Z11
G1 Z2 F400
G0 Z36
Z4
G1 Z-3.202 F400
G0 Z36
Z46

(pilot holes_2)
X-1229.938 Y-475.6
Z46
Z36
Z28
G1 Z20 F400
G0 Z23
G1 Z14 F400
G0 Z17
G1 Z8 F400
G0 Z11
G1 Z2 F400
G0 Z36
Z4
G1 Z-3.202 F400
G0 Z36
Z46

(pilot holes_2)
X-1229.938 Y-550.6
Z46
Z36
Z28
G1 Z20 F400
G0 Z23
G1 Z14 F400
G0 Z17
G1 Z8 F400
G0 Z11
G1 Z2 F400
G0 Z36
Z4
G1 Z-3.202 F400
G0 Z36
Z46

(pilot holes_2)
X-1229.938 Y-625.6
Z46
Z36
Z28
G1 Z20 F400
G0 Z23
G1 Z14 F400
G0 Z17
G1 Z8 F400
G0 Z11
G1 Z2 F400
G0 Z36
Z4
G1 Z-3.202 F400
G0 Z36
Z46
M30
%
