%
(1001)
(origin bottom left anchor hole stock bottom)
(T1  D=4 CR=0 TAPER=118deg - ZMIN=22.798 - drill)
G90 G94
G17
G21

(pilot holes_2)
M9
T1 M6
(2.5mm tip overhang)
S5500 M3
G54
G0 X1489.824 Y-668.1
Z72
Z62
Z54
G1 Z46 F400
G0 Z49
G1 Z40 F400
G0 Z43
G1 Z34 F400
G0 Z37
G1 Z28 F400
G0 Z62
Z30
G1 Z22.798 F400
G0 Z62
Z72

(pilot holes_2)
X1489.824 Y-743.1
Z72
Z62
Z54
G1 Z46 F400
G0 Z49
G1 Z40 F400
G0 Z43
G1 Z34 F400
G0 Z37
G1 Z28 F400
G0 Z62
Z30
G1 Z22.798 F400
G0 Z62
Z72

(pilot holes_2)
X1489.824 Y-818.1
Z72
Z62
Z54
G1 Z46 F400
G0 Z49
G1 Z40 F400
G0 Z43
G1 Z34 F400
G0 Z37
G1 Z28 F400
G0 Z62
Z30
G1 Z22.798 F400
G0 Z62
Z72

(pilot holes_2)
X1489.824 Y-893.1
Z72
Z62
Z54
G1 Z46 F400
G0 Z49
G1 Z40 F400
G0 Z43
G1 Z34 F400
G0 Z37
G1 Z28 F400
G0 Z62
Z30
G1 Z22.798 F400
G0 Z62
Z72

(pilot holes_2)
X1489.824 Y-968.1
Z72
Z62
Z54
G1 Z46 F400
G0 Z49
G1 Z40 F400
G0 Z43
G1 Z34 F400
G0 Z37
G1 Z28 F400
G0 Z62
Z30
G1 Z22.798 F400
G0 Z62
Z72

(pilot holes_2)
X1489.824 Y-1043.1
Z72
Z62
Z54
G1 Z46 F400
G0 Z49
G1 Z40 F400
G0 Z43
G1 Z34 F400
G0 Z37
G1 Z28 F400
G0 Z62
Z30
G1 Z22.798 F400
G0 Z62
Z72

(pilot holes_2)
X1489.824 Y-1118.1
Z72
Z62
Z54
G1 Z46 F400
G0 Z49
G1 Z40 F400
G0 Z43
G1 Z34 F400
G0 Z37
G1 Z28 F400
G0 Z62
Z30
G1 Z22.798 F400
G0 Z62
Z72

(pilot holes_2)
X1489.824 Y-1193.1
Z72
Z62
Z54
G1 Z46 F400
G0 Z49
G1 Z40 F400
G0 Z43
G1 Z34 F400
G0 Z37
G1 Z28 F400
G0 Z62
Z30
G1 Z22.798 F400
G0 Z62
Z72

(pilot holes_2)
X1489.824 Y-1268.1
Z72
Z62
Z54
G1 Z46 F400
G0 Z49
G1 Z40 F400
G0 Z43
G1 Z34 F400
G0 Z37
G1 Z28 F400
G0 Z62
Z30
G1 Z22.798 F400
G0 Z62
Z72

(pilot holes_2)
X1489.824 Y-1343.1
Z72
Z62
Z54
G1 Z46 F400
G0 Z49
G1 Z40 F400
G0 Z43
G1 Z34 F400
G0 Z37
G1 Z28 F400
G0 Z62
Z30
G1 Z22.798 F400
G0 Z62
Z72

(pilot holes_2)
X1414.824 Y-668.1
Z72
Z62
Z54
G1 Z46 F400
G0 Z49
G1 Z40 F400
G0 Z43
G1 Z34 F400
G0 Z37
G1 Z28 F400
G0 Z62
Z30
G1 Z22.798 F400
G0 Z62
Z72

(pilot holes_2)
X1414.824 Y-743.1
Z72
Z62
Z54
G1 Z46 F400
G0 Z49
G1 Z40 F400
G0 Z43
G1 Z34 F400
G0 Z37
G1 Z28 F400
G0 Z62
Z30
G1 Z22.798 F400
G0 Z62
Z72

(pilot holes_2)
X1414.824 Y-818.1
Z72
Z62
Z54
G1 Z46 F400
G0 Z49
G1 Z40 F400
G0 Z43
G1 Z34 F400
G0 Z37
G1 Z28 F400
G0 Z62
Z30
G1 Z22.798 F400
G0 Z62
Z72

(pilot holes_2)
X1414.824 Y-893.1
Z72
Z62
Z54
G1 Z46 F400
G0 Z49
G1 Z40 F400
G0 Z43
G1 Z34 F400
G0 Z37
G1 Z28 F400
G0 Z62
Z30
G1 Z22.798 F400
G0 Z62
Z72

(pilot holes_2)
X1414.824 Y-968.1
Z72
Z62
Z54
G1 Z46 F400
G0 Z49
G1 Z40 F400
G0 Z43
G1 Z34 F400
G0 Z37
G1 Z28 F400
G0 Z62
Z30
G1 Z22.798 F400
G0 Z62
Z72

(pilot holes_2)
X1414.824 Y-1043.1
Z72
Z62
Z54
G1 Z46 F400
G0 Z49
G1 Z40 F400
G0 Z43
G1 Z34 F400
G0 Z37
G1 Z28 F400
G0 Z62
Z30
G1 Z22.798 F400
G0 Z62
Z72

(pilot holes_2)
X1414.824 Y-1118.1
Z72
Z62
Z54
G1 Z46 F400
G0 Z49
G1 Z40 F400
G0 Z43
G1 Z34 F400
G0 Z37
G1 Z28 F400
G0 Z62
Z30
G1 Z22.798 F400
G0 Z62
Z72

(pilot holes_2)
X1414.824 Y-1193.1
Z72
Z62
Z54
G1 Z46 F400
G0 Z49
G1 Z40 F400
G0 Z43
G1 Z34 F400
G0 Z37
G1 Z28 F400
G0 Z62
Z30
G1 Z22.798 F400
G0 Z62
Z72

(pilot holes_2)
X1414.824 Y-1268.1
Z72
Z62
Z54
G1 Z46 F400
G0 Z49
G1 Z40 F400
G0 Z43
G1 Z34 F400
G0 Z37
G1 Z28 F400
G0 Z62
Z30
G1 Z22.798 F400
G0 Z62
Z72

(pilot holes_2)
X1414.824 Y-1343.1
Z72
Z62
Z54
G1 Z46 F400
G0 Z49
G1 Z40 F400
G0 Z43
G1 Z34 F400
G0 Z37
G1 Z28 F400
G0 Z62
Z30
G1 Z22.798 F400
G0 Z62
Z72

(pilot holes_2)
X1339.824 Y-668.1
Z72
Z62
Z54
G1 Z46 F400
G0 Z49
G1 Z40 F400
G0 Z43
G1 Z34 F400
G0 Z37
G1 Z28 F400
G0 Z62
Z30
G1 Z22.798 F400
G0 Z62
Z72

(pilot holes_2)
X1339.824 Y-743.1
Z72
Z62
Z54
G1 Z46 F400
G0 Z49
G1 Z40 F400
G0 Z43
G1 Z34 F400
G0 Z37
G1 Z28 F400
G0 Z62
Z30
G1 Z22.798 F400
G0 Z62
Z72

(pilot holes_2)
X1339.824 Y-818.1
Z72
Z62
Z54
G1 Z46 F400
G0 Z49
G1 Z40 F400
G0 Z43
G1 Z34 F400
G0 Z37
G1 Z28 F400
G0 Z62
Z30
G1 Z22.798 F400
G0 Z62
Z72

(pilot holes_2)
X1339.824 Y-893.1
Z72
Z62
Z54
G1 Z46 F400
G0 Z49
G1 Z40 F400
G0 Z43
G1 Z34 F400
G0 Z37
G1 Z28 F400
G0 Z62
Z30
G1 Z22.798 F400
G0 Z62
Z72

(pilot holes_2)
X1339.824 Y-968.1
Z72
Z62
Z54
G1 Z46 F400
G0 Z49
G1 Z40 F400
G0 Z43
G1 Z34 F400
G0 Z37
G1 Z28 F400
G0 Z62
Z30
G1 Z22.798 F400
G0 Z62
Z72

(pilot holes_2)
X1339.824 Y-1043.1
Z72
Z62
Z54
G1 Z46 F400
G0 Z49
G1 Z40 F400
G0 Z43
G1 Z34 F400
G0 Z37
G1 Z28 F400
G0 Z62
Z30
G1 Z22.798 F400
G0 Z62
Z72

(pilot holes_2)
X1339.824 Y-1118.1
Z72
Z62
Z54
G1 Z46 F400
G0 Z49
G1 Z40 F400
G0 Z43
G1 Z34 F400
G0 Z37
G1 Z28 F400
G0 Z62
Z30
G1 Z22.798 F400
G0 Z62
Z72

(pilot holes_2)
X1339.824 Y-1193.1
Z72
Z62
Z54
G1 Z46 F400
G0 Z49
G1 Z40 F400
G0 Z43
G1 Z34 F400
G0 Z37
G1 Z28 F400
G0 Z62
Z30
G1 Z22.798 F400
G0 Z62
Z72

(pilot holes_2)
X1339.824 Y-1268.1
Z72
Z62
Z54
G1 Z46 F400
G0 Z49
G1 Z40 F400
G0 Z43
G1 Z34 F400
G0 Z37
G1 Z28 F400
G0 Z62
Z30
G1 Z22.798 F400
G0 Z62
Z72

(pilot holes_2)
X1339.824 Y-1343.1
Z72
Z62
Z54
G1 Z46 F400
G0 Z49
G1 Z40 F400
G0 Z43
G1 Z34 F400
G0 Z37
G1 Z28 F400
G0 Z62
Z30
G1 Z22.798 F400
G0 Z62
Z72

(pilot holes_2)
X1264.824 Y-668.1
Z72
Z62
Z54
G1 Z46 F400
G0 Z49
G1 Z40 F400
G0 Z43
G1 Z34 F400
G0 Z37
G1 Z28 F400
G0 Z62
Z30
G1 Z22.798 F400
G0 Z62
Z72

(pilot holes_2)
X1264.824 Y-743.1
Z72
Z62
Z54
G1 Z46 F400
G0 Z49
G1 Z40 F400
G0 Z43
G1 Z34 F400
G0 Z37
G1 Z28 F400
G0 Z62
Z30
G1 Z22.798 F400
G0 Z62
Z72

(pilot holes_2)
X1264.824 Y-818.1
Z72
Z62
Z54
G1 Z46 F400
G0 Z49
G1 Z40 F400
G0 Z43
G1 Z34 F400
G0 Z37
G1 Z28 F400
G0 Z62
Z30
G1 Z22.798 F400
G0 Z62
Z72

(pilot holes_2)
X1264.824 Y-893.1
Z72
Z62
Z54
G1 Z46 F400
G0 Z49
G1 Z40 F400
G0 Z43
G1 Z34 F400
G0 Z37
G1 Z28 F400
G0 Z62
Z30
G1 Z22.798 F400
G0 Z62
Z72

(pilot holes_2)
X1264.824 Y-968.1
Z72
Z62
Z54
G1 Z46 F400
G0 Z49
G1 Z40 F400
G0 Z43
G1 Z34 F400
G0 Z37
G1 Z28 F400
G0 Z62
Z30
G1 Z22.798 F400
G0 Z62
Z72

(pilot holes_2)
X1264.824 Y-1043.1
Z72
Z62
Z54
G1 Z46 F400
G0 Z49
G1 Z40 F400
G0 Z43
G1 Z34 F400
G0 Z37
G1 Z28 F400
G0 Z62
Z30
G1 Z22.798 F400
G0 Z62
Z72

(pilot holes_2)
X1264.824 Y-1118.1
Z72
Z62
Z54
G1 Z46 F400
G0 Z49
G1 Z40 F400
G0 Z43
G1 Z34 F400
G0 Z37
G1 Z28 F400
G0 Z62
Z30
G1 Z22.798 F400
G0 Z62
Z72

(pilot holes_2)
X1264.824 Y-1193.1
Z72
Z62
Z54
G1 Z46 F400
G0 Z49
G1 Z40 F400
G0 Z43
G1 Z34 F400
G0 Z37
G1 Z28 F400
G0 Z62
Z30
G1 Z22.798 F400
G0 Z62
Z72

(pilot holes_2)
X1264.824 Y-1268.1
Z72
Z62
Z54
G1 Z46 F400
G0 Z49
G1 Z40 F400
G0 Z43
G1 Z34 F400
G0 Z37
G1 Z28 F400
G0 Z62
Z30
G1 Z22.798 F400
G0 Z62
Z72

(pilot holes_2)
X1264.824 Y-1343.1
Z72
Z62
Z54
G1 Z46 F400
G0 Z49
G1 Z40 F400
G0 Z43
G1 Z34 F400
G0 Z37
G1 Z28 F400
G0 Z62
Z30
G1 Z22.798 F400
G0 Z62
Z72

(pilot holes_2)
X1189.824 Y-668.1
Z72
Z62
Z54
G1 Z46 F400
G0 Z49
G1 Z40 F400
G0 Z43
G1 Z34 F400
G0 Z37
G1 Z28 F400
G0 Z62
Z30
G1 Z22.798 F400
G0 Z62
Z72

(pilot holes_2)
X1189.824 Y-743.1
Z72
Z62
Z54
G1 Z46 F400
G0 Z49
G1 Z40 F400
G0 Z43
G1 Z34 F400
G0 Z37
G1 Z28 F400
G0 Z62
Z30
G1 Z22.798 F400
G0 Z62
Z72

(pilot holes_2)
X1189.824 Y-818.1
Z72
Z62
Z54
G1 Z46 F400
G0 Z49
G1 Z40 F400
G0 Z43
G1 Z34 F400
G0 Z37
G1 Z28 F400
G0 Z62
Z30
G1 Z22.798 F400
G0 Z62
Z72

(pilot holes_2)
X1189.824 Y-893.1
Z72
Z62
Z54
G1 Z46 F400
G0 Z49
G1 Z40 F400
G0 Z43
G1 Z34 F400
G0 Z37
G1 Z28 F400
G0 Z62
Z30
G1 Z22.798 F400
G0 Z62
Z72

(pilot holes_2)
X1189.824 Y-968.1
Z72
Z62
Z54
G1 Z46 F400
G0 Z49
G1 Z40 F400
G0 Z43
G1 Z34 F400
G0 Z37
G1 Z28 F400
G0 Z62
Z30
G1 Z22.798 F400
G0 Z62
Z72

(pilot holes_2)
X1189.824 Y-1043.1
Z72
Z62
Z54
G1 Z46 F400
G0 Z49
G1 Z40 F400
G0 Z43
G1 Z34 F400
G0 Z37
G1 Z28 F400
G0 Z62
Z30
G1 Z22.798 F400
G0 Z62
Z72

(pilot holes_2)
X1189.824 Y-1118.1
Z72
Z62
Z54
G1 Z46 F400
G0 Z49
G1 Z40 F400
G0 Z43
G1 Z34 F400
G0 Z37
G1 Z28 F400
G0 Z62
Z30
G1 Z22.798 F400
G0 Z62
Z72

(pilot holes_2)
X1189.824 Y-1193.1
Z72
Z62
Z54
G1 Z46 F400
G0 Z49
G1 Z40 F400
G0 Z43
G1 Z34 F400
G0 Z37
G1 Z28 F400
G0 Z62
Z30
G1 Z22.798 F400
G0 Z62
Z72

(pilot holes_2)
X1189.824 Y-1268.1
Z72
Z62
Z54
G1 Z46 F400
G0 Z49
G1 Z40 F400
G0 Z43
G1 Z34 F400
G0 Z37
G1 Z28 F400
G0 Z62
Z30
G1 Z22.798 F400
G0 Z62
Z72

(pilot holes_2)
X1189.824 Y-1343.1
Z72
Z62
Z54
G1 Z46 F400
G0 Z49
G1 Z40 F400
G0 Z43
G1 Z34 F400
G0 Z37
G1 Z28 F400
G0 Z62
Z30
G1 Z22.798 F400
G0 Z62
Z72

(pilot holes_2)
X1114.824 Y-668.1
Z72
Z62
Z54
G1 Z46 F400
G0 Z49
G1 Z40 F400
G0 Z43
G1 Z34 F400
G0 Z37
G1 Z28 F400
G0 Z62
Z30
G1 Z22.798 F400
G0 Z62
Z72

(pilot holes_2)
X1114.824 Y-743.1
Z72
Z62
Z54
G1 Z46 F400
G0 Z49
G1 Z40 F400
G0 Z43
G1 Z34 F400
G0 Z37
G1 Z28 F400
G0 Z62
Z30
G1 Z22.798 F400
G0 Z62
Z72

(pilot holes_2)
X1114.824 Y-818.1
Z72
Z62
Z54
G1 Z46 F400
G0 Z49
G1 Z40 F400
G0 Z43
G1 Z34 F400
G0 Z37
G1 Z28 F400
G0 Z62
Z30
G1 Z22.798 F400
G0 Z62
Z72

(pilot holes_2)
X1114.824 Y-893.1
Z72
Z62
Z54
G1 Z46 F400
G0 Z49
G1 Z40 F400
G0 Z43
G1 Z34 F400
G0 Z37
G1 Z28 F400
G0 Z62
Z30
G1 Z22.798 F400
G0 Z62
Z72

(pilot holes_2)
X1114.824 Y-968.1
Z72
Z62
Z54
G1 Z46 F400
G0 Z49
G1 Z40 F400
G0 Z43
G1 Z34 F400
G0 Z37
G1 Z28 F400
G0 Z62
Z30
G1 Z22.798 F400
G0 Z62
Z72

(pilot holes_2)
X1114.824 Y-1043.1
Z72
Z62
Z54
G1 Z46 F400
G0 Z49
G1 Z40 F400
G0 Z43
G1 Z34 F400
G0 Z37
G1 Z28 F400
G0 Z62
Z30
G1 Z22.798 F400
G0 Z62
Z72

(pilot holes_2)
X1114.824 Y-1118.1
Z72
Z62
Z54
G1 Z46 F400
G0 Z49
G1 Z40 F400
G0 Z43
G1 Z34 F400
G0 Z37
G1 Z28 F400
G0 Z62
Z30
G1 Z22.798 F400
G0 Z62
Z72

(pilot holes_2)
X1114.824 Y-1193.1
Z72
Z62
Z54
G1 Z46 F400
G0 Z49
G1 Z40 F400
G0 Z43
G1 Z34 F400
G0 Z37
G1 Z28 F400
G0 Z62
Z30
G1 Z22.798 F400
G0 Z62
Z72

(pilot holes_2)
X1114.824 Y-1268.1
Z72
Z62
Z54
G1 Z46 F400
G0 Z49
G1 Z40 F400
G0 Z43
G1 Z34 F400
G0 Z37
G1 Z28 F400
G0 Z62
Z30
G1 Z22.798 F400
G0 Z62
Z72

(pilot holes_2)
X1114.824 Y-1343.1
Z72
Z62
Z54
G1 Z46 F400
G0 Z49
G1 Z40 F400
G0 Z43
G1 Z34 F400
G0 Z37
G1 Z28 F400
G0 Z62
Z30
G1 Z22.798 F400
G0 Z62
Z72

(pilot holes_2)
X1039.824 Y-668.1
Z72
Z62
Z54
G1 Z46 F400
G0 Z49
G1 Z40 F400
G0 Z43
G1 Z34 F400
G0 Z37
G1 Z28 F400
G0 Z62
Z30
G1 Z22.798 F400
G0 Z62
Z72

(pilot holes_2)
X1039.824 Y-743.1
Z72
Z62
Z54
G1 Z46 F400
G0 Z49
G1 Z40 F400
G0 Z43
G1 Z34 F400
G0 Z37
G1 Z28 F400
G0 Z62
Z30
G1 Z22.798 F400
G0 Z62
Z72

(pilot holes_2)
X1039.824 Y-818.1
Z72
Z62
Z54
G1 Z46 F400
G0 Z49
G1 Z40 F400
G0 Z43
G1 Z34 F400
G0 Z37
G1 Z28 F400
G0 Z62
Z30
G1 Z22.798 F400
G0 Z62
Z72

(pilot holes_2)
X1039.824 Y-893.1
Z72
Z62
Z54
G1 Z46 F400
G0 Z49
G1 Z40 F400
G0 Z43
G1 Z34 F400
G0 Z37
G1 Z28 F400
G0 Z62
Z30
G1 Z22.798 F400
G0 Z62
Z72

(pilot holes_2)
X1039.824 Y-968.1
Z72
Z62
Z54
G1 Z46 F400
G0 Z49
G1 Z40 F400
G0 Z43
G1 Z34 F400
G0 Z37
G1 Z28 F400
G0 Z62
Z30
G1 Z22.798 F400
G0 Z62
Z72

(pilot holes_2)
X1039.824 Y-1043.1
Z72
Z62
Z54
G1 Z46 F400
G0 Z49
G1 Z40 F400
G0 Z43
G1 Z34 F400
G0 Z37
G1 Z28 F400
G0 Z62
Z30
G1 Z22.798 F400
G0 Z62
Z72

(pilot holes_2)
X1039.824 Y-1118.1
Z72
Z62
Z54
G1 Z46 F400
G0 Z49
G1 Z40 F400
G0 Z43
G1 Z34 F400
G0 Z37
G1 Z28 F400
G0 Z62
Z30
G1 Z22.798 F400
G0 Z62
Z72

(pilot holes_2)
X1039.824 Y-1193.1
Z72
Z62
Z54
G1 Z46 F400
G0 Z49
G1 Z40 F400
G0 Z43
G1 Z34 F400
G0 Z37
G1 Z28 F400
G0 Z62
Z30
G1 Z22.798 F400
G0 Z62
Z72

(pilot holes_2)
X1039.824 Y-1268.1
Z72
Z62
Z54
G1 Z46 F400
G0 Z49
G1 Z40 F400
G0 Z43
G1 Z34 F400
G0 Z37
G1 Z28 F400
G0 Z62
Z30
G1 Z22.798 F400
G0 Z62
Z72

(pilot holes_2)
X1039.824 Y-1343.1
Z72
Z62
Z54
G1 Z46 F400
G0 Z49
G1 Z40 F400
G0 Z43
G1 Z34 F400
G0 Z37
G1 Z28 F400
G0 Z62
Z30
G1 Z22.798 F400
G0 Z62
Z72

(pilot holes_2)
X964.824 Y-668.1
Z72
Z62
Z54
G1 Z46 F400
G0 Z49
G1 Z40 F400
G0 Z43
G1 Z34 F400
G0 Z37
G1 Z28 F400
G0 Z62
Z30
G1 Z22.798 F400
G0 Z62
Z72

(pilot holes_2)
X964.824 Y-743.1
Z72
Z62
Z54
G1 Z46 F400
G0 Z49
G1 Z40 F400
G0 Z43
G1 Z34 F400
G0 Z37
G1 Z28 F400
G0 Z62
Z30
G1 Z22.798 F400
G0 Z62
Z72

(pilot holes_2)
X964.824 Y-818.1
Z72
Z62
Z54
G1 Z46 F400
G0 Z49
G1 Z40 F400
G0 Z43
G1 Z34 F400
G0 Z37
G1 Z28 F400
G0 Z62
Z30
G1 Z22.798 F400
G0 Z62
Z72

(pilot holes_2)
X964.824 Y-893.1
Z72
Z62
Z54
G1 Z46 F400
G0 Z49
G1 Z40 F400
G0 Z43
G1 Z34 F400
G0 Z37
G1 Z28 F400
G0 Z62
Z30
G1 Z22.798 F400
G0 Z62
Z72

(pilot holes_2)
X964.824 Y-968.1
Z72
Z62
Z54
G1 Z46 F400
G0 Z49
G1 Z40 F400
G0 Z43
G1 Z34 F400
G0 Z37
G1 Z28 F400
G0 Z62
Z30
G1 Z22.798 F400
G0 Z62
Z72

(pilot holes_2)
X964.824 Y-1043.1
Z72
Z62
Z54
G1 Z46 F400
G0 Z49
G1 Z40 F400
G0 Z43
G1 Z34 F400
G0 Z37
G1 Z28 F400
G0 Z62
Z30
G1 Z22.798 F400
G0 Z62
Z72

(pilot holes_2)
X964.824 Y-1118.1
Z72
Z62
Z54
G1 Z46 F400
G0 Z49
G1 Z40 F400
G0 Z43
G1 Z34 F400
G0 Z37
G1 Z28 F400
G0 Z62
Z30
G1 Z22.798 F400
G0 Z62
Z72

(pilot holes_2)
X964.824 Y-1193.1
Z72
Z62
Z54
G1 Z46 F400
G0 Z49
G1 Z40 F400
G0 Z43
G1 Z34 F400
G0 Z37
G1 Z28 F400
G0 Z62
Z30
G1 Z22.798 F400
G0 Z62
Z72

(pilot holes_2)
X964.824 Y-1268.1
Z72
Z62
Z54
G1 Z46 F400
G0 Z49
G1 Z40 F400
G0 Z43
G1 Z34 F400
G0 Z37
G1 Z28 F400
G0 Z62
Z30
G1 Z22.798 F400
G0 Z62
Z72

(pilot holes_2)
X964.824 Y-1343.1
Z72
Z62
Z54
G1 Z46 F400
G0 Z49
G1 Z40 F400
G0 Z43
G1 Z34 F400
G0 Z37
G1 Z28 F400
G0 Z62
Z30
G1 Z22.798 F400
G0 Z62
Z72

(pilot holes_2)
X889.824 Y-668.1
Z72
Z62
Z54
G1 Z46 F400
G0 Z49
G1 Z40 F400
G0 Z43
G1 Z34 F400
G0 Z37
G1 Z28 F400
G0 Z62
Z30
G1 Z22.798 F400
G0 Z62
Z72

(pilot holes_2)
X889.824 Y-743.1
Z72
Z62
Z54
G1 Z46 F400
G0 Z49
G1 Z40 F400
G0 Z43
G1 Z34 F400
G0 Z37
G1 Z28 F400
G0 Z62
Z30
G1 Z22.798 F400
G0 Z62
Z72

(pilot holes_2)
X889.824 Y-818.1
Z72
Z62
Z54
G1 Z46 F400
G0 Z49
G1 Z40 F400
G0 Z43
G1 Z34 F400
G0 Z37
G1 Z28 F400
G0 Z62
Z30
G1 Z22.798 F400
G0 Z62
Z72

(pilot holes_2)
X889.824 Y-893.1
Z72
Z62
Z54
G1 Z46 F400
G0 Z49
G1 Z40 F400
G0 Z43
G1 Z34 F400
G0 Z37
G1 Z28 F400
G0 Z62
Z30
G1 Z22.798 F400
G0 Z62
Z72

(pilot holes_2)
X889.824 Y-968.1
Z72
Z62
Z54
G1 Z46 F400
G0 Z49
G1 Z40 F400
G0 Z43
G1 Z34 F400
G0 Z37
G1 Z28 F400
G0 Z62
Z30
G1 Z22.798 F400
G0 Z62
Z72

(pilot holes_2)
X889.824 Y-1043.1
Z72
Z62
Z54
G1 Z46 F400
G0 Z49
G1 Z40 F400
G0 Z43
G1 Z34 F400
G0 Z37
G1 Z28 F400
G0 Z62
Z30
G1 Z22.798 F400
G0 Z62
Z72

(pilot holes_2)
X889.824 Y-1118.1
Z72
Z62
Z54
G1 Z46 F400
G0 Z49
G1 Z40 F400
G0 Z43
G1 Z34 F400
G0 Z37
G1 Z28 F400
G0 Z62
Z30
G1 Z22.798 F400
G0 Z62
Z72

(pilot holes_2)
X889.824 Y-1193.1
Z72
Z62
Z54
G1 Z46 F400
G0 Z49
G1 Z40 F400
G0 Z43
G1 Z34 F400
G0 Z37
G1 Z28 F400
G0 Z62
Z30
G1 Z22.798 F400
G0 Z62
Z72

(pilot holes_2)
X889.824 Y-1268.1
Z72
Z62
Z54
G1 Z46 F400
G0 Z49
G1 Z40 F400
G0 Z43
G1 Z34 F400
G0 Z37
G1 Z28 F400
G0 Z62
Z30
G1 Z22.798 F400
G0 Z62
Z72

(pilot holes_2)
X889.824 Y-1343.1
Z72
Z62
Z54
G1 Z46 F400
G0 Z49
G1 Z40 F400
G0 Z43
G1 Z34 F400
G0 Z37
G1 Z28 F400
G0 Z62
Z30
G1 Z22.798 F400
G0 Z62
Z72

(pilot holes_2)
X814.824 Y-668.1
Z72
Z62
Z54
G1 Z46 F400
G0 Z49
G1 Z40 F400
G0 Z43
G1 Z34 F400
G0 Z37
G1 Z28 F400
G0 Z62
Z30
G1 Z22.798 F400
G0 Z62
Z72

(pilot holes_2)
X814.824 Y-743.1
Z72
Z62
Z54
G1 Z46 F400
G0 Z49
G1 Z40 F400
G0 Z43
G1 Z34 F400
G0 Z37
G1 Z28 F400
G0 Z62
Z30
G1 Z22.798 F400
G0 Z62
Z72

(pilot holes_2)
X814.824 Y-818.1
Z72
Z62
Z54
G1 Z46 F400
G0 Z49
G1 Z40 F400
G0 Z43
G1 Z34 F400
G0 Z37
G1 Z28 F400
G0 Z62
Z30
G1 Z22.798 F400
G0 Z62
Z72

(pilot holes_2)
X814.824 Y-893.1
Z72
Z62
Z54
G1 Z46 F400
G0 Z49
G1 Z40 F400
G0 Z43
G1 Z34 F400
G0 Z37
G1 Z28 F400
G0 Z62
Z30
G1 Z22.798 F400
G0 Z62
Z72

(pilot holes_2)
X814.824 Y-968.1
Z72
Z62
Z54
G1 Z46 F400
G0 Z49
G1 Z40 F400
G0 Z43
G1 Z34 F400
G0 Z37
G1 Z28 F400
G0 Z62
Z30
G1 Z22.798 F400
G0 Z62
Z72

(pilot holes_2)
X814.824 Y-1043.1
Z72
Z62
Z54
G1 Z46 F400
G0 Z49
G1 Z40 F400
G0 Z43
G1 Z34 F400
G0 Z37
G1 Z28 F400
G0 Z62
Z30
G1 Z22.798 F400
G0 Z62
Z72

(pilot holes_2)
X814.824 Y-1118.1
Z72
Z62
Z54
G1 Z46 F400
G0 Z49
G1 Z40 F400
G0 Z43
G1 Z34 F400
G0 Z37
G1 Z28 F400
G0 Z62
Z30
G1 Z22.798 F400
G0 Z62
Z72

(pilot holes_2)
X814.824 Y-1193.1
Z72
Z62
Z54
G1 Z46 F400
G0 Z49
G1 Z40 F400
G0 Z43
G1 Z34 F400
G0 Z37
G1 Z28 F400
G0 Z62
Z30
G1 Z22.798 F400
G0 Z62
Z72

(pilot holes_2)
X814.824 Y-1268.1
Z72
Z62
Z54
G1 Z46 F400
G0 Z49
G1 Z40 F400
G0 Z43
G1 Z34 F400
G0 Z37
G1 Z28 F400
G0 Z62
Z30
G1 Z22.798 F400
G0 Z62
Z72

(pilot holes_2)
X814.824 Y-1343.1
Z72
Z62
Z54
G1 Z46 F400
G0 Z49
G1 Z40 F400
G0 Z43
G1 Z34 F400
G0 Z37
G1 Z28 F400
G0 Z62
Z30
G1 Z22.798 F400
G0 Z62
Z72

(pilot holes_2)
X739.824 Y-668.1
Z72
Z62
Z54
G1 Z46 F400
G0 Z49
G1 Z40 F400
G0 Z43
G1 Z34 F400
G0 Z37
G1 Z28 F400
G0 Z62
Z30
G1 Z22.798 F400
G0 Z62
Z72

(pilot holes_2)
X739.824 Y-743.1
Z72
Z62
Z54
G1 Z46 F400
G0 Z49
G1 Z40 F400
G0 Z43
G1 Z34 F400
G0 Z37
G1 Z28 F400
G0 Z62
Z30
G1 Z22.798 F400
G0 Z62
Z72

(pilot holes_2)
X739.824 Y-818.1
Z72
Z62
Z54
G1 Z46 F400
G0 Z49
G1 Z40 F400
G0 Z43
G1 Z34 F400
G0 Z37
G1 Z28 F400
G0 Z62
Z30
G1 Z22.798 F400
G0 Z62
Z72

(pilot holes_2)
X739.824 Y-893.1
Z72
Z62
Z54
G1 Z46 F400
G0 Z49
G1 Z40 F400
G0 Z43
G1 Z34 F400
G0 Z37
G1 Z28 F400
G0 Z62
Z30
G1 Z22.798 F400
G0 Z62
Z72

(pilot holes_2)
X739.824 Y-968.1
Z72
Z62
Z54
G1 Z46 F400
G0 Z49
G1 Z40 F400
G0 Z43
G1 Z34 F400
G0 Z37
G1 Z28 F400
G0 Z62
Z30
G1 Z22.798 F400
G0 Z62
Z72

(pilot holes_2)
X739.824 Y-1043.1
Z72
Z62
Z54
G1 Z46 F400
G0 Z49
G1 Z40 F400
G0 Z43
G1 Z34 F400
G0 Z37
G1 Z28 F400
G0 Z62
Z30
G1 Z22.798 F400
G0 Z62
Z72

(pilot holes_2)
X739.824 Y-1118.1
Z72
Z62
Z54
G1 Z46 F400
G0 Z49
G1 Z40 F400
G0 Z43
G1 Z34 F400
G0 Z37
G1 Z28 F400
G0 Z62
Z30
G1 Z22.798 F400
G0 Z62
Z72

(pilot holes_2)
X739.824 Y-1193.1
Z72
Z62
Z54
G1 Z46 F400
G0 Z49
G1 Z40 F400
G0 Z43
G1 Z34 F400
G0 Z37
G1 Z28 F400
G0 Z62
Z30
G1 Z22.798 F400
G0 Z62
Z72

(pilot holes_2)
X739.824 Y-1268.1
Z72
Z62
Z54
G1 Z46 F400
G0 Z49
G1 Z40 F400
G0 Z43
G1 Z34 F400
G0 Z37
G1 Z28 F400
G0 Z62
Z30
G1 Z22.798 F400
G0 Z62
Z72

(pilot holes_2)
X739.824 Y-1343.1
Z72
Z62
Z54
G1 Z46 F400
G0 Z49
G1 Z40 F400
G0 Z43
G1 Z34 F400
G0 Z37
G1 Z28 F400
G0 Z62
Z30
G1 Z22.798 F400
G0 Z62
Z72

(pilot holes_2)
X664.824 Y-668.1
Z72
Z62
Z54
G1 Z46 F400
G0 Z49
G1 Z40 F400
G0 Z43
G1 Z34 F400
G0 Z37
G1 Z28 F400
G0 Z62
Z30
G1 Z22.798 F400
G0 Z62
Z72

(pilot holes_2)
X664.824 Y-743.1
Z72
Z62
Z54
G1 Z46 F400
G0 Z49
G1 Z40 F400
G0 Z43
G1 Z34 F400
G0 Z37
G1 Z28 F400
G0 Z62
Z30
G1 Z22.798 F400
G0 Z62
Z72

(pilot holes_2)
X664.824 Y-818.1
Z72
Z62
Z54
G1 Z46 F400
G0 Z49
G1 Z40 F400
G0 Z43
G1 Z34 F400
G0 Z37
G1 Z28 F400
G0 Z62
Z30
G1 Z22.798 F400
G0 Z62
Z72

(pilot holes_2)
X664.824 Y-893.1
Z72
Z62
Z54
G1 Z46 F400
G0 Z49
G1 Z40 F400
G0 Z43
G1 Z34 F400
G0 Z37
G1 Z28 F400
G0 Z62
Z30
G1 Z22.798 F400
G0 Z62
Z72

(pilot holes_2)
X664.824 Y-968.1
Z72
Z62
Z54
G1 Z46 F400
G0 Z49
G1 Z40 F400
G0 Z43
G1 Z34 F400
G0 Z37
G1 Z28 F400
G0 Z62
Z30
G1 Z22.798 F400
G0 Z62
Z72

(pilot holes_2)
X664.824 Y-1043.1
Z72
Z62
Z54
G1 Z46 F400
G0 Z49
G1 Z40 F400
G0 Z43
G1 Z34 F400
G0 Z37
G1 Z28 F400
G0 Z62
Z30
G1 Z22.798 F400
G0 Z62
Z72

(pilot holes_2)
X664.824 Y-1118.1
Z72
Z62
Z54
G1 Z46 F400
G0 Z49
G1 Z40 F400
G0 Z43
G1 Z34 F400
G0 Z37
G1 Z28 F400
G0 Z62
Z30
G1 Z22.798 F400
G0 Z62
Z72

(pilot holes_2)
X664.824 Y-1193.1
Z72
Z62
Z54
G1 Z46 F400
G0 Z49
G1 Z40 F400
G0 Z43
G1 Z34 F400
G0 Z37
G1 Z28 F400
G0 Z62
Z30
G1 Z22.798 F400
G0 Z62
Z72

(pilot holes_2)
X664.824 Y-1268.1
Z72
Z62
Z54
G1 Z46 F400
G0 Z49
G1 Z40 F400
G0 Z43
G1 Z34 F400
G0 Z37
G1 Z28 F400
G0 Z62
Z30
G1 Z22.798 F400
G0 Z62
Z72

(pilot holes_2)
X664.824 Y-1343.1
Z72
Z62
Z54
G1 Z46 F400
G0 Z49
G1 Z40 F400
G0 Z43
G1 Z34 F400
G0 Z37
G1 Z28 F400
G0 Z62
Z30
G1 Z22.798 F400
G0 Z62
Z72

(pilot holes_2)
X589.824 Y-668.1
Z72
Z62
Z54
G1 Z46 F400
G0 Z49
G1 Z40 F400
G0 Z43
G1 Z34 F400
G0 Z37
G1 Z28 F400
G0 Z62
Z30
G1 Z22.798 F400
G0 Z62
Z72

(pilot holes_2)
X589.824 Y-743.1
Z72
Z62
Z54
G1 Z46 F400
G0 Z49
G1 Z40 F400
G0 Z43
G1 Z34 F400
G0 Z37
G1 Z28 F400
G0 Z62
Z30
G1 Z22.798 F400
G0 Z62
Z72

(pilot holes_2)
X589.824 Y-818.1
Z72
Z62
Z54
G1 Z46 F400
G0 Z49
G1 Z40 F400
G0 Z43
G1 Z34 F400
G0 Z37
G1 Z28 F400
G0 Z62
Z30
G1 Z22.798 F400
G0 Z62
Z72

(pilot holes_2)
X589.824 Y-893.1
Z72
Z62
Z54
G1 Z46 F400
G0 Z49
G1 Z40 F400
G0 Z43
G1 Z34 F400
G0 Z37
G1 Z28 F400
G0 Z62
Z30
G1 Z22.798 F400
G0 Z62
Z72

(pilot holes_2)
X589.824 Y-968.1
Z72
Z62
Z54
G1 Z46 F400
G0 Z49
G1 Z40 F400
G0 Z43
G1 Z34 F400
G0 Z37
G1 Z28 F400
G0 Z62
Z30
G1 Z22.798 F400
G0 Z62
Z72

(pilot holes_2)
X589.824 Y-1043.1
Z72
Z62
Z54
G1 Z46 F400
G0 Z49
G1 Z40 F400
G0 Z43
G1 Z34 F400
G0 Z37
G1 Z28 F400
G0 Z62
Z30
G1 Z22.798 F400
G0 Z62
Z72

(pilot holes_2)
X589.824 Y-1118.1
Z72
Z62
Z54
G1 Z46 F400
G0 Z49
G1 Z40 F400
G0 Z43
G1 Z34 F400
G0 Z37
G1 Z28 F400
G0 Z62
Z30
G1 Z22.798 F400
G0 Z62
Z72

(pilot holes_2)
X589.824 Y-1193.1
Z72
Z62
Z54
G1 Z46 F400
G0 Z49
G1 Z40 F400
G0 Z43
G1 Z34 F400
G0 Z37
G1 Z28 F400
G0 Z62
Z30
G1 Z22.798 F400
G0 Z62
Z72

(pilot holes_2)
X589.824 Y-1268.1
Z72
Z62
Z54
G1 Z46 F400
G0 Z49
G1 Z40 F400
G0 Z43
G1 Z34 F400
G0 Z37
G1 Z28 F400
G0 Z62
Z30
G1 Z22.798 F400
G0 Z62
Z72

(pilot holes_2)
X589.824 Y-1343.1
Z72
Z62
Z54
G1 Z46 F400
G0 Z49
G1 Z40 F400
G0 Z43
G1 Z34 F400
G0 Z37
G1 Z28 F400
G0 Z62
Z30
G1 Z22.798 F400
G0 Z62
Z72

(pilot holes_2)
X514.824 Y-668.1
Z72
Z62
Z54
G1 Z46 F400
G0 Z49
G1 Z40 F400
G0 Z43
G1 Z34 F400
G0 Z37
G1 Z28 F400
G0 Z62
Z30
G1 Z22.798 F400
G0 Z62
Z72

(pilot holes_2)
X514.824 Y-743.1
Z72
Z62
Z54
G1 Z46 F400
G0 Z49
G1 Z40 F400
G0 Z43
G1 Z34 F400
G0 Z37
G1 Z28 F400
G0 Z62
Z30
G1 Z22.798 F400
G0 Z62
Z72

(pilot holes_2)
X514.824 Y-818.1
Z72
Z62
Z54
G1 Z46 F400
G0 Z49
G1 Z40 F400
G0 Z43
G1 Z34 F400
G0 Z37
G1 Z28 F400
G0 Z62
Z30
G1 Z22.798 F400
G0 Z62
Z72

(pilot holes_2)
X514.824 Y-893.1
Z72
Z62
Z54
G1 Z46 F400
G0 Z49
G1 Z40 F400
G0 Z43
G1 Z34 F400
G0 Z37
G1 Z28 F400
G0 Z62
Z30
G1 Z22.798 F400
G0 Z62
Z72

(pilot holes_2)
X514.824 Y-968.1
Z72
Z62
Z54
G1 Z46 F400
G0 Z49
G1 Z40 F400
G0 Z43
G1 Z34 F400
G0 Z37
G1 Z28 F400
G0 Z62
Z30
G1 Z22.798 F400
G0 Z62
Z72

(pilot holes_2)
X514.824 Y-1043.1
Z72
Z62
Z54
G1 Z46 F400
G0 Z49
G1 Z40 F400
G0 Z43
G1 Z34 F400
G0 Z37
G1 Z28 F400
G0 Z62
Z30
G1 Z22.798 F400
G0 Z62
Z72

(pilot holes_2)
X514.824 Y-1118.1
Z72
Z62
Z54
G1 Z46 F400
G0 Z49
G1 Z40 F400
G0 Z43
G1 Z34 F400
G0 Z37
G1 Z28 F400
G0 Z62
Z30
G1 Z22.798 F400
G0 Z62
Z72

(pilot holes_2)
X514.824 Y-1193.1
Z72
Z62
Z54
G1 Z46 F400
G0 Z49
G1 Z40 F400
G0 Z43
G1 Z34 F400
G0 Z37
G1 Z28 F400
G0 Z62
Z30
G1 Z22.798 F400
G0 Z62
Z72

(pilot holes_2)
X514.824 Y-1268.1
Z72
Z62
Z54
G1 Z46 F400
G0 Z49
G1 Z40 F400
G0 Z43
G1 Z34 F400
G0 Z37
G1 Z28 F400
G0 Z62
Z30
G1 Z22.798 F400
G0 Z62
Z72

(pilot holes_2)
X514.824 Y-1343.1
Z72
Z62
Z54
G1 Z46 F400
G0 Z49
G1 Z40 F400
G0 Z43
G1 Z34 F400
G0 Z37
G1 Z28 F400
G0 Z62
Z30
G1 Z22.798 F400
G0 Z62
Z72

(pilot holes_2)
X439.824 Y-668.1
Z72
Z62
Z54
G1 Z46 F400
G0 Z49
G1 Z40 F400
G0 Z43
G1 Z34 F400
G0 Z37
G1 Z28 F400
G0 Z62
Z30
G1 Z22.798 F400
G0 Z62
Z72

(pilot holes_2)
X439.824 Y-743.1
Z72
Z62
Z54
G1 Z46 F400
G0 Z49
G1 Z40 F400
G0 Z43
G1 Z34 F400
G0 Z37
G1 Z28 F400
G0 Z62
Z30
G1 Z22.798 F400
G0 Z62
Z72

(pilot holes_2)
X439.824 Y-818.1
Z72
Z62
Z54
G1 Z46 F400
G0 Z49
G1 Z40 F400
G0 Z43
G1 Z34 F400
G0 Z37
G1 Z28 F400
G0 Z62
Z30
G1 Z22.798 F400
G0 Z62
Z72

(pilot holes_2)
X439.824 Y-893.1
Z72
Z62
Z54
G1 Z46 F400
G0 Z49
G1 Z40 F400
G0 Z43
G1 Z34 F400
G0 Z37
G1 Z28 F400
G0 Z62
Z30
G1 Z22.798 F400
G0 Z62
Z72

(pilot holes_2)
X439.824 Y-968.1
Z72
Z62
Z54
G1 Z46 F400
G0 Z49
G1 Z40 F400
G0 Z43
G1 Z34 F400
G0 Z37
G1 Z28 F400
G0 Z62
Z30
G1 Z22.798 F400
G0 Z62
Z72

(pilot holes_2)
X439.824 Y-1043.1
Z72
Z62
Z54
G1 Z46 F400
G0 Z49
G1 Z40 F400
G0 Z43
G1 Z34 F400
G0 Z37
G1 Z28 F400
G0 Z62
Z30
G1 Z22.798 F400
G0 Z62
Z72

(pilot holes_2)
X439.824 Y-1118.1
Z72
Z62
Z54
G1 Z46 F400
G0 Z49
G1 Z40 F400
G0 Z43
G1 Z34 F400
G0 Z37
G1 Z28 F400
G0 Z62
Z30
G1 Z22.798 F400
G0 Z62
Z72

(pilot holes_2)
X439.824 Y-1193.1
Z72
Z62
Z54
G1 Z46 F400
G0 Z49
G1 Z40 F400
G0 Z43
G1 Z34 F400
G0 Z37
G1 Z28 F400
G0 Z62
Z30
G1 Z22.798 F400
G0 Z62
Z72

(pilot holes_2)
X439.824 Y-1268.1
Z72
Z62
Z54
G1 Z46 F400
G0 Z49
G1 Z40 F400
G0 Z43
G1 Z34 F400
G0 Z37
G1 Z28 F400
G0 Z62
Z30
G1 Z22.798 F400
G0 Z62
Z72

(pilot holes_2)
X439.824 Y-1343.1
Z72
Z62
Z54
G1 Z46 F400
G0 Z49
G1 Z40 F400
G0 Z43
G1 Z34 F400
G0 Z37
G1 Z28 F400
G0 Z62
Z30
G1 Z22.798 F400
G0 Z62
Z72

(pilot holes_2)
X364.824 Y-668.1
Z72
Z62
Z54
G1 Z46 F400
G0 Z49
G1 Z40 F400
G0 Z43
G1 Z34 F400
G0 Z37
G1 Z28 F400
G0 Z62
Z30
G1 Z22.798 F400
G0 Z62
Z72

(pilot holes_2)
X364.824 Y-743.1
Z72
Z62
Z54
G1 Z46 F400
G0 Z49
G1 Z40 F400
G0 Z43
G1 Z34 F400
G0 Z37
G1 Z28 F400
G0 Z62
Z30
G1 Z22.798 F400
G0 Z62
Z72

(pilot holes_2)
X364.824 Y-818.1
Z72
Z62
Z54
G1 Z46 F400
G0 Z49
G1 Z40 F400
G0 Z43
G1 Z34 F400
G0 Z37
G1 Z28 F400
G0 Z62
Z30
G1 Z22.798 F400
G0 Z62
Z72

(pilot holes_2)
X364.824 Y-893.1
Z72
Z62
Z54
G1 Z46 F400
G0 Z49
G1 Z40 F400
G0 Z43
G1 Z34 F400
G0 Z37
G1 Z28 F400
G0 Z62
Z30
G1 Z22.798 F400
G0 Z62
Z72

(pilot holes_2)
X364.824 Y-968.1
Z72
Z62
Z54
G1 Z46 F400
G0 Z49
G1 Z40 F400
G0 Z43
G1 Z34 F400
G0 Z37
G1 Z28 F400
G0 Z62
Z30
G1 Z22.798 F400
G0 Z62
Z72

(pilot holes_2)
X364.824 Y-1043.1
Z72
Z62
Z54
G1 Z46 F400
G0 Z49
G1 Z40 F400
G0 Z43
G1 Z34 F400
G0 Z37
G1 Z28 F400
G0 Z62
Z30
G1 Z22.798 F400
G0 Z62
Z72

(pilot holes_2)
X364.824 Y-1118.1
Z72
Z62
Z54
G1 Z46 F400
G0 Z49
G1 Z40 F400
G0 Z43
G1 Z34 F400
G0 Z37
G1 Z28 F400
G0 Z62
Z30
G1 Z22.798 F400
G0 Z62
Z72

(pilot holes_2)
X364.824 Y-1193.1
Z72
Z62
Z54
G1 Z46 F400
G0 Z49
G1 Z40 F400
G0 Z43
G1 Z34 F400
G0 Z37
G1 Z28 F400
G0 Z62
Z30
G1 Z22.798 F400
G0 Z62
Z72

(pilot holes_2)
X364.824 Y-1268.1
Z72
Z62
Z54
G1 Z46 F400
G0 Z49
G1 Z40 F400
G0 Z43
G1 Z34 F400
G0 Z37
G1 Z28 F400
G0 Z62
Z30
G1 Z22.798 F400
G0 Z62
Z72

(pilot holes_2)
X364.824 Y-1343.1
Z72
Z62
Z54
G1 Z46 F400
G0 Z49
G1 Z40 F400
G0 Z43
G1 Z34 F400
G0 Z37
G1 Z28 F400
G0 Z62
Z30
G1 Z22.798 F400
G0 Z62
Z72

(pilot holes_2)
X289.824 Y-668.1
Z72
Z62
Z54
G1 Z46 F400
G0 Z49
G1 Z40 F400
G0 Z43
G1 Z34 F400
G0 Z37
G1 Z28 F400
G0 Z62
Z30
G1 Z22.798 F400
G0 Z62
Z72

(pilot holes_2)
X289.824 Y-743.1
Z72
Z62
Z54
G1 Z46 F400
G0 Z49
G1 Z40 F400
G0 Z43
G1 Z34 F400
G0 Z37
G1 Z28 F400
G0 Z62
Z30
G1 Z22.798 F400
G0 Z62
Z72

(pilot holes_2)
X289.824 Y-818.1
Z72
Z62
Z54
G1 Z46 F400
G0 Z49
G1 Z40 F400
G0 Z43
G1 Z34 F400
G0 Z37
G1 Z28 F400
G0 Z62
Z30
G1 Z22.798 F400
G0 Z62
Z72

(pilot holes_2)
X289.824 Y-893.1
Z72
Z62
Z54
G1 Z46 F400
G0 Z49
G1 Z40 F400
G0 Z43
G1 Z34 F400
G0 Z37
G1 Z28 F400
G0 Z62
Z30
G1 Z22.798 F400
G0 Z62
Z72

(pilot holes_2)
X289.824 Y-968.1
Z72
Z62
Z54
G1 Z46 F400
G0 Z49
G1 Z40 F400
G0 Z43
G1 Z34 F400
G0 Z37
G1 Z28 F400
G0 Z62
Z30
G1 Z22.798 F400
G0 Z62
Z72

(pilot holes_2)
X289.824 Y-1043.1
Z72
Z62
Z54
G1 Z46 F400
G0 Z49
G1 Z40 F400
G0 Z43
G1 Z34 F400
G0 Z37
G1 Z28 F400
G0 Z62
Z30
G1 Z22.798 F400
G0 Z62
Z72

(pilot holes_2)
X289.824 Y-1118.1
Z72
Z62
Z54
G1 Z46 F400
G0 Z49
G1 Z40 F400
G0 Z43
G1 Z34 F400
G0 Z37
G1 Z28 F400
G0 Z62
Z30
G1 Z22.798 F400
G0 Z62
Z72

(pilot holes_2)
X289.824 Y-1193.1
Z72
Z62
Z54
G1 Z46 F400
G0 Z49
G1 Z40 F400
G0 Z43
G1 Z34 F400
G0 Z37
G1 Z28 F400
G0 Z62
Z30
G1 Z22.798 F400
G0 Z62
Z72

(pilot holes_2)
X289.824 Y-1268.1
Z72
Z62
Z54
G1 Z46 F400
G0 Z49
G1 Z40 F400
G0 Z43
G1 Z34 F400
G0 Z37
G1 Z28 F400
G0 Z62
Z30
G1 Z22.798 F400
G0 Z62
Z72

(pilot holes_2)
X289.824 Y-1343.1
Z72
Z62
Z54
G1 Z46 F400
G0 Z49
G1 Z40 F400
G0 Z43
G1 Z34 F400
G0 Z37
G1 Z28 F400
G0 Z62
Z30
G1 Z22.798 F400
G0 Z62
Z72

(pilot holes_2)
X214.824 Y-668.1
Z72
Z62
Z54
G1 Z46 F400
G0 Z49
G1 Z40 F400
G0 Z43
G1 Z34 F400
G0 Z37
G1 Z28 F400
G0 Z62
Z30
G1 Z22.798 F400
G0 Z62
Z72

(pilot holes_2)
X214.824 Y-743.1
Z72
Z62
Z54
G1 Z46 F400
G0 Z49
G1 Z40 F400
G0 Z43
G1 Z34 F400
G0 Z37
G1 Z28 F400
G0 Z62
Z30
G1 Z22.798 F400
G0 Z62
Z72

(pilot holes_2)
X214.824 Y-818.1
Z72
Z62
Z54
G1 Z46 F400
G0 Z49
G1 Z40 F400
G0 Z43
G1 Z34 F400
G0 Z37
G1 Z28 F400
G0 Z62
Z30
G1 Z22.798 F400
G0 Z62
Z72

(pilot holes_2)
X214.824 Y-893.1
Z72
Z62
Z54
G1 Z46 F400
G0 Z49
G1 Z40 F400
G0 Z43
G1 Z34 F400
G0 Z37
G1 Z28 F400
G0 Z62
Z30
G1 Z22.798 F400
G0 Z62
Z72

(pilot holes_2)
X214.824 Y-968.1
Z72
Z62
Z54
G1 Z46 F400
G0 Z49
G1 Z40 F400
G0 Z43
G1 Z34 F400
G0 Z37
G1 Z28 F400
G0 Z62
Z30
G1 Z22.798 F400
G0 Z62
Z72

(pilot holes_2)
X214.824 Y-1043.1
Z72
Z62
Z54
G1 Z46 F400
G0 Z49
G1 Z40 F400
G0 Z43
G1 Z34 F400
G0 Z37
G1 Z28 F400
G0 Z62
Z30
G1 Z22.798 F400
G0 Z62
Z72

(pilot holes_2)
X214.824 Y-1118.1
Z72
Z62
Z54
G1 Z46 F400
G0 Z49
G1 Z40 F400
G0 Z43
G1 Z34 F400
G0 Z37
G1 Z28 F400
G0 Z62
Z30
G1 Z22.798 F400
G0 Z62
Z72

(pilot holes_2)
X214.824 Y-1193.1
Z72
Z62
Z54
G1 Z46 F400
G0 Z49
G1 Z40 F400
G0 Z43
G1 Z34 F400
G0 Z37
G1 Z28 F400
G0 Z62
Z30
G1 Z22.798 F400
G0 Z62
Z72

(pilot holes_2)
X214.824 Y-1268.1
Z72
Z62
Z54
G1 Z46 F400
G0 Z49
G1 Z40 F400
G0 Z43
G1 Z34 F400
G0 Z37
G1 Z28 F400
G0 Z62
Z30
G1 Z22.798 F400
G0 Z62
Z72

(pilot holes_2)
X214.824 Y-1343.1
Z72
Z62
Z54
G1 Z46 F400
G0 Z49
G1 Z40 F400
G0 Z43
G1 Z34 F400
G0 Z37
G1 Z28 F400
G0 Z62
Z30
G1 Z22.798 F400
G0 Z62
Z72
M30
%
