%
(1001)
(origin bottom left anchor hole stock bottom)
(T1  D=6 CR=0 - ZMIN=7 - flat end mill)
G90 G94
G17
G21

(dog_hole_02_widen)
M9
T1 M6
S15000 M3
G54
G0 X48.162 Y49
Z41
Z31
G1 Z27 F283.3
Z7.6
G18 G2 X48.762 Z7 I0.6
G1 X49.362 F850
G17 G3 X49.962 Y49.6 J0.6
X40.162 I-4.9
X49.962 I4.9
X49.362 Y50.2 I-0.6
G1 X48.762
G18 G3 X48.162 Z7.6 K0.6
G0 Z41
G17

(dog_hole_02_widen)
G0 X48.162 Y-26
Z41
Z31
G1 Z27 F283.3
Z7.6
G18 G2 X48.762 Z7 I0.6
G1 X49.362 F850
G17 G3 X49.962 Y-25.4 J0.6
X40.162 I-4.9
X49.962 I4.9
X49.362 Y-24.8 I-0.6
G1 X48.762
G18 G3 X48.162 Z7.6 K0.6
G0 Z41
G17

(dog_hole_02_widen)
G0 X48.162 Y-101
Z41
Z31
G1 Z27 F283.3
Z7.6
G18 G2 X48.762 Z7 I0.6
G1 X49.362 F850
G17 G3 X49.962 Y-100.4 J0.6
X40.162 I-4.9
X49.962 I4.9
X49.362 Y-99.8 I-0.6
G1 X48.762
G18 G3 X48.162 Z7.6 K0.6
G0 Z41
G17

(dog_hole_02_widen)
G0 X48.162 Y-176
Z41
Z31
G1 Z27 F283.3
Z7.6
G18 G2 X48.762 Z7 I0.6
G1 X49.362 F850
G17 G3 X49.962 Y-175.4 J0.6
X40.162 I-4.9
X49.962 I4.9
X49.362 Y-174.8 I-0.6
G1 X48.762
G18 G3 X48.162 Z7.6 K0.6
G0 Z41
G17

(dog_hole_02_widen)
G0 X48.162 Y-251
Z41
Z31
G1 Z27 F283.3
Z7.6
G18 G2 X48.762 Z7 I0.6
G1 X49.362 F850
G17 G3 X49.962 Y-250.4 J0.6
X40.162 I-4.9
X49.962 I4.9
X49.362 Y-249.8 I-0.6
G1 X48.762
G18 G3 X48.162 Z7.6 K0.6
G0 Z41
G17

(dog_hole_02_widen)
G0 X48.162 Y-326
Z41
Z31
G1 Z27 F283.3
Z7.6
G18 G2 X48.762 Z7 I0.6
G1 X49.362 F850
G17 G3 X49.962 Y-325.4 J0.6
X40.162 I-4.9
X49.962 I4.9
X49.362 Y-324.8 I-0.6
G1 X48.762
G18 G3 X48.162 Z7.6 K0.6
G0 Z41
G17

(dog_hole_02_widen)
G0 X48.162 Y-401
Z41
Z31
G1 Z27 F283.3
Z7.6
G18 G2 X48.762 Z7 I0.6
G1 X49.362 F850
G17 G3 X49.962 Y-400.4 J0.6
X40.162 I-4.9
X49.962 I4.9
X49.362 Y-399.8 I-0.6
G1 X48.762
G18 G3 X48.162 Z7.6 K0.6
G0 Z41
G17

(dog_hole_02_widen)
G0 X48.162 Y-476
Z41
Z31
G1 Z27 F283.3
Z7.6
G18 G2 X48.762 Z7 I0.6
G1 X49.362 F850
G17 G3 X49.962 Y-475.4 J0.6
X40.162 I-4.9
X49.962 I4.9
X49.362 Y-474.8 I-0.6
G1 X48.762
G18 G3 X48.162 Z7.6 K0.6
G0 Z41
G17

(dog_hole_02_widen)
G0 X48.162 Y-551
Z41
Z31
G1 Z27 F283.3
Z7.6
G18 G2 X48.762 Z7 I0.6
G1 X49.362 F850
G17 G3 X49.962 Y-550.4 J0.6
X40.162 I-4.9
X49.962 I4.9
X49.362 Y-549.8 I-0.6
G1 X48.762
G18 G3 X48.162 Z7.6 K0.6
G0 Z41
G17

(dog_hole_02_widen)
G0 X48.162 Y-626
Z41
Z31
G1 Z27 F283.3
Z7.6
G18 G2 X48.762 Z7 I0.6
G1 X49.362 F850
G17 G3 X49.962 Y-625.4 J0.6
X40.162 I-4.9
X49.962 I4.9
X49.362 Y-624.8 I-0.6
G1 X48.762
G18 G3 X48.162 Z7.6 K0.6
G0 Z41
G17

(dog_hole_02_widen)
G0 X-26.838 Y49
Z41
Z31
G1 Z27 F283.3
Z7.6
G18 G2 X-26.238 Z7 I0.6
G1 X-25.638 F850
G17 G3 X-25.038 Y49.6 J0.6
X-34.838 I-4.9
X-25.038 I4.9
X-25.638 Y50.2 I-0.6
G1 X-26.238
G18 G3 X-26.838 Z7.6 K0.6
G0 Z41
G17

(dog_hole_02_widen)
G0 X-26.838 Y-26
Z41
Z31
G1 Z27 F283.3
Z7.6
G18 G2 X-26.238 Z7 I0.6
G1 X-25.638 F850
G17 G3 X-25.038 Y-25.4 J0.6
X-34.838 I-4.9
X-25.038 I4.9
X-25.638 Y-24.8 I-0.6
G1 X-26.238
G18 G3 X-26.838 Z7.6 K0.6
G0 Z41
G17

(dog_hole_02_widen)
G0 X-26.838 Y-101
Z41
Z31
G1 Z27 F283.3
Z7.6
G18 G2 X-26.238 Z7 I0.6
G1 X-25.638 F850
G17 G3 X-25.038 Y-100.4 J0.6
X-34.838 I-4.9
X-25.038 I4.9
X-25.638 Y-99.8 I-0.6
G1 X-26.238
G18 G3 X-26.838 Z7.6 K0.6
G0 Z41
G17

(dog_hole_02_widen)
G0 X-26.838 Y-176
Z41
Z31
G1 Z27 F283.3
Z7.6
G18 G2 X-26.238 Z7 I0.6
G1 X-25.638 F850
G17 G3 X-25.038 Y-175.4 J0.6
X-34.838 I-4.9
X-25.038 I4.9
X-25.638 Y-174.8 I-0.6
G1 X-26.238
G18 G3 X-26.838 Z7.6 K0.6
G0 Z41
G17

(dog_hole_02_widen)
G0 X-26.838 Y-251
Z41
Z31
G1 Z27 F283.3
Z7.6
G18 G2 X-26.238 Z7 I0.6
G1 X-25.638 F850
G17 G3 X-25.038 Y-250.4 J0.6
X-34.838 I-4.9
X-25.038 I4.9
X-25.638 Y-249.8 I-0.6
G1 X-26.238
G18 G3 X-26.838 Z7.6 K0.6
G0 Z41
G17

(dog_hole_02_widen)
G0 X-26.838 Y-326
Z41
Z31
G1 Z27 F283.3
Z7.6
G18 G2 X-26.238 Z7 I0.6
G1 X-25.638 F850
G17 G3 X-25.038 Y-325.4 J0.6
X-34.838 I-4.9
X-25.038 I4.9
X-25.638 Y-324.8 I-0.6
G1 X-26.238
G18 G3 X-26.838 Z7.6 K0.6
G0 Z41
G17

(dog_hole_02_widen)
G0 X-26.838 Y-401
Z41
Z31
G1 Z27 F283.3
Z7.6
G18 G2 X-26.238 Z7 I0.6
G1 X-25.638 F850
G17 G3 X-25.038 Y-400.4 J0.6
X-34.838 I-4.9
X-25.038 I4.9
X-25.638 Y-399.8 I-0.6
G1 X-26.238
G18 G3 X-26.838 Z7.6 K0.6
G0 Z41
G17

(dog_hole_02_widen)
G0 X-26.838 Y-476
Z41
Z31
G1 Z27 F283.3
Z7.6
G18 G2 X-26.238 Z7 I0.6
G1 X-25.638 F850
G17 G3 X-25.038 Y-475.4 J0.6
X-34.838 I-4.9
X-25.038 I4.9
X-25.638 Y-474.8 I-0.6
G1 X-26.238
G18 G3 X-26.838 Z7.6 K0.6
G0 Z41
G17

(dog_hole_02_widen)
G0 X-26.838 Y-551
Z41
Z31
G1 Z27 F283.3
Z7.6
G18 G2 X-26.238 Z7 I0.6
G1 X-25.638 F850
G17 G3 X-25.038 Y-550.4 J0.6
X-34.838 I-4.9
X-25.038 I4.9
X-25.638 Y-549.8 I-0.6
G1 X-26.238
G18 G3 X-26.838 Z7.6 K0.6
G0 Z41
G17

(dog_hole_02_widen)
G0 X-26.838 Y-626
Z41
Z31
G1 Z27 F283.3
Z7.6
G18 G2 X-26.238 Z7 I0.6
G1 X-25.638 F850
G17 G3 X-25.038 Y-625.4 J0.6
X-34.838 I-4.9
X-25.038 I4.9
X-25.638 Y-624.8 I-0.6
G1 X-26.238
G18 G3 X-26.838 Z7.6 K0.6
G0 Z41
G17

(dog_hole_02_widen)
G0 X-101.838 Y49
Z41
Z31
G1 Z27 F283.3
Z7.6
G18 G2 X-101.238 Z7 I0.6
G1 X-100.638 F850
G17 G3 X-100.038 Y49.6 J0.6
X-109.838 I-4.9
X-100.038 I4.9
X-100.638 Y50.2 I-0.6
G1 X-101.238
G18 G3 X-101.838 Z7.6 K0.6
G0 Z41
G17

(dog_hole_02_widen)
G0 X-101.838 Y-26
Z41
Z31
G1 Z27 F283.3
Z7.6
G18 G2 X-101.238 Z7 I0.6
G1 X-100.638 F850
G17 G3 X-100.038 Y-25.4 J0.6
X-109.838 I-4.9
X-100.038 I4.9
X-100.638 Y-24.8 I-0.6
G1 X-101.238
G18 G3 X-101.838 Z7.6 K0.6
G0 Z41
G17

(dog_hole_02_widen)
G0 X-101.838 Y-101
Z41
Z31
G1 Z27 F283.3
Z7.6
G18 G2 X-101.238 Z7 I0.6
G1 X-100.638 F850
G17 G3 X-100.038 Y-100.4 J0.6
X-109.838 I-4.9
X-100.038 I4.9
X-100.638 Y-99.8 I-0.6
G1 X-101.238
G18 G3 X-101.838 Z7.6 K0.6
G0 Z41
G17

(dog_hole_02_widen)
G0 X-101.838 Y-176
Z41
Z31
G1 Z27 F283.3
Z7.6
G18 G2 X-101.238 Z7 I0.6
G1 X-100.638 F850
G17 G3 X-100.038 Y-175.4 J0.6
X-109.838 I-4.9
X-100.038 I4.9
X-100.638 Y-174.8 I-0.6
G1 X-101.238
G18 G3 X-101.838 Z7.6 K0.6
G0 Z41
G17

(dog_hole_02_widen)
G0 X-101.838 Y-251
Z41
Z31
G1 Z27 F283.3
Z7.6
G18 G2 X-101.238 Z7 I0.6
G1 X-100.638 F850
G17 G3 X-100.038 Y-250.4 J0.6
X-109.838 I-4.9
X-100.038 I4.9
X-100.638 Y-249.8 I-0.6
G1 X-101.238
G18 G3 X-101.838 Z7.6 K0.6
G0 Z41
G17

(dog_hole_02_widen)
G0 X-101.838 Y-326
Z41
Z31
G1 Z27 F283.3
Z7.6
G18 G2 X-101.238 Z7 I0.6
G1 X-100.638 F850
G17 G3 X-100.038 Y-325.4 J0.6
X-109.838 I-4.9
X-100.038 I4.9
X-100.638 Y-324.8 I-0.6
G1 X-101.238
G18 G3 X-101.838 Z7.6 K0.6
G0 Z41
G17

(dog_hole_02_widen)
G0 X-101.838 Y-401
Z41
Z31
G1 Z27 F283.3
Z7.6
G18 G2 X-101.238 Z7 I0.6
G1 X-100.638 F850
G17 G3 X-100.038 Y-400.4 J0.6
X-109.838 I-4.9
X-100.038 I4.9
X-100.638 Y-399.8 I-0.6
G1 X-101.238
G18 G3 X-101.838 Z7.6 K0.6
G0 Z41
G17

(dog_hole_02_widen)
G0 X-101.838 Y-476
Z41
Z31
G1 Z27 F283.3
Z7.6
G18 G2 X-101.238 Z7 I0.6
G1 X-100.638 F850
G17 G3 X-100.038 Y-475.4 J0.6
X-109.838 I-4.9
X-100.038 I4.9
X-100.638 Y-474.8 I-0.6
G1 X-101.238
G18 G3 X-101.838 Z7.6 K0.6
G0 Z41
G17

(dog_hole_02_widen)
G0 X-101.838 Y-551
Z41
Z31
G1 Z27 F283.3
Z7.6
G18 G2 X-101.238 Z7 I0.6
G1 X-100.638 F850
G17 G3 X-100.038 Y-550.4 J0.6
X-109.838 I-4.9
X-100.038 I4.9
X-100.638 Y-549.8 I-0.6
G1 X-101.238
G18 G3 X-101.838 Z7.6 K0.6
G0 Z41
G17

(dog_hole_02_widen)
G0 X-101.838 Y-626
Z41
Z31
G1 Z27 F283.3
Z7.6
G18 G2 X-101.238 Z7 I0.6
G1 X-100.638 F850
G17 G3 X-100.038 Y-625.4 J0.6
X-109.838 I-4.9
X-100.038 I4.9
X-100.638 Y-624.8 I-0.6
G1 X-101.238
G18 G3 X-101.838 Z7.6 K0.6
G0 Z41
G17

(dog_hole_02_widen)
G0 X-176.838 Y49
Z41
Z31
G1 Z27 F283.3
Z7.6
G18 G2 X-176.238 Z7 I0.6
G1 X-175.638 F850
G17 G3 X-175.038 Y49.6 J0.6
X-184.838 I-4.9
X-175.038 I4.9
X-175.638 Y50.2 I-0.6
G1 X-176.238
G18 G3 X-176.838 Z7.6 K0.6
G0 Z41
G17

(dog_hole_02_widen)
G0 X-176.838 Y-26
Z41
Z31
G1 Z27 F283.3
Z7.6
G18 G2 X-176.238 Z7 I0.6
G1 X-175.638 F850
G17 G3 X-175.038 Y-25.4 J0.6
X-184.838 I-4.9
X-175.038 I4.9
X-175.638 Y-24.8 I-0.6
G1 X-176.238
G18 G3 X-176.838 Z7.6 K0.6
G0 Z41
G17

(dog_hole_02_widen)
G0 X-176.838 Y-101
Z41
Z31
G1 Z27 F283.3
Z7.6
G18 G2 X-176.238 Z7 I0.6
G1 X-175.638 F850
G17 G3 X-175.038 Y-100.4 J0.6
X-184.838 I-4.9
X-175.038 I4.9
X-175.638 Y-99.8 I-0.6
G1 X-176.238
G18 G3 X-176.838 Z7.6 K0.6
G0 Z41
G17

(dog_hole_02_widen)
G0 X-176.838 Y-176
Z41
Z31
G1 Z27 F283.3
Z7.6
G18 G2 X-176.238 Z7 I0.6
G1 X-175.638 F850
G17 G3 X-175.038 Y-175.4 J0.6
X-184.838 I-4.9
X-175.038 I4.9
X-175.638 Y-174.8 I-0.6
G1 X-176.238
G18 G3 X-176.838 Z7.6 K0.6
G0 Z41
G17

(dog_hole_02_widen)
G0 X-176.838 Y-251
Z41
Z31
G1 Z27 F283.3
Z7.6
G18 G2 X-176.238 Z7 I0.6
G1 X-175.638 F850
G17 G3 X-175.038 Y-250.4 J0.6
X-184.838 I-4.9
X-175.038 I4.9
X-175.638 Y-249.8 I-0.6
G1 X-176.238
G18 G3 X-176.838 Z7.6 K0.6
G0 Z41
G17

(dog_hole_02_widen)
G0 X-176.838 Y-326
Z41
Z31
G1 Z27 F283.3
Z7.6
G18 G2 X-176.238 Z7 I0.6
G1 X-175.638 F850
G17 G3 X-175.038 Y-325.4 J0.6
X-184.838 I-4.9
X-175.038 I4.9
X-175.638 Y-324.8 I-0.6
G1 X-176.238
G18 G3 X-176.838 Z7.6 K0.6
G0 Z41
G17

(dog_hole_02_widen)
G0 X-176.838 Y-401
Z41
Z31
G1 Z27 F283.3
Z7.6
G18 G2 X-176.238 Z7 I0.6
G1 X-175.638 F850
G17 G3 X-175.038 Y-400.4 J0.6
X-184.838 I-4.9
X-175.038 I4.9
X-175.638 Y-399.8 I-0.6
G1 X-176.238
G18 G3 X-176.838 Z7.6 K0.6
G0 Z41
G17

(dog_hole_02_widen)
G0 X-176.838 Y-476
Z41
Z31
G1 Z27 F283.3
Z7.6
G18 G2 X-176.238 Z7 I0.6
G1 X-175.638 F850
G17 G3 X-175.038 Y-475.4 J0.6
X-184.838 I-4.9
X-175.038 I4.9
X-175.638 Y-474.8 I-0.6
G1 X-176.238
G18 G3 X-176.838 Z7.6 K0.6
G0 Z41
G17

(dog_hole_02_widen)
G0 X-176.838 Y-551
Z41
Z31
G1 Z27 F283.3
Z7.6
G18 G2 X-176.238 Z7 I0.6
G1 X-175.638 F850
G17 G3 X-175.038 Y-550.4 J0.6
X-184.838 I-4.9
X-175.038 I4.9
X-175.638 Y-549.8 I-0.6
G1 X-176.238
G18 G3 X-176.838 Z7.6 K0.6
G0 Z41
G17

(dog_hole_02_widen)
G0 X-176.838 Y-626
Z41
Z31
G1 Z27 F283.3
Z7.6
G18 G2 X-176.238 Z7 I0.6
G1 X-175.638 F850
G17 G3 X-175.038 Y-625.4 J0.6
X-184.838 I-4.9
X-175.038 I4.9
X-175.638 Y-624.8 I-0.6
G1 X-176.238
G18 G3 X-176.838 Z7.6 K0.6
G0 Z41
G17

(dog_hole_02_widen)
G0 X-251.838 Y49
Z41
Z31
G1 Z27 F283.3
Z7.6
G18 G2 X-251.238 Z7 I0.6
G1 X-250.638 F850
G17 G3 X-250.038 Y49.6 J0.6
X-259.838 I-4.9
X-250.038 I4.9
X-250.638 Y50.2 I-0.6
G1 X-251.238
G18 G3 X-251.838 Z7.6 K0.6
G0 Z41
G17

(dog_hole_02_widen)
G0 X-251.838 Y-26
Z41
Z31
G1 Z27 F283.3
Z7.6
G18 G2 X-251.238 Z7 I0.6
G1 X-250.638 F850
G17 G3 X-250.038 Y-25.4 J0.6
X-259.838 I-4.9
X-250.038 I4.9
X-250.638 Y-24.8 I-0.6
G1 X-251.238
G18 G3 X-251.838 Z7.6 K0.6
G0 Z41
G17

(dog_hole_02_widen)
G0 X-251.838 Y-101
Z41
Z31
G1 Z27 F283.3
Z7.6
G18 G2 X-251.238 Z7 I0.6
G1 X-250.638 F850
G17 G3 X-250.038 Y-100.4 J0.6
X-259.838 I-4.9
X-250.038 I4.9
X-250.638 Y-99.8 I-0.6
G1 X-251.238
G18 G3 X-251.838 Z7.6 K0.6
G0 Z41
G17

(dog_hole_02_widen)
G0 X-251.838 Y-176
Z41
Z31
G1 Z27 F283.3
Z7.6
G18 G2 X-251.238 Z7 I0.6
G1 X-250.638 F850
G17 G3 X-250.038 Y-175.4 J0.6
X-259.838 I-4.9
X-250.038 I4.9
X-250.638 Y-174.8 I-0.6
G1 X-251.238
G18 G3 X-251.838 Z7.6 K0.6
G0 Z41
G17

(dog_hole_02_widen)
G0 X-251.838 Y-251
Z41
Z31
G1 Z27 F283.3
Z7.6
G18 G2 X-251.238 Z7 I0.6
G1 X-250.638 F850
G17 G3 X-250.038 Y-250.4 J0.6
X-259.838 I-4.9
X-250.038 I4.9
X-250.638 Y-249.8 I-0.6
G1 X-251.238
G18 G3 X-251.838 Z7.6 K0.6
G0 Z41
G17

(dog_hole_02_widen)
G0 X-251.838 Y-326
Z41
Z31
G1 Z27 F283.3
Z7.6
G18 G2 X-251.238 Z7 I0.6
G1 X-250.638 F850
G17 G3 X-250.038 Y-325.4 J0.6
X-259.838 I-4.9
X-250.038 I4.9
X-250.638 Y-324.8 I-0.6
G1 X-251.238
G18 G3 X-251.838 Z7.6 K0.6
G0 Z41
G17

(dog_hole_02_widen)
G0 X-251.838 Y-401
Z41
Z31
G1 Z27 F283.3
Z7.6
G18 G2 X-251.238 Z7 I0.6
G1 X-250.638 F850
G17 G3 X-250.038 Y-400.4 J0.6
X-259.838 I-4.9
X-250.038 I4.9
X-250.638 Y-399.8 I-0.6
G1 X-251.238
G18 G3 X-251.838 Z7.6 K0.6
G0 Z41
G17

(dog_hole_02_widen)
G0 X-251.838 Y-476
Z41
Z31
G1 Z27 F283.3
Z7.6
G18 G2 X-251.238 Z7 I0.6
G1 X-250.638 F850
G17 G3 X-250.038 Y-475.4 J0.6
X-259.838 I-4.9
X-250.038 I4.9
X-250.638 Y-474.8 I-0.6
G1 X-251.238
G18 G3 X-251.838 Z7.6 K0.6
G0 Z41
G17

(dog_hole_02_widen)
G0 X-251.838 Y-551
Z41
Z31
G1 Z27 F283.3
Z7.6
G18 G2 X-251.238 Z7 I0.6
G1 X-250.638 F850
G17 G3 X-250.038 Y-550.4 J0.6
X-259.838 I-4.9
X-250.038 I4.9
X-250.638 Y-549.8 I-0.6
G1 X-251.238
G18 G3 X-251.838 Z7.6 K0.6
G0 Z41
G17

(dog_hole_02_widen)
G0 X-251.838 Y-626
Z41
Z31
G1 Z27 F283.3
Z7.6
G18 G2 X-251.238 Z7 I0.6
G1 X-250.638 F850
G17 G3 X-250.038 Y-625.4 J0.6
X-259.838 I-4.9
X-250.038 I4.9
X-250.638 Y-624.8 I-0.6
G1 X-251.238
G18 G3 X-251.838 Z7.6 K0.6
G0 Z41
G17

(dog_hole_02_widen)
G0 X-326.838 Y49
Z41
Z31
G1 Z27 F283.3
Z7.6
G18 G2 X-326.238 Z7 I0.6
G1 X-325.638 F850
G17 G3 X-325.038 Y49.6 J0.6
X-334.838 I-4.9
X-325.038 I4.9
X-325.638 Y50.2 I-0.6
G1 X-326.238
G18 G3 X-326.838 Z7.6 K0.6
G0 Z41
G17

(dog_hole_02_widen)
G0 X-326.838 Y-26
Z41
Z31
G1 Z27 F283.3
Z7.6
G18 G2 X-326.238 Z7 I0.6
G1 X-325.638 F850
G17 G3 X-325.038 Y-25.4 J0.6
X-334.838 I-4.9
X-325.038 I4.9
X-325.638 Y-24.8 I-0.6
G1 X-326.238
G18 G3 X-326.838 Z7.6 K0.6
G0 Z41
G17

(dog_hole_02_widen)
G0 X-326.838 Y-101
Z41
Z31
G1 Z27 F283.3
Z7.6
G18 G2 X-326.238 Z7 I0.6
G1 X-325.638 F850
G17 G3 X-325.038 Y-100.4 J0.6
X-334.838 I-4.9
X-325.038 I4.9
X-325.638 Y-99.8 I-0.6
G1 X-326.238
G18 G3 X-326.838 Z7.6 K0.6
G0 Z41
G17

(dog_hole_02_widen)
G0 X-326.838 Y-176
Z41
Z31
G1 Z27 F283.3
Z7.6
G18 G2 X-326.238 Z7 I0.6
G1 X-325.638 F850
G17 G3 X-325.038 Y-175.4 J0.6
X-334.838 I-4.9
X-325.038 I4.9
X-325.638 Y-174.8 I-0.6
G1 X-326.238
G18 G3 X-326.838 Z7.6 K0.6
G0 Z41
G17

(dog_hole_02_widen)
G0 X-326.838 Y-251
Z41
Z31
G1 Z27 F283.3
Z7.6
G18 G2 X-326.238 Z7 I0.6
G1 X-325.638 F850
G17 G3 X-325.038 Y-250.4 J0.6
X-334.838 I-4.9
X-325.038 I4.9
X-325.638 Y-249.8 I-0.6
G1 X-326.238
G18 G3 X-326.838 Z7.6 K0.6
G0 Z41
G17

(dog_hole_02_widen)
G0 X-326.838 Y-326
Z41
Z31
G1 Z27 F283.3
Z7.6
G18 G2 X-326.238 Z7 I0.6
G1 X-325.638 F850
G17 G3 X-325.038 Y-325.4 J0.6
X-334.838 I-4.9
X-325.038 I4.9
X-325.638 Y-324.8 I-0.6
G1 X-326.238
G18 G3 X-326.838 Z7.6 K0.6
G0 Z41
G17

(dog_hole_02_widen)
G0 X-326.838 Y-401
Z41
Z31
G1 Z27 F283.3
Z7.6
G18 G2 X-326.238 Z7 I0.6
G1 X-325.638 F850
G17 G3 X-325.038 Y-400.4 J0.6
X-334.838 I-4.9
X-325.038 I4.9
X-325.638 Y-399.8 I-0.6
G1 X-326.238
G18 G3 X-326.838 Z7.6 K0.6
G0 Z41
G17

(dog_hole_02_widen)
G0 X-326.838 Y-476
Z41
Z31
G1 Z27 F283.3
Z7.6
G18 G2 X-326.238 Z7 I0.6
G1 X-325.638 F850
G17 G3 X-325.038 Y-475.4 J0.6
X-334.838 I-4.9
X-325.038 I4.9
X-325.638 Y-474.8 I-0.6
G1 X-326.238
G18 G3 X-326.838 Z7.6 K0.6
G0 Z41
G17

(dog_hole_02_widen)
G0 X-326.838 Y-551
Z41
Z31
G1 Z27 F283.3
Z7.6
G18 G2 X-326.238 Z7 I0.6
G1 X-325.638 F850
G17 G3 X-325.038 Y-550.4 J0.6
X-334.838 I-4.9
X-325.038 I4.9
X-325.638 Y-549.8 I-0.6
G1 X-326.238
G18 G3 X-326.838 Z7.6 K0.6
G0 Z41
G17

(dog_hole_02_widen)
G0 X-326.838 Y-626
Z41
Z31
G1 Z27 F283.3
Z7.6
G18 G2 X-326.238 Z7 I0.6
G1 X-325.638 F850
G17 G3 X-325.038 Y-625.4 J0.6
X-334.838 I-4.9
X-325.038 I4.9
X-325.638 Y-624.8 I-0.6
G1 X-326.238
G18 G3 X-326.838 Z7.6 K0.6
G0 Z41
G17

(dog_hole_02_widen)
G0 X-401.838 Y49
Z41
Z31
G1 Z27 F283.3
Z7.6
G18 G2 X-401.238 Z7 I0.6
G1 X-400.638 F850
G17 G3 X-400.038 Y49.6 J0.6
X-409.838 I-4.9
X-400.038 I4.9
X-400.638 Y50.2 I-0.6
G1 X-401.238
G18 G3 X-401.838 Z7.6 K0.6
G0 Z41
G17

(dog_hole_02_widen)
G0 X-401.838 Y-26
Z41
Z31
G1 Z27 F283.3
Z7.6
G18 G2 X-401.238 Z7 I0.6
G1 X-400.638 F850
G17 G3 X-400.038 Y-25.4 J0.6
X-409.838 I-4.9
X-400.038 I4.9
X-400.638 Y-24.8 I-0.6
G1 X-401.238
G18 G3 X-401.838 Z7.6 K0.6
G0 Z41
G17

(dog_hole_02_widen)
G0 X-401.838 Y-101
Z41
Z31
G1 Z27 F283.3
Z7.6
G18 G2 X-401.238 Z7 I0.6
G1 X-400.638 F850
G17 G3 X-400.038 Y-100.4 J0.6
X-409.838 I-4.9
X-400.038 I4.9
X-400.638 Y-99.8 I-0.6
G1 X-401.238
G18 G3 X-401.838 Z7.6 K0.6
G0 Z41
G17

(dog_hole_02_widen)
G0 X-401.838 Y-176
Z41
Z31
G1 Z27 F283.3
Z7.6
G18 G2 X-401.238 Z7 I0.6
G1 X-400.638 F850
G17 G3 X-400.038 Y-175.4 J0.6
X-409.838 I-4.9
X-400.038 I4.9
X-400.638 Y-174.8 I-0.6
G1 X-401.238
G18 G3 X-401.838 Z7.6 K0.6
G0 Z41
G17

(dog_hole_02_widen)
G0 X-401.838 Y-251
Z41
Z31
G1 Z27 F283.3
Z7.6
G18 G2 X-401.238 Z7 I0.6
G1 X-400.638 F850
G17 G3 X-400.038 Y-250.4 J0.6
X-409.838 I-4.9
X-400.038 I4.9
X-400.638 Y-249.8 I-0.6
G1 X-401.238
G18 G3 X-401.838 Z7.6 K0.6
G0 Z41
G17

(dog_hole_02_widen)
G0 X-401.838 Y-326
Z41
Z31
G1 Z27 F283.3
Z7.6
G18 G2 X-401.238 Z7 I0.6
G1 X-400.638 F850
G17 G3 X-400.038 Y-325.4 J0.6
X-409.838 I-4.9
X-400.038 I4.9
X-400.638 Y-324.8 I-0.6
G1 X-401.238
G18 G3 X-401.838 Z7.6 K0.6
G0 Z41
G17

(dog_hole_02_widen)
G0 X-401.838 Y-401
Z41
Z31
G1 Z27 F283.3
Z7.6
G18 G2 X-401.238 Z7 I0.6
G1 X-400.638 F850
G17 G3 X-400.038 Y-400.4 J0.6
X-409.838 I-4.9
X-400.038 I4.9
X-400.638 Y-399.8 I-0.6
G1 X-401.238
G18 G3 X-401.838 Z7.6 K0.6
G0 Z41
G17

(dog_hole_02_widen)
G0 X-401.838 Y-476
Z41
Z31
G1 Z27 F283.3
Z7.6
G18 G2 X-401.238 Z7 I0.6
G1 X-400.638 F850
G17 G3 X-400.038 Y-475.4 J0.6
X-409.838 I-4.9
X-400.038 I4.9
X-400.638 Y-474.8 I-0.6
G1 X-401.238
G18 G3 X-401.838 Z7.6 K0.6
G0 Z41
G17

(dog_hole_02_widen)
G0 X-401.838 Y-551
Z41
Z31
G1 Z27 F283.3
Z7.6
G18 G2 X-401.238 Z7 I0.6
G1 X-400.638 F850
G17 G3 X-400.038 Y-550.4 J0.6
X-409.838 I-4.9
X-400.038 I4.9
X-400.638 Y-549.8 I-0.6
G1 X-401.238
G18 G3 X-401.838 Z7.6 K0.6
G0 Z41
G17

(dog_hole_02_widen)
G0 X-401.838 Y-626
Z41
Z31
G1 Z27 F283.3
Z7.6
G18 G2 X-401.238 Z7 I0.6
G1 X-400.638 F850
G17 G3 X-400.038 Y-625.4 J0.6
X-409.838 I-4.9
X-400.038 I4.9
X-400.638 Y-624.8 I-0.6
G1 X-401.238
G18 G3 X-401.838 Z7.6 K0.6
G0 Z41
G17

(dog_hole_02_widen)
G0 X-476.838 Y49
Z41
Z31
G1 Z27 F283.3
Z7.6
G18 G2 X-476.238 Z7 I0.6
G1 X-475.638 F850
G17 G3 X-475.038 Y49.6 J0.6
X-484.838 I-4.9
X-475.038 I4.9
X-475.638 Y50.2 I-0.6
G1 X-476.238
G18 G3 X-476.838 Z7.6 K0.6
G0 Z41
G17

(dog_hole_02_widen)
G0 X-476.838 Y-26
Z41
Z31
G1 Z27 F283.3
Z7.6
G18 G2 X-476.238 Z7 I0.6
G1 X-475.638 F850
G17 G3 X-475.038 Y-25.4 J0.6
X-484.838 I-4.9
X-475.038 I4.9
X-475.638 Y-24.8 I-0.6
G1 X-476.238
G18 G3 X-476.838 Z7.6 K0.6
G0 Z41
G17

(dog_hole_02_widen)
G0 X-476.838 Y-101
Z41
Z31
G1 Z27 F283.3
Z7.6
G18 G2 X-476.238 Z7 I0.6
G1 X-475.638 F850
G17 G3 X-475.038 Y-100.4 J0.6
X-484.838 I-4.9
X-475.038 I4.9
X-475.638 Y-99.8 I-0.6
G1 X-476.238
G18 G3 X-476.838 Z7.6 K0.6
G0 Z41
G17

(dog_hole_02_widen)
G0 X-476.838 Y-176
Z41
Z31
G1 Z27 F283.3
Z7.6
G18 G2 X-476.238 Z7 I0.6
G1 X-475.638 F850
G17 G3 X-475.038 Y-175.4 J0.6
X-484.838 I-4.9
X-475.038 I4.9
X-475.638 Y-174.8 I-0.6
G1 X-476.238
G18 G3 X-476.838 Z7.6 K0.6
G0 Z41
G17

(dog_hole_02_widen)
G0 X-476.838 Y-251
Z41
Z31
G1 Z27 F283.3
Z7.6
G18 G2 X-476.238 Z7 I0.6
G1 X-475.638 F850
G17 G3 X-475.038 Y-250.4 J0.6
X-484.838 I-4.9
X-475.038 I4.9
X-475.638 Y-249.8 I-0.6
G1 X-476.238
G18 G3 X-476.838 Z7.6 K0.6
G0 Z41
G17

(dog_hole_02_widen)
G0 X-476.838 Y-326
Z41
Z31
G1 Z27 F283.3
Z7.6
G18 G2 X-476.238 Z7 I0.6
G1 X-475.638 F850
G17 G3 X-475.038 Y-325.4 J0.6
X-484.838 I-4.9
X-475.038 I4.9
X-475.638 Y-324.8 I-0.6
G1 X-476.238
G18 G3 X-476.838 Z7.6 K0.6
G0 Z41
G17

(dog_hole_02_widen)
G0 X-476.838 Y-401
Z41
Z31
G1 Z27 F283.3
Z7.6
G18 G2 X-476.238 Z7 I0.6
G1 X-475.638 F850
G17 G3 X-475.038 Y-400.4 J0.6
X-484.838 I-4.9
X-475.038 I4.9
X-475.638 Y-399.8 I-0.6
G1 X-476.238
G18 G3 X-476.838 Z7.6 K0.6
G0 Z41
G17

(dog_hole_02_widen)
G0 X-476.838 Y-476
Z41
Z31
G1 Z27 F283.3
Z7.6
G18 G2 X-476.238 Z7 I0.6
G1 X-475.638 F850
G17 G3 X-475.038 Y-475.4 J0.6
X-484.838 I-4.9
X-475.038 I4.9
X-475.638 Y-474.8 I-0.6
G1 X-476.238
G18 G3 X-476.838 Z7.6 K0.6
G0 Z41
G17

(dog_hole_02_widen)
G0 X-476.838 Y-551
Z41
Z31
G1 Z27 F283.3
Z7.6
G18 G2 X-476.238 Z7 I0.6
G1 X-475.638 F850
G17 G3 X-475.038 Y-550.4 J0.6
X-484.838 I-4.9
X-475.038 I4.9
X-475.638 Y-549.8 I-0.6
G1 X-476.238
G18 G3 X-476.838 Z7.6 K0.6
G0 Z41
G17

(dog_hole_02_widen)
G0 X-476.838 Y-626
Z41
Z31
G1 Z27 F283.3
Z7.6
G18 G2 X-476.238 Z7 I0.6
G1 X-475.638 F850
G17 G3 X-475.038 Y-625.4 J0.6
X-484.838 I-4.9
X-475.038 I4.9
X-475.638 Y-624.8 I-0.6
G1 X-476.238
G18 G3 X-476.838 Z7.6 K0.6
G0 Z41
G17

(dog_hole_02_widen)
G0 X-551.838 Y49
Z41
Z31
G1 Z27 F283.3
Z7.6
G18 G2 X-551.238 Z7 I0.6
G1 X-550.638 F850
G17 G3 X-550.038 Y49.6 J0.6
X-559.838 I-4.9
X-550.038 I4.9
X-550.638 Y50.2 I-0.6
G1 X-551.238
G18 G3 X-551.838 Z7.6 K0.6
G0 Z41
G17

(dog_hole_02_widen)
G0 X-551.838 Y-26
Z41
Z31
G1 Z27 F283.3
Z7.6
G18 G2 X-551.238 Z7 I0.6
G1 X-550.638 F850
G17 G3 X-550.038 Y-25.4 J0.6
X-559.838 I-4.9
X-550.038 I4.9
X-550.638 Y-24.8 I-0.6
G1 X-551.238
G18 G3 X-551.838 Z7.6 K0.6
G0 Z41
G17

(dog_hole_02_widen)
G0 X-551.838 Y-101
Z41
Z31
G1 Z27 F283.3
Z7.6
G18 G2 X-551.238 Z7 I0.6
G1 X-550.638 F850
G17 G3 X-550.038 Y-100.4 J0.6
X-559.838 I-4.9
X-550.038 I4.9
X-550.638 Y-99.8 I-0.6
G1 X-551.238
G18 G3 X-551.838 Z7.6 K0.6
G0 Z41
G17

(dog_hole_02_widen)
G0 X-551.838 Y-176
Z41
Z31
G1 Z27 F283.3
Z7.6
G18 G2 X-551.238 Z7 I0.6
G1 X-550.638 F850
G17 G3 X-550.038 Y-175.4 J0.6
X-559.838 I-4.9
X-550.038 I4.9
X-550.638 Y-174.8 I-0.6
G1 X-551.238
G18 G3 X-551.838 Z7.6 K0.6
G0 Z41
G17

(dog_hole_02_widen)
G0 X-551.838 Y-251
Z41
Z31
G1 Z27 F283.3
Z7.6
G18 G2 X-551.238 Z7 I0.6
G1 X-550.638 F850
G17 G3 X-550.038 Y-250.4 J0.6
X-559.838 I-4.9
X-550.038 I4.9
X-550.638 Y-249.8 I-0.6
G1 X-551.238
G18 G3 X-551.838 Z7.6 K0.6
G0 Z41
G17

(dog_hole_02_widen)
G0 X-551.838 Y-326
Z41
Z31
G1 Z27 F283.3
Z7.6
G18 G2 X-551.238 Z7 I0.6
G1 X-550.638 F850
G17 G3 X-550.038 Y-325.4 J0.6
X-559.838 I-4.9
X-550.038 I4.9
X-550.638 Y-324.8 I-0.6
G1 X-551.238
G18 G3 X-551.838 Z7.6 K0.6
G0 Z41
G17

(dog_hole_02_widen)
G0 X-551.838 Y-401
Z41
Z31
G1 Z27 F283.3
Z7.6
G18 G2 X-551.238 Z7 I0.6
G1 X-550.638 F850
G17 G3 X-550.038 Y-400.4 J0.6
X-559.838 I-4.9
X-550.038 I4.9
X-550.638 Y-399.8 I-0.6
G1 X-551.238
G18 G3 X-551.838 Z7.6 K0.6
G0 Z41
G17

(dog_hole_02_widen)
G0 X-551.838 Y-476
Z41
Z31
G1 Z27 F283.3
Z7.6
G18 G2 X-551.238 Z7 I0.6
G1 X-550.638 F850
G17 G3 X-550.038 Y-475.4 J0.6
X-559.838 I-4.9
X-550.038 I4.9
X-550.638 Y-474.8 I-0.6
G1 X-551.238
G18 G3 X-551.838 Z7.6 K0.6
G0 Z41
G17

(dog_hole_02_widen)
G0 X-551.838 Y-551
Z41
Z31
G1 Z27 F283.3
Z7.6
G18 G2 X-551.238 Z7 I0.6
G1 X-550.638 F850
G17 G3 X-550.038 Y-550.4 J0.6
X-559.838 I-4.9
X-550.038 I4.9
X-550.638 Y-549.8 I-0.6
G1 X-551.238
G18 G3 X-551.838 Z7.6 K0.6
G0 Z41
G17

(dog_hole_02_widen)
G0 X-551.838 Y-626
Z41
Z31
G1 Z27 F283.3
Z7.6
G18 G2 X-551.238 Z7 I0.6
G1 X-550.638 F850
G17 G3 X-550.038 Y-625.4 J0.6
X-559.838 I-4.9
X-550.038 I4.9
X-550.638 Y-624.8 I-0.6
G1 X-551.238
G18 G3 X-551.838 Z7.6 K0.6
G0 Z41
G17

(dog_hole_02_widen)
G0 X-626.838 Y49
Z41
Z31
G1 Z27 F283.3
Z7.6
G18 G2 X-626.238 Z7 I0.6
G1 X-625.638 F850
G17 G3 X-625.038 Y49.6 J0.6
X-634.838 I-4.9
X-625.038 I4.9
X-625.638 Y50.2 I-0.6
G1 X-626.238
G18 G3 X-626.838 Z7.6 K0.6
G0 Z41
G17

(dog_hole_02_widen)
G0 X-626.838 Y-26
Z41
Z31
G1 Z27 F283.3
Z7.6
G18 G2 X-626.238 Z7 I0.6
G1 X-625.638 F850
G17 G3 X-625.038 Y-25.4 J0.6
X-634.838 I-4.9
X-625.038 I4.9
X-625.638 Y-24.8 I-0.6
G1 X-626.238
G18 G3 X-626.838 Z7.6 K0.6
G0 Z41
G17

(dog_hole_02_widen)
G0 X-626.838 Y-101
Z41
Z31
G1 Z27 F283.3
Z7.6
G18 G2 X-626.238 Z7 I0.6
G1 X-625.638 F850
G17 G3 X-625.038 Y-100.4 J0.6
X-634.838 I-4.9
X-625.038 I4.9
X-625.638 Y-99.8 I-0.6
G1 X-626.238
G18 G3 X-626.838 Z7.6 K0.6
G0 Z41
G17

(dog_hole_02_widen)
G0 X-626.838 Y-176
Z41
Z31
G1 Z27 F283.3
Z7.6
G18 G2 X-626.238 Z7 I0.6
G1 X-625.638 F850
G17 G3 X-625.038 Y-175.4 J0.6
X-634.838 I-4.9
X-625.038 I4.9
X-625.638 Y-174.8 I-0.6
G1 X-626.238
G18 G3 X-626.838 Z7.6 K0.6
G0 Z41
G17

(dog_hole_02_widen)
G0 X-626.838 Y-251
Z41
Z31
G1 Z27 F283.3
Z7.6
G18 G2 X-626.238 Z7 I0.6
G1 X-625.638 F850
G17 G3 X-625.038 Y-250.4 J0.6
X-634.838 I-4.9
X-625.038 I4.9
X-625.638 Y-249.8 I-0.6
G1 X-626.238
G18 G3 X-626.838 Z7.6 K0.6
G0 Z41
G17

(dog_hole_02_widen)
G0 X-626.838 Y-326
Z41
Z31
G1 Z27 F283.3
Z7.6
G18 G2 X-626.238 Z7 I0.6
G1 X-625.638 F850
G17 G3 X-625.038 Y-325.4 J0.6
X-634.838 I-4.9
X-625.038 I4.9
X-625.638 Y-324.8 I-0.6
G1 X-626.238
G18 G3 X-626.838 Z7.6 K0.6
G0 Z41
G17

(dog_hole_02_widen)
G0 X-626.838 Y-401
Z41
Z31
G1 Z27 F283.3
Z7.6
G18 G2 X-626.238 Z7 I0.6
G1 X-625.638 F850
G17 G3 X-625.038 Y-400.4 J0.6
X-634.838 I-4.9
X-625.038 I4.9
X-625.638 Y-399.8 I-0.6
G1 X-626.238
G18 G3 X-626.838 Z7.6 K0.6
G0 Z41
G17

(dog_hole_02_widen)
G0 X-626.838 Y-476
Z41
Z31
G1 Z27 F283.3
Z7.6
G18 G2 X-626.238 Z7 I0.6
G1 X-625.638 F850
G17 G3 X-625.038 Y-475.4 J0.6
X-634.838 I-4.9
X-625.038 I4.9
X-625.638 Y-474.8 I-0.6
G1 X-626.238
G18 G3 X-626.838 Z7.6 K0.6
G0 Z41
G17

(dog_hole_02_widen)
G0 X-626.838 Y-551
Z41
Z31
G1 Z27 F283.3
Z7.6
G18 G2 X-626.238 Z7 I0.6
G1 X-625.638 F850
G17 G3 X-625.038 Y-550.4 J0.6
X-634.838 I-4.9
X-625.038 I4.9
X-625.638 Y-549.8 I-0.6
G1 X-626.238
G18 G3 X-626.838 Z7.6 K0.6
G0 Z41
G17

(dog_hole_02_widen)
G0 X-626.838 Y-626
Z41
Z31
G1 Z27 F283.3
Z7.6
G18 G2 X-626.238 Z7 I0.6
G1 X-625.638 F850
G17 G3 X-625.038 Y-625.4 J0.6
X-634.838 I-4.9
X-625.038 I4.9
X-625.638 Y-624.8 I-0.6
G1 X-626.238
G18 G3 X-626.838 Z7.6 K0.6
G0 Z41
G17

(dog_hole_02_widen)
G0 X-701.838 Y49
Z41
Z31
G1 Z27 F283.3
Z7.6
G18 G2 X-701.238 Z7 I0.6
G1 X-700.638 F850
G17 G3 X-700.038 Y49.6 J0.6
X-709.838 I-4.9
X-700.038 I4.9
X-700.638 Y50.2 I-0.6
G1 X-701.238
G18 G3 X-701.838 Z7.6 K0.6
G0 Z41
G17

(dog_hole_02_widen)
G0 X-701.838 Y-26
Z41
Z31
G1 Z27 F283.3
Z7.6
G18 G2 X-701.238 Z7 I0.6
G1 X-700.638 F850
G17 G3 X-700.038 Y-25.4 J0.6
X-709.838 I-4.9
X-700.038 I4.9
X-700.638 Y-24.8 I-0.6
G1 X-701.238
G18 G3 X-701.838 Z7.6 K0.6
G0 Z41
G17

(dog_hole_02_widen)
G0 X-701.838 Y-101
Z41
Z31
G1 Z27 F283.3
Z7.6
G18 G2 X-701.238 Z7 I0.6
G1 X-700.638 F850
G17 G3 X-700.038 Y-100.4 J0.6
X-709.838 I-4.9
X-700.038 I4.9
X-700.638 Y-99.8 I-0.6
G1 X-701.238
G18 G3 X-701.838 Z7.6 K0.6
G0 Z41
G17

(dog_hole_02_widen)
G0 X-701.838 Y-176
Z41
Z31
G1 Z27 F283.3
Z7.6
G18 G2 X-701.238 Z7 I0.6
G1 X-700.638 F850
G17 G3 X-700.038 Y-175.4 J0.6
X-709.838 I-4.9
X-700.038 I4.9
X-700.638 Y-174.8 I-0.6
G1 X-701.238
G18 G3 X-701.838 Z7.6 K0.6
G0 Z41
G17

(dog_hole_02_widen)
G0 X-701.838 Y-251
Z41
Z31
G1 Z27 F283.3
Z7.6
G18 G2 X-701.238 Z7 I0.6
G1 X-700.638 F850
G17 G3 X-700.038 Y-250.4 J0.6
X-709.838 I-4.9
X-700.038 I4.9
X-700.638 Y-249.8 I-0.6
G1 X-701.238
G18 G3 X-701.838 Z7.6 K0.6
G0 Z41
G17

(dog_hole_02_widen)
G0 X-701.838 Y-326
Z41
Z31
G1 Z27 F283.3
Z7.6
G18 G2 X-701.238 Z7 I0.6
G1 X-700.638 F850
G17 G3 X-700.038 Y-325.4 J0.6
X-709.838 I-4.9
X-700.038 I4.9
X-700.638 Y-324.8 I-0.6
G1 X-701.238
G18 G3 X-701.838 Z7.6 K0.6
G0 Z41
G17

(dog_hole_02_widen)
G0 X-701.838 Y-401
Z41
Z31
G1 Z27 F283.3
Z7.6
G18 G2 X-701.238 Z7 I0.6
G1 X-700.638 F850
G17 G3 X-700.038 Y-400.4 J0.6
X-709.838 I-4.9
X-700.038 I4.9
X-700.638 Y-399.8 I-0.6
G1 X-701.238
G18 G3 X-701.838 Z7.6 K0.6
G0 Z41
G17

(dog_hole_02_widen)
G0 X-701.838 Y-476
Z41
Z31
G1 Z27 F283.3
Z7.6
G18 G2 X-701.238 Z7 I0.6
G1 X-700.638 F850
G17 G3 X-700.038 Y-475.4 J0.6
X-709.838 I-4.9
X-700.038 I4.9
X-700.638 Y-474.8 I-0.6
G1 X-701.238
G18 G3 X-701.838 Z7.6 K0.6
G0 Z41
G17

(dog_hole_02_widen)
G0 X-701.838 Y-551
Z41
Z31
G1 Z27 F283.3
Z7.6
G18 G2 X-701.238 Z7 I0.6
G1 X-700.638 F850
G17 G3 X-700.038 Y-550.4 J0.6
X-709.838 I-4.9
X-700.038 I4.9
X-700.638 Y-549.8 I-0.6
G1 X-701.238
G18 G3 X-701.838 Z7.6 K0.6
G0 Z41
G17

(dog_hole_02_widen)
G0 X-701.838 Y-626
Z41
Z31
G1 Z27 F283.3
Z7.6
G18 G2 X-701.238 Z7 I0.6
G1 X-700.638 F850
G17 G3 X-700.038 Y-625.4 J0.6
X-709.838 I-4.9
X-700.038 I4.9
X-700.638 Y-624.8 I-0.6
G1 X-701.238
G18 G3 X-701.838 Z7.6 K0.6
G0 Z41
G17

(dog_hole_02_widen)
G0 X-776.838 Y49
Z41
Z31
G1 Z27 F283.3
Z7.6
G18 G2 X-776.238 Z7 I0.6
G1 X-775.638 F850
G17 G3 X-775.038 Y49.6 J0.6
X-784.838 I-4.9
X-775.038 I4.9
X-775.638 Y50.2 I-0.6
G1 X-776.238
G18 G3 X-776.838 Z7.6 K0.6
G0 Z41
G17

(dog_hole_02_widen)
G0 X-776.838 Y-26
Z41
Z31
G1 Z27 F283.3
Z7.6
G18 G2 X-776.238 Z7 I0.6
G1 X-775.638 F850
G17 G3 X-775.038 Y-25.4 J0.6
X-784.838 I-4.9
X-775.038 I4.9
X-775.638 Y-24.8 I-0.6
G1 X-776.238
G18 G3 X-776.838 Z7.6 K0.6
G0 Z41
G17

(dog_hole_02_widen)
G0 X-776.838 Y-101
Z41
Z31
G1 Z27 F283.3
Z7.6
G18 G2 X-776.238 Z7 I0.6
G1 X-775.638 F850
G17 G3 X-775.038 Y-100.4 J0.6
X-784.838 I-4.9
X-775.038 I4.9
X-775.638 Y-99.8 I-0.6
G1 X-776.238
G18 G3 X-776.838 Z7.6 K0.6
G0 Z41
G17

(dog_hole_02_widen)
G0 X-776.838 Y-176
Z41
Z31
G1 Z27 F283.3
Z7.6
G18 G2 X-776.238 Z7 I0.6
G1 X-775.638 F850
G17 G3 X-775.038 Y-175.4 J0.6
X-784.838 I-4.9
X-775.038 I4.9
X-775.638 Y-174.8 I-0.6
G1 X-776.238
G18 G3 X-776.838 Z7.6 K0.6
G0 Z41
G17

(dog_hole_02_widen)
G0 X-776.838 Y-251
Z41
Z31
G1 Z27 F283.3
Z7.6
G18 G2 X-776.238 Z7 I0.6
G1 X-775.638 F850
G17 G3 X-775.038 Y-250.4 J0.6
X-784.838 I-4.9
X-775.038 I4.9
X-775.638 Y-249.8 I-0.6
G1 X-776.238
G18 G3 X-776.838 Z7.6 K0.6
G0 Z41
G17

(dog_hole_02_widen)
G0 X-776.838 Y-326
Z41
Z31
G1 Z27 F283.3
Z7.6
G18 G2 X-776.238 Z7 I0.6
G1 X-775.638 F850
G17 G3 X-775.038 Y-325.4 J0.6
X-784.838 I-4.9
X-775.038 I4.9
X-775.638 Y-324.8 I-0.6
G1 X-776.238
G18 G3 X-776.838 Z7.6 K0.6
G0 Z41
G17

(dog_hole_02_widen)
G0 X-776.838 Y-401
Z41
Z31
G1 Z27 F283.3
Z7.6
G18 G2 X-776.238 Z7 I0.6
G1 X-775.638 F850
G17 G3 X-775.038 Y-400.4 J0.6
X-784.838 I-4.9
X-775.038 I4.9
X-775.638 Y-399.8 I-0.6
G1 X-776.238
G18 G3 X-776.838 Z7.6 K0.6
G0 Z41
G17

(dog_hole_02_widen)
G0 X-776.838 Y-476
Z41
Z31
G1 Z27 F283.3
Z7.6
G18 G2 X-776.238 Z7 I0.6
G1 X-775.638 F850
G17 G3 X-775.038 Y-475.4 J0.6
X-784.838 I-4.9
X-775.038 I4.9
X-775.638 Y-474.8 I-0.6
G1 X-776.238
G18 G3 X-776.838 Z7.6 K0.6
G0 Z41
G17

(dog_hole_02_widen)
G0 X-776.838 Y-551
Z41
Z31
G1 Z27 F283.3
Z7.6
G18 G2 X-776.238 Z7 I0.6
G1 X-775.638 F850
G17 G3 X-775.038 Y-550.4 J0.6
X-784.838 I-4.9
X-775.038 I4.9
X-775.638 Y-549.8 I-0.6
G1 X-776.238
G18 G3 X-776.838 Z7.6 K0.6
G0 Z41
G17

(dog_hole_02_widen)
G0 X-776.838 Y-626
Z41
Z31
G1 Z27 F283.3
Z7.6
G18 G2 X-776.238 Z7 I0.6
G1 X-775.638 F850
G17 G3 X-775.038 Y-625.4 J0.6
X-784.838 I-4.9
X-775.038 I4.9
X-775.638 Y-624.8 I-0.6
G1 X-776.238
G18 G3 X-776.838 Z7.6 K0.6
G0 Z41
G17

(dog_hole_02_widen)
G0 X-851.838 Y49
Z41
Z31
G1 Z27 F283.3
Z7.6
G18 G2 X-851.238 Z7 I0.6
G1 X-850.638 F850
G17 G3 X-850.038 Y49.6 J0.6
X-859.838 I-4.9
X-850.038 I4.9
X-850.638 Y50.2 I-0.6
G1 X-851.238
G18 G3 X-851.838 Z7.6 K0.6
G0 Z41
G17

(dog_hole_02_widen)
G0 X-851.838 Y-26
Z41
Z31
G1 Z27 F283.3
Z7.6
G18 G2 X-851.238 Z7 I0.6
G1 X-850.638 F850
G17 G3 X-850.038 Y-25.4 J0.6
X-859.838 I-4.9
X-850.038 I4.9
X-850.638 Y-24.8 I-0.6
G1 X-851.238
G18 G3 X-851.838 Z7.6 K0.6
G0 Z41
G17

(dog_hole_02_widen)
G0 X-851.838 Y-101
Z41
Z31
G1 Z27 F283.3
Z7.6
G18 G2 X-851.238 Z7 I0.6
G1 X-850.638 F850
G17 G3 X-850.038 Y-100.4 J0.6
X-859.838 I-4.9
X-850.038 I4.9
X-850.638 Y-99.8 I-0.6
G1 X-851.238
G18 G3 X-851.838 Z7.6 K0.6
G0 Z41
G17

(dog_hole_02_widen)
G0 X-851.838 Y-176
Z41
Z31
G1 Z27 F283.3
Z7.6
G18 G2 X-851.238 Z7 I0.6
G1 X-850.638 F850
G17 G3 X-850.038 Y-175.4 J0.6
X-859.838 I-4.9
X-850.038 I4.9
X-850.638 Y-174.8 I-0.6
G1 X-851.238
G18 G3 X-851.838 Z7.6 K0.6
G0 Z41
G17

(dog_hole_02_widen)
G0 X-851.838 Y-251
Z41
Z31
G1 Z27 F283.3
Z7.6
G18 G2 X-851.238 Z7 I0.6
G1 X-850.638 F850
G17 G3 X-850.038 Y-250.4 J0.6
X-859.838 I-4.9
X-850.038 I4.9
X-850.638 Y-249.8 I-0.6
G1 X-851.238
G18 G3 X-851.838 Z7.6 K0.6
G0 Z41
G17

(dog_hole_02_widen)
G0 X-851.838 Y-326
Z41
Z31
G1 Z27 F283.3
Z7.6
G18 G2 X-851.238 Z7 I0.6
G1 X-850.638 F850
G17 G3 X-850.038 Y-325.4 J0.6
X-859.838 I-4.9
X-850.038 I4.9
X-850.638 Y-324.8 I-0.6
G1 X-851.238
G18 G3 X-851.838 Z7.6 K0.6
G0 Z41
G17

(dog_hole_02_widen)
G0 X-851.838 Y-401
Z41
Z31
G1 Z27 F283.3
Z7.6
G18 G2 X-851.238 Z7 I0.6
G1 X-850.638 F850
G17 G3 X-850.038 Y-400.4 J0.6
X-859.838 I-4.9
X-850.038 I4.9
X-850.638 Y-399.8 I-0.6
G1 X-851.238
G18 G3 X-851.838 Z7.6 K0.6
G0 Z41
G17

(dog_hole_02_widen)
G0 X-851.838 Y-476
Z41
Z31
G1 Z27 F283.3
Z7.6
G18 G2 X-851.238 Z7 I0.6
G1 X-850.638 F850
G17 G3 X-850.038 Y-475.4 J0.6
X-859.838 I-4.9
X-850.038 I4.9
X-850.638 Y-474.8 I-0.6
G1 X-851.238
G18 G3 X-851.838 Z7.6 K0.6
G0 Z41
G17

(dog_hole_02_widen)
G0 X-851.838 Y-551
Z41
Z31
G1 Z27 F283.3
Z7.6
G18 G2 X-851.238 Z7 I0.6
G1 X-850.638 F850
G17 G3 X-850.038 Y-550.4 J0.6
X-859.838 I-4.9
X-850.038 I4.9
X-850.638 Y-549.8 I-0.6
G1 X-851.238
G18 G3 X-851.838 Z7.6 K0.6
G0 Z41
G17

(dog_hole_02_widen)
G0 X-851.838 Y-626
Z41
Z31
G1 Z27 F283.3
Z7.6
G18 G2 X-851.238 Z7 I0.6
G1 X-850.638 F850
G17 G3 X-850.038 Y-625.4 J0.6
X-859.838 I-4.9
X-850.038 I4.9
X-850.638 Y-624.8 I-0.6
G1 X-851.238
G18 G3 X-851.838 Z7.6 K0.6
G0 Z41
G17

(dog_hole_02_widen)
G0 X-926.838 Y49
Z41
Z31
G1 Z27 F283.3
Z7.6
G18 G2 X-926.238 Z7 I0.6
G1 X-925.638 F850
G17 G3 X-925.038 Y49.6 J0.6
X-934.838 I-4.9
X-925.038 I4.9
X-925.638 Y50.2 I-0.6
G1 X-926.238
G18 G3 X-926.838 Z7.6 K0.6
G0 Z41
G17

(dog_hole_02_widen)
G0 X-926.838 Y-26
Z41
Z31
G1 Z27 F283.3
Z7.6
G18 G2 X-926.238 Z7 I0.6
G1 X-925.638 F850
G17 G3 X-925.038 Y-25.4 J0.6
X-934.838 I-4.9
X-925.038 I4.9
X-925.638 Y-24.8 I-0.6
G1 X-926.238
G18 G3 X-926.838 Z7.6 K0.6
G0 Z41
G17

(dog_hole_02_widen)
G0 X-926.838 Y-101
Z41
Z31
G1 Z27 F283.3
Z7.6
G18 G2 X-926.238 Z7 I0.6
G1 X-925.638 F850
G17 G3 X-925.038 Y-100.4 J0.6
X-934.838 I-4.9
X-925.038 I4.9
X-925.638 Y-99.8 I-0.6
G1 X-926.238
G18 G3 X-926.838 Z7.6 K0.6
G0 Z41
G17

(dog_hole_02_widen)
G0 X-926.838 Y-176
Z41
Z31
G1 Z27 F283.3
Z7.6
G18 G2 X-926.238 Z7 I0.6
G1 X-925.638 F850
G17 G3 X-925.038 Y-175.4 J0.6
X-934.838 I-4.9
X-925.038 I4.9
X-925.638 Y-174.8 I-0.6
G1 X-926.238
G18 G3 X-926.838 Z7.6 K0.6
G0 Z41
G17

(dog_hole_02_widen)
G0 X-926.838 Y-251
Z41
Z31
G1 Z27 F283.3
Z7.6
G18 G2 X-926.238 Z7 I0.6
G1 X-925.638 F850
G17 G3 X-925.038 Y-250.4 J0.6
X-934.838 I-4.9
X-925.038 I4.9
X-925.638 Y-249.8 I-0.6
G1 X-926.238
G18 G3 X-926.838 Z7.6 K0.6
G0 Z41
G17

(dog_hole_02_widen)
G0 X-926.838 Y-326
Z41
Z31
G1 Z27 F283.3
Z7.6
G18 G2 X-926.238 Z7 I0.6
G1 X-925.638 F850
G17 G3 X-925.038 Y-325.4 J0.6
X-934.838 I-4.9
X-925.038 I4.9
X-925.638 Y-324.8 I-0.6
G1 X-926.238
G18 G3 X-926.838 Z7.6 K0.6
G0 Z41
G17

(dog_hole_02_widen)
G0 X-926.838 Y-401
Z41
Z31
G1 Z27 F283.3
Z7.6
G18 G2 X-926.238 Z7 I0.6
G1 X-925.638 F850
G17 G3 X-925.038 Y-400.4 J0.6
X-934.838 I-4.9
X-925.038 I4.9
X-925.638 Y-399.8 I-0.6
G1 X-926.238
G18 G3 X-926.838 Z7.6 K0.6
G0 Z41
G17

(dog_hole_02_widen)
G0 X-926.838 Y-476
Z41
Z31
G1 Z27 F283.3
Z7.6
G18 G2 X-926.238 Z7 I0.6
G1 X-925.638 F850
G17 G3 X-925.038 Y-475.4 J0.6
X-934.838 I-4.9
X-925.038 I4.9
X-925.638 Y-474.8 I-0.6
G1 X-926.238
G18 G3 X-926.838 Z7.6 K0.6
G0 Z41
G17

(dog_hole_02_widen)
G0 X-926.838 Y-551
Z41
Z31
G1 Z27 F283.3
Z7.6
G18 G2 X-926.238 Z7 I0.6
G1 X-925.638 F850
G17 G3 X-925.038 Y-550.4 J0.6
X-934.838 I-4.9
X-925.038 I4.9
X-925.638 Y-549.8 I-0.6
G1 X-926.238
G18 G3 X-926.838 Z7.6 K0.6
G0 Z41
G17

(dog_hole_02_widen)
G0 X-926.838 Y-626
Z41
Z31
G1 Z27 F283.3
Z7.6
G18 G2 X-926.238 Z7 I0.6
G1 X-925.638 F850
G17 G3 X-925.038 Y-625.4 J0.6
X-934.838 I-4.9
X-925.038 I4.9
X-925.638 Y-624.8 I-0.6
G1 X-926.238
G18 G3 X-926.838 Z7.6 K0.6
G0 Z41
G17

(dog_hole_02_widen)
G0 X-1001.838 Y49
Z41
Z31
G1 Z27 F283.3
Z7.6
G18 G2 X-1001.238 Z7 I0.6
G1 X-1000.638 F850
G17 G3 X-1000.038 Y49.6 J0.6
X-1009.838 I-4.9
X-1000.038 I4.9
X-1000.638 Y50.2 I-0.6
G1 X-1001.238
G18 G3 X-1001.838 Z7.6 K0.6
G0 Z41
G17

(dog_hole_02_widen)
G0 X-1001.838 Y-26
Z41
Z31
G1 Z27 F283.3
Z7.6
G18 G2 X-1001.238 Z7 I0.6
G1 X-1000.638 F850
G17 G3 X-1000.038 Y-25.4 J0.6
X-1009.838 I-4.9
X-1000.038 I4.9
X-1000.638 Y-24.8 I-0.6
G1 X-1001.238
G18 G3 X-1001.838 Z7.6 K0.6
G0 Z41
G17

(dog_hole_02_widen)
G0 X-1001.838 Y-101
Z41
Z31
G1 Z27 F283.3
Z7.6
G18 G2 X-1001.238 Z7 I0.6
G1 X-1000.638 F850
G17 G3 X-1000.038 Y-100.4 J0.6
X-1009.838 I-4.9
X-1000.038 I4.9
X-1000.638 Y-99.8 I-0.6
G1 X-1001.238
G18 G3 X-1001.838 Z7.6 K0.6
G0 Z41
G17

(dog_hole_02_widen)
G0 X-1001.838 Y-176
Z41
Z31
G1 Z27 F283.3
Z7.6
G18 G2 X-1001.238 Z7 I0.6
G1 X-1000.638 F850
G17 G3 X-1000.038 Y-175.4 J0.6
X-1009.838 I-4.9
X-1000.038 I4.9
X-1000.638 Y-174.8 I-0.6
G1 X-1001.238
G18 G3 X-1001.838 Z7.6 K0.6
G0 Z41
G17

(dog_hole_02_widen)
G0 X-1001.838 Y-251
Z41
Z31
G1 Z27 F283.3
Z7.6
G18 G2 X-1001.238 Z7 I0.6
G1 X-1000.638 F850
G17 G3 X-1000.038 Y-250.4 J0.6
X-1009.838 I-4.9
X-1000.038 I4.9
X-1000.638 Y-249.8 I-0.6
G1 X-1001.238
G18 G3 X-1001.838 Z7.6 K0.6
G0 Z41
G17

(dog_hole_02_widen)
G0 X-1001.838 Y-326
Z41
Z31
G1 Z27 F283.3
Z7.6
G18 G2 X-1001.238 Z7 I0.6
G1 X-1000.638 F850
G17 G3 X-1000.038 Y-325.4 J0.6
X-1009.838 I-4.9
X-1000.038 I4.9
X-1000.638 Y-324.8 I-0.6
G1 X-1001.238
G18 G3 X-1001.838 Z7.6 K0.6
G0 Z41
G17

(dog_hole_02_widen)
G0 X-1001.838 Y-401
Z41
Z31
G1 Z27 F283.3
Z7.6
G18 G2 X-1001.238 Z7 I0.6
G1 X-1000.638 F850
G17 G3 X-1000.038 Y-400.4 J0.6
X-1009.838 I-4.9
X-1000.038 I4.9
X-1000.638 Y-399.8 I-0.6
G1 X-1001.238
G18 G3 X-1001.838 Z7.6 K0.6
G0 Z41
G17

(dog_hole_02_widen)
G0 X-1001.838 Y-476
Z41
Z31
G1 Z27 F283.3
Z7.6
G18 G2 X-1001.238 Z7 I0.6
G1 X-1000.638 F850
G17 G3 X-1000.038 Y-475.4 J0.6
X-1009.838 I-4.9
X-1000.038 I4.9
X-1000.638 Y-474.8 I-0.6
G1 X-1001.238
G18 G3 X-1001.838 Z7.6 K0.6
G0 Z41
G17

(dog_hole_02_widen)
G0 X-1001.838 Y-551
Z41
Z31
G1 Z27 F283.3
Z7.6
G18 G2 X-1001.238 Z7 I0.6
G1 X-1000.638 F850
G17 G3 X-1000.038 Y-550.4 J0.6
X-1009.838 I-4.9
X-1000.038 I4.9
X-1000.638 Y-549.8 I-0.6
G1 X-1001.238
G18 G3 X-1001.838 Z7.6 K0.6
G0 Z41
G17

(dog_hole_02_widen)
G0 X-1001.838 Y-626
Z41
Z31
G1 Z27 F283.3
Z7.6
G18 G2 X-1001.238 Z7 I0.6
G1 X-1000.638 F850
G17 G3 X-1000.038 Y-625.4 J0.6
X-1009.838 I-4.9
X-1000.038 I4.9
X-1000.638 Y-624.8 I-0.6
G1 X-1001.238
G18 G3 X-1001.838 Z7.6 K0.6
G0 Z41
G17

(dog_hole_02_widen)
G0 X-1076.838 Y49
Z41
Z31
G1 Z27 F283.3
Z7.6
G18 G2 X-1076.238 Z7 I0.6
G1 X-1075.638 F850
G17 G3 X-1075.038 Y49.6 J0.6
X-1084.838 I-4.9
X-1075.038 I4.9
X-1075.638 Y50.2 I-0.6
G1 X-1076.238
G18 G3 X-1076.838 Z7.6 K0.6
G0 Z41
G17

(dog_hole_02_widen)
G0 X-1076.838 Y-26
Z41
Z31
G1 Z27 F283.3
Z7.6
G18 G2 X-1076.238 Z7 I0.6
G1 X-1075.638 F850
G17 G3 X-1075.038 Y-25.4 J0.6
X-1084.838 I-4.9
X-1075.038 I4.9
X-1075.638 Y-24.8 I-0.6
G1 X-1076.238
G18 G3 X-1076.838 Z7.6 K0.6
G0 Z41
G17

(dog_hole_02_widen)
G0 X-1076.838 Y-101
Z41
Z31
G1 Z27 F283.3
Z7.6
G18 G2 X-1076.238 Z7 I0.6
G1 X-1075.638 F850
G17 G3 X-1075.038 Y-100.4 J0.6
X-1084.838 I-4.9
X-1075.038 I4.9
X-1075.638 Y-99.8 I-0.6
G1 X-1076.238
G18 G3 X-1076.838 Z7.6 K0.6
G0 Z41
G17

(dog_hole_02_widen)
G0 X-1076.838 Y-176
Z41
Z31
G1 Z27 F283.3
Z7.6
G18 G2 X-1076.238 Z7 I0.6
G1 X-1075.638 F850
G17 G3 X-1075.038 Y-175.4 J0.6
X-1084.838 I-4.9
X-1075.038 I4.9
X-1075.638 Y-174.8 I-0.6
G1 X-1076.238
G18 G3 X-1076.838 Z7.6 K0.6
G0 Z41
G17

(dog_hole_02_widen)
G0 X-1076.838 Y-251
Z41
Z31
G1 Z27 F283.3
Z7.6
G18 G2 X-1076.238 Z7 I0.6
G1 X-1075.638 F850
G17 G3 X-1075.038 Y-250.4 J0.6
X-1084.838 I-4.9
X-1075.038 I4.9
X-1075.638 Y-249.8 I-0.6
G1 X-1076.238
G18 G3 X-1076.838 Z7.6 K0.6
G0 Z41
G17

(dog_hole_02_widen)
G0 X-1076.838 Y-326
Z41
Z31
G1 Z27 F283.3
Z7.6
G18 G2 X-1076.238 Z7 I0.6
G1 X-1075.638 F850
G17 G3 X-1075.038 Y-325.4 J0.6
X-1084.838 I-4.9
X-1075.038 I4.9
X-1075.638 Y-324.8 I-0.6
G1 X-1076.238
G18 G3 X-1076.838 Z7.6 K0.6
G0 Z41
G17

(dog_hole_02_widen)
G0 X-1076.838 Y-401
Z41
Z31
G1 Z27 F283.3
Z7.6
G18 G2 X-1076.238 Z7 I0.6
G1 X-1075.638 F850
G17 G3 X-1075.038 Y-400.4 J0.6
X-1084.838 I-4.9
X-1075.038 I4.9
X-1075.638 Y-399.8 I-0.6
G1 X-1076.238
G18 G3 X-1076.838 Z7.6 K0.6
G0 Z41
G17

(dog_hole_02_widen)
G0 X-1076.838 Y-476
Z41
Z31
G1 Z27 F283.3
Z7.6
G18 G2 X-1076.238 Z7 I0.6
G1 X-1075.638 F850
G17 G3 X-1075.038 Y-475.4 J0.6
X-1084.838 I-4.9
X-1075.038 I4.9
X-1075.638 Y-474.8 I-0.6
G1 X-1076.238
G18 G3 X-1076.838 Z7.6 K0.6
G0 Z41
G17

(dog_hole_02_widen)
G0 X-1076.838 Y-551
Z41
Z31
G1 Z27 F283.3
Z7.6
G18 G2 X-1076.238 Z7 I0.6
G1 X-1075.638 F850
G17 G3 X-1075.038 Y-550.4 J0.6
X-1084.838 I-4.9
X-1075.038 I4.9
X-1075.638 Y-549.8 I-0.6
G1 X-1076.238
G18 G3 X-1076.838 Z7.6 K0.6
G0 Z41
G17

(dog_hole_02_widen)
G0 X-1076.838 Y-626
Z41
Z31
G1 Z27 F283.3
Z7.6
G18 G2 X-1076.238 Z7 I0.6
G1 X-1075.638 F850
G17 G3 X-1075.038 Y-625.4 J0.6
X-1084.838 I-4.9
X-1075.038 I4.9
X-1075.638 Y-624.8 I-0.6
G1 X-1076.238
G18 G3 X-1076.838 Z7.6 K0.6
G0 Z41
G17

(dog_hole_02_widen)
G0 X-1151.838 Y49
Z41
Z31
G1 Z27 F283.3
Z7.6
G18 G2 X-1151.238 Z7 I0.6
G1 X-1150.638 F850
G17 G3 X-1150.038 Y49.6 J0.6
X-1159.838 I-4.9
X-1150.038 I4.9
X-1150.638 Y50.2 I-0.6
G1 X-1151.238
G18 G3 X-1151.838 Z7.6 K0.6
G0 Z41
G17

(dog_hole_02_widen)
G0 X-1151.838 Y-26
Z41
Z31
G1 Z27 F283.3
Z7.6
G18 G2 X-1151.238 Z7 I0.6
G1 X-1150.638 F850
G17 G3 X-1150.038 Y-25.4 J0.6
X-1159.838 I-4.9
X-1150.038 I4.9
X-1150.638 Y-24.8 I-0.6
G1 X-1151.238
G18 G3 X-1151.838 Z7.6 K0.6
G0 Z41
G17

(dog_hole_02_widen)
G0 X-1151.838 Y-101
Z41
Z31
G1 Z27 F283.3
Z7.6
G18 G2 X-1151.238 Z7 I0.6
G1 X-1150.638 F850
G17 G3 X-1150.038 Y-100.4 J0.6
X-1159.838 I-4.9
X-1150.038 I4.9
X-1150.638 Y-99.8 I-0.6
G1 X-1151.238
G18 G3 X-1151.838 Z7.6 K0.6
G0 Z41
G17

(dog_hole_02_widen)
G0 X-1151.838 Y-176
Z41
Z31
G1 Z27 F283.3
Z7.6
G18 G2 X-1151.238 Z7 I0.6
G1 X-1150.638 F850
G17 G3 X-1150.038 Y-175.4 J0.6
X-1159.838 I-4.9
X-1150.038 I4.9
X-1150.638 Y-174.8 I-0.6
G1 X-1151.238
G18 G3 X-1151.838 Z7.6 K0.6
G0 Z41
G17

(dog_hole_02_widen)
G0 X-1151.838 Y-251
Z41
Z31
G1 Z27 F283.3
Z7.6
G18 G2 X-1151.238 Z7 I0.6
G1 X-1150.638 F850
G17 G3 X-1150.038 Y-250.4 J0.6
X-1159.838 I-4.9
X-1150.038 I4.9
X-1150.638 Y-249.8 I-0.6
G1 X-1151.238
G18 G3 X-1151.838 Z7.6 K0.6
G0 Z41
G17

(dog_hole_02_widen)
G0 X-1151.838 Y-326
Z41
Z31
G1 Z27 F283.3
Z7.6
G18 G2 X-1151.238 Z7 I0.6
G1 X-1150.638 F850
G17 G3 X-1150.038 Y-325.4 J0.6
X-1159.838 I-4.9
X-1150.038 I4.9
X-1150.638 Y-324.8 I-0.6
G1 X-1151.238
G18 G3 X-1151.838 Z7.6 K0.6
G0 Z41
G17

(dog_hole_02_widen)
G0 X-1151.838 Y-401
Z41
Z31
G1 Z27 F283.3
Z7.6
G18 G2 X-1151.238 Z7 I0.6
G1 X-1150.638 F850
G17 G3 X-1150.038 Y-400.4 J0.6
X-1159.838 I-4.9
X-1150.038 I4.9
X-1150.638 Y-399.8 I-0.6
G1 X-1151.238
G18 G3 X-1151.838 Z7.6 K0.6
G0 Z41
G17

(dog_hole_02_widen)
G0 X-1151.838 Y-476
Z41
Z31
G1 Z27 F283.3
Z7.6
G18 G2 X-1151.238 Z7 I0.6
G1 X-1150.638 F850
G17 G3 X-1150.038 Y-475.4 J0.6
X-1159.838 I-4.9
X-1150.038 I4.9
X-1150.638 Y-474.8 I-0.6
G1 X-1151.238
G18 G3 X-1151.838 Z7.6 K0.6
G0 Z41
G17

(dog_hole_02_widen)
G0 X-1151.838 Y-551
Z41
Z31
G1 Z27 F283.3
Z7.6
G18 G2 X-1151.238 Z7 I0.6
G1 X-1150.638 F850
G17 G3 X-1150.038 Y-550.4 J0.6
X-1159.838 I-4.9
X-1150.038 I4.9
X-1150.638 Y-549.8 I-0.6
G1 X-1151.238
G18 G3 X-1151.838 Z7.6 K0.6
G0 Z41
G17

(dog_hole_02_widen)
G0 X-1151.838 Y-626
Z41
Z31
G1 Z27 F283.3
Z7.6
G18 G2 X-1151.238 Z7 I0.6
G1 X-1150.638 F850
G17 G3 X-1150.038 Y-625.4 J0.6
X-1159.838 I-4.9
X-1150.038 I4.9
X-1150.638 Y-624.8 I-0.6
G1 X-1151.238
G18 G3 X-1151.838 Z7.6 K0.6
G0 Z41
G17

(dog_hole_02_widen)
G0 X-1226.838 Y49
Z41
Z31
G1 Z27 F283.3
Z7.6
G18 G2 X-1226.238 Z7 I0.6
G1 X-1225.638 F850
G17 G3 X-1225.038 Y49.6 J0.6
X-1234.838 I-4.9
X-1225.038 I4.9
X-1225.638 Y50.2 I-0.6
G1 X-1226.238
G18 G3 X-1226.838 Z7.6 K0.6
G0 Z41
G17

(dog_hole_02_widen)
G0 X-1226.838 Y-26
Z41
Z31
G1 Z27 F283.3
Z7.6
G18 G2 X-1226.238 Z7 I0.6
G1 X-1225.638 F850
G17 G3 X-1225.038 Y-25.4 J0.6
X-1234.838 I-4.9
X-1225.038 I4.9
X-1225.638 Y-24.8 I-0.6
G1 X-1226.238
G18 G3 X-1226.838 Z7.6 K0.6
G0 Z41
G17

(dog_hole_02_widen)
G0 X-1226.838 Y-101
Z41
Z31
G1 Z27 F283.3
Z7.6
G18 G2 X-1226.238 Z7 I0.6
G1 X-1225.638 F850
G17 G3 X-1225.038 Y-100.4 J0.6
X-1234.838 I-4.9
X-1225.038 I4.9
X-1225.638 Y-99.8 I-0.6
G1 X-1226.238
G18 G3 X-1226.838 Z7.6 K0.6
G0 Z41
G17

(dog_hole_02_widen)
G0 X-1226.838 Y-176
Z41
Z31
G1 Z27 F283.3
Z7.6
G18 G2 X-1226.238 Z7 I0.6
G1 X-1225.638 F850
G17 G3 X-1225.038 Y-175.4 J0.6
X-1234.838 I-4.9
X-1225.038 I4.9
X-1225.638 Y-174.8 I-0.6
G1 X-1226.238
G18 G3 X-1226.838 Z7.6 K0.6
G0 Z41
G17

(dog_hole_02_widen)
G0 X-1226.838 Y-251
Z41
Z31
G1 Z27 F283.3
Z7.6
G18 G2 X-1226.238 Z7 I0.6
G1 X-1225.638 F850
G17 G3 X-1225.038 Y-250.4 J0.6
X-1234.838 I-4.9
X-1225.038 I4.9
X-1225.638 Y-249.8 I-0.6
G1 X-1226.238
G18 G3 X-1226.838 Z7.6 K0.6
G0 Z41
G17

(dog_hole_02_widen)
G0 X-1226.838 Y-326
Z41
Z31
G1 Z27 F283.3
Z7.6
G18 G2 X-1226.238 Z7 I0.6
G1 X-1225.638 F850
G17 G3 X-1225.038 Y-325.4 J0.6
X-1234.838 I-4.9
X-1225.038 I4.9
X-1225.638 Y-324.8 I-0.6
G1 X-1226.238
G18 G3 X-1226.838 Z7.6 K0.6
G0 Z41
G17

(dog_hole_02_widen)
G0 X-1226.838 Y-401
Z41
Z31
G1 Z27 F283.3
Z7.6
G18 G2 X-1226.238 Z7 I0.6
G1 X-1225.638 F850
G17 G3 X-1225.038 Y-400.4 J0.6
X-1234.838 I-4.9
X-1225.038 I4.9
X-1225.638 Y-399.8 I-0.6
G1 X-1226.238
G18 G3 X-1226.838 Z7.6 K0.6
G0 Z41
G17

(dog_hole_02_widen)
G0 X-1226.838 Y-476
Z41
Z31
G1 Z27 F283.3
Z7.6
G18 G2 X-1226.238 Z7 I0.6
G1 X-1225.638 F850
G17 G3 X-1225.038 Y-475.4 J0.6
X-1234.838 I-4.9
X-1225.038 I4.9
X-1225.638 Y-474.8 I-0.6
G1 X-1226.238
G18 G3 X-1226.838 Z7.6 K0.6
G0 Z41
G17

(dog_hole_02_widen)
G0 X-1226.838 Y-551
Z41
Z31
G1 Z27 F283.3
Z7.6
G18 G2 X-1226.238 Z7 I0.6
G1 X-1225.638 F850
G17 G3 X-1225.038 Y-550.4 J0.6
X-1234.838 I-4.9
X-1225.038 I4.9
X-1225.638 Y-549.8 I-0.6
G1 X-1226.238
G18 G3 X-1226.838 Z7.6 K0.6
G0 Z41
G17

(dog_hole_02_widen)
G0 X-1226.838 Y-626
Z41
Z31
G1 Z27 F283.3
Z7.6
G18 G2 X-1226.238 Z7 I0.6
G1 X-1225.638 F850
G17 G3 X-1225.038 Y-625.4 J0.6
X-1234.838 I-4.9
X-1225.038 I4.9
X-1225.638 Y-624.8 I-0.6
G1 X-1226.238
G18 G3 X-1226.838 Z7.6 K0.6
G0 Z41
G17
M30
%
