%
(1001)
(origin bottom left anchor hole stock bottom)
(T1  D=6 CR=0 - ZMIN=7 - flat end mill)
G90 G94
G17
G21

(dog_hole_01_widen)
M9
T1 M6
S15000 M3
G54
G0 X48.062 Y49
Z41
Z31
G1 Z27 F283.3
Z7.6
G18 G2 X48.662 Z7 I0.6
G1 X49.262 F850
G17 G3 X49.862 Y49.6 J0.6
X40.262 I-4.8
X49.862 I4.8
X49.262 Y50.2 I-0.6
G1 X48.662
G18 G3 X48.062 Z7.6 K0.6
G0 Z41
G17

(dog_hole_01_widen)
G0 X48.062 Y-26
Z41
Z31
G1 Z27 F283.3
Z7.6
G18 G2 X48.662 Z7 I0.6
G1 X49.262 F850
G17 G3 X49.862 Y-25.4 J0.6
X40.262 I-4.8
X49.862 I4.8
X49.262 Y-24.8 I-0.6
G1 X48.662
G18 G3 X48.062 Z7.6 K0.6
G0 Z41
G17

(dog_hole_01_widen)
G0 X48.062 Y-101
Z41
Z31
G1 Z27 F283.3
Z7.6
G18 G2 X48.662 Z7 I0.6
G1 X49.262 F850
G17 G3 X49.862 Y-100.4 J0.6
X40.262 I-4.8
X49.862 I4.8
X49.262 Y-99.8 I-0.6
G1 X48.662
G18 G3 X48.062 Z7.6 K0.6
G0 Z41
G17

(dog_hole_01_widen)
G0 X48.062 Y-176
Z41
Z31
G1 Z27 F283.3
Z7.6
G18 G2 X48.662 Z7 I0.6
G1 X49.262 F850
G17 G3 X49.862 Y-175.4 J0.6
X40.262 I-4.8
X49.862 I4.8
X49.262 Y-174.8 I-0.6
G1 X48.662
G18 G3 X48.062 Z7.6 K0.6
G0 Z41
G17

(dog_hole_01_widen)
G0 X48.062 Y-251
Z41
Z31
G1 Z27 F283.3
Z7.6
G18 G2 X48.662 Z7 I0.6
G1 X49.262 F850
G17 G3 X49.862 Y-250.4 J0.6
X40.262 I-4.8
X49.862 I4.8
X49.262 Y-249.8 I-0.6
G1 X48.662
G18 G3 X48.062 Z7.6 K0.6
G0 Z41
G17

(dog_hole_01_widen)
G0 X48.062 Y-326
Z41
Z31
G1 Z27 F283.3
Z7.6
G18 G2 X48.662 Z7 I0.6
G1 X49.262 F850
G17 G3 X49.862 Y-325.4 J0.6
X40.262 I-4.8
X49.862 I4.8
X49.262 Y-324.8 I-0.6
G1 X48.662
G18 G3 X48.062 Z7.6 K0.6
G0 Z41
G17

(dog_hole_01_widen)
G0 X48.062 Y-401
Z41
Z31
G1 Z27 F283.3
Z7.6
G18 G2 X48.662 Z7 I0.6
G1 X49.262 F850
G17 G3 X49.862 Y-400.4 J0.6
X40.262 I-4.8
X49.862 I4.8
X49.262 Y-399.8 I-0.6
G1 X48.662
G18 G3 X48.062 Z7.6 K0.6
G0 Z41
G17

(dog_hole_01_widen)
G0 X48.062 Y-476
Z41
Z31
G1 Z27 F283.3
Z7.6
G18 G2 X48.662 Z7 I0.6
G1 X49.262 F850
G17 G3 X49.862 Y-475.4 J0.6
X40.262 I-4.8
X49.862 I4.8
X49.262 Y-474.8 I-0.6
G1 X48.662
G18 G3 X48.062 Z7.6 K0.6
G0 Z41
G17

(dog_hole_01_widen)
G0 X48.062 Y-551
Z41
Z31
G1 Z27 F283.3
Z7.6
G18 G2 X48.662 Z7 I0.6
G1 X49.262 F850
G17 G3 X49.862 Y-550.4 J0.6
X40.262 I-4.8
X49.862 I4.8
X49.262 Y-549.8 I-0.6
G1 X48.662
G18 G3 X48.062 Z7.6 K0.6
G0 Z41
G17

(dog_hole_01_widen)
G0 X48.062 Y-626
Z41
Z31
G1 Z27 F283.3
Z7.6
G18 G2 X48.662 Z7 I0.6
G1 X49.262 F850
G17 G3 X49.862 Y-625.4 J0.6
X40.262 I-4.8
X49.862 I4.8
X49.262 Y-624.8 I-0.6
G1 X48.662
G18 G3 X48.062 Z7.6 K0.6
G0 Z41
G17

(dog_hole_01_widen)
G0 X-26.938 Y49
Z41
Z31
G1 Z27 F283.3
Z7.6
G18 G2 X-26.338 Z7 I0.6
G1 X-25.738 F850
G17 G3 X-25.138 Y49.6 J0.6
X-34.738 I-4.8
X-25.138 I4.8
X-25.738 Y50.2 I-0.6
G1 X-26.338
G18 G3 X-26.938 Z7.6 K0.6
G0 Z41
G17

(dog_hole_01_widen)
G0 X-26.938 Y-26
Z41
Z31
G1 Z27 F283.3
Z7.6
G18 G2 X-26.338 Z7 I0.6
G1 X-25.738 F850
G17 G3 X-25.138 Y-25.4 J0.6
X-34.738 I-4.8
X-25.138 I4.8
X-25.738 Y-24.8 I-0.6
G1 X-26.338
G18 G3 X-26.938 Z7.6 K0.6
G0 Z41
G17

(dog_hole_01_widen)
G0 X-26.938 Y-101
Z41
Z31
G1 Z27 F283.3
Z7.6
G18 G2 X-26.338 Z7 I0.6
G1 X-25.738 F850
G17 G3 X-25.138 Y-100.4 J0.6
X-34.738 I-4.8
X-25.138 I4.8
X-25.738 Y-99.8 I-0.6
G1 X-26.338
G18 G3 X-26.938 Z7.6 K0.6
G0 Z41
G17

(dog_hole_01_widen)
G0 X-26.938 Y-176
Z41
Z31
G1 Z27 F283.3
Z7.6
G18 G2 X-26.338 Z7 I0.6
G1 X-25.738 F850
G17 G3 X-25.138 Y-175.4 J0.6
X-34.738 I-4.8
X-25.138 I4.8
X-25.738 Y-174.8 I-0.6
G1 X-26.338
G18 G3 X-26.938 Z7.6 K0.6
G0 Z41
G17

(dog_hole_01_widen)
G0 X-26.938 Y-251
Z41
Z31
G1 Z27 F283.3
Z7.6
G18 G2 X-26.338 Z7 I0.6
G1 X-25.738 F850
G17 G3 X-25.138 Y-250.4 J0.6
X-34.738 I-4.8
X-25.138 I4.8
X-25.738 Y-249.8 I-0.6
G1 X-26.338
G18 G3 X-26.938 Z7.6 K0.6
G0 Z41
G17

(dog_hole_01_widen)
G0 X-26.938 Y-326
Z41
Z31
G1 Z27 F283.3
Z7.6
G18 G2 X-26.338 Z7 I0.6
G1 X-25.738 F850
G17 G3 X-25.138 Y-325.4 J0.6
X-34.738 I-4.8
X-25.138 I4.8
X-25.738 Y-324.8 I-0.6
G1 X-26.338
G18 G3 X-26.938 Z7.6 K0.6
G0 Z41
G17

(dog_hole_01_widen)
G0 X-26.938 Y-401
Z41
Z31
G1 Z27 F283.3
Z7.6
G18 G2 X-26.338 Z7 I0.6
G1 X-25.738 F850
G17 G3 X-25.138 Y-400.4 J0.6
X-34.738 I-4.8
X-25.138 I4.8
X-25.738 Y-399.8 I-0.6
G1 X-26.338
G18 G3 X-26.938 Z7.6 K0.6
G0 Z41
G17

(dog_hole_01_widen)
G0 X-26.938 Y-476
Z41
Z31
G1 Z27 F283.3
Z7.6
G18 G2 X-26.338 Z7 I0.6
G1 X-25.738 F850
G17 G3 X-25.138 Y-475.4 J0.6
X-34.738 I-4.8
X-25.138 I4.8
X-25.738 Y-474.8 I-0.6
G1 X-26.338
G18 G3 X-26.938 Z7.6 K0.6
G0 Z41
G17

(dog_hole_01_widen)
G0 X-26.938 Y-551
Z41
Z31
G1 Z27 F283.3
Z7.6
G18 G2 X-26.338 Z7 I0.6
G1 X-25.738 F850
G17 G3 X-25.138 Y-550.4 J0.6
X-34.738 I-4.8
X-25.138 I4.8
X-25.738 Y-549.8 I-0.6
G1 X-26.338
G18 G3 X-26.938 Z7.6 K0.6
G0 Z41
G17

(dog_hole_01_widen)
G0 X-26.938 Y-626
Z41
Z31
G1 Z27 F283.3
Z7.6
G18 G2 X-26.338 Z7 I0.6
G1 X-25.738 F850
G17 G3 X-25.138 Y-625.4 J0.6
X-34.738 I-4.8
X-25.138 I4.8
X-25.738 Y-624.8 I-0.6
G1 X-26.338
G18 G3 X-26.938 Z7.6 K0.6
G0 Z41
G17

(dog_hole_01_widen)
G0 X-101.938 Y49
Z41
Z31
G1 Z27 F283.3
Z7.6
G18 G2 X-101.338 Z7 I0.6
G1 X-100.738 F850
G17 G3 X-100.138 Y49.6 J0.6
X-109.738 I-4.8
X-100.138 I4.8
X-100.738 Y50.2 I-0.6
G1 X-101.338
G18 G3 X-101.938 Z7.6 K0.6
G0 Z41
G17

(dog_hole_01_widen)
G0 X-101.938 Y-26
Z41
Z31
G1 Z27 F283.3
Z7.6
G18 G2 X-101.338 Z7 I0.6
G1 X-100.738 F850
G17 G3 X-100.138 Y-25.4 J0.6
X-109.738 I-4.8
X-100.138 I4.8
X-100.738 Y-24.8 I-0.6
G1 X-101.338
G18 G3 X-101.938 Z7.6 K0.6
G0 Z41
G17

(dog_hole_01_widen)
G0 X-101.938 Y-101
Z41
Z31
G1 Z27 F283.3
Z7.6
G18 G2 X-101.338 Z7 I0.6
G1 X-100.738 F850
G17 G3 X-100.138 Y-100.4 J0.6
X-109.738 I-4.8
X-100.138 I4.8
X-100.738 Y-99.8 I-0.6
G1 X-101.338
G18 G3 X-101.938 Z7.6 K0.6
G0 Z41
G17

(dog_hole_01_widen)
G0 X-101.938 Y-176
Z41
Z31
G1 Z27 F283.3
Z7.6
G18 G2 X-101.338 Z7 I0.6
G1 X-100.738 F850
G17 G3 X-100.138 Y-175.4 J0.6
X-109.738 I-4.8
X-100.138 I4.8
X-100.738 Y-174.8 I-0.6
G1 X-101.338
G18 G3 X-101.938 Z7.6 K0.6
G0 Z41
G17

(dog_hole_01_widen)
G0 X-101.938 Y-251
Z41
Z31
G1 Z27 F283.3
Z7.6
G18 G2 X-101.338 Z7 I0.6
G1 X-100.738 F850
G17 G3 X-100.138 Y-250.4 J0.6
X-109.738 I-4.8
X-100.138 I4.8
X-100.738 Y-249.8 I-0.6
G1 X-101.338
G18 G3 X-101.938 Z7.6 K0.6
G0 Z41
G17

(dog_hole_01_widen)
G0 X-101.938 Y-326
Z41
Z31
G1 Z27 F283.3
Z7.6
G18 G2 X-101.338 Z7 I0.6
G1 X-100.738 F850
G17 G3 X-100.138 Y-325.4 J0.6
X-109.738 I-4.8
X-100.138 I4.8
X-100.738 Y-324.8 I-0.6
G1 X-101.338
G18 G3 X-101.938 Z7.6 K0.6
G0 Z41
G17

(dog_hole_01_widen)
G0 X-101.938 Y-401
Z41
Z31
G1 Z27 F283.3
Z7.6
G18 G2 X-101.338 Z7 I0.6
G1 X-100.738 F850
G17 G3 X-100.138 Y-400.4 J0.6
X-109.738 I-4.8
X-100.138 I4.8
X-100.738 Y-399.8 I-0.6
G1 X-101.338
G18 G3 X-101.938 Z7.6 K0.6
G0 Z41
G17

(dog_hole_01_widen)
G0 X-101.938 Y-476
Z41
Z31
G1 Z27 F283.3
Z7.6
G18 G2 X-101.338 Z7 I0.6
G1 X-100.738 F850
G17 G3 X-100.138 Y-475.4 J0.6
X-109.738 I-4.8
X-100.138 I4.8
X-100.738 Y-474.8 I-0.6
G1 X-101.338
G18 G3 X-101.938 Z7.6 K0.6
G0 Z41
G17

(dog_hole_01_widen)
G0 X-101.938 Y-551
Z41
Z31
G1 Z27 F283.3
Z7.6
G18 G2 X-101.338 Z7 I0.6
G1 X-100.738 F850
G17 G3 X-100.138 Y-550.4 J0.6
X-109.738 I-4.8
X-100.138 I4.8
X-100.738 Y-549.8 I-0.6
G1 X-101.338
G18 G3 X-101.938 Z7.6 K0.6
G0 Z41
G17

(dog_hole_01_widen)
G0 X-101.938 Y-626
Z41
Z31
G1 Z27 F283.3
Z7.6
G18 G2 X-101.338 Z7 I0.6
G1 X-100.738 F850
G17 G3 X-100.138 Y-625.4 J0.6
X-109.738 I-4.8
X-100.138 I4.8
X-100.738 Y-624.8 I-0.6
G1 X-101.338
G18 G3 X-101.938 Z7.6 K0.6
G0 Z41
G17

(dog_hole_01_widen)
G0 X-176.938 Y49
Z41
Z31
G1 Z27 F283.3
Z7.6
G18 G2 X-176.338 Z7 I0.6
G1 X-175.738 F850
G17 G3 X-175.138 Y49.6 J0.6
X-184.738 I-4.8
X-175.138 I4.8
X-175.738 Y50.2 I-0.6
G1 X-176.338
G18 G3 X-176.938 Z7.6 K0.6
G0 Z41
G17

(dog_hole_01_widen)
G0 X-176.938 Y-26
Z41
Z31
G1 Z27 F283.3
Z7.6
G18 G2 X-176.338 Z7 I0.6
G1 X-175.738 F850
G17 G3 X-175.138 Y-25.4 J0.6
X-184.738 I-4.8
X-175.138 I4.8
X-175.738 Y-24.8 I-0.6
G1 X-176.338
G18 G3 X-176.938 Z7.6 K0.6
G0 Z41
G17

(dog_hole_01_widen)
G0 X-176.938 Y-101
Z41
Z31
G1 Z27 F283.3
Z7.6
G18 G2 X-176.338 Z7 I0.6
G1 X-175.738 F850
G17 G3 X-175.138 Y-100.4 J0.6
X-184.738 I-4.8
X-175.138 I4.8
X-175.738 Y-99.8 I-0.6
G1 X-176.338
G18 G3 X-176.938 Z7.6 K0.6
G0 Z41
G17

(dog_hole_01_widen)
G0 X-176.938 Y-176
Z41
Z31
G1 Z27 F283.3
Z7.6
G18 G2 X-176.338 Z7 I0.6
G1 X-175.738 F850
G17 G3 X-175.138 Y-175.4 J0.6
X-184.738 I-4.8
X-175.138 I4.8
X-175.738 Y-174.8 I-0.6
G1 X-176.338
G18 G3 X-176.938 Z7.6 K0.6
G0 Z41
G17

(dog_hole_01_widen)
G0 X-176.938 Y-251
Z41
Z31
G1 Z27 F283.3
Z7.6
G18 G2 X-176.338 Z7 I0.6
G1 X-175.738 F850
G17 G3 X-175.138 Y-250.4 J0.6
X-184.738 I-4.8
X-175.138 I4.8
X-175.738 Y-249.8 I-0.6
G1 X-176.338
G18 G3 X-176.938 Z7.6 K0.6
G0 Z41
G17

(dog_hole_01_widen)
G0 X-176.938 Y-326
Z41
Z31
G1 Z27 F283.3
Z7.6
G18 G2 X-176.338 Z7 I0.6
G1 X-175.738 F850
G17 G3 X-175.138 Y-325.4 J0.6
X-184.738 I-4.8
X-175.138 I4.8
X-175.738 Y-324.8 I-0.6
G1 X-176.338
G18 G3 X-176.938 Z7.6 K0.6
G0 Z41
G17

(dog_hole_01_widen)
G0 X-176.938 Y-401
Z41
Z31
G1 Z27 F283.3
Z7.6
G18 G2 X-176.338 Z7 I0.6
G1 X-175.738 F850
G17 G3 X-175.138 Y-400.4 J0.6
X-184.738 I-4.8
X-175.138 I4.8
X-175.738 Y-399.8 I-0.6
G1 X-176.338
G18 G3 X-176.938 Z7.6 K0.6
G0 Z41
G17

(dog_hole_01_widen)
G0 X-176.938 Y-476
Z41
Z31
G1 Z27 F283.3
Z7.6
G18 G2 X-176.338 Z7 I0.6
G1 X-175.738 F850
G17 G3 X-175.138 Y-475.4 J0.6
X-184.738 I-4.8
X-175.138 I4.8
X-175.738 Y-474.8 I-0.6
G1 X-176.338
G18 G3 X-176.938 Z7.6 K0.6
G0 Z41
G17

(dog_hole_01_widen)
G0 X-176.938 Y-551
Z41
Z31
G1 Z27 F283.3
Z7.6
G18 G2 X-176.338 Z7 I0.6
G1 X-175.738 F850
G17 G3 X-175.138 Y-550.4 J0.6
X-184.738 I-4.8
X-175.138 I4.8
X-175.738 Y-549.8 I-0.6
G1 X-176.338
G18 G3 X-176.938 Z7.6 K0.6
G0 Z41
G17

(dog_hole_01_widen)
G0 X-176.938 Y-626
Z41
Z31
G1 Z27 F283.3
Z7.6
G18 G2 X-176.338 Z7 I0.6
G1 X-175.738 F850
G17 G3 X-175.138 Y-625.4 J0.6
X-184.738 I-4.8
X-175.138 I4.8
X-175.738 Y-624.8 I-0.6
G1 X-176.338
G18 G3 X-176.938 Z7.6 K0.6
G0 Z41
G17

(dog_hole_01_widen)
G0 X-251.938 Y49
Z41
Z31
G1 Z27 F283.3
Z7.6
G18 G2 X-251.338 Z7 I0.6
G1 X-250.738 F850
G17 G3 X-250.138 Y49.6 J0.6
X-259.738 I-4.8
X-250.138 I4.8
X-250.738 Y50.2 I-0.6
G1 X-251.338
G18 G3 X-251.938 Z7.6 K0.6
G0 Z41
G17

(dog_hole_01_widen)
G0 X-251.938 Y-26
Z41
Z31
G1 Z27 F283.3
Z7.6
G18 G2 X-251.338 Z7 I0.6
G1 X-250.738 F850
G17 G3 X-250.138 Y-25.4 J0.6
X-259.738 I-4.8
X-250.138 I4.8
X-250.738 Y-24.8 I-0.6
G1 X-251.338
G18 G3 X-251.938 Z7.6 K0.6
G0 Z41
G17

(dog_hole_01_widen)
G0 X-251.938 Y-101
Z41
Z31
G1 Z27 F283.3
Z7.6
G18 G2 X-251.338 Z7 I0.6
G1 X-250.738 F850
G17 G3 X-250.138 Y-100.4 J0.6
X-259.738 I-4.8
X-250.138 I4.8
X-250.738 Y-99.8 I-0.6
G1 X-251.338
G18 G3 X-251.938 Z7.6 K0.6
G0 Z41
G17

(dog_hole_01_widen)
G0 X-251.938 Y-176
Z41
Z31
G1 Z27 F283.3
Z7.6
G18 G2 X-251.338 Z7 I0.6
G1 X-250.738 F850
G17 G3 X-250.138 Y-175.4 J0.6
X-259.738 I-4.8
X-250.138 I4.8
X-250.738 Y-174.8 I-0.6
G1 X-251.338
G18 G3 X-251.938 Z7.6 K0.6
G0 Z41
G17

(dog_hole_01_widen)
G0 X-251.938 Y-251
Z41
Z31
G1 Z27 F283.3
Z7.6
G18 G2 X-251.338 Z7 I0.6
G1 X-250.738 F850
G17 G3 X-250.138 Y-250.4 J0.6
X-259.738 I-4.8
X-250.138 I4.8
X-250.738 Y-249.8 I-0.6
G1 X-251.338
G18 G3 X-251.938 Z7.6 K0.6
G0 Z41
G17

(dog_hole_01_widen)
G0 X-251.938 Y-326
Z41
Z31
G1 Z27 F283.3
Z7.6
G18 G2 X-251.338 Z7 I0.6
G1 X-250.738 F850
G17 G3 X-250.138 Y-325.4 J0.6
X-259.738 I-4.8
X-250.138 I4.8
X-250.738 Y-324.8 I-0.6
G1 X-251.338
G18 G3 X-251.938 Z7.6 K0.6
G0 Z41
G17

(dog_hole_01_widen)
G0 X-251.938 Y-401
Z41
Z31
G1 Z27 F283.3
Z7.6
G18 G2 X-251.338 Z7 I0.6
G1 X-250.738 F850
G17 G3 X-250.138 Y-400.4 J0.6
X-259.738 I-4.8
X-250.138 I4.8
X-250.738 Y-399.8 I-0.6
G1 X-251.338
G18 G3 X-251.938 Z7.6 K0.6
G0 Z41
G17

(dog_hole_01_widen)
G0 X-251.938 Y-476
Z41
Z31
G1 Z27 F283.3
Z7.6
G18 G2 X-251.338 Z7 I0.6
G1 X-250.738 F850
G17 G3 X-250.138 Y-475.4 J0.6
X-259.738 I-4.8
X-250.138 I4.8
X-250.738 Y-474.8 I-0.6
G1 X-251.338
G18 G3 X-251.938 Z7.6 K0.6
G0 Z41
G17

(dog_hole_01_widen)
G0 X-251.938 Y-551
Z41
Z31
G1 Z27 F283.3
Z7.6
G18 G2 X-251.338 Z7 I0.6
G1 X-250.738 F850
G17 G3 X-250.138 Y-550.4 J0.6
X-259.738 I-4.8
X-250.138 I4.8
X-250.738 Y-549.8 I-0.6
G1 X-251.338
G18 G3 X-251.938 Z7.6 K0.6
G0 Z41
G17

(dog_hole_01_widen)
G0 X-251.938 Y-626
Z41
Z31
G1 Z27 F283.3
Z7.6
G18 G2 X-251.338 Z7 I0.6
G1 X-250.738 F850
G17 G3 X-250.138 Y-625.4 J0.6
X-259.738 I-4.8
X-250.138 I4.8
X-250.738 Y-624.8 I-0.6
G1 X-251.338
G18 G3 X-251.938 Z7.6 K0.6
G0 Z41
G17

(dog_hole_01_widen)
G0 X-326.938 Y49
Z41
Z31
G1 Z27 F283.3
Z7.6
G18 G2 X-326.338 Z7 I0.6
G1 X-325.738 F850
G17 G3 X-325.138 Y49.6 J0.6
X-334.738 I-4.8
X-325.138 I4.8
X-325.738 Y50.2 I-0.6
G1 X-326.338
G18 G3 X-326.938 Z7.6 K0.6
G0 Z41
G17

(dog_hole_01_widen)
G0 X-326.938 Y-26
Z41
Z31
G1 Z27 F283.3
Z7.6
G18 G2 X-326.338 Z7 I0.6
G1 X-325.738 F850
G17 G3 X-325.138 Y-25.4 J0.6
X-334.738 I-4.8
X-325.138 I4.8
X-325.738 Y-24.8 I-0.6
G1 X-326.338
G18 G3 X-326.938 Z7.6 K0.6
G0 Z41
G17

(dog_hole_01_widen)
G0 X-326.938 Y-101
Z41
Z31
G1 Z27 F283.3
Z7.6
G18 G2 X-326.338 Z7 I0.6
G1 X-325.738 F850
G17 G3 X-325.138 Y-100.4 J0.6
X-334.738 I-4.8
X-325.138 I4.8
X-325.738 Y-99.8 I-0.6
G1 X-326.338
G18 G3 X-326.938 Z7.6 K0.6
G0 Z41
G17

(dog_hole_01_widen)
G0 X-326.938 Y-176
Z41
Z31
G1 Z27 F283.3
Z7.6
G18 G2 X-326.338 Z7 I0.6
G1 X-325.738 F850
G17 G3 X-325.138 Y-175.4 J0.6
X-334.738 I-4.8
X-325.138 I4.8
X-325.738 Y-174.8 I-0.6
G1 X-326.338
G18 G3 X-326.938 Z7.6 K0.6
G0 Z41
G17

(dog_hole_01_widen)
G0 X-326.938 Y-251
Z41
Z31
G1 Z27 F283.3
Z7.6
G18 G2 X-326.338 Z7 I0.6
G1 X-325.738 F850
G17 G3 X-325.138 Y-250.4 J0.6
X-334.738 I-4.8
X-325.138 I4.8
X-325.738 Y-249.8 I-0.6
G1 X-326.338
G18 G3 X-326.938 Z7.6 K0.6
G0 Z41
G17

(dog_hole_01_widen)
G0 X-326.938 Y-326
Z41
Z31
G1 Z27 F283.3
Z7.6
G18 G2 X-326.338 Z7 I0.6
G1 X-325.738 F850
G17 G3 X-325.138 Y-325.4 J0.6
X-334.738 I-4.8
X-325.138 I4.8
X-325.738 Y-324.8 I-0.6
G1 X-326.338
G18 G3 X-326.938 Z7.6 K0.6
G0 Z41
G17

(dog_hole_01_widen)
G0 X-326.938 Y-401
Z41
Z31
G1 Z27 F283.3
Z7.6
G18 G2 X-326.338 Z7 I0.6
G1 X-325.738 F850
G17 G3 X-325.138 Y-400.4 J0.6
X-334.738 I-4.8
X-325.138 I4.8
X-325.738 Y-399.8 I-0.6
G1 X-326.338
G18 G3 X-326.938 Z7.6 K0.6
G0 Z41
G17

(dog_hole_01_widen)
G0 X-326.938 Y-476
Z41
Z31
G1 Z27 F283.3
Z7.6
G18 G2 X-326.338 Z7 I0.6
G1 X-325.738 F850
G17 G3 X-325.138 Y-475.4 J0.6
X-334.738 I-4.8
X-325.138 I4.8
X-325.738 Y-474.8 I-0.6
G1 X-326.338
G18 G3 X-326.938 Z7.6 K0.6
G0 Z41
G17

(dog_hole_01_widen)
G0 X-326.938 Y-551
Z41
Z31
G1 Z27 F283.3
Z7.6
G18 G2 X-326.338 Z7 I0.6
G1 X-325.738 F850
G17 G3 X-325.138 Y-550.4 J0.6
X-334.738 I-4.8
X-325.138 I4.8
X-325.738 Y-549.8 I-0.6
G1 X-326.338
G18 G3 X-326.938 Z7.6 K0.6
G0 Z41
G17

(dog_hole_01_widen)
G0 X-326.938 Y-626
Z41
Z31
G1 Z27 F283.3
Z7.6
G18 G2 X-326.338 Z7 I0.6
G1 X-325.738 F850
G17 G3 X-325.138 Y-625.4 J0.6
X-334.738 I-4.8
X-325.138 I4.8
X-325.738 Y-624.8 I-0.6
G1 X-326.338
G18 G3 X-326.938 Z7.6 K0.6
G0 Z41
G17

(dog_hole_01_widen)
G0 X-401.938 Y49
Z41
Z31
G1 Z27 F283.3
Z7.6
G18 G2 X-401.338 Z7 I0.6
G1 X-400.738 F850
G17 G3 X-400.138 Y49.6 J0.6
X-409.738 I-4.8
X-400.138 I4.8
X-400.738 Y50.2 I-0.6
G1 X-401.338
G18 G3 X-401.938 Z7.6 K0.6
G0 Z41
G17

(dog_hole_01_widen)
G0 X-401.938 Y-26
Z41
Z31
G1 Z27 F283.3
Z7.6
G18 G2 X-401.338 Z7 I0.6
G1 X-400.738 F850
G17 G3 X-400.138 Y-25.4 J0.6
X-409.738 I-4.8
X-400.138 I4.8
X-400.738 Y-24.8 I-0.6
G1 X-401.338
G18 G3 X-401.938 Z7.6 K0.6
G0 Z41
G17

(dog_hole_01_widen)
G0 X-401.938 Y-101
Z41
Z31
G1 Z27 F283.3
Z7.6
G18 G2 X-401.338 Z7 I0.6
G1 X-400.738 F850
G17 G3 X-400.138 Y-100.4 J0.6
X-409.738 I-4.8
X-400.138 I4.8
X-400.738 Y-99.8 I-0.6
G1 X-401.338
G18 G3 X-401.938 Z7.6 K0.6
G0 Z41
G17

(dog_hole_01_widen)
G0 X-401.938 Y-176
Z41
Z31
G1 Z27 F283.3
Z7.6
G18 G2 X-401.338 Z7 I0.6
G1 X-400.738 F850
G17 G3 X-400.138 Y-175.4 J0.6
X-409.738 I-4.8
X-400.138 I4.8
X-400.738 Y-174.8 I-0.6
G1 X-401.338
G18 G3 X-401.938 Z7.6 K0.6
G0 Z41
G17

(dog_hole_01_widen)
G0 X-401.938 Y-251
Z41
Z31
G1 Z27 F283.3
Z7.6
G18 G2 X-401.338 Z7 I0.6
G1 X-400.738 F850
G17 G3 X-400.138 Y-250.4 J0.6
X-409.738 I-4.8
X-400.138 I4.8
X-400.738 Y-249.8 I-0.6
G1 X-401.338
G18 G3 X-401.938 Z7.6 K0.6
G0 Z41
G17

(dog_hole_01_widen)
G0 X-401.938 Y-326
Z41
Z31
G1 Z27 F283.3
Z7.6
G18 G2 X-401.338 Z7 I0.6
G1 X-400.738 F850
G17 G3 X-400.138 Y-325.4 J0.6
X-409.738 I-4.8
X-400.138 I4.8
X-400.738 Y-324.8 I-0.6
G1 X-401.338
G18 G3 X-401.938 Z7.6 K0.6
G0 Z41
G17

(dog_hole_01_widen)
G0 X-401.938 Y-401
Z41
Z31
G1 Z27 F283.3
Z7.6
G18 G2 X-401.338 Z7 I0.6
G1 X-400.738 F850
G17 G3 X-400.138 Y-400.4 J0.6
X-409.738 I-4.8
X-400.138 I4.8
X-400.738 Y-399.8 I-0.6
G1 X-401.338
G18 G3 X-401.938 Z7.6 K0.6
G0 Z41
G17

(dog_hole_01_widen)
G0 X-401.938 Y-476
Z41
Z31
G1 Z27 F283.3
Z7.6
G18 G2 X-401.338 Z7 I0.6
G1 X-400.738 F850
G17 G3 X-400.138 Y-475.4 J0.6
X-409.738 I-4.8
X-400.138 I4.8
X-400.738 Y-474.8 I-0.6
G1 X-401.338
G18 G3 X-401.938 Z7.6 K0.6
G0 Z41
G17

(dog_hole_01_widen)
G0 X-401.938 Y-551
Z41
Z31
G1 Z27 F283.3
Z7.6
G18 G2 X-401.338 Z7 I0.6
G1 X-400.738 F850
G17 G3 X-400.138 Y-550.4 J0.6
X-409.738 I-4.8
X-400.138 I4.8
X-400.738 Y-549.8 I-0.6
G1 X-401.338
G18 G3 X-401.938 Z7.6 K0.6
G0 Z41
G17

(dog_hole_01_widen)
G0 X-401.938 Y-626
Z41
Z31
G1 Z27 F283.3
Z7.6
G18 G2 X-401.338 Z7 I0.6
G1 X-400.738 F850
G17 G3 X-400.138 Y-625.4 J0.6
X-409.738 I-4.8
X-400.138 I4.8
X-400.738 Y-624.8 I-0.6
G1 X-401.338
G18 G3 X-401.938 Z7.6 K0.6
G0 Z41
G17

(dog_hole_01_widen)
G0 X-476.938 Y49
Z41
Z31
G1 Z27 F283.3
Z7.6
G18 G2 X-476.338 Z7 I0.6
G1 X-475.738 F850
G17 G3 X-475.138 Y49.6 J0.6
X-484.738 I-4.8
X-475.138 I4.8
X-475.738 Y50.2 I-0.6
G1 X-476.338
G18 G3 X-476.938 Z7.6 K0.6
G0 Z41
G17

(dog_hole_01_widen)
G0 X-476.938 Y-26
Z41
Z31
G1 Z27 F283.3
Z7.6
G18 G2 X-476.338 Z7 I0.6
G1 X-475.738 F850
G17 G3 X-475.138 Y-25.4 J0.6
X-484.738 I-4.8
X-475.138 I4.8
X-475.738 Y-24.8 I-0.6
G1 X-476.338
G18 G3 X-476.938 Z7.6 K0.6
G0 Z41
G17

(dog_hole_01_widen)
G0 X-476.938 Y-101
Z41
Z31
G1 Z27 F283.3
Z7.6
G18 G2 X-476.338 Z7 I0.6
G1 X-475.738 F850
G17 G3 X-475.138 Y-100.4 J0.6
X-484.738 I-4.8
X-475.138 I4.8
X-475.738 Y-99.8 I-0.6
G1 X-476.338
G18 G3 X-476.938 Z7.6 K0.6
G0 Z41
G17

(dog_hole_01_widen)
G0 X-476.938 Y-176
Z41
Z31
G1 Z27 F283.3
Z7.6
G18 G2 X-476.338 Z7 I0.6
G1 X-475.738 F850
G17 G3 X-475.138 Y-175.4 J0.6
X-484.738 I-4.8
X-475.138 I4.8
X-475.738 Y-174.8 I-0.6
G1 X-476.338
G18 G3 X-476.938 Z7.6 K0.6
G0 Z41
G17

(dog_hole_01_widen)
G0 X-476.938 Y-251
Z41
Z31
G1 Z27 F283.3
Z7.6
G18 G2 X-476.338 Z7 I0.6
G1 X-475.738 F850
G17 G3 X-475.138 Y-250.4 J0.6
X-484.738 I-4.8
X-475.138 I4.8
X-475.738 Y-249.8 I-0.6
G1 X-476.338
G18 G3 X-476.938 Z7.6 K0.6
G0 Z41
G17

(dog_hole_01_widen)
G0 X-476.938 Y-326
Z41
Z31
G1 Z27 F283.3
Z7.6
G18 G2 X-476.338 Z7 I0.6
G1 X-475.738 F850
G17 G3 X-475.138 Y-325.4 J0.6
X-484.738 I-4.8
X-475.138 I4.8
X-475.738 Y-324.8 I-0.6
G1 X-476.338
G18 G3 X-476.938 Z7.6 K0.6
G0 Z41
G17

(dog_hole_01_widen)
G0 X-476.938 Y-401
Z41
Z31
G1 Z27 F283.3
Z7.6
G18 G2 X-476.338 Z7 I0.6
G1 X-475.738 F850
G17 G3 X-475.138 Y-400.4 J0.6
X-484.738 I-4.8
X-475.138 I4.8
X-475.738 Y-399.8 I-0.6
G1 X-476.338
G18 G3 X-476.938 Z7.6 K0.6
G0 Z41
G17

(dog_hole_01_widen)
G0 X-476.938 Y-476
Z41
Z31
G1 Z27 F283.3
Z7.6
G18 G2 X-476.338 Z7 I0.6
G1 X-475.738 F850
G17 G3 X-475.138 Y-475.4 J0.6
X-484.738 I-4.8
X-475.138 I4.8
X-475.738 Y-474.8 I-0.6
G1 X-476.338
G18 G3 X-476.938 Z7.6 K0.6
G0 Z41
G17

(dog_hole_01_widen)
G0 X-476.938 Y-551
Z41
Z31
G1 Z27 F283.3
Z7.6
G18 G2 X-476.338 Z7 I0.6
G1 X-475.738 F850
G17 G3 X-475.138 Y-550.4 J0.6
X-484.738 I-4.8
X-475.138 I4.8
X-475.738 Y-549.8 I-0.6
G1 X-476.338
G18 G3 X-476.938 Z7.6 K0.6
G0 Z41
G17

(dog_hole_01_widen)
G0 X-476.938 Y-626
Z41
Z31
G1 Z27 F283.3
Z7.6
G18 G2 X-476.338 Z7 I0.6
G1 X-475.738 F850
G17 G3 X-475.138 Y-625.4 J0.6
X-484.738 I-4.8
X-475.138 I4.8
X-475.738 Y-624.8 I-0.6
G1 X-476.338
G18 G3 X-476.938 Z7.6 K0.6
G0 Z41
G17

(dog_hole_01_widen)
G0 X-551.938 Y49
Z41
Z31
G1 Z27 F283.3
Z7.6
G18 G2 X-551.338 Z7 I0.6
G1 X-550.738 F850
G17 G3 X-550.138 Y49.6 J0.6
X-559.738 I-4.8
X-550.138 I4.8
X-550.738 Y50.2 I-0.6
G1 X-551.338
G18 G3 X-551.938 Z7.6 K0.6
G0 Z41
G17

(dog_hole_01_widen)
G0 X-551.938 Y-26
Z41
Z31
G1 Z27 F283.3
Z7.6
G18 G2 X-551.338 Z7 I0.6
G1 X-550.738 F850
G17 G3 X-550.138 Y-25.4 J0.6
X-559.738 I-4.8
X-550.138 I4.8
X-550.738 Y-24.8 I-0.6
G1 X-551.338
G18 G3 X-551.938 Z7.6 K0.6
G0 Z41
G17

(dog_hole_01_widen)
G0 X-551.938 Y-101
Z41
Z31
G1 Z27 F283.3
Z7.6
G18 G2 X-551.338 Z7 I0.6
G1 X-550.738 F850
G17 G3 X-550.138 Y-100.4 J0.6
X-559.738 I-4.8
X-550.138 I4.8
X-550.738 Y-99.8 I-0.6
G1 X-551.338
G18 G3 X-551.938 Z7.6 K0.6
G0 Z41
G17

(dog_hole_01_widen)
G0 X-551.938 Y-176
Z41
Z31
G1 Z27 F283.3
Z7.6
G18 G2 X-551.338 Z7 I0.6
G1 X-550.738 F850
G17 G3 X-550.138 Y-175.4 J0.6
X-559.738 I-4.8
X-550.138 I4.8
X-550.738 Y-174.8 I-0.6
G1 X-551.338
G18 G3 X-551.938 Z7.6 K0.6
G0 Z41
G17

(dog_hole_01_widen)
G0 X-551.938 Y-251
Z41
Z31
G1 Z27 F283.3
Z7.6
G18 G2 X-551.338 Z7 I0.6
G1 X-550.738 F850
G17 G3 X-550.138 Y-250.4 J0.6
X-559.738 I-4.8
X-550.138 I4.8
X-550.738 Y-249.8 I-0.6
G1 X-551.338
G18 G3 X-551.938 Z7.6 K0.6
G0 Z41
G17

(dog_hole_01_widen)
G0 X-551.938 Y-326
Z41
Z31
G1 Z27 F283.3
Z7.6
G18 G2 X-551.338 Z7 I0.6
G1 X-550.738 F850
G17 G3 X-550.138 Y-325.4 J0.6
X-559.738 I-4.8
X-550.138 I4.8
X-550.738 Y-324.8 I-0.6
G1 X-551.338
G18 G3 X-551.938 Z7.6 K0.6
G0 Z41
G17

(dog_hole_01_widen)
G0 X-551.938 Y-401
Z41
Z31
G1 Z27 F283.3
Z7.6
G18 G2 X-551.338 Z7 I0.6
G1 X-550.738 F850
G17 G3 X-550.138 Y-400.4 J0.6
X-559.738 I-4.8
X-550.138 I4.8
X-550.738 Y-399.8 I-0.6
G1 X-551.338
G18 G3 X-551.938 Z7.6 K0.6
G0 Z41
G17

(dog_hole_01_widen)
G0 X-551.938 Y-476
Z41
Z31
G1 Z27 F283.3
Z7.6
G18 G2 X-551.338 Z7 I0.6
G1 X-550.738 F850
G17 G3 X-550.138 Y-475.4 J0.6
X-559.738 I-4.8
X-550.138 I4.8
X-550.738 Y-474.8 I-0.6
G1 X-551.338
G18 G3 X-551.938 Z7.6 K0.6
G0 Z41
G17

(dog_hole_01_widen)
G0 X-551.938 Y-551
Z41
Z31
G1 Z27 F283.3
Z7.6
G18 G2 X-551.338 Z7 I0.6
G1 X-550.738 F850
G17 G3 X-550.138 Y-550.4 J0.6
X-559.738 I-4.8
X-550.138 I4.8
X-550.738 Y-549.8 I-0.6
G1 X-551.338
G18 G3 X-551.938 Z7.6 K0.6
G0 Z41
G17

(dog_hole_01_widen)
G0 X-551.938 Y-626
Z41
Z31
G1 Z27 F283.3
Z7.6
G18 G2 X-551.338 Z7 I0.6
G1 X-550.738 F850
G17 G3 X-550.138 Y-625.4 J0.6
X-559.738 I-4.8
X-550.138 I4.8
X-550.738 Y-624.8 I-0.6
G1 X-551.338
G18 G3 X-551.938 Z7.6 K0.6
G0 Z41
G17

(dog_hole_01_widen)
G0 X-626.938 Y49
Z41
Z31
G1 Z27 F283.3
Z7.6
G18 G2 X-626.338 Z7 I0.6
G1 X-625.738 F850
G17 G3 X-625.138 Y49.6 J0.6
X-634.738 I-4.8
X-625.138 I4.8
X-625.738 Y50.2 I-0.6
G1 X-626.338
G18 G3 X-626.938 Z7.6 K0.6
G0 Z41
G17

(dog_hole_01_widen)
G0 X-626.938 Y-26
Z41
Z31
G1 Z27 F283.3
Z7.6
G18 G2 X-626.338 Z7 I0.6
G1 X-625.738 F850
G17 G3 X-625.138 Y-25.4 J0.6
X-634.738 I-4.8
X-625.138 I4.8
X-625.738 Y-24.8 I-0.6
G1 X-626.338
G18 G3 X-626.938 Z7.6 K0.6
G0 Z41
G17

(dog_hole_01_widen)
G0 X-626.938 Y-101
Z41
Z31
G1 Z27 F283.3
Z7.6
G18 G2 X-626.338 Z7 I0.6
G1 X-625.738 F850
G17 G3 X-625.138 Y-100.4 J0.6
X-634.738 I-4.8
X-625.138 I4.8
X-625.738 Y-99.8 I-0.6
G1 X-626.338
G18 G3 X-626.938 Z7.6 K0.6
G0 Z41
G17

(dog_hole_01_widen)
G0 X-626.938 Y-176
Z41
Z31
G1 Z27 F283.3
Z7.6
G18 G2 X-626.338 Z7 I0.6
G1 X-625.738 F850
G17 G3 X-625.138 Y-175.4 J0.6
X-634.738 I-4.8
X-625.138 I4.8
X-625.738 Y-174.8 I-0.6
G1 X-626.338
G18 G3 X-626.938 Z7.6 K0.6
G0 Z41
G17

(dog_hole_01_widen)
G0 X-626.938 Y-251
Z41
Z31
G1 Z27 F283.3
Z7.6
G18 G2 X-626.338 Z7 I0.6
G1 X-625.738 F850
G17 G3 X-625.138 Y-250.4 J0.6
X-634.738 I-4.8
X-625.138 I4.8
X-625.738 Y-249.8 I-0.6
G1 X-626.338
G18 G3 X-626.938 Z7.6 K0.6
G0 Z41
G17

(dog_hole_01_widen)
G0 X-626.938 Y-326
Z41
Z31
G1 Z27 F283.3
Z7.6
G18 G2 X-626.338 Z7 I0.6
G1 X-625.738 F850
G17 G3 X-625.138 Y-325.4 J0.6
X-634.738 I-4.8
X-625.138 I4.8
X-625.738 Y-324.8 I-0.6
G1 X-626.338
G18 G3 X-626.938 Z7.6 K0.6
G0 Z41
G17

(dog_hole_01_widen)
G0 X-626.938 Y-401
Z41
Z31
G1 Z27 F283.3
Z7.6
G18 G2 X-626.338 Z7 I0.6
G1 X-625.738 F850
G17 G3 X-625.138 Y-400.4 J0.6
X-634.738 I-4.8
X-625.138 I4.8
X-625.738 Y-399.8 I-0.6
G1 X-626.338
G18 G3 X-626.938 Z7.6 K0.6
G0 Z41
G17

(dog_hole_01_widen)
G0 X-626.938 Y-476
Z41
Z31
G1 Z27 F283.3
Z7.6
G18 G2 X-626.338 Z7 I0.6
G1 X-625.738 F850
G17 G3 X-625.138 Y-475.4 J0.6
X-634.738 I-4.8
X-625.138 I4.8
X-625.738 Y-474.8 I-0.6
G1 X-626.338
G18 G3 X-626.938 Z7.6 K0.6
G0 Z41
G17

(dog_hole_01_widen)
G0 X-626.938 Y-551
Z41
Z31
G1 Z27 F283.3
Z7.6
G18 G2 X-626.338 Z7 I0.6
G1 X-625.738 F850
G17 G3 X-625.138 Y-550.4 J0.6
X-634.738 I-4.8
X-625.138 I4.8
X-625.738 Y-549.8 I-0.6
G1 X-626.338
G18 G3 X-626.938 Z7.6 K0.6
G0 Z41
G17

(dog_hole_01_widen)
G0 X-626.938 Y-626
Z41
Z31
G1 Z27 F283.3
Z7.6
G18 G2 X-626.338 Z7 I0.6
G1 X-625.738 F850
G17 G3 X-625.138 Y-625.4 J0.6
X-634.738 I-4.8
X-625.138 I4.8
X-625.738 Y-624.8 I-0.6
G1 X-626.338
G18 G3 X-626.938 Z7.6 K0.6
G0 Z41
G17

(dog_hole_01_widen)
G0 X-701.938 Y49
Z41
Z31
G1 Z27 F283.3
Z7.6
G18 G2 X-701.338 Z7 I0.6
G1 X-700.738 F850
G17 G3 X-700.138 Y49.6 J0.6
X-709.738 I-4.8
X-700.138 I4.8
X-700.738 Y50.2 I-0.6
G1 X-701.338
G18 G3 X-701.938 Z7.6 K0.6
G0 Z41
G17

(dog_hole_01_widen)
G0 X-701.938 Y-26
Z41
Z31
G1 Z27 F283.3
Z7.6
G18 G2 X-701.338 Z7 I0.6
G1 X-700.738 F850
G17 G3 X-700.138 Y-25.4 J0.6
X-709.738 I-4.8
X-700.138 I4.8
X-700.738 Y-24.8 I-0.6
G1 X-701.338
G18 G3 X-701.938 Z7.6 K0.6
G0 Z41
G17

(dog_hole_01_widen)
G0 X-701.938 Y-101
Z41
Z31
G1 Z27 F283.3
Z7.6
G18 G2 X-701.338 Z7 I0.6
G1 X-700.738 F850
G17 G3 X-700.138 Y-100.4 J0.6
X-709.738 I-4.8
X-700.138 I4.8
X-700.738 Y-99.8 I-0.6
G1 X-701.338
G18 G3 X-701.938 Z7.6 K0.6
G0 Z41
G17

(dog_hole_01_widen)
G0 X-701.938 Y-176
Z41
Z31
G1 Z27 F283.3
Z7.6
G18 G2 X-701.338 Z7 I0.6
G1 X-700.738 F850
G17 G3 X-700.138 Y-175.4 J0.6
X-709.738 I-4.8
X-700.138 I4.8
X-700.738 Y-174.8 I-0.6
G1 X-701.338
G18 G3 X-701.938 Z7.6 K0.6
G0 Z41
G17

(dog_hole_01_widen)
G0 X-701.938 Y-251
Z41
Z31
G1 Z27 F283.3
Z7.6
G18 G2 X-701.338 Z7 I0.6
G1 X-700.738 F850
G17 G3 X-700.138 Y-250.4 J0.6
X-709.738 I-4.8
X-700.138 I4.8
X-700.738 Y-249.8 I-0.6
G1 X-701.338
G18 G3 X-701.938 Z7.6 K0.6
G0 Z41
G17

(dog_hole_01_widen)
G0 X-701.938 Y-326
Z41
Z31
G1 Z27 F283.3
Z7.6
G18 G2 X-701.338 Z7 I0.6
G1 X-700.738 F850
G17 G3 X-700.138 Y-325.4 J0.6
X-709.738 I-4.8
X-700.138 I4.8
X-700.738 Y-324.8 I-0.6
G1 X-701.338
G18 G3 X-701.938 Z7.6 K0.6
G0 Z41
G17

(dog_hole_01_widen)
G0 X-701.938 Y-401
Z41
Z31
G1 Z27 F283.3
Z7.6
G18 G2 X-701.338 Z7 I0.6
G1 X-700.738 F850
G17 G3 X-700.138 Y-400.4 J0.6
X-709.738 I-4.8
X-700.138 I4.8
X-700.738 Y-399.8 I-0.6
G1 X-701.338
G18 G3 X-701.938 Z7.6 K0.6
G0 Z41
G17

(dog_hole_01_widen)
G0 X-701.938 Y-476
Z41
Z31
G1 Z27 F283.3
Z7.6
G18 G2 X-701.338 Z7 I0.6
G1 X-700.738 F850
G17 G3 X-700.138 Y-475.4 J0.6
X-709.738 I-4.8
X-700.138 I4.8
X-700.738 Y-474.8 I-0.6
G1 X-701.338
G18 G3 X-701.938 Z7.6 K0.6
G0 Z41
G17

(dog_hole_01_widen)
G0 X-701.938 Y-551
Z41
Z31
G1 Z27 F283.3
Z7.6
G18 G2 X-701.338 Z7 I0.6
G1 X-700.738 F850
G17 G3 X-700.138 Y-550.4 J0.6
X-709.738 I-4.8
X-700.138 I4.8
X-700.738 Y-549.8 I-0.6
G1 X-701.338
G18 G3 X-701.938 Z7.6 K0.6
G0 Z41
G17

(dog_hole_01_widen)
G0 X-701.938 Y-626
Z41
Z31
G1 Z27 F283.3
Z7.6
G18 G2 X-701.338 Z7 I0.6
G1 X-700.738 F850
G17 G3 X-700.138 Y-625.4 J0.6
X-709.738 I-4.8
X-700.138 I4.8
X-700.738 Y-624.8 I-0.6
G1 X-701.338
G18 G3 X-701.938 Z7.6 K0.6
G0 Z41
G17

(dog_hole_01_widen)
G0 X-776.938 Y49
Z41
Z31
G1 Z27 F283.3
Z7.6
G18 G2 X-776.338 Z7 I0.6
G1 X-775.738 F850
G17 G3 X-775.138 Y49.6 J0.6
X-784.738 I-4.8
X-775.138 I4.8
X-775.738 Y50.2 I-0.6
G1 X-776.338
G18 G3 X-776.938 Z7.6 K0.6
G0 Z41
G17

(dog_hole_01_widen)
G0 X-776.938 Y-26
Z41
Z31
G1 Z27 F283.3
Z7.6
G18 G2 X-776.338 Z7 I0.6
G1 X-775.738 F850
G17 G3 X-775.138 Y-25.4 J0.6
X-784.738 I-4.8
X-775.138 I4.8
X-775.738 Y-24.8 I-0.6
G1 X-776.338
G18 G3 X-776.938 Z7.6 K0.6
G0 Z41
G17

(dog_hole_01_widen)
G0 X-776.938 Y-101
Z41
Z31
G1 Z27 F283.3
Z7.6
G18 G2 X-776.338 Z7 I0.6
G1 X-775.738 F850
G17 G3 X-775.138 Y-100.4 J0.6
X-784.738 I-4.8
X-775.138 I4.8
X-775.738 Y-99.8 I-0.6
G1 X-776.338
G18 G3 X-776.938 Z7.6 K0.6
G0 Z41
G17

(dog_hole_01_widen)
G0 X-776.938 Y-176
Z41
Z31
G1 Z27 F283.3
Z7.6
G18 G2 X-776.338 Z7 I0.6
G1 X-775.738 F850
G17 G3 X-775.138 Y-175.4 J0.6
X-784.738 I-4.8
X-775.138 I4.8
X-775.738 Y-174.8 I-0.6
G1 X-776.338
G18 G3 X-776.938 Z7.6 K0.6
G0 Z41
G17

(dog_hole_01_widen)
G0 X-776.938 Y-251
Z41
Z31
G1 Z27 F283.3
Z7.6
G18 G2 X-776.338 Z7 I0.6
G1 X-775.738 F850
G17 G3 X-775.138 Y-250.4 J0.6
X-784.738 I-4.8
X-775.138 I4.8
X-775.738 Y-249.8 I-0.6
G1 X-776.338
G18 G3 X-776.938 Z7.6 K0.6
G0 Z41
G17

(dog_hole_01_widen)
G0 X-776.938 Y-326
Z41
Z31
G1 Z27 F283.3
Z7.6
G18 G2 X-776.338 Z7 I0.6
G1 X-775.738 F850
G17 G3 X-775.138 Y-325.4 J0.6
X-784.738 I-4.8
X-775.138 I4.8
X-775.738 Y-324.8 I-0.6
G1 X-776.338
G18 G3 X-776.938 Z7.6 K0.6
G0 Z41
G17

(dog_hole_01_widen)
G0 X-776.938 Y-401
Z41
Z31
G1 Z27 F283.3
Z7.6
G18 G2 X-776.338 Z7 I0.6
G1 X-775.738 F850
G17 G3 X-775.138 Y-400.4 J0.6
X-784.738 I-4.8
X-775.138 I4.8
X-775.738 Y-399.8 I-0.6
G1 X-776.338
G18 G3 X-776.938 Z7.6 K0.6
G0 Z41
G17

(dog_hole_01_widen)
G0 X-776.938 Y-476
Z41
Z31
G1 Z27 F283.3
Z7.6
G18 G2 X-776.338 Z7 I0.6
G1 X-775.738 F850
G17 G3 X-775.138 Y-475.4 J0.6
X-784.738 I-4.8
X-775.138 I4.8
X-775.738 Y-474.8 I-0.6
G1 X-776.338
G18 G3 X-776.938 Z7.6 K0.6
G0 Z41
G17

(dog_hole_01_widen)
G0 X-776.938 Y-551
Z41
Z31
G1 Z27 F283.3
Z7.6
G18 G2 X-776.338 Z7 I0.6
G1 X-775.738 F850
G17 G3 X-775.138 Y-550.4 J0.6
X-784.738 I-4.8
X-775.138 I4.8
X-775.738 Y-549.8 I-0.6
G1 X-776.338
G18 G3 X-776.938 Z7.6 K0.6
G0 Z41
G17

(dog_hole_01_widen)
G0 X-776.938 Y-626
Z41
Z31
G1 Z27 F283.3
Z7.6
G18 G2 X-776.338 Z7 I0.6
G1 X-775.738 F850
G17 G3 X-775.138 Y-625.4 J0.6
X-784.738 I-4.8
X-775.138 I4.8
X-775.738 Y-624.8 I-0.6
G1 X-776.338
G18 G3 X-776.938 Z7.6 K0.6
G0 Z41
G17

(dog_hole_01_widen)
G0 X-851.938 Y49
Z41
Z31
G1 Z27 F283.3
Z7.6
G18 G2 X-851.338 Z7 I0.6
G1 X-850.738 F850
G17 G3 X-850.138 Y49.6 J0.6
X-859.738 I-4.8
X-850.138 I4.8
X-850.738 Y50.2 I-0.6
G1 X-851.338
G18 G3 X-851.938 Z7.6 K0.6
G0 Z41
G17

(dog_hole_01_widen)
G0 X-851.938 Y-26
Z41
Z31
G1 Z27 F283.3
Z7.6
G18 G2 X-851.338 Z7 I0.6
G1 X-850.738 F850
G17 G3 X-850.138 Y-25.4 J0.6
X-859.738 I-4.8
X-850.138 I4.8
X-850.738 Y-24.8 I-0.6
G1 X-851.338
G18 G3 X-851.938 Z7.6 K0.6
G0 Z41
G17

(dog_hole_01_widen)
G0 X-851.938 Y-101
Z41
Z31
G1 Z27 F283.3
Z7.6
G18 G2 X-851.338 Z7 I0.6
G1 X-850.738 F850
G17 G3 X-850.138 Y-100.4 J0.6
X-859.738 I-4.8
X-850.138 I4.8
X-850.738 Y-99.8 I-0.6
G1 X-851.338
G18 G3 X-851.938 Z7.6 K0.6
G0 Z41
G17

(dog_hole_01_widen)
G0 X-851.938 Y-176
Z41
Z31
G1 Z27 F283.3
Z7.6
G18 G2 X-851.338 Z7 I0.6
G1 X-850.738 F850
G17 G3 X-850.138 Y-175.4 J0.6
X-859.738 I-4.8
X-850.138 I4.8
X-850.738 Y-174.8 I-0.6
G1 X-851.338
G18 G3 X-851.938 Z7.6 K0.6
G0 Z41
G17

(dog_hole_01_widen)
G0 X-851.938 Y-251
Z41
Z31
G1 Z27 F283.3
Z7.6
G18 G2 X-851.338 Z7 I0.6
G1 X-850.738 F850
G17 G3 X-850.138 Y-250.4 J0.6
X-859.738 I-4.8
X-850.138 I4.8
X-850.738 Y-249.8 I-0.6
G1 X-851.338
G18 G3 X-851.938 Z7.6 K0.6
G0 Z41
G17

(dog_hole_01_widen)
G0 X-851.938 Y-326
Z41
Z31
G1 Z27 F283.3
Z7.6
G18 G2 X-851.338 Z7 I0.6
G1 X-850.738 F850
G17 G3 X-850.138 Y-325.4 J0.6
X-859.738 I-4.8
X-850.138 I4.8
X-850.738 Y-324.8 I-0.6
G1 X-851.338
G18 G3 X-851.938 Z7.6 K0.6
G0 Z41
G17

(dog_hole_01_widen)
G0 X-851.938 Y-401
Z41
Z31
G1 Z27 F283.3
Z7.6
G18 G2 X-851.338 Z7 I0.6
G1 X-850.738 F850
G17 G3 X-850.138 Y-400.4 J0.6
X-859.738 I-4.8
X-850.138 I4.8
X-850.738 Y-399.8 I-0.6
G1 X-851.338
G18 G3 X-851.938 Z7.6 K0.6
G0 Z41
G17

(dog_hole_01_widen)
G0 X-851.938 Y-476
Z41
Z31
G1 Z27 F283.3
Z7.6
G18 G2 X-851.338 Z7 I0.6
G1 X-850.738 F850
G17 G3 X-850.138 Y-475.4 J0.6
X-859.738 I-4.8
X-850.138 I4.8
X-850.738 Y-474.8 I-0.6
G1 X-851.338
G18 G3 X-851.938 Z7.6 K0.6
G0 Z41
G17

(dog_hole_01_widen)
G0 X-851.938 Y-551
Z41
Z31
G1 Z27 F283.3
Z7.6
G18 G2 X-851.338 Z7 I0.6
G1 X-850.738 F850
G17 G3 X-850.138 Y-550.4 J0.6
X-859.738 I-4.8
X-850.138 I4.8
X-850.738 Y-549.8 I-0.6
G1 X-851.338
G18 G3 X-851.938 Z7.6 K0.6
G0 Z41
G17

(dog_hole_01_widen)
G0 X-851.938 Y-626
Z41
Z31
G1 Z27 F283.3
Z7.6
G18 G2 X-851.338 Z7 I0.6
G1 X-850.738 F850
G17 G3 X-850.138 Y-625.4 J0.6
X-859.738 I-4.8
X-850.138 I4.8
X-850.738 Y-624.8 I-0.6
G1 X-851.338
G18 G3 X-851.938 Z7.6 K0.6
G0 Z41
G17

(dog_hole_01_widen)
G0 X-926.938 Y49
Z41
Z31
G1 Z27 F283.3
Z7.6
G18 G2 X-926.338 Z7 I0.6
G1 X-925.738 F850
G17 G3 X-925.138 Y49.6 J0.6
X-934.738 I-4.8
X-925.138 I4.8
X-925.738 Y50.2 I-0.6
G1 X-926.338
G18 G3 X-926.938 Z7.6 K0.6
G0 Z41
G17

(dog_hole_01_widen)
G0 X-926.938 Y-26
Z41
Z31
G1 Z27 F283.3
Z7.6
G18 G2 X-926.338 Z7 I0.6
G1 X-925.738 F850
G17 G3 X-925.138 Y-25.4 J0.6
X-934.738 I-4.8
X-925.138 I4.8
X-925.738 Y-24.8 I-0.6
G1 X-926.338
G18 G3 X-926.938 Z7.6 K0.6
G0 Z41
G17

(dog_hole_01_widen)
G0 X-926.938 Y-101
Z41
Z31
G1 Z27 F283.3
Z7.6
G18 G2 X-926.338 Z7 I0.6
G1 X-925.738 F850
G17 G3 X-925.138 Y-100.4 J0.6
X-934.738 I-4.8
X-925.138 I4.8
X-925.738 Y-99.8 I-0.6
G1 X-926.338
G18 G3 X-926.938 Z7.6 K0.6
G0 Z41
G17

(dog_hole_01_widen)
G0 X-926.938 Y-176
Z41
Z31
G1 Z27 F283.3
Z7.6
G18 G2 X-926.338 Z7 I0.6
G1 X-925.738 F850
G17 G3 X-925.138 Y-175.4 J0.6
X-934.738 I-4.8
X-925.138 I4.8
X-925.738 Y-174.8 I-0.6
G1 X-926.338
G18 G3 X-926.938 Z7.6 K0.6
G0 Z41
G17

(dog_hole_01_widen)
G0 X-926.938 Y-251
Z41
Z31
G1 Z27 F283.3
Z7.6
G18 G2 X-926.338 Z7 I0.6
G1 X-925.738 F850
G17 G3 X-925.138 Y-250.4 J0.6
X-934.738 I-4.8
X-925.138 I4.8
X-925.738 Y-249.8 I-0.6
G1 X-926.338
G18 G3 X-926.938 Z7.6 K0.6
G0 Z41
G17

(dog_hole_01_widen)
G0 X-926.938 Y-326
Z41
Z31
G1 Z27 F283.3
Z7.6
G18 G2 X-926.338 Z7 I0.6
G1 X-925.738 F850
G17 G3 X-925.138 Y-325.4 J0.6
X-934.738 I-4.8
X-925.138 I4.8
X-925.738 Y-324.8 I-0.6
G1 X-926.338
G18 G3 X-926.938 Z7.6 K0.6
G0 Z41
G17

(dog_hole_01_widen)
G0 X-926.938 Y-401
Z41
Z31
G1 Z27 F283.3
Z7.6
G18 G2 X-926.338 Z7 I0.6
G1 X-925.738 F850
G17 G3 X-925.138 Y-400.4 J0.6
X-934.738 I-4.8
X-925.138 I4.8
X-925.738 Y-399.8 I-0.6
G1 X-926.338
G18 G3 X-926.938 Z7.6 K0.6
G0 Z41
G17

(dog_hole_01_widen)
G0 X-926.938 Y-476
Z41
Z31
G1 Z27 F283.3
Z7.6
G18 G2 X-926.338 Z7 I0.6
G1 X-925.738 F850
G17 G3 X-925.138 Y-475.4 J0.6
X-934.738 I-4.8
X-925.138 I4.8
X-925.738 Y-474.8 I-0.6
G1 X-926.338
G18 G3 X-926.938 Z7.6 K0.6
G0 Z41
G17

(dog_hole_01_widen)
G0 X-926.938 Y-551
Z41
Z31
G1 Z27 F283.3
Z7.6
G18 G2 X-926.338 Z7 I0.6
G1 X-925.738 F850
G17 G3 X-925.138 Y-550.4 J0.6
X-934.738 I-4.8
X-925.138 I4.8
X-925.738 Y-549.8 I-0.6
G1 X-926.338
G18 G3 X-926.938 Z7.6 K0.6
G0 Z41
G17

(dog_hole_01_widen)
G0 X-926.938 Y-626
Z41
Z31
G1 Z27 F283.3
Z7.6
G18 G2 X-926.338 Z7 I0.6
G1 X-925.738 F850
G17 G3 X-925.138 Y-625.4 J0.6
X-934.738 I-4.8
X-925.138 I4.8
X-925.738 Y-624.8 I-0.6
G1 X-926.338
G18 G3 X-926.938 Z7.6 K0.6
G0 Z41
G17

(dog_hole_01_widen)
G0 X-1001.938 Y49
Z41
Z31
G1 Z27 F283.3
Z7.6
G18 G2 X-1001.338 Z7 I0.6
G1 X-1000.738 F850
G17 G3 X-1000.138 Y49.6 J0.6
X-1009.738 I-4.8
X-1000.138 I4.8
X-1000.738 Y50.2 I-0.6
G1 X-1001.338
G18 G3 X-1001.938 Z7.6 K0.6
G0 Z41
G17

(dog_hole_01_widen)
G0 X-1001.938 Y-26
Z41
Z31
G1 Z27 F283.3
Z7.6
G18 G2 X-1001.338 Z7 I0.6
G1 X-1000.738 F850
G17 G3 X-1000.138 Y-25.4 J0.6
X-1009.738 I-4.8
X-1000.138 I4.8
X-1000.738 Y-24.8 I-0.6
G1 X-1001.338
G18 G3 X-1001.938 Z7.6 K0.6
G0 Z41
G17

(dog_hole_01_widen)
G0 X-1001.938 Y-101
Z41
Z31
G1 Z27 F283.3
Z7.6
G18 G2 X-1001.338 Z7 I0.6
G1 X-1000.738 F850
G17 G3 X-1000.138 Y-100.4 J0.6
X-1009.738 I-4.8
X-1000.138 I4.8
X-1000.738 Y-99.8 I-0.6
G1 X-1001.338
G18 G3 X-1001.938 Z7.6 K0.6
G0 Z41
G17

(dog_hole_01_widen)
G0 X-1001.938 Y-176
Z41
Z31
G1 Z27 F283.3
Z7.6
G18 G2 X-1001.338 Z7 I0.6
G1 X-1000.738 F850
G17 G3 X-1000.138 Y-175.4 J0.6
X-1009.738 I-4.8
X-1000.138 I4.8
X-1000.738 Y-174.8 I-0.6
G1 X-1001.338
G18 G3 X-1001.938 Z7.6 K0.6
G0 Z41
G17

(dog_hole_01_widen)
G0 X-1001.938 Y-251
Z41
Z31
G1 Z27 F283.3
Z7.6
G18 G2 X-1001.338 Z7 I0.6
G1 X-1000.738 F850
G17 G3 X-1000.138 Y-250.4 J0.6
X-1009.738 I-4.8
X-1000.138 I4.8
X-1000.738 Y-249.8 I-0.6
G1 X-1001.338
G18 G3 X-1001.938 Z7.6 K0.6
G0 Z41
G17

(dog_hole_01_widen)
G0 X-1001.938 Y-326
Z41
Z31
G1 Z27 F283.3
Z7.6
G18 G2 X-1001.338 Z7 I0.6
G1 X-1000.738 F850
G17 G3 X-1000.138 Y-325.4 J0.6
X-1009.738 I-4.8
X-1000.138 I4.8
X-1000.738 Y-324.8 I-0.6
G1 X-1001.338
G18 G3 X-1001.938 Z7.6 K0.6
G0 Z41
G17

(dog_hole_01_widen)
G0 X-1001.938 Y-401
Z41
Z31
G1 Z27 F283.3
Z7.6
G18 G2 X-1001.338 Z7 I0.6
G1 X-1000.738 F850
G17 G3 X-1000.138 Y-400.4 J0.6
X-1009.738 I-4.8
X-1000.138 I4.8
X-1000.738 Y-399.8 I-0.6
G1 X-1001.338
G18 G3 X-1001.938 Z7.6 K0.6
G0 Z41
G17

(dog_hole_01_widen)
G0 X-1001.938 Y-476
Z41
Z31
G1 Z27 F283.3
Z7.6
G18 G2 X-1001.338 Z7 I0.6
G1 X-1000.738 F850
G17 G3 X-1000.138 Y-475.4 J0.6
X-1009.738 I-4.8
X-1000.138 I4.8
X-1000.738 Y-474.8 I-0.6
G1 X-1001.338
G18 G3 X-1001.938 Z7.6 K0.6
G0 Z41
G17

(dog_hole_01_widen)
G0 X-1001.938 Y-551
Z41
Z31
G1 Z27 F283.3
Z7.6
G18 G2 X-1001.338 Z7 I0.6
G1 X-1000.738 F850
G17 G3 X-1000.138 Y-550.4 J0.6
X-1009.738 I-4.8
X-1000.138 I4.8
X-1000.738 Y-549.8 I-0.6
G1 X-1001.338
G18 G3 X-1001.938 Z7.6 K0.6
G0 Z41
G17

(dog_hole_01_widen)
G0 X-1001.938 Y-626
Z41
Z31
G1 Z27 F283.3
Z7.6
G18 G2 X-1001.338 Z7 I0.6
G1 X-1000.738 F850
G17 G3 X-1000.138 Y-625.4 J0.6
X-1009.738 I-4.8
X-1000.138 I4.8
X-1000.738 Y-624.8 I-0.6
G1 X-1001.338
G18 G3 X-1001.938 Z7.6 K0.6
G0 Z41
G17

(dog_hole_01_widen)
G0 X-1076.938 Y49
Z41
Z31
G1 Z27 F283.3
Z7.6
G18 G2 X-1076.338 Z7 I0.6
G1 X-1075.738 F850
G17 G3 X-1075.138 Y49.6 J0.6
X-1084.738 I-4.8
X-1075.138 I4.8
X-1075.738 Y50.2 I-0.6
G1 X-1076.338
G18 G3 X-1076.938 Z7.6 K0.6
G0 Z41
G17

(dog_hole_01_widen)
G0 X-1076.938 Y-26
Z41
Z31
G1 Z27 F283.3
Z7.6
G18 G2 X-1076.338 Z7 I0.6
G1 X-1075.738 F850
G17 G3 X-1075.138 Y-25.4 J0.6
X-1084.738 I-4.8
X-1075.138 I4.8
X-1075.738 Y-24.8 I-0.6
G1 X-1076.338
G18 G3 X-1076.938 Z7.6 K0.6
G0 Z41
G17

(dog_hole_01_widen)
G0 X-1076.938 Y-101
Z41
Z31
G1 Z27 F283.3
Z7.6
G18 G2 X-1076.338 Z7 I0.6
G1 X-1075.738 F850
G17 G3 X-1075.138 Y-100.4 J0.6
X-1084.738 I-4.8
X-1075.138 I4.8
X-1075.738 Y-99.8 I-0.6
G1 X-1076.338
G18 G3 X-1076.938 Z7.6 K0.6
G0 Z41
G17

(dog_hole_01_widen)
G0 X-1076.938 Y-176
Z41
Z31
G1 Z27 F283.3
Z7.6
G18 G2 X-1076.338 Z7 I0.6
G1 X-1075.738 F850
G17 G3 X-1075.138 Y-175.4 J0.6
X-1084.738 I-4.8
X-1075.138 I4.8
X-1075.738 Y-174.8 I-0.6
G1 X-1076.338
G18 G3 X-1076.938 Z7.6 K0.6
G0 Z41
G17

(dog_hole_01_widen)
G0 X-1076.938 Y-251
Z41
Z31
G1 Z27 F283.3
Z7.6
G18 G2 X-1076.338 Z7 I0.6
G1 X-1075.738 F850
G17 G3 X-1075.138 Y-250.4 J0.6
X-1084.738 I-4.8
X-1075.138 I4.8
X-1075.738 Y-249.8 I-0.6
G1 X-1076.338
G18 G3 X-1076.938 Z7.6 K0.6
G0 Z41
G17

(dog_hole_01_widen)
G0 X-1076.938 Y-326
Z41
Z31
G1 Z27 F283.3
Z7.6
G18 G2 X-1076.338 Z7 I0.6
G1 X-1075.738 F850
G17 G3 X-1075.138 Y-325.4 J0.6
X-1084.738 I-4.8
X-1075.138 I4.8
X-1075.738 Y-324.8 I-0.6
G1 X-1076.338
G18 G3 X-1076.938 Z7.6 K0.6
G0 Z41
G17

(dog_hole_01_widen)
G0 X-1076.938 Y-401
Z41
Z31
G1 Z27 F283.3
Z7.6
G18 G2 X-1076.338 Z7 I0.6
G1 X-1075.738 F850
G17 G3 X-1075.138 Y-400.4 J0.6
X-1084.738 I-4.8
X-1075.138 I4.8
X-1075.738 Y-399.8 I-0.6
G1 X-1076.338
G18 G3 X-1076.938 Z7.6 K0.6
G0 Z41
G17

(dog_hole_01_widen)
G0 X-1076.938 Y-476
Z41
Z31
G1 Z27 F283.3
Z7.6
G18 G2 X-1076.338 Z7 I0.6
G1 X-1075.738 F850
G17 G3 X-1075.138 Y-475.4 J0.6
X-1084.738 I-4.8
X-1075.138 I4.8
X-1075.738 Y-474.8 I-0.6
G1 X-1076.338
G18 G3 X-1076.938 Z7.6 K0.6
G0 Z41
G17

(dog_hole_01_widen)
G0 X-1076.938 Y-551
Z41
Z31
G1 Z27 F283.3
Z7.6
G18 G2 X-1076.338 Z7 I0.6
G1 X-1075.738 F850
G17 G3 X-1075.138 Y-550.4 J0.6
X-1084.738 I-4.8
X-1075.138 I4.8
X-1075.738 Y-549.8 I-0.6
G1 X-1076.338
G18 G3 X-1076.938 Z7.6 K0.6
G0 Z41
G17

(dog_hole_01_widen)
G0 X-1076.938 Y-626
Z41
Z31
G1 Z27 F283.3
Z7.6
G18 G2 X-1076.338 Z7 I0.6
G1 X-1075.738 F850
G17 G3 X-1075.138 Y-625.4 J0.6
X-1084.738 I-4.8
X-1075.138 I4.8
X-1075.738 Y-624.8 I-0.6
G1 X-1076.338
G18 G3 X-1076.938 Z7.6 K0.6
G0 Z41
G17

(dog_hole_01_widen)
G0 X-1151.938 Y49
Z41
Z31
G1 Z27 F283.3
Z7.6
G18 G2 X-1151.338 Z7 I0.6
G1 X-1150.738 F850
G17 G3 X-1150.138 Y49.6 J0.6
X-1159.738 I-4.8
X-1150.138 I4.8
X-1150.738 Y50.2 I-0.6
G1 X-1151.338
G18 G3 X-1151.938 Z7.6 K0.6
G0 Z41
G17

(dog_hole_01_widen)
G0 X-1151.938 Y-26
Z41
Z31
G1 Z27 F283.3
Z7.6
G18 G2 X-1151.338 Z7 I0.6
G1 X-1150.738 F850
G17 G3 X-1150.138 Y-25.4 J0.6
X-1159.738 I-4.8
X-1150.138 I4.8
X-1150.738 Y-24.8 I-0.6
G1 X-1151.338
G18 G3 X-1151.938 Z7.6 K0.6
G0 Z41
G17

(dog_hole_01_widen)
G0 X-1151.938 Y-101
Z41
Z31
G1 Z27 F283.3
Z7.6
G18 G2 X-1151.338 Z7 I0.6
G1 X-1150.738 F850
G17 G3 X-1150.138 Y-100.4 J0.6
X-1159.738 I-4.8
X-1150.138 I4.8
X-1150.738 Y-99.8 I-0.6
G1 X-1151.338
G18 G3 X-1151.938 Z7.6 K0.6
G0 Z41
G17

(dog_hole_01_widen)
G0 X-1151.938 Y-176
Z41
Z31
G1 Z27 F283.3
Z7.6
G18 G2 X-1151.338 Z7 I0.6
G1 X-1150.738 F850
G17 G3 X-1150.138 Y-175.4 J0.6
X-1159.738 I-4.8
X-1150.138 I4.8
X-1150.738 Y-174.8 I-0.6
G1 X-1151.338
G18 G3 X-1151.938 Z7.6 K0.6
G0 Z41
G17

(dog_hole_01_widen)
G0 X-1151.938 Y-251
Z41
Z31
G1 Z27 F283.3
Z7.6
G18 G2 X-1151.338 Z7 I0.6
G1 X-1150.738 F850
G17 G3 X-1150.138 Y-250.4 J0.6
X-1159.738 I-4.8
X-1150.138 I4.8
X-1150.738 Y-249.8 I-0.6
G1 X-1151.338
G18 G3 X-1151.938 Z7.6 K0.6
G0 Z41
G17

(dog_hole_01_widen)
G0 X-1151.938 Y-326
Z41
Z31
G1 Z27 F283.3
Z7.6
G18 G2 X-1151.338 Z7 I0.6
G1 X-1150.738 F850
G17 G3 X-1150.138 Y-325.4 J0.6
X-1159.738 I-4.8
X-1150.138 I4.8
X-1150.738 Y-324.8 I-0.6
G1 X-1151.338
G18 G3 X-1151.938 Z7.6 K0.6
G0 Z41
G17

(dog_hole_01_widen)
G0 X-1151.938 Y-401
Z41
Z31
G1 Z27 F283.3
Z7.6
G18 G2 X-1151.338 Z7 I0.6
G1 X-1150.738 F850
G17 G3 X-1150.138 Y-400.4 J0.6
X-1159.738 I-4.8
X-1150.138 I4.8
X-1150.738 Y-399.8 I-0.6
G1 X-1151.338
G18 G3 X-1151.938 Z7.6 K0.6
G0 Z41
G17

(dog_hole_01_widen)
G0 X-1151.938 Y-476
Z41
Z31
G1 Z27 F283.3
Z7.6
G18 G2 X-1151.338 Z7 I0.6
G1 X-1150.738 F850
G17 G3 X-1150.138 Y-475.4 J0.6
X-1159.738 I-4.8
X-1150.138 I4.8
X-1150.738 Y-474.8 I-0.6
G1 X-1151.338
G18 G3 X-1151.938 Z7.6 K0.6
G0 Z41
G17

(dog_hole_01_widen)
G0 X-1151.938 Y-551
Z41
Z31
G1 Z27 F283.3
Z7.6
G18 G2 X-1151.338 Z7 I0.6
G1 X-1150.738 F850
G17 G3 X-1150.138 Y-550.4 J0.6
X-1159.738 I-4.8
X-1150.138 I4.8
X-1150.738 Y-549.8 I-0.6
G1 X-1151.338
G18 G3 X-1151.938 Z7.6 K0.6
G0 Z41
G17

(dog_hole_01_widen)
G0 X-1151.938 Y-626
Z41
Z31
G1 Z27 F283.3
Z7.6
G18 G2 X-1151.338 Z7 I0.6
G1 X-1150.738 F850
G17 G3 X-1150.138 Y-625.4 J0.6
X-1159.738 I-4.8
X-1150.138 I4.8
X-1150.738 Y-624.8 I-0.6
G1 X-1151.338
G18 G3 X-1151.938 Z7.6 K0.6
G0 Z41
G17

(dog_hole_01_widen)
G0 X-1226.938 Y49
Z41
Z31
G1 Z27 F283.3
Z7.6
G18 G2 X-1226.338 Z7 I0.6
G1 X-1225.738 F850
G17 G3 X-1225.138 Y49.6 J0.6
X-1234.738 I-4.8
X-1225.138 I4.8
X-1225.738 Y50.2 I-0.6
G1 X-1226.338
G18 G3 X-1226.938 Z7.6 K0.6
G0 Z41
G17

(dog_hole_01_widen)
G0 X-1226.938 Y-26
Z41
Z31
G1 Z27 F283.3
Z7.6
G18 G2 X-1226.338 Z7 I0.6
G1 X-1225.738 F850
G17 G3 X-1225.138 Y-25.4 J0.6
X-1234.738 I-4.8
X-1225.138 I4.8
X-1225.738 Y-24.8 I-0.6
G1 X-1226.338
G18 G3 X-1226.938 Z7.6 K0.6
G0 Z41
G17

(dog_hole_01_widen)
G0 X-1226.938 Y-101
Z41
Z31
G1 Z27 F283.3
Z7.6
G18 G2 X-1226.338 Z7 I0.6
G1 X-1225.738 F850
G17 G3 X-1225.138 Y-100.4 J0.6
X-1234.738 I-4.8
X-1225.138 I4.8
X-1225.738 Y-99.8 I-0.6
G1 X-1226.338
G18 G3 X-1226.938 Z7.6 K0.6
G0 Z41
G17

(dog_hole_01_widen)
G0 X-1226.938 Y-176
Z41
Z31
G1 Z27 F283.3
Z7.6
G18 G2 X-1226.338 Z7 I0.6
G1 X-1225.738 F850
G17 G3 X-1225.138 Y-175.4 J0.6
X-1234.738 I-4.8
X-1225.138 I4.8
X-1225.738 Y-174.8 I-0.6
G1 X-1226.338
G18 G3 X-1226.938 Z7.6 K0.6
G0 Z41
G17

(dog_hole_01_widen)
G0 X-1226.938 Y-251
Z41
Z31
G1 Z27 F283.3
Z7.6
G18 G2 X-1226.338 Z7 I0.6
G1 X-1225.738 F850
G17 G3 X-1225.138 Y-250.4 J0.6
X-1234.738 I-4.8
X-1225.138 I4.8
X-1225.738 Y-249.8 I-0.6
G1 X-1226.338
G18 G3 X-1226.938 Z7.6 K0.6
G0 Z41
G17

(dog_hole_01_widen)
G0 X-1226.938 Y-326
Z41
Z31
G1 Z27 F283.3
Z7.6
G18 G2 X-1226.338 Z7 I0.6
G1 X-1225.738 F850
G17 G3 X-1225.138 Y-325.4 J0.6
X-1234.738 I-4.8
X-1225.138 I4.8
X-1225.738 Y-324.8 I-0.6
G1 X-1226.338
G18 G3 X-1226.938 Z7.6 K0.6
G0 Z41
G17

(dog_hole_01_widen)
G0 X-1226.938 Y-401
Z41
Z31
G1 Z27 F283.3
Z7.6
G18 G2 X-1226.338 Z7 I0.6
G1 X-1225.738 F850
G17 G3 X-1225.138 Y-400.4 J0.6
X-1234.738 I-4.8
X-1225.138 I4.8
X-1225.738 Y-399.8 I-0.6
G1 X-1226.338
G18 G3 X-1226.938 Z7.6 K0.6
G0 Z41
G17

(dog_hole_01_widen)
G0 X-1226.938 Y-476
Z41
Z31
G1 Z27 F283.3
Z7.6
G18 G2 X-1226.338 Z7 I0.6
G1 X-1225.738 F850
G17 G3 X-1225.138 Y-475.4 J0.6
X-1234.738 I-4.8
X-1225.138 I4.8
X-1225.738 Y-474.8 I-0.6
G1 X-1226.338
G18 G3 X-1226.938 Z7.6 K0.6
G0 Z41
G17

(dog_hole_01_widen)
G0 X-1226.938 Y-551
Z41
Z31
G1 Z27 F283.3
Z7.6
G18 G2 X-1226.338 Z7 I0.6
G1 X-1225.738 F850
G17 G3 X-1225.138 Y-550.4 J0.6
X-1234.738 I-4.8
X-1225.138 I4.8
X-1225.738 Y-549.8 I-0.6
G1 X-1226.338
G18 G3 X-1226.938 Z7.6 K0.6
G0 Z41
G17

(dog_hole_01_widen)
G0 X-1226.938 Y-626
Z41
Z31
G1 Z27 F283.3
Z7.6
G18 G2 X-1226.338 Z7 I0.6
G1 X-1225.738 F850
G17 G3 X-1225.138 Y-625.4 J0.6
X-1234.738 I-4.8
X-1225.138 I4.8
X-1225.738 Y-624.8 I-0.6
G1 X-1226.338
G18 G3 X-1226.938 Z7.6 K0.6
G0 Z41
G17
M30
%
