%
(1001)
(origin bottom left anchor hole stock bottom)
(T1  D=6 CR=0 - ZMIN=7 - flat end mill)
G90 G94
G17
G21

(dog_hole_03_widen)
M9
T1 M6
S15000 M3
G54
G0 X48.262 Y49
Z41
Z31
G1 Z27 F283.3
Z7.6
G18 G2 X48.862 Z7 I0.6
G1 X49.462 F850
G17 G3 X50.062 Y49.6 J0.6
X40.062 I-5
X50.062 I5
X49.462 Y50.2 I-0.6
G1 X48.862
G18 G3 X48.262 Z7.6 K0.6
G0 Z41
G17

(dog_hole_03_widen)
G0 X48.262 Y-26
Z41
Z31
G1 Z27 F283.3
Z7.6
G18 G2 X48.862 Z7 I0.6
G1 X49.462 F850
G17 G3 X50.062 Y-25.4 J0.6
X40.062 I-5
X50.062 I5
X49.462 Y-24.8 I-0.6
G1 X48.862
G18 G3 X48.262 Z7.6 K0.6
G0 Z41
G17

(dog_hole_03_widen)
G0 X48.262 Y-101
Z41
Z31
G1 Z27 F283.3
Z7.6
G18 G2 X48.862 Z7 I0.6
G1 X49.462 F850
G17 G3 X50.062 Y-100.4 J0.6
X40.062 I-5
X50.062 I5
X49.462 Y-99.8 I-0.6
G1 X48.862
G18 G3 X48.262 Z7.6 K0.6
G0 Z41
G17

(dog_hole_03_widen)
G0 X48.262 Y-176
Z41
Z31
G1 Z27 F283.3
Z7.6
G18 G2 X48.862 Z7 I0.6
G1 X49.462 F850
G17 G3 X50.062 Y-175.4 J0.6
X40.062 I-5
X50.062 I5
X49.462 Y-174.8 I-0.6
G1 X48.862
G18 G3 X48.262 Z7.6 K0.6
G0 Z41
G17

(dog_hole_03_widen)
G0 X48.262 Y-251
Z41
Z31
G1 Z27 F283.3
Z7.6
G18 G2 X48.862 Z7 I0.6
G1 X49.462 F850
G17 G3 X50.062 Y-250.4 J0.6
X40.062 I-5
X50.062 I5
X49.462 Y-249.8 I-0.6
G1 X48.862
G18 G3 X48.262 Z7.6 K0.6
G0 Z41
G17

(dog_hole_03_widen)
G0 X48.262 Y-326
Z41
Z31
G1 Z27 F283.3
Z7.6
G18 G2 X48.862 Z7 I0.6
G1 X49.462 F850
G17 G3 X50.062 Y-325.4 J0.6
X40.062 I-5
X50.062 I5
X49.462 Y-324.8 I-0.6
G1 X48.862
G18 G3 X48.262 Z7.6 K0.6
G0 Z41
G17

(dog_hole_03_widen)
G0 X48.262 Y-401
Z41
Z31
G1 Z27 F283.3
Z7.6
G18 G2 X48.862 Z7 I0.6
G1 X49.462 F850
G17 G3 X50.062 Y-400.4 J0.6
X40.062 I-5
X50.062 I5
X49.462 Y-399.8 I-0.6
G1 X48.862
G18 G3 X48.262 Z7.6 K0.6
G0 Z41
G17

(dog_hole_03_widen)
G0 X48.262 Y-476
Z41
Z31
G1 Z27 F283.3
Z7.6
G18 G2 X48.862 Z7 I0.6
G1 X49.462 F850
G17 G3 X50.062 Y-475.4 J0.6
X40.062 I-5
X50.062 I5
X49.462 Y-474.8 I-0.6
G1 X48.862
G18 G3 X48.262 Z7.6 K0.6
G0 Z41
G17

(dog_hole_03_widen)
G0 X48.262 Y-551
Z41
Z31
G1 Z27 F283.3
Z7.6
G18 G2 X48.862 Z7 I0.6
G1 X49.462 F850
G17 G3 X50.062 Y-550.4 J0.6
X40.062 I-5
X50.062 I5
X49.462 Y-549.8 I-0.6
G1 X48.862
G18 G3 X48.262 Z7.6 K0.6
G0 Z41
G17

(dog_hole_03_widen)
G0 X48.262 Y-626
Z41
Z31
G1 Z27 F283.3
Z7.6
G18 G2 X48.862 Z7 I0.6
G1 X49.462 F850
G17 G3 X50.062 Y-625.4 J0.6
X40.062 I-5
X50.062 I5
X49.462 Y-624.8 I-0.6
G1 X48.862
G18 G3 X48.262 Z7.6 K0.6
G0 Z41
G17

(dog_hole_03_widen)
G0 X-26.738 Y49
Z41
Z31
G1 Z27 F283.3
Z7.6
G18 G2 X-26.138 Z7 I0.6
G1 X-25.538 F850
G17 G3 X-24.938 Y49.6 J0.6
X-34.938 I-5
X-24.938 I5
X-25.538 Y50.2 I-0.6
G1 X-26.138
G18 G3 X-26.738 Z7.6 K0.6
G0 Z41
G17

(dog_hole_03_widen)
G0 X-26.738 Y-26
Z41
Z31
G1 Z27 F283.3
Z7.6
G18 G2 X-26.138 Z7 I0.6
G1 X-25.538 F850
G17 G3 X-24.938 Y-25.4 J0.6
X-34.938 I-5
X-24.938 I5
X-25.538 Y-24.8 I-0.6
G1 X-26.138
G18 G3 X-26.738 Z7.6 K0.6
G0 Z41
G17

(dog_hole_03_widen)
G0 X-26.738 Y-101
Z41
Z31
G1 Z27 F283.3
Z7.6
G18 G2 X-26.138 Z7 I0.6
G1 X-25.538 F850
G17 G3 X-24.938 Y-100.4 J0.6
X-34.938 I-5
X-24.938 I5
X-25.538 Y-99.8 I-0.6
G1 X-26.138
G18 G3 X-26.738 Z7.6 K0.6
G0 Z41
G17

(dog_hole_03_widen)
G0 X-26.738 Y-176
Z41
Z31
G1 Z27 F283.3
Z7.6
G18 G2 X-26.138 Z7 I0.6
G1 X-25.538 F850
G17 G3 X-24.938 Y-175.4 J0.6
X-34.938 I-5
X-24.938 I5
X-25.538 Y-174.8 I-0.6
G1 X-26.138
G18 G3 X-26.738 Z7.6 K0.6
G0 Z41
G17

(dog_hole_03_widen)
G0 X-26.738 Y-251
Z41
Z31
G1 Z27 F283.3
Z7.6
G18 G2 X-26.138 Z7 I0.6
G1 X-25.538 F850
G17 G3 X-24.938 Y-250.4 J0.6
X-34.938 I-5
X-24.938 I5
X-25.538 Y-249.8 I-0.6
G1 X-26.138
G18 G3 X-26.738 Z7.6 K0.6
G0 Z41
G17

(dog_hole_03_widen)
G0 X-26.738 Y-326
Z41
Z31
G1 Z27 F283.3
Z7.6
G18 G2 X-26.138 Z7 I0.6
G1 X-25.538 F850
G17 G3 X-24.938 Y-325.4 J0.6
X-34.938 I-5
X-24.938 I5
X-25.538 Y-324.8 I-0.6
G1 X-26.138
G18 G3 X-26.738 Z7.6 K0.6
G0 Z41
G17

(dog_hole_03_widen)
G0 X-26.738 Y-401
Z41
Z31
G1 Z27 F283.3
Z7.6
G18 G2 X-26.138 Z7 I0.6
G1 X-25.538 F850
G17 G3 X-24.938 Y-400.4 J0.6
X-34.938 I-5
X-24.938 I5
X-25.538 Y-399.8 I-0.6
G1 X-26.138
G18 G3 X-26.738 Z7.6 K0.6
G0 Z41
G17

(dog_hole_03_widen)
G0 X-26.738 Y-476
Z41
Z31
G1 Z27 F283.3
Z7.6
G18 G2 X-26.138 Z7 I0.6
G1 X-25.538 F850
G17 G3 X-24.938 Y-475.4 J0.6
X-34.938 I-5
X-24.938 I5
X-25.538 Y-474.8 I-0.6
G1 X-26.138
G18 G3 X-26.738 Z7.6 K0.6
G0 Z41
G17

(dog_hole_03_widen)
G0 X-26.738 Y-551
Z41
Z31
G1 Z27 F283.3
Z7.6
G18 G2 X-26.138 Z7 I0.6
G1 X-25.538 F850
G17 G3 X-24.938 Y-550.4 J0.6
X-34.938 I-5
X-24.938 I5
X-25.538 Y-549.8 I-0.6
G1 X-26.138
G18 G3 X-26.738 Z7.6 K0.6
G0 Z41
G17

(dog_hole_03_widen)
G0 X-26.738 Y-626
Z41
Z31
G1 Z27 F283.3
Z7.6
G18 G2 X-26.138 Z7 I0.6
G1 X-25.538 F850
G17 G3 X-24.938 Y-625.4 J0.6
X-34.938 I-5
X-24.938 I5
X-25.538 Y-624.8 I-0.6
G1 X-26.138
G18 G3 X-26.738 Z7.6 K0.6
G0 Z41
G17

(dog_hole_03_widen)
G0 X-101.738 Y49
Z41
Z31
G1 Z27 F283.3
Z7.6
G18 G2 X-101.138 Z7 I0.6
G1 X-100.538 F850
G17 G3 X-99.938 Y49.6 J0.6
X-109.938 I-5
X-99.938 I5
X-100.538 Y50.2 I-0.6
G1 X-101.138
G18 G3 X-101.738 Z7.6 K0.6
G0 Z41
G17

(dog_hole_03_widen)
G0 X-101.738 Y-26
Z41
Z31
G1 Z27 F283.3
Z7.6
G18 G2 X-101.138 Z7 I0.6
G1 X-100.538 F850
G17 G3 X-99.938 Y-25.4 J0.6
X-109.938 I-5
X-99.938 I5
X-100.538 Y-24.8 I-0.6
G1 X-101.138
G18 G3 X-101.738 Z7.6 K0.6
G0 Z41
G17

(dog_hole_03_widen)
G0 X-101.738 Y-101
Z41
Z31
G1 Z27 F283.3
Z7.6
G18 G2 X-101.138 Z7 I0.6
G1 X-100.538 F850
G17 G3 X-99.938 Y-100.4 J0.6
X-109.938 I-5
X-99.938 I5
X-100.538 Y-99.8 I-0.6
G1 X-101.138
G18 G3 X-101.738 Z7.6 K0.6
G0 Z41
G17

(dog_hole_03_widen)
G0 X-101.738 Y-176
Z41
Z31
G1 Z27 F283.3
Z7.6
G18 G2 X-101.138 Z7 I0.6
G1 X-100.538 F850
G17 G3 X-99.938 Y-175.4 J0.6
X-109.938 I-5
X-99.938 I5
X-100.538 Y-174.8 I-0.6
G1 X-101.138
G18 G3 X-101.738 Z7.6 K0.6
G0 Z41
G17

(dog_hole_03_widen)
G0 X-101.738 Y-251
Z41
Z31
G1 Z27 F283.3
Z7.6
G18 G2 X-101.138 Z7 I0.6
G1 X-100.538 F850
G17 G3 X-99.938 Y-250.4 J0.6
X-109.938 I-5
X-99.938 I5
X-100.538 Y-249.8 I-0.6
G1 X-101.138
G18 G3 X-101.738 Z7.6 K0.6
G0 Z41
G17

(dog_hole_03_widen)
G0 X-101.738 Y-326
Z41
Z31
G1 Z27 F283.3
Z7.6
G18 G2 X-101.138 Z7 I0.6
G1 X-100.538 F850
G17 G3 X-99.938 Y-325.4 J0.6
X-109.938 I-5
X-99.938 I5
X-100.538 Y-324.8 I-0.6
G1 X-101.138
G18 G3 X-101.738 Z7.6 K0.6
G0 Z41
G17

(dog_hole_03_widen)
G0 X-101.738 Y-401
Z41
Z31
G1 Z27 F283.3
Z7.6
G18 G2 X-101.138 Z7 I0.6
G1 X-100.538 F850
G17 G3 X-99.938 Y-400.4 J0.6
X-109.938 I-5
X-99.938 I5
X-100.538 Y-399.8 I-0.6
G1 X-101.138
G18 G3 X-101.738 Z7.6 K0.6
G0 Z41
G17

(dog_hole_03_widen)
G0 X-101.738 Y-476
Z41
Z31
G1 Z27 F283.3
Z7.6
G18 G2 X-101.138 Z7 I0.6
G1 X-100.538 F850
G17 G3 X-99.938 Y-475.4 J0.6
X-109.938 I-5
X-99.938 I5
X-100.538 Y-474.8 I-0.6
G1 X-101.138
G18 G3 X-101.738 Z7.6 K0.6
G0 Z41
G17

(dog_hole_03_widen)
G0 X-101.738 Y-551
Z41
Z31
G1 Z27 F283.3
Z7.6
G18 G2 X-101.138 Z7 I0.6
G1 X-100.538 F850
G17 G3 X-99.938 Y-550.4 J0.6
X-109.938 I-5
X-99.938 I5
X-100.538 Y-549.8 I-0.6
G1 X-101.138
G18 G3 X-101.738 Z7.6 K0.6
G0 Z41
G17

(dog_hole_03_widen)
G0 X-101.738 Y-626
Z41
Z31
G1 Z27 F283.3
Z7.6
G18 G2 X-101.138 Z7 I0.6
G1 X-100.538 F850
G17 G3 X-99.938 Y-625.4 J0.6
X-109.938 I-5
X-99.938 I5
X-100.538 Y-624.8 I-0.6
G1 X-101.138
G18 G3 X-101.738 Z7.6 K0.6
G0 Z41
G17

(dog_hole_03_widen)
G0 X-176.738 Y49
Z41
Z31
G1 Z27 F283.3
Z7.6
G18 G2 X-176.138 Z7 I0.6
G1 X-175.538 F850
G17 G3 X-174.938 Y49.6 J0.6
X-184.938 I-5
X-174.938 I5
X-175.538 Y50.2 I-0.6
G1 X-176.138
G18 G3 X-176.738 Z7.6 K0.6
G0 Z41
G17

(dog_hole_03_widen)
G0 X-176.738 Y-26
Z41
Z31
G1 Z27 F283.3
Z7.6
G18 G2 X-176.138 Z7 I0.6
G1 X-175.538 F850
G17 G3 X-174.938 Y-25.4 J0.6
X-184.938 I-5
X-174.938 I5
X-175.538 Y-24.8 I-0.6
G1 X-176.138
G18 G3 X-176.738 Z7.6 K0.6
G0 Z41
G17

(dog_hole_03_widen)
G0 X-176.738 Y-101
Z41
Z31
G1 Z27 F283.3
Z7.6
G18 G2 X-176.138 Z7 I0.6
G1 X-175.538 F850
G17 G3 X-174.938 Y-100.4 J0.6
X-184.938 I-5
X-174.938 I5
X-175.538 Y-99.8 I-0.6
G1 X-176.138
G18 G3 X-176.738 Z7.6 K0.6
G0 Z41
G17

(dog_hole_03_widen)
G0 X-176.738 Y-176
Z41
Z31
G1 Z27 F283.3
Z7.6
G18 G2 X-176.138 Z7 I0.6
G1 X-175.538 F850
G17 G3 X-174.938 Y-175.4 J0.6
X-184.938 I-5
X-174.938 I5
X-175.538 Y-174.8 I-0.6
G1 X-176.138
G18 G3 X-176.738 Z7.6 K0.6
G0 Z41
G17

(dog_hole_03_widen)
G0 X-176.738 Y-251
Z41
Z31
G1 Z27 F283.3
Z7.6
G18 G2 X-176.138 Z7 I0.6
G1 X-175.538 F850
G17 G3 X-174.938 Y-250.4 J0.6
X-184.938 I-5
X-174.938 I5
X-175.538 Y-249.8 I-0.6
G1 X-176.138
G18 G3 X-176.738 Z7.6 K0.6
G0 Z41
G17

(dog_hole_03_widen)
G0 X-176.738 Y-326
Z41
Z31
G1 Z27 F283.3
Z7.6
G18 G2 X-176.138 Z7 I0.6
G1 X-175.538 F850
G17 G3 X-174.938 Y-325.4 J0.6
X-184.938 I-5
X-174.938 I5
X-175.538 Y-324.8 I-0.6
G1 X-176.138
G18 G3 X-176.738 Z7.6 K0.6
G0 Z41
G17

(dog_hole_03_widen)
G0 X-176.738 Y-401
Z41
Z31
G1 Z27 F283.3
Z7.6
G18 G2 X-176.138 Z7 I0.6
G1 X-175.538 F850
G17 G3 X-174.938 Y-400.4 J0.6
X-184.938 I-5
X-174.938 I5
X-175.538 Y-399.8 I-0.6
G1 X-176.138
G18 G3 X-176.738 Z7.6 K0.6
G0 Z41
G17

(dog_hole_03_widen)
G0 X-176.738 Y-476
Z41
Z31
G1 Z27 F283.3
Z7.6
G18 G2 X-176.138 Z7 I0.6
G1 X-175.538 F850
G17 G3 X-174.938 Y-475.4 J0.6
X-184.938 I-5
X-174.938 I5
X-175.538 Y-474.8 I-0.6
G1 X-176.138
G18 G3 X-176.738 Z7.6 K0.6
G0 Z41
G17

(dog_hole_03_widen)
G0 X-176.738 Y-551
Z41
Z31
G1 Z27 F283.3
Z7.6
G18 G2 X-176.138 Z7 I0.6
G1 X-175.538 F850
G17 G3 X-174.938 Y-550.4 J0.6
X-184.938 I-5
X-174.938 I5
X-175.538 Y-549.8 I-0.6
G1 X-176.138
G18 G3 X-176.738 Z7.6 K0.6
G0 Z41
G17

(dog_hole_03_widen)
G0 X-176.738 Y-626
Z41
Z31
G1 Z27 F283.3
Z7.6
G18 G2 X-176.138 Z7 I0.6
G1 X-175.538 F850
G17 G3 X-174.938 Y-625.4 J0.6
X-184.938 I-5
X-174.938 I5
X-175.538 Y-624.8 I-0.6
G1 X-176.138
G18 G3 X-176.738 Z7.6 K0.6
G0 Z41
G17

(dog_hole_03_widen)
G0 X-251.738 Y49
Z41
Z31
G1 Z27 F283.3
Z7.6
G18 G2 X-251.138 Z7 I0.6
G1 X-250.538 F850
G17 G3 X-249.938 Y49.6 J0.6
X-259.938 I-5
X-249.938 I5
X-250.538 Y50.2 I-0.6
G1 X-251.138
G18 G3 X-251.738 Z7.6 K0.6
G0 Z41
G17

(dog_hole_03_widen)
G0 X-251.738 Y-26
Z41
Z31
G1 Z27 F283.3
Z7.6
G18 G2 X-251.138 Z7 I0.6
G1 X-250.538 F850
G17 G3 X-249.938 Y-25.4 J0.6
X-259.938 I-5
X-249.938 I5
X-250.538 Y-24.8 I-0.6
G1 X-251.138
G18 G3 X-251.738 Z7.6 K0.6
G0 Z41
G17

(dog_hole_03_widen)
G0 X-251.738 Y-101
Z41
Z31
G1 Z27 F283.3
Z7.6
G18 G2 X-251.138 Z7 I0.6
G1 X-250.538 F850
G17 G3 X-249.938 Y-100.4 J0.6
X-259.938 I-5
X-249.938 I5
X-250.538 Y-99.8 I-0.6
G1 X-251.138
G18 G3 X-251.738 Z7.6 K0.6
G0 Z41
G17

(dog_hole_03_widen)
G0 X-251.738 Y-176
Z41
Z31
G1 Z27 F283.3
Z7.6
G18 G2 X-251.138 Z7 I0.6
G1 X-250.538 F850
G17 G3 X-249.938 Y-175.4 J0.6
X-259.938 I-5
X-249.938 I5
X-250.538 Y-174.8 I-0.6
G1 X-251.138
G18 G3 X-251.738 Z7.6 K0.6
G0 Z41
G17

(dog_hole_03_widen)
G0 X-251.738 Y-251
Z41
Z31
G1 Z27 F283.3
Z7.6
G18 G2 X-251.138 Z7 I0.6
G1 X-250.538 F850
G17 G3 X-249.938 Y-250.4 J0.6
X-259.938 I-5
X-249.938 I5
X-250.538 Y-249.8 I-0.6
G1 X-251.138
G18 G3 X-251.738 Z7.6 K0.6
G0 Z41
G17

(dog_hole_03_widen)
G0 X-251.738 Y-326
Z41
Z31
G1 Z27 F283.3
Z7.6
G18 G2 X-251.138 Z7 I0.6
G1 X-250.538 F850
G17 G3 X-249.938 Y-325.4 J0.6
X-259.938 I-5
X-249.938 I5
X-250.538 Y-324.8 I-0.6
G1 X-251.138
G18 G3 X-251.738 Z7.6 K0.6
G0 Z41
G17

(dog_hole_03_widen)
G0 X-251.738 Y-401
Z41
Z31
G1 Z27 F283.3
Z7.6
G18 G2 X-251.138 Z7 I0.6
G1 X-250.538 F850
G17 G3 X-249.938 Y-400.4 J0.6
X-259.938 I-5
X-249.938 I5
X-250.538 Y-399.8 I-0.6
G1 X-251.138
G18 G3 X-251.738 Z7.6 K0.6
G0 Z41
G17

(dog_hole_03_widen)
G0 X-251.738 Y-476
Z41
Z31
G1 Z27 F283.3
Z7.6
G18 G2 X-251.138 Z7 I0.6
G1 X-250.538 F850
G17 G3 X-249.938 Y-475.4 J0.6
X-259.938 I-5
X-249.938 I5
X-250.538 Y-474.8 I-0.6
G1 X-251.138
G18 G3 X-251.738 Z7.6 K0.6
G0 Z41
G17

(dog_hole_03_widen)
G0 X-251.738 Y-551
Z41
Z31
G1 Z27 F283.3
Z7.6
G18 G2 X-251.138 Z7 I0.6
G1 X-250.538 F850
G17 G3 X-249.938 Y-550.4 J0.6
X-259.938 I-5
X-249.938 I5
X-250.538 Y-549.8 I-0.6
G1 X-251.138
G18 G3 X-251.738 Z7.6 K0.6
G0 Z41
G17

(dog_hole_03_widen)
G0 X-251.738 Y-626
Z41
Z31
G1 Z27 F283.3
Z7.6
G18 G2 X-251.138 Z7 I0.6
G1 X-250.538 F850
G17 G3 X-249.938 Y-625.4 J0.6
X-259.938 I-5
X-249.938 I5
X-250.538 Y-624.8 I-0.6
G1 X-251.138
G18 G3 X-251.738 Z7.6 K0.6
G0 Z41
G17

(dog_hole_03_widen)
G0 X-326.738 Y49
Z41
Z31
G1 Z27 F283.3
Z7.6
G18 G2 X-326.138 Z7 I0.6
G1 X-325.538 F850
G17 G3 X-324.938 Y49.6 J0.6
X-334.938 I-5
X-324.938 I5
X-325.538 Y50.2 I-0.6
G1 X-326.138
G18 G3 X-326.738 Z7.6 K0.6
G0 Z41
G17

(dog_hole_03_widen)
G0 X-326.738 Y-26
Z41
Z31
G1 Z27 F283.3
Z7.6
G18 G2 X-326.138 Z7 I0.6
G1 X-325.538 F850
G17 G3 X-324.938 Y-25.4 J0.6
X-334.938 I-5
X-324.938 I5
X-325.538 Y-24.8 I-0.6
G1 X-326.138
G18 G3 X-326.738 Z7.6 K0.6
G0 Z41
G17

(dog_hole_03_widen)
G0 X-326.738 Y-101
Z41
Z31
G1 Z27 F283.3
Z7.6
G18 G2 X-326.138 Z7 I0.6
G1 X-325.538 F850
G17 G3 X-324.938 Y-100.4 J0.6
X-334.938 I-5
X-324.938 I5
X-325.538 Y-99.8 I-0.6
G1 X-326.138
G18 G3 X-326.738 Z7.6 K0.6
G0 Z41
G17

(dog_hole_03_widen)
G0 X-326.738 Y-176
Z41
Z31
G1 Z27 F283.3
Z7.6
G18 G2 X-326.138 Z7 I0.6
G1 X-325.538 F850
G17 G3 X-324.938 Y-175.4 J0.6
X-334.938 I-5
X-324.938 I5
X-325.538 Y-174.8 I-0.6
G1 X-326.138
G18 G3 X-326.738 Z7.6 K0.6
G0 Z41
G17

(dog_hole_03_widen)
G0 X-326.738 Y-251
Z41
Z31
G1 Z27 F283.3
Z7.6
G18 G2 X-326.138 Z7 I0.6
G1 X-325.538 F850
G17 G3 X-324.938 Y-250.4 J0.6
X-334.938 I-5
X-324.938 I5
X-325.538 Y-249.8 I-0.6
G1 X-326.138
G18 G3 X-326.738 Z7.6 K0.6
G0 Z41
G17

(dog_hole_03_widen)
G0 X-326.738 Y-326
Z41
Z31
G1 Z27 F283.3
Z7.6
G18 G2 X-326.138 Z7 I0.6
G1 X-325.538 F850
G17 G3 X-324.938 Y-325.4 J0.6
X-334.938 I-5
X-324.938 I5
X-325.538 Y-324.8 I-0.6
G1 X-326.138
G18 G3 X-326.738 Z7.6 K0.6
G0 Z41
G17

(dog_hole_03_widen)
G0 X-326.738 Y-401
Z41
Z31
G1 Z27 F283.3
Z7.6
G18 G2 X-326.138 Z7 I0.6
G1 X-325.538 F850
G17 G3 X-324.938 Y-400.4 J0.6
X-334.938 I-5
X-324.938 I5
X-325.538 Y-399.8 I-0.6
G1 X-326.138
G18 G3 X-326.738 Z7.6 K0.6
G0 Z41
G17

(dog_hole_03_widen)
G0 X-326.738 Y-476
Z41
Z31
G1 Z27 F283.3
Z7.6
G18 G2 X-326.138 Z7 I0.6
G1 X-325.538 F850
G17 G3 X-324.938 Y-475.4 J0.6
X-334.938 I-5
X-324.938 I5
X-325.538 Y-474.8 I-0.6
G1 X-326.138
G18 G3 X-326.738 Z7.6 K0.6
G0 Z41
G17

(dog_hole_03_widen)
G0 X-326.738 Y-551
Z41
Z31
G1 Z27 F283.3
Z7.6
G18 G2 X-326.138 Z7 I0.6
G1 X-325.538 F850
G17 G3 X-324.938 Y-550.4 J0.6
X-334.938 I-5
X-324.938 I5
X-325.538 Y-549.8 I-0.6
G1 X-326.138
G18 G3 X-326.738 Z7.6 K0.6
G0 Z41
G17

(dog_hole_03_widen)
G0 X-326.738 Y-626
Z41
Z31
G1 Z27 F283.3
Z7.6
G18 G2 X-326.138 Z7 I0.6
G1 X-325.538 F850
G17 G3 X-324.938 Y-625.4 J0.6
X-334.938 I-5
X-324.938 I5
X-325.538 Y-624.8 I-0.6
G1 X-326.138
G18 G3 X-326.738 Z7.6 K0.6
G0 Z41
G17

(dog_hole_03_widen)
G0 X-401.738 Y49
Z41
Z31
G1 Z27 F283.3
Z7.6
G18 G2 X-401.138 Z7 I0.6
G1 X-400.538 F850
G17 G3 X-399.938 Y49.6 J0.6
X-409.938 I-5
X-399.938 I5
X-400.538 Y50.2 I-0.6
G1 X-401.138
G18 G3 X-401.738 Z7.6 K0.6
G0 Z41
G17

(dog_hole_03_widen)
G0 X-401.738 Y-26
Z41
Z31
G1 Z27 F283.3
Z7.6
G18 G2 X-401.138 Z7 I0.6
G1 X-400.538 F850
G17 G3 X-399.938 Y-25.4 J0.6
X-409.938 I-5
X-399.938 I5
X-400.538 Y-24.8 I-0.6
G1 X-401.138
G18 G3 X-401.738 Z7.6 K0.6
G0 Z41
G17

(dog_hole_03_widen)
G0 X-401.738 Y-101
Z41
Z31
G1 Z27 F283.3
Z7.6
G18 G2 X-401.138 Z7 I0.6
G1 X-400.538 F850
G17 G3 X-399.938 Y-100.4 J0.6
X-409.938 I-5
X-399.938 I5
X-400.538 Y-99.8 I-0.6
G1 X-401.138
G18 G3 X-401.738 Z7.6 K0.6
G0 Z41
G17

(dog_hole_03_widen)
G0 X-401.738 Y-176
Z41
Z31
G1 Z27 F283.3
Z7.6
G18 G2 X-401.138 Z7 I0.6
G1 X-400.538 F850
G17 G3 X-399.938 Y-175.4 J0.6
X-409.938 I-5
X-399.938 I5
X-400.538 Y-174.8 I-0.6
G1 X-401.138
G18 G3 X-401.738 Z7.6 K0.6
G0 Z41
G17

(dog_hole_03_widen)
G0 X-401.738 Y-251
Z41
Z31
G1 Z27 F283.3
Z7.6
G18 G2 X-401.138 Z7 I0.6
G1 X-400.538 F850
G17 G3 X-399.938 Y-250.4 J0.6
X-409.938 I-5
X-399.938 I5
X-400.538 Y-249.8 I-0.6
G1 X-401.138
G18 G3 X-401.738 Z7.6 K0.6
G0 Z41
G17

(dog_hole_03_widen)
G0 X-401.738 Y-326
Z41
Z31
G1 Z27 F283.3
Z7.6
G18 G2 X-401.138 Z7 I0.6
G1 X-400.538 F850
G17 G3 X-399.938 Y-325.4 J0.6
X-409.938 I-5
X-399.938 I5
X-400.538 Y-324.8 I-0.6
G1 X-401.138
G18 G3 X-401.738 Z7.6 K0.6
G0 Z41
G17

(dog_hole_03_widen)
G0 X-401.738 Y-401
Z41
Z31
G1 Z27 F283.3
Z7.6
G18 G2 X-401.138 Z7 I0.6
G1 X-400.538 F850
G17 G3 X-399.938 Y-400.4 J0.6
X-409.938 I-5
X-399.938 I5
X-400.538 Y-399.8 I-0.6
G1 X-401.138
G18 G3 X-401.738 Z7.6 K0.6
G0 Z41
G17

(dog_hole_03_widen)
G0 X-401.738 Y-476
Z41
Z31
G1 Z27 F283.3
Z7.6
G18 G2 X-401.138 Z7 I0.6
G1 X-400.538 F850
G17 G3 X-399.938 Y-475.4 J0.6
X-409.938 I-5
X-399.938 I5
X-400.538 Y-474.8 I-0.6
G1 X-401.138
G18 G3 X-401.738 Z7.6 K0.6
G0 Z41
G17

(dog_hole_03_widen)
G0 X-401.738 Y-551
Z41
Z31
G1 Z27 F283.3
Z7.6
G18 G2 X-401.138 Z7 I0.6
G1 X-400.538 F850
G17 G3 X-399.938 Y-550.4 J0.6
X-409.938 I-5
X-399.938 I5
X-400.538 Y-549.8 I-0.6
G1 X-401.138
G18 G3 X-401.738 Z7.6 K0.6
G0 Z41
G17

(dog_hole_03_widen)
G0 X-401.738 Y-626
Z41
Z31
G1 Z27 F283.3
Z7.6
G18 G2 X-401.138 Z7 I0.6
G1 X-400.538 F850
G17 G3 X-399.938 Y-625.4 J0.6
X-409.938 I-5
X-399.938 I5
X-400.538 Y-624.8 I-0.6
G1 X-401.138
G18 G3 X-401.738 Z7.6 K0.6
G0 Z41
G17

(dog_hole_03_widen)
G0 X-476.738 Y49
Z41
Z31
G1 Z27 F283.3
Z7.6
G18 G2 X-476.138 Z7 I0.6
G1 X-475.538 F850
G17 G3 X-474.938 Y49.6 J0.6
X-484.938 I-5
X-474.938 I5
X-475.538 Y50.2 I-0.6
G1 X-476.138
G18 G3 X-476.738 Z7.6 K0.6
G0 Z41
G17

(dog_hole_03_widen)
G0 X-476.738 Y-26
Z41
Z31
G1 Z27 F283.3
Z7.6
G18 G2 X-476.138 Z7 I0.6
G1 X-475.538 F850
G17 G3 X-474.938 Y-25.4 J0.6
X-484.938 I-5
X-474.938 I5
X-475.538 Y-24.8 I-0.6
G1 X-476.138
G18 G3 X-476.738 Z7.6 K0.6
G0 Z41
G17

(dog_hole_03_widen)
G0 X-476.738 Y-101
Z41
Z31
G1 Z27 F283.3
Z7.6
G18 G2 X-476.138 Z7 I0.6
G1 X-475.538 F850
G17 G3 X-474.938 Y-100.4 J0.6
X-484.938 I-5
X-474.938 I5
X-475.538 Y-99.8 I-0.6
G1 X-476.138
G18 G3 X-476.738 Z7.6 K0.6
G0 Z41
G17

(dog_hole_03_widen)
G0 X-476.738 Y-176
Z41
Z31
G1 Z27 F283.3
Z7.6
G18 G2 X-476.138 Z7 I0.6
G1 X-475.538 F850
G17 G3 X-474.938 Y-175.4 J0.6
X-484.938 I-5
X-474.938 I5
X-475.538 Y-174.8 I-0.6
G1 X-476.138
G18 G3 X-476.738 Z7.6 K0.6
G0 Z41
G17

(dog_hole_03_widen)
G0 X-476.738 Y-251
Z41
Z31
G1 Z27 F283.3
Z7.6
G18 G2 X-476.138 Z7 I0.6
G1 X-475.538 F850
G17 G3 X-474.938 Y-250.4 J0.6
X-484.938 I-5
X-474.938 I5
X-475.538 Y-249.8 I-0.6
G1 X-476.138
G18 G3 X-476.738 Z7.6 K0.6
G0 Z41
G17

(dog_hole_03_widen)
G0 X-476.738 Y-326
Z41
Z31
G1 Z27 F283.3
Z7.6
G18 G2 X-476.138 Z7 I0.6
G1 X-475.538 F850
G17 G3 X-474.938 Y-325.4 J0.6
X-484.938 I-5
X-474.938 I5
X-475.538 Y-324.8 I-0.6
G1 X-476.138
G18 G3 X-476.738 Z7.6 K0.6
G0 Z41
G17

(dog_hole_03_widen)
G0 X-476.738 Y-401
Z41
Z31
G1 Z27 F283.3
Z7.6
G18 G2 X-476.138 Z7 I0.6
G1 X-475.538 F850
G17 G3 X-474.938 Y-400.4 J0.6
X-484.938 I-5
X-474.938 I5
X-475.538 Y-399.8 I-0.6
G1 X-476.138
G18 G3 X-476.738 Z7.6 K0.6
G0 Z41
G17

(dog_hole_03_widen)
G0 X-476.738 Y-476
Z41
Z31
G1 Z27 F283.3
Z7.6
G18 G2 X-476.138 Z7 I0.6
G1 X-475.538 F850
G17 G3 X-474.938 Y-475.4 J0.6
X-484.938 I-5
X-474.938 I5
X-475.538 Y-474.8 I-0.6
G1 X-476.138
G18 G3 X-476.738 Z7.6 K0.6
G0 Z41
G17

(dog_hole_03_widen)
G0 X-476.738 Y-551
Z41
Z31
G1 Z27 F283.3
Z7.6
G18 G2 X-476.138 Z7 I0.6
G1 X-475.538 F850
G17 G3 X-474.938 Y-550.4 J0.6
X-484.938 I-5
X-474.938 I5
X-475.538 Y-549.8 I-0.6
G1 X-476.138
G18 G3 X-476.738 Z7.6 K0.6
G0 Z41
G17

(dog_hole_03_widen)
G0 X-476.738 Y-626
Z41
Z31
G1 Z27 F283.3
Z7.6
G18 G2 X-476.138 Z7 I0.6
G1 X-475.538 F850
G17 G3 X-474.938 Y-625.4 J0.6
X-484.938 I-5
X-474.938 I5
X-475.538 Y-624.8 I-0.6
G1 X-476.138
G18 G3 X-476.738 Z7.6 K0.6
G0 Z41
G17

(dog_hole_03_widen)
G0 X-551.738 Y49
Z41
Z31
G1 Z27 F283.3
Z7.6
G18 G2 X-551.138 Z7 I0.6
G1 X-550.538 F850
G17 G3 X-549.938 Y49.6 J0.6
X-559.938 I-5
X-549.938 I5
X-550.538 Y50.2 I-0.6
G1 X-551.138
G18 G3 X-551.738 Z7.6 K0.6
G0 Z41
G17

(dog_hole_03_widen)
G0 X-551.738 Y-26
Z41
Z31
G1 Z27 F283.3
Z7.6
G18 G2 X-551.138 Z7 I0.6
G1 X-550.538 F850
G17 G3 X-549.938 Y-25.4 J0.6
X-559.938 I-5
X-549.938 I5
X-550.538 Y-24.8 I-0.6
G1 X-551.138
G18 G3 X-551.738 Z7.6 K0.6
G0 Z41
G17

(dog_hole_03_widen)
G0 X-551.738 Y-101
Z41
Z31
G1 Z27 F283.3
Z7.6
G18 G2 X-551.138 Z7 I0.6
G1 X-550.538 F850
G17 G3 X-549.938 Y-100.4 J0.6
X-559.938 I-5
X-549.938 I5
X-550.538 Y-99.8 I-0.6
G1 X-551.138
G18 G3 X-551.738 Z7.6 K0.6
G0 Z41
G17

(dog_hole_03_widen)
G0 X-551.738 Y-176
Z41
Z31
G1 Z27 F283.3
Z7.6
G18 G2 X-551.138 Z7 I0.6
G1 X-550.538 F850
G17 G3 X-549.938 Y-175.4 J0.6
X-559.938 I-5
X-549.938 I5
X-550.538 Y-174.8 I-0.6
G1 X-551.138
G18 G3 X-551.738 Z7.6 K0.6
G0 Z41
G17

(dog_hole_03_widen)
G0 X-551.738 Y-251
Z41
Z31
G1 Z27 F283.3
Z7.6
G18 G2 X-551.138 Z7 I0.6
G1 X-550.538 F850
G17 G3 X-549.938 Y-250.4 J0.6
X-559.938 I-5
X-549.938 I5
X-550.538 Y-249.8 I-0.6
G1 X-551.138
G18 G3 X-551.738 Z7.6 K0.6
G0 Z41
G17

(dog_hole_03_widen)
G0 X-551.738 Y-326
Z41
Z31
G1 Z27 F283.3
Z7.6
G18 G2 X-551.138 Z7 I0.6
G1 X-550.538 F850
G17 G3 X-549.938 Y-325.4 J0.6
X-559.938 I-5
X-549.938 I5
X-550.538 Y-324.8 I-0.6
G1 X-551.138
G18 G3 X-551.738 Z7.6 K0.6
G0 Z41
G17

(dog_hole_03_widen)
G0 X-551.738 Y-401
Z41
Z31
G1 Z27 F283.3
Z7.6
G18 G2 X-551.138 Z7 I0.6
G1 X-550.538 F850
G17 G3 X-549.938 Y-400.4 J0.6
X-559.938 I-5
X-549.938 I5
X-550.538 Y-399.8 I-0.6
G1 X-551.138
G18 G3 X-551.738 Z7.6 K0.6
G0 Z41
G17

(dog_hole_03_widen)
G0 X-551.738 Y-476
Z41
Z31
G1 Z27 F283.3
Z7.6
G18 G2 X-551.138 Z7 I0.6
G1 X-550.538 F850
G17 G3 X-549.938 Y-475.4 J0.6
X-559.938 I-5
X-549.938 I5
X-550.538 Y-474.8 I-0.6
G1 X-551.138
G18 G3 X-551.738 Z7.6 K0.6
G0 Z41
G17

(dog_hole_03_widen)
G0 X-551.738 Y-551
Z41
Z31
G1 Z27 F283.3
Z7.6
G18 G2 X-551.138 Z7 I0.6
G1 X-550.538 F850
G17 G3 X-549.938 Y-550.4 J0.6
X-559.938 I-5
X-549.938 I5
X-550.538 Y-549.8 I-0.6
G1 X-551.138
G18 G3 X-551.738 Z7.6 K0.6
G0 Z41
G17

(dog_hole_03_widen)
G0 X-551.738 Y-626
Z41
Z31
G1 Z27 F283.3
Z7.6
G18 G2 X-551.138 Z7 I0.6
G1 X-550.538 F850
G17 G3 X-549.938 Y-625.4 J0.6
X-559.938 I-5
X-549.938 I5
X-550.538 Y-624.8 I-0.6
G1 X-551.138
G18 G3 X-551.738 Z7.6 K0.6
G0 Z41
G17

(dog_hole_03_widen)
G0 X-626.738 Y49
Z41
Z31
G1 Z27 F283.3
Z7.6
G18 G2 X-626.138 Z7 I0.6
G1 X-625.538 F850
G17 G3 X-624.938 Y49.6 J0.6
X-634.938 I-5
X-624.938 I5
X-625.538 Y50.2 I-0.6
G1 X-626.138
G18 G3 X-626.738 Z7.6 K0.6
G0 Z41
G17

(dog_hole_03_widen)
G0 X-626.738 Y-26
Z41
Z31
G1 Z27 F283.3
Z7.6
G18 G2 X-626.138 Z7 I0.6
G1 X-625.538 F850
G17 G3 X-624.938 Y-25.4 J0.6
X-634.938 I-5
X-624.938 I5
X-625.538 Y-24.8 I-0.6
G1 X-626.138
G18 G3 X-626.738 Z7.6 K0.6
G0 Z41
G17

(dog_hole_03_widen)
G0 X-626.738 Y-101
Z41
Z31
G1 Z27 F283.3
Z7.6
G18 G2 X-626.138 Z7 I0.6
G1 X-625.538 F850
G17 G3 X-624.938 Y-100.4 J0.6
X-634.938 I-5
X-624.938 I5
X-625.538 Y-99.8 I-0.6
G1 X-626.138
G18 G3 X-626.738 Z7.6 K0.6
G0 Z41
G17

(dog_hole_03_widen)
G0 X-626.738 Y-176
Z41
Z31
G1 Z27 F283.3
Z7.6
G18 G2 X-626.138 Z7 I0.6
G1 X-625.538 F850
G17 G3 X-624.938 Y-175.4 J0.6
X-634.938 I-5
X-624.938 I5
X-625.538 Y-174.8 I-0.6
G1 X-626.138
G18 G3 X-626.738 Z7.6 K0.6
G0 Z41
G17

(dog_hole_03_widen)
G0 X-626.738 Y-251
Z41
Z31
G1 Z27 F283.3
Z7.6
G18 G2 X-626.138 Z7 I0.6
G1 X-625.538 F850
G17 G3 X-624.938 Y-250.4 J0.6
X-634.938 I-5
X-624.938 I5
X-625.538 Y-249.8 I-0.6
G1 X-626.138
G18 G3 X-626.738 Z7.6 K0.6
G0 Z41
G17

(dog_hole_03_widen)
G0 X-626.738 Y-326
Z41
Z31
G1 Z27 F283.3
Z7.6
G18 G2 X-626.138 Z7 I0.6
G1 X-625.538 F850
G17 G3 X-624.938 Y-325.4 J0.6
X-634.938 I-5
X-624.938 I5
X-625.538 Y-324.8 I-0.6
G1 X-626.138
G18 G3 X-626.738 Z7.6 K0.6
G0 Z41
G17

(dog_hole_03_widen)
G0 X-626.738 Y-401
Z41
Z31
G1 Z27 F283.3
Z7.6
G18 G2 X-626.138 Z7 I0.6
G1 X-625.538 F850
G17 G3 X-624.938 Y-400.4 J0.6
X-634.938 I-5
X-624.938 I5
X-625.538 Y-399.8 I-0.6
G1 X-626.138
G18 G3 X-626.738 Z7.6 K0.6
G0 Z41
G17

(dog_hole_03_widen)
G0 X-626.738 Y-476
Z41
Z31
G1 Z27 F283.3
Z7.6
G18 G2 X-626.138 Z7 I0.6
G1 X-625.538 F850
G17 G3 X-624.938 Y-475.4 J0.6
X-634.938 I-5
X-624.938 I5
X-625.538 Y-474.8 I-0.6
G1 X-626.138
G18 G3 X-626.738 Z7.6 K0.6
G0 Z41
G17

(dog_hole_03_widen)
G0 X-626.738 Y-551
Z41
Z31
G1 Z27 F283.3
Z7.6
G18 G2 X-626.138 Z7 I0.6
G1 X-625.538 F850
G17 G3 X-624.938 Y-550.4 J0.6
X-634.938 I-5
X-624.938 I5
X-625.538 Y-549.8 I-0.6
G1 X-626.138
G18 G3 X-626.738 Z7.6 K0.6
G0 Z41
G17

(dog_hole_03_widen)
G0 X-626.738 Y-626
Z41
Z31
G1 Z27 F283.3
Z7.6
G18 G2 X-626.138 Z7 I0.6
G1 X-625.538 F850
G17 G3 X-624.938 Y-625.4 J0.6
X-634.938 I-5
X-624.938 I5
X-625.538 Y-624.8 I-0.6
G1 X-626.138
G18 G3 X-626.738 Z7.6 K0.6
G0 Z41
G17

(dog_hole_03_widen)
G0 X-701.738 Y49
Z41
Z31
G1 Z27 F283.3
Z7.6
G18 G2 X-701.138 Z7 I0.6
G1 X-700.538 F850
G17 G3 X-699.938 Y49.6 J0.6
X-709.938 I-5
X-699.938 I5
X-700.538 Y50.2 I-0.6
G1 X-701.138
G18 G3 X-701.738 Z7.6 K0.6
G0 Z41
G17

(dog_hole_03_widen)
G0 X-701.738 Y-26
Z41
Z31
G1 Z27 F283.3
Z7.6
G18 G2 X-701.138 Z7 I0.6
G1 X-700.538 F850
G17 G3 X-699.938 Y-25.4 J0.6
X-709.938 I-5
X-699.938 I5
X-700.538 Y-24.8 I-0.6
G1 X-701.138
G18 G3 X-701.738 Z7.6 K0.6
G0 Z41
G17

(dog_hole_03_widen)
G0 X-701.738 Y-101
Z41
Z31
G1 Z27 F283.3
Z7.6
G18 G2 X-701.138 Z7 I0.6
G1 X-700.538 F850
G17 G3 X-699.938 Y-100.4 J0.6
X-709.938 I-5
X-699.938 I5
X-700.538 Y-99.8 I-0.6
G1 X-701.138
G18 G3 X-701.738 Z7.6 K0.6
G0 Z41
G17

(dog_hole_03_widen)
G0 X-701.738 Y-176
Z41
Z31
G1 Z27 F283.3
Z7.6
G18 G2 X-701.138 Z7 I0.6
G1 X-700.538 F850
G17 G3 X-699.938 Y-175.4 J0.6
X-709.938 I-5
X-699.938 I5
X-700.538 Y-174.8 I-0.6
G1 X-701.138
G18 G3 X-701.738 Z7.6 K0.6
G0 Z41
G17

(dog_hole_03_widen)
G0 X-701.738 Y-251
Z41
Z31
G1 Z27 F283.3
Z7.6
G18 G2 X-701.138 Z7 I0.6
G1 X-700.538 F850
G17 G3 X-699.938 Y-250.4 J0.6
X-709.938 I-5
X-699.938 I5
X-700.538 Y-249.8 I-0.6
G1 X-701.138
G18 G3 X-701.738 Z7.6 K0.6
G0 Z41
G17

(dog_hole_03_widen)
G0 X-701.738 Y-326
Z41
Z31
G1 Z27 F283.3
Z7.6
G18 G2 X-701.138 Z7 I0.6
G1 X-700.538 F850
G17 G3 X-699.938 Y-325.4 J0.6
X-709.938 I-5
X-699.938 I5
X-700.538 Y-324.8 I-0.6
G1 X-701.138
G18 G3 X-701.738 Z7.6 K0.6
G0 Z41
G17

(dog_hole_03_widen)
G0 X-701.738 Y-401
Z41
Z31
G1 Z27 F283.3
Z7.6
G18 G2 X-701.138 Z7 I0.6
G1 X-700.538 F850
G17 G3 X-699.938 Y-400.4 J0.6
X-709.938 I-5
X-699.938 I5
X-700.538 Y-399.8 I-0.6
G1 X-701.138
G18 G3 X-701.738 Z7.6 K0.6
G0 Z41
G17

(dog_hole_03_widen)
G0 X-701.738 Y-476
Z41
Z31
G1 Z27 F283.3
Z7.6
G18 G2 X-701.138 Z7 I0.6
G1 X-700.538 F850
G17 G3 X-699.938 Y-475.4 J0.6
X-709.938 I-5
X-699.938 I5
X-700.538 Y-474.8 I-0.6
G1 X-701.138
G18 G3 X-701.738 Z7.6 K0.6
G0 Z41
G17

(dog_hole_03_widen)
G0 X-701.738 Y-551
Z41
Z31
G1 Z27 F283.3
Z7.6
G18 G2 X-701.138 Z7 I0.6
G1 X-700.538 F850
G17 G3 X-699.938 Y-550.4 J0.6
X-709.938 I-5
X-699.938 I5
X-700.538 Y-549.8 I-0.6
G1 X-701.138
G18 G3 X-701.738 Z7.6 K0.6
G0 Z41
G17

(dog_hole_03_widen)
G0 X-701.738 Y-626
Z41
Z31
G1 Z27 F283.3
Z7.6
G18 G2 X-701.138 Z7 I0.6
G1 X-700.538 F850
G17 G3 X-699.938 Y-625.4 J0.6
X-709.938 I-5
X-699.938 I5
X-700.538 Y-624.8 I-0.6
G1 X-701.138
G18 G3 X-701.738 Z7.6 K0.6
G0 Z41
G17

(dog_hole_03_widen)
G0 X-776.738 Y49
Z41
Z31
G1 Z27 F283.3
Z7.6
G18 G2 X-776.138 Z7 I0.6
G1 X-775.538 F850
G17 G3 X-774.938 Y49.6 J0.6
X-784.938 I-5
X-774.938 I5
X-775.538 Y50.2 I-0.6
G1 X-776.138
G18 G3 X-776.738 Z7.6 K0.6
G0 Z41
G17

(dog_hole_03_widen)
G0 X-776.738 Y-26
Z41
Z31
G1 Z27 F283.3
Z7.6
G18 G2 X-776.138 Z7 I0.6
G1 X-775.538 F850
G17 G3 X-774.938 Y-25.4 J0.6
X-784.938 I-5
X-774.938 I5
X-775.538 Y-24.8 I-0.6
G1 X-776.138
G18 G3 X-776.738 Z7.6 K0.6
G0 Z41
G17

(dog_hole_03_widen)
G0 X-776.738 Y-101
Z41
Z31
G1 Z27 F283.3
Z7.6
G18 G2 X-776.138 Z7 I0.6
G1 X-775.538 F850
G17 G3 X-774.938 Y-100.4 J0.6
X-784.938 I-5
X-774.938 I5
X-775.538 Y-99.8 I-0.6
G1 X-776.138
G18 G3 X-776.738 Z7.6 K0.6
G0 Z41
G17

(dog_hole_03_widen)
G0 X-776.738 Y-176
Z41
Z31
G1 Z27 F283.3
Z7.6
G18 G2 X-776.138 Z7 I0.6
G1 X-775.538 F850
G17 G3 X-774.938 Y-175.4 J0.6
X-784.938 I-5
X-774.938 I5
X-775.538 Y-174.8 I-0.6
G1 X-776.138
G18 G3 X-776.738 Z7.6 K0.6
G0 Z41
G17

(dog_hole_03_widen)
G0 X-776.738 Y-251
Z41
Z31
G1 Z27 F283.3
Z7.6
G18 G2 X-776.138 Z7 I0.6
G1 X-775.538 F850
G17 G3 X-774.938 Y-250.4 J0.6
X-784.938 I-5
X-774.938 I5
X-775.538 Y-249.8 I-0.6
G1 X-776.138
G18 G3 X-776.738 Z7.6 K0.6
G0 Z41
G17

(dog_hole_03_widen)
G0 X-776.738 Y-326
Z41
Z31
G1 Z27 F283.3
Z7.6
G18 G2 X-776.138 Z7 I0.6
G1 X-775.538 F850
G17 G3 X-774.938 Y-325.4 J0.6
X-784.938 I-5
X-774.938 I5
X-775.538 Y-324.8 I-0.6
G1 X-776.138
G18 G3 X-776.738 Z7.6 K0.6
G0 Z41
G17

(dog_hole_03_widen)
G0 X-776.738 Y-401
Z41
Z31
G1 Z27 F283.3
Z7.6
G18 G2 X-776.138 Z7 I0.6
G1 X-775.538 F850
G17 G3 X-774.938 Y-400.4 J0.6
X-784.938 I-5
X-774.938 I5
X-775.538 Y-399.8 I-0.6
G1 X-776.138
G18 G3 X-776.738 Z7.6 K0.6
G0 Z41
G17

(dog_hole_03_widen)
G0 X-776.738 Y-476
Z41
Z31
G1 Z27 F283.3
Z7.6
G18 G2 X-776.138 Z7 I0.6
G1 X-775.538 F850
G17 G3 X-774.938 Y-475.4 J0.6
X-784.938 I-5
X-774.938 I5
X-775.538 Y-474.8 I-0.6
G1 X-776.138
G18 G3 X-776.738 Z7.6 K0.6
G0 Z41
G17

(dog_hole_03_widen)
G0 X-776.738 Y-551
Z41
Z31
G1 Z27 F283.3
Z7.6
G18 G2 X-776.138 Z7 I0.6
G1 X-775.538 F850
G17 G3 X-774.938 Y-550.4 J0.6
X-784.938 I-5
X-774.938 I5
X-775.538 Y-549.8 I-0.6
G1 X-776.138
G18 G3 X-776.738 Z7.6 K0.6
G0 Z41
G17

(dog_hole_03_widen)
G0 X-776.738 Y-626
Z41
Z31
G1 Z27 F283.3
Z7.6
G18 G2 X-776.138 Z7 I0.6
G1 X-775.538 F850
G17 G3 X-774.938 Y-625.4 J0.6
X-784.938 I-5
X-774.938 I5
X-775.538 Y-624.8 I-0.6
G1 X-776.138
G18 G3 X-776.738 Z7.6 K0.6
G0 Z41
G17

(dog_hole_03_widen)
G0 X-851.738 Y49
Z41
Z31
G1 Z27 F283.3
Z7.6
G18 G2 X-851.138 Z7 I0.6
G1 X-850.538 F850
G17 G3 X-849.938 Y49.6 J0.6
X-859.938 I-5
X-849.938 I5
X-850.538 Y50.2 I-0.6
G1 X-851.138
G18 G3 X-851.738 Z7.6 K0.6
G0 Z41
G17

(dog_hole_03_widen)
G0 X-851.738 Y-26
Z41
Z31
G1 Z27 F283.3
Z7.6
G18 G2 X-851.138 Z7 I0.6
G1 X-850.538 F850
G17 G3 X-849.938 Y-25.4 J0.6
X-859.938 I-5
X-849.938 I5
X-850.538 Y-24.8 I-0.6
G1 X-851.138
G18 G3 X-851.738 Z7.6 K0.6
G0 Z41
G17

(dog_hole_03_widen)
G0 X-851.738 Y-101
Z41
Z31
G1 Z27 F283.3
Z7.6
G18 G2 X-851.138 Z7 I0.6
G1 X-850.538 F850
G17 G3 X-849.938 Y-100.4 J0.6
X-859.938 I-5
X-849.938 I5
X-850.538 Y-99.8 I-0.6
G1 X-851.138
G18 G3 X-851.738 Z7.6 K0.6
G0 Z41
G17

(dog_hole_03_widen)
G0 X-851.738 Y-176
Z41
Z31
G1 Z27 F283.3
Z7.6
G18 G2 X-851.138 Z7 I0.6
G1 X-850.538 F850
G17 G3 X-849.938 Y-175.4 J0.6
X-859.938 I-5
X-849.938 I5
X-850.538 Y-174.8 I-0.6
G1 X-851.138
G18 G3 X-851.738 Z7.6 K0.6
G0 Z41
G17

(dog_hole_03_widen)
G0 X-851.738 Y-251
Z41
Z31
G1 Z27 F283.3
Z7.6
G18 G2 X-851.138 Z7 I0.6
G1 X-850.538 F850
G17 G3 X-849.938 Y-250.4 J0.6
X-859.938 I-5
X-849.938 I5
X-850.538 Y-249.8 I-0.6
G1 X-851.138
G18 G3 X-851.738 Z7.6 K0.6
G0 Z41
G17

(dog_hole_03_widen)
G0 X-851.738 Y-326
Z41
Z31
G1 Z27 F283.3
Z7.6
G18 G2 X-851.138 Z7 I0.6
G1 X-850.538 F850
G17 G3 X-849.938 Y-325.4 J0.6
X-859.938 I-5
X-849.938 I5
X-850.538 Y-324.8 I-0.6
G1 X-851.138
G18 G3 X-851.738 Z7.6 K0.6
G0 Z41
G17

(dog_hole_03_widen)
G0 X-851.738 Y-401
Z41
Z31
G1 Z27 F283.3
Z7.6
G18 G2 X-851.138 Z7 I0.6
G1 X-850.538 F850
G17 G3 X-849.938 Y-400.4 J0.6
X-859.938 I-5
X-849.938 I5
X-850.538 Y-399.8 I-0.6
G1 X-851.138
G18 G3 X-851.738 Z7.6 K0.6
G0 Z41
G17

(dog_hole_03_widen)
G0 X-851.738 Y-476
Z41
Z31
G1 Z27 F283.3
Z7.6
G18 G2 X-851.138 Z7 I0.6
G1 X-850.538 F850
G17 G3 X-849.938 Y-475.4 J0.6
X-859.938 I-5
X-849.938 I5
X-850.538 Y-474.8 I-0.6
G1 X-851.138
G18 G3 X-851.738 Z7.6 K0.6
G0 Z41
G17

(dog_hole_03_widen)
G0 X-851.738 Y-551
Z41
Z31
G1 Z27 F283.3
Z7.6
G18 G2 X-851.138 Z7 I0.6
G1 X-850.538 F850
G17 G3 X-849.938 Y-550.4 J0.6
X-859.938 I-5
X-849.938 I5
X-850.538 Y-549.8 I-0.6
G1 X-851.138
G18 G3 X-851.738 Z7.6 K0.6
G0 Z41
G17

(dog_hole_03_widen)
G0 X-851.738 Y-626
Z41
Z31
G1 Z27 F283.3
Z7.6
G18 G2 X-851.138 Z7 I0.6
G1 X-850.538 F850
G17 G3 X-849.938 Y-625.4 J0.6
X-859.938 I-5
X-849.938 I5
X-850.538 Y-624.8 I-0.6
G1 X-851.138
G18 G3 X-851.738 Z7.6 K0.6
G0 Z41
G17

(dog_hole_03_widen)
G0 X-926.738 Y49
Z41
Z31
G1 Z27 F283.3
Z7.6
G18 G2 X-926.138 Z7 I0.6
G1 X-925.538 F850
G17 G3 X-924.938 Y49.6 J0.6
X-934.938 I-5
X-924.938 I5
X-925.538 Y50.2 I-0.6
G1 X-926.138
G18 G3 X-926.738 Z7.6 K0.6
G0 Z41
G17

(dog_hole_03_widen)
G0 X-926.738 Y-26
Z41
Z31
G1 Z27 F283.3
Z7.6
G18 G2 X-926.138 Z7 I0.6
G1 X-925.538 F850
G17 G3 X-924.938 Y-25.4 J0.6
X-934.938 I-5
X-924.938 I5
X-925.538 Y-24.8 I-0.6
G1 X-926.138
G18 G3 X-926.738 Z7.6 K0.6
G0 Z41
G17

(dog_hole_03_widen)
G0 X-926.738 Y-101
Z41
Z31
G1 Z27 F283.3
Z7.6
G18 G2 X-926.138 Z7 I0.6
G1 X-925.538 F850
G17 G3 X-924.938 Y-100.4 J0.6
X-934.938 I-5
X-924.938 I5
X-925.538 Y-99.8 I-0.6
G1 X-926.138
G18 G3 X-926.738 Z7.6 K0.6
G0 Z41
G17

(dog_hole_03_widen)
G0 X-926.738 Y-176
Z41
Z31
G1 Z27 F283.3
Z7.6
G18 G2 X-926.138 Z7 I0.6
G1 X-925.538 F850
G17 G3 X-924.938 Y-175.4 J0.6
X-934.938 I-5
X-924.938 I5
X-925.538 Y-174.8 I-0.6
G1 X-926.138
G18 G3 X-926.738 Z7.6 K0.6
G0 Z41
G17

(dog_hole_03_widen)
G0 X-926.738 Y-251
Z41
Z31
G1 Z27 F283.3
Z7.6
G18 G2 X-926.138 Z7 I0.6
G1 X-925.538 F850
G17 G3 X-924.938 Y-250.4 J0.6
X-934.938 I-5
X-924.938 I5
X-925.538 Y-249.8 I-0.6
G1 X-926.138
G18 G3 X-926.738 Z7.6 K0.6
G0 Z41
G17

(dog_hole_03_widen)
G0 X-926.738 Y-326
Z41
Z31
G1 Z27 F283.3
Z7.6
G18 G2 X-926.138 Z7 I0.6
G1 X-925.538 F850
G17 G3 X-924.938 Y-325.4 J0.6
X-934.938 I-5
X-924.938 I5
X-925.538 Y-324.8 I-0.6
G1 X-926.138
G18 G3 X-926.738 Z7.6 K0.6
G0 Z41
G17

(dog_hole_03_widen)
G0 X-926.738 Y-401
Z41
Z31
G1 Z27 F283.3
Z7.6
G18 G2 X-926.138 Z7 I0.6
G1 X-925.538 F850
G17 G3 X-924.938 Y-400.4 J0.6
X-934.938 I-5
X-924.938 I5
X-925.538 Y-399.8 I-0.6
G1 X-926.138
G18 G3 X-926.738 Z7.6 K0.6
G0 Z41
G17

(dog_hole_03_widen)
G0 X-926.738 Y-476
Z41
Z31
G1 Z27 F283.3
Z7.6
G18 G2 X-926.138 Z7 I0.6
G1 X-925.538 F850
G17 G3 X-924.938 Y-475.4 J0.6
X-934.938 I-5
X-924.938 I5
X-925.538 Y-474.8 I-0.6
G1 X-926.138
G18 G3 X-926.738 Z7.6 K0.6
G0 Z41
G17

(dog_hole_03_widen)
G0 X-926.738 Y-551
Z41
Z31
G1 Z27 F283.3
Z7.6
G18 G2 X-926.138 Z7 I0.6
G1 X-925.538 F850
G17 G3 X-924.938 Y-550.4 J0.6
X-934.938 I-5
X-924.938 I5
X-925.538 Y-549.8 I-0.6
G1 X-926.138
G18 G3 X-926.738 Z7.6 K0.6
G0 Z41
G17

(dog_hole_03_widen)
G0 X-926.738 Y-626
Z41
Z31
G1 Z27 F283.3
Z7.6
G18 G2 X-926.138 Z7 I0.6
G1 X-925.538 F850
G17 G3 X-924.938 Y-625.4 J0.6
X-934.938 I-5
X-924.938 I5
X-925.538 Y-624.8 I-0.6
G1 X-926.138
G18 G3 X-926.738 Z7.6 K0.6
G0 Z41
G17

(dog_hole_03_widen)
G0 X-1001.738 Y49
Z41
Z31
G1 Z27 F283.3
Z7.6
G18 G2 X-1001.138 Z7 I0.6
G1 X-1000.538 F850
G17 G3 X-999.938 Y49.6 J0.6
X-1009.938 I-5
X-999.938 I5
X-1000.538 Y50.2 I-0.6
G1 X-1001.138
G18 G3 X-1001.738 Z7.6 K0.6
G0 Z41
G17

(dog_hole_03_widen)
G0 X-1001.738 Y-26
Z41
Z31
G1 Z27 F283.3
Z7.6
G18 G2 X-1001.138 Z7 I0.6
G1 X-1000.538 F850
G17 G3 X-999.938 Y-25.4 J0.6
X-1009.938 I-5
X-999.938 I5
X-1000.538 Y-24.8 I-0.6
G1 X-1001.138
G18 G3 X-1001.738 Z7.6 K0.6
G0 Z41
G17

(dog_hole_03_widen)
G0 X-1001.738 Y-101
Z41
Z31
G1 Z27 F283.3
Z7.6
G18 G2 X-1001.138 Z7 I0.6
G1 X-1000.538 F850
G17 G3 X-999.938 Y-100.4 J0.6
X-1009.938 I-5
X-999.938 I5
X-1000.538 Y-99.8 I-0.6
G1 X-1001.138
G18 G3 X-1001.738 Z7.6 K0.6
G0 Z41
G17

(dog_hole_03_widen)
G0 X-1001.738 Y-176
Z41
Z31
G1 Z27 F283.3
Z7.6
G18 G2 X-1001.138 Z7 I0.6
G1 X-1000.538 F850
G17 G3 X-999.938 Y-175.4 J0.6
X-1009.938 I-5
X-999.938 I5
X-1000.538 Y-174.8 I-0.6
G1 X-1001.138
G18 G3 X-1001.738 Z7.6 K0.6
G0 Z41
G17

(dog_hole_03_widen)
G0 X-1001.738 Y-251
Z41
Z31
G1 Z27 F283.3
Z7.6
G18 G2 X-1001.138 Z7 I0.6
G1 X-1000.538 F850
G17 G3 X-999.938 Y-250.4 J0.6
X-1009.938 I-5
X-999.938 I5
X-1000.538 Y-249.8 I-0.6
G1 X-1001.138
G18 G3 X-1001.738 Z7.6 K0.6
G0 Z41
G17

(dog_hole_03_widen)
G0 X-1001.738 Y-326
Z41
Z31
G1 Z27 F283.3
Z7.6
G18 G2 X-1001.138 Z7 I0.6
G1 X-1000.538 F850
G17 G3 X-999.938 Y-325.4 J0.6
X-1009.938 I-5
X-999.938 I5
X-1000.538 Y-324.8 I-0.6
G1 X-1001.138
G18 G3 X-1001.738 Z7.6 K0.6
G0 Z41
G17

(dog_hole_03_widen)
G0 X-1001.738 Y-401
Z41
Z31
G1 Z27 F283.3
Z7.6
G18 G2 X-1001.138 Z7 I0.6
G1 X-1000.538 F850
G17 G3 X-999.938 Y-400.4 J0.6
X-1009.938 I-5
X-999.938 I5
X-1000.538 Y-399.8 I-0.6
G1 X-1001.138
G18 G3 X-1001.738 Z7.6 K0.6
G0 Z41
G17

(dog_hole_03_widen)
G0 X-1001.738 Y-476
Z41
Z31
G1 Z27 F283.3
Z7.6
G18 G2 X-1001.138 Z7 I0.6
G1 X-1000.538 F850
G17 G3 X-999.938 Y-475.4 J0.6
X-1009.938 I-5
X-999.938 I5
X-1000.538 Y-474.8 I-0.6
G1 X-1001.138
G18 G3 X-1001.738 Z7.6 K0.6
G0 Z41
G17

(dog_hole_03_widen)
G0 X-1001.738 Y-551
Z41
Z31
G1 Z27 F283.3
Z7.6
G18 G2 X-1001.138 Z7 I0.6
G1 X-1000.538 F850
G17 G3 X-999.938 Y-550.4 J0.6
X-1009.938 I-5
X-999.938 I5
X-1000.538 Y-549.8 I-0.6
G1 X-1001.138
G18 G3 X-1001.738 Z7.6 K0.6
G0 Z41
G17

(dog_hole_03_widen)
G0 X-1001.738 Y-626
Z41
Z31
G1 Z27 F283.3
Z7.6
G18 G2 X-1001.138 Z7 I0.6
G1 X-1000.538 F850
G17 G3 X-999.938 Y-625.4 J0.6
X-1009.938 I-5
X-999.938 I5
X-1000.538 Y-624.8 I-0.6
G1 X-1001.138
G18 G3 X-1001.738 Z7.6 K0.6
G0 Z41
G17

(dog_hole_03_widen)
G0 X-1076.738 Y49
Z41
Z31
G1 Z27 F283.3
Z7.6
G18 G2 X-1076.138 Z7 I0.6
G1 X-1075.538 F850
G17 G3 X-1074.938 Y49.6 J0.6
X-1084.938 I-5
X-1074.938 I5
X-1075.538 Y50.2 I-0.6
G1 X-1076.138
G18 G3 X-1076.738 Z7.6 K0.6
G0 Z41
G17

(dog_hole_03_widen)
G0 X-1076.738 Y-26
Z41
Z31
G1 Z27 F283.3
Z7.6
G18 G2 X-1076.138 Z7 I0.6
G1 X-1075.538 F850
G17 G3 X-1074.938 Y-25.4 J0.6
X-1084.938 I-5
X-1074.938 I5
X-1075.538 Y-24.8 I-0.6
G1 X-1076.138
G18 G3 X-1076.738 Z7.6 K0.6
G0 Z41
G17

(dog_hole_03_widen)
G0 X-1076.738 Y-101
Z41
Z31
G1 Z27 F283.3
Z7.6
G18 G2 X-1076.138 Z7 I0.6
G1 X-1075.538 F850
G17 G3 X-1074.938 Y-100.4 J0.6
X-1084.938 I-5
X-1074.938 I5
X-1075.538 Y-99.8 I-0.6
G1 X-1076.138
G18 G3 X-1076.738 Z7.6 K0.6
G0 Z41
G17

(dog_hole_03_widen)
G0 X-1076.738 Y-176
Z41
Z31
G1 Z27 F283.3
Z7.6
G18 G2 X-1076.138 Z7 I0.6
G1 X-1075.538 F850
G17 G3 X-1074.938 Y-175.4 J0.6
X-1084.938 I-5
X-1074.938 I5
X-1075.538 Y-174.8 I-0.6
G1 X-1076.138
G18 G3 X-1076.738 Z7.6 K0.6
G0 Z41
G17

(dog_hole_03_widen)
G0 X-1076.738 Y-251
Z41
Z31
G1 Z27 F283.3
Z7.6
G18 G2 X-1076.138 Z7 I0.6
G1 X-1075.538 F850
G17 G3 X-1074.938 Y-250.4 J0.6
X-1084.938 I-5
X-1074.938 I5
X-1075.538 Y-249.8 I-0.6
G1 X-1076.138
G18 G3 X-1076.738 Z7.6 K0.6
G0 Z41
G17

(dog_hole_03_widen)
G0 X-1076.738 Y-326
Z41
Z31
G1 Z27 F283.3
Z7.6
G18 G2 X-1076.138 Z7 I0.6
G1 X-1075.538 F850
G17 G3 X-1074.938 Y-325.4 J0.6
X-1084.938 I-5
X-1074.938 I5
X-1075.538 Y-324.8 I-0.6
G1 X-1076.138
G18 G3 X-1076.738 Z7.6 K0.6
G0 Z41
G17

(dog_hole_03_widen)
G0 X-1076.738 Y-401
Z41
Z31
G1 Z27 F283.3
Z7.6
G18 G2 X-1076.138 Z7 I0.6
G1 X-1075.538 F850
G17 G3 X-1074.938 Y-400.4 J0.6
X-1084.938 I-5
X-1074.938 I5
X-1075.538 Y-399.8 I-0.6
G1 X-1076.138
G18 G3 X-1076.738 Z7.6 K0.6
G0 Z41
G17

(dog_hole_03_widen)
G0 X-1076.738 Y-476
Z41
Z31
G1 Z27 F283.3
Z7.6
G18 G2 X-1076.138 Z7 I0.6
G1 X-1075.538 F850
G17 G3 X-1074.938 Y-475.4 J0.6
X-1084.938 I-5
X-1074.938 I5
X-1075.538 Y-474.8 I-0.6
G1 X-1076.138
G18 G3 X-1076.738 Z7.6 K0.6
G0 Z41
G17

(dog_hole_03_widen)
G0 X-1076.738 Y-551
Z41
Z31
G1 Z27 F283.3
Z7.6
G18 G2 X-1076.138 Z7 I0.6
G1 X-1075.538 F850
G17 G3 X-1074.938 Y-550.4 J0.6
X-1084.938 I-5
X-1074.938 I5
X-1075.538 Y-549.8 I-0.6
G1 X-1076.138
G18 G3 X-1076.738 Z7.6 K0.6
G0 Z41
G17

(dog_hole_03_widen)
G0 X-1076.738 Y-626
Z41
Z31
G1 Z27 F283.3
Z7.6
G18 G2 X-1076.138 Z7 I0.6
G1 X-1075.538 F850
G17 G3 X-1074.938 Y-625.4 J0.6
X-1084.938 I-5
X-1074.938 I5
X-1075.538 Y-624.8 I-0.6
G1 X-1076.138
G18 G3 X-1076.738 Z7.6 K0.6
G0 Z41
G17

(dog_hole_03_widen)
G0 X-1151.738 Y49
Z41
Z31
G1 Z27 F283.3
Z7.6
G18 G2 X-1151.138 Z7 I0.6
G1 X-1150.538 F850
G17 G3 X-1149.938 Y49.6 J0.6
X-1159.938 I-5
X-1149.938 I5
X-1150.538 Y50.2 I-0.6
G1 X-1151.138
G18 G3 X-1151.738 Z7.6 K0.6
G0 Z41
G17

(dog_hole_03_widen)
G0 X-1151.738 Y-26
Z41
Z31
G1 Z27 F283.3
Z7.6
G18 G2 X-1151.138 Z7 I0.6
G1 X-1150.538 F850
G17 G3 X-1149.938 Y-25.4 J0.6
X-1159.938 I-5
X-1149.938 I5
X-1150.538 Y-24.8 I-0.6
G1 X-1151.138
G18 G3 X-1151.738 Z7.6 K0.6
G0 Z41
G17

(dog_hole_03_widen)
G0 X-1151.738 Y-101
Z41
Z31
G1 Z27 F283.3
Z7.6
G18 G2 X-1151.138 Z7 I0.6
G1 X-1150.538 F850
G17 G3 X-1149.938 Y-100.4 J0.6
X-1159.938 I-5
X-1149.938 I5
X-1150.538 Y-99.8 I-0.6
G1 X-1151.138
G18 G3 X-1151.738 Z7.6 K0.6
G0 Z41
G17

(dog_hole_03_widen)
G0 X-1151.738 Y-176
Z41
Z31
G1 Z27 F283.3
Z7.6
G18 G2 X-1151.138 Z7 I0.6
G1 X-1150.538 F850
G17 G3 X-1149.938 Y-175.4 J0.6
X-1159.938 I-5
X-1149.938 I5
X-1150.538 Y-174.8 I-0.6
G1 X-1151.138
G18 G3 X-1151.738 Z7.6 K0.6
G0 Z41
G17

(dog_hole_03_widen)
G0 X-1151.738 Y-251
Z41
Z31
G1 Z27 F283.3
Z7.6
G18 G2 X-1151.138 Z7 I0.6
G1 X-1150.538 F850
G17 G3 X-1149.938 Y-250.4 J0.6
X-1159.938 I-5
X-1149.938 I5
X-1150.538 Y-249.8 I-0.6
G1 X-1151.138
G18 G3 X-1151.738 Z7.6 K0.6
G0 Z41
G17

(dog_hole_03_widen)
G0 X-1151.738 Y-326
Z41
Z31
G1 Z27 F283.3
Z7.6
G18 G2 X-1151.138 Z7 I0.6
G1 X-1150.538 F850
G17 G3 X-1149.938 Y-325.4 J0.6
X-1159.938 I-5
X-1149.938 I5
X-1150.538 Y-324.8 I-0.6
G1 X-1151.138
G18 G3 X-1151.738 Z7.6 K0.6
G0 Z41
G17

(dog_hole_03_widen)
G0 X-1151.738 Y-401
Z41
Z31
G1 Z27 F283.3
Z7.6
G18 G2 X-1151.138 Z7 I0.6
G1 X-1150.538 F850
G17 G3 X-1149.938 Y-400.4 J0.6
X-1159.938 I-5
X-1149.938 I5
X-1150.538 Y-399.8 I-0.6
G1 X-1151.138
G18 G3 X-1151.738 Z7.6 K0.6
G0 Z41
G17

(dog_hole_03_widen)
G0 X-1151.738 Y-476
Z41
Z31
G1 Z27 F283.3
Z7.6
G18 G2 X-1151.138 Z7 I0.6
G1 X-1150.538 F850
G17 G3 X-1149.938 Y-475.4 J0.6
X-1159.938 I-5
X-1149.938 I5
X-1150.538 Y-474.8 I-0.6
G1 X-1151.138
G18 G3 X-1151.738 Z7.6 K0.6
G0 Z41
G17

(dog_hole_03_widen)
G0 X-1151.738 Y-551
Z41
Z31
G1 Z27 F283.3
Z7.6
G18 G2 X-1151.138 Z7 I0.6
G1 X-1150.538 F850
G17 G3 X-1149.938 Y-550.4 J0.6
X-1159.938 I-5
X-1149.938 I5
X-1150.538 Y-549.8 I-0.6
G1 X-1151.138
G18 G3 X-1151.738 Z7.6 K0.6
G0 Z41
G17

(dog_hole_03_widen)
G0 X-1151.738 Y-626
Z41
Z31
G1 Z27 F283.3
Z7.6
G18 G2 X-1151.138 Z7 I0.6
G1 X-1150.538 F850
G17 G3 X-1149.938 Y-625.4 J0.6
X-1159.938 I-5
X-1149.938 I5
X-1150.538 Y-624.8 I-0.6
G1 X-1151.138
G18 G3 X-1151.738 Z7.6 K0.6
G0 Z41
G17

(dog_hole_03_widen)
G0 X-1226.738 Y49
Z41
Z31
G1 Z27 F283.3
Z7.6
G18 G2 X-1226.138 Z7 I0.6
G1 X-1225.538 F850
G17 G3 X-1224.938 Y49.6 J0.6
X-1234.938 I-5
X-1224.938 I5
X-1225.538 Y50.2 I-0.6
G1 X-1226.138
G18 G3 X-1226.738 Z7.6 K0.6
G0 Z41
G17

(dog_hole_03_widen)
G0 X-1226.738 Y-26
Z41
Z31
G1 Z27 F283.3
Z7.6
G18 G2 X-1226.138 Z7 I0.6
G1 X-1225.538 F850
G17 G3 X-1224.938 Y-25.4 J0.6
X-1234.938 I-5
X-1224.938 I5
X-1225.538 Y-24.8 I-0.6
G1 X-1226.138
G18 G3 X-1226.738 Z7.6 K0.6
G0 Z41
G17

(dog_hole_03_widen)
G0 X-1226.738 Y-101
Z41
Z31
G1 Z27 F283.3
Z7.6
G18 G2 X-1226.138 Z7 I0.6
G1 X-1225.538 F850
G17 G3 X-1224.938 Y-100.4 J0.6
X-1234.938 I-5
X-1224.938 I5
X-1225.538 Y-99.8 I-0.6
G1 X-1226.138
G18 G3 X-1226.738 Z7.6 K0.6
G0 Z41
G17

(dog_hole_03_widen)
G0 X-1226.738 Y-176
Z41
Z31
G1 Z27 F283.3
Z7.6
G18 G2 X-1226.138 Z7 I0.6
G1 X-1225.538 F850
G17 G3 X-1224.938 Y-175.4 J0.6
X-1234.938 I-5
X-1224.938 I5
X-1225.538 Y-174.8 I-0.6
G1 X-1226.138
G18 G3 X-1226.738 Z7.6 K0.6
G0 Z41
G17

(dog_hole_03_widen)
G0 X-1226.738 Y-251
Z41
Z31
G1 Z27 F283.3
Z7.6
G18 G2 X-1226.138 Z7 I0.6
G1 X-1225.538 F850
G17 G3 X-1224.938 Y-250.4 J0.6
X-1234.938 I-5
X-1224.938 I5
X-1225.538 Y-249.8 I-0.6
G1 X-1226.138
G18 G3 X-1226.738 Z7.6 K0.6
G0 Z41
G17

(dog_hole_03_widen)
G0 X-1226.738 Y-326
Z41
Z31
G1 Z27 F283.3
Z7.6
G18 G2 X-1226.138 Z7 I0.6
G1 X-1225.538 F850
G17 G3 X-1224.938 Y-325.4 J0.6
X-1234.938 I-5
X-1224.938 I5
X-1225.538 Y-324.8 I-0.6
G1 X-1226.138
G18 G3 X-1226.738 Z7.6 K0.6
G0 Z41
G17

(dog_hole_03_widen)
G0 X-1226.738 Y-401
Z41
Z31
G1 Z27 F283.3
Z7.6
G18 G2 X-1226.138 Z7 I0.6
G1 X-1225.538 F850
G17 G3 X-1224.938 Y-400.4 J0.6
X-1234.938 I-5
X-1224.938 I5
X-1225.538 Y-399.8 I-0.6
G1 X-1226.138
G18 G3 X-1226.738 Z7.6 K0.6
G0 Z41
G17

(dog_hole_03_widen)
G0 X-1226.738 Y-476
Z41
Z31
G1 Z27 F283.3
Z7.6
G18 G2 X-1226.138 Z7 I0.6
G1 X-1225.538 F850
G17 G3 X-1224.938 Y-475.4 J0.6
X-1234.938 I-5
X-1224.938 I5
X-1225.538 Y-474.8 I-0.6
G1 X-1226.138
G18 G3 X-1226.738 Z7.6 K0.6
G0 Z41
G17

(dog_hole_03_widen)
G0 X-1226.738 Y-551
Z41
Z31
G1 Z27 F283.3
Z7.6
G18 G2 X-1226.138 Z7 I0.6
G1 X-1225.538 F850
G17 G3 X-1224.938 Y-550.4 J0.6
X-1234.938 I-5
X-1224.938 I5
X-1225.538 Y-549.8 I-0.6
G1 X-1226.138
G18 G3 X-1226.738 Z7.6 K0.6
G0 Z41
G17

(dog_hole_03_widen)
G0 X-1226.738 Y-626
Z41
Z31
G1 Z27 F283.3
Z7.6
G18 G2 X-1226.138 Z7 I0.6
G1 X-1225.538 F850
G17 G3 X-1224.938 Y-625.4 J0.6
X-1234.938 I-5
X-1224.938 I5
X-1225.538 Y-624.8 I-0.6
G1 X-1226.138
G18 G3 X-1226.738 Z7.6 K0.6
G0 Z41
G17
M30
%
