%
(1001)
(origin bottom left anchor hole stock bottom)
(T1  D=6 CR=0 - ZMIN=7 - flat end mill)
G90 G94
G17
G21

(dog_hole_015_widen 2)
M9
T1 M6
S15000 M3
G54
G0 X48.112 Y49
Z41
Z31
G1 Z27 F283.3
Z7.6
G18 G2 X48.712 Z7 I0.6
G1 X49.312 F850
G17 G3 X49.912 Y49.6 J0.6
X40.212 I-4.85
X49.912 I4.85
X49.312 Y50.2 I-0.6
G1 X48.712
G18 G3 X48.112 Z7.6 K0.6
G0 Z41
G17

(dog_hole_015_widen 2)
G0 X48.112 Y-26
Z41
Z31
G1 Z27 F283.3
Z7.6
G18 G2 X48.712 Z7 I0.6
G1 X49.312 F850
G17 G3 X49.912 Y-25.4 J0.6
X40.212 I-4.85
X49.912 I4.85
X49.312 Y-24.8 I-0.6
G1 X48.712
G18 G3 X48.112 Z7.6 K0.6
G0 Z41
G17

(dog_hole_015_widen 2)
G0 X48.112 Y-101
Z41
Z31
G1 Z27 F283.3
Z7.6
G18 G2 X48.712 Z7 I0.6
G1 X49.312 F850
G17 G3 X49.912 Y-100.4 J0.6
X40.212 I-4.85
X49.912 I4.85
X49.312 Y-99.8 I-0.6
G1 X48.712
G18 G3 X48.112 Z7.6 K0.6
G0 Z41
G17

(dog_hole_015_widen 2)
G0 X48.112 Y-176
Z41
Z31
G1 Z27 F283.3
Z7.6
G18 G2 X48.712 Z7 I0.6
G1 X49.312 F850
G17 G3 X49.912 Y-175.4 J0.6
X40.212 I-4.85
X49.912 I4.85
X49.312 Y-174.8 I-0.6
G1 X48.712
G18 G3 X48.112 Z7.6 K0.6
G0 Z41
G17

(dog_hole_015_widen 2)
G0 X48.112 Y-251
Z41
Z31
G1 Z27 F283.3
Z7.6
G18 G2 X48.712 Z7 I0.6
G1 X49.312 F850
G17 G3 X49.912 Y-250.4 J0.6
X40.212 I-4.85
X49.912 I4.85
X49.312 Y-249.8 I-0.6
G1 X48.712
G18 G3 X48.112 Z7.6 K0.6
G0 Z41
G17

(dog_hole_015_widen 2)
G0 X48.112 Y-326
Z41
Z31
G1 Z27 F283.3
Z7.6
G18 G2 X48.712 Z7 I0.6
G1 X49.312 F850
G17 G3 X49.912 Y-325.4 J0.6
X40.212 I-4.85
X49.912 I4.85
X49.312 Y-324.8 I-0.6
G1 X48.712
G18 G3 X48.112 Z7.6 K0.6
G0 Z41
G17

(dog_hole_015_widen 2)
G0 X48.112 Y-401
Z41
Z31
G1 Z27 F283.3
Z7.6
G18 G2 X48.712 Z7 I0.6
G1 X49.312 F850
G17 G3 X49.912 Y-400.4 J0.6
X40.212 I-4.85
X49.912 I4.85
X49.312 Y-399.8 I-0.6
G1 X48.712
G18 G3 X48.112 Z7.6 K0.6
G0 Z41
G17

(dog_hole_015_widen 2)
G0 X48.112 Y-476
Z41
Z31
G1 Z27 F283.3
Z7.6
G18 G2 X48.712 Z7 I0.6
G1 X49.312 F850
G17 G3 X49.912 Y-475.4 J0.6
X40.212 I-4.85
X49.912 I4.85
X49.312 Y-474.8 I-0.6
G1 X48.712
G18 G3 X48.112 Z7.6 K0.6
G0 Z41
G17

(dog_hole_015_widen 2)
G0 X48.112 Y-551
Z41
Z31
G1 Z27 F283.3
Z7.6
G18 G2 X48.712 Z7 I0.6
G1 X49.312 F850
G17 G3 X49.912 Y-550.4 J0.6
X40.212 I-4.85
X49.912 I4.85
X49.312 Y-549.8 I-0.6
G1 X48.712
G18 G3 X48.112 Z7.6 K0.6
G0 Z41
G17

(dog_hole_015_widen 2)
G0 X48.112 Y-626
Z41
Z31
G1 Z27 F283.3
Z7.6
G18 G2 X48.712 Z7 I0.6
G1 X49.312 F850
G17 G3 X49.912 Y-625.4 J0.6
X40.212 I-4.85
X49.912 I4.85
X49.312 Y-624.8 I-0.6
G1 X48.712
G18 G3 X48.112 Z7.6 K0.6
G0 Z41
G17

(dog_hole_015_widen 2)
G0 X-26.888 Y49
Z41
Z31
G1 Z27 F283.3
Z7.6
G18 G2 X-26.288 Z7 I0.6
G1 X-25.688 F850
G17 G3 X-25.088 Y49.6 J0.6
X-34.788 I-4.85
X-25.088 I4.85
X-25.688 Y50.2 I-0.6
G1 X-26.288
G18 G3 X-26.888 Z7.6 K0.6
G0 Z41
G17

(dog_hole_015_widen 2)
G0 X-26.888 Y-26
Z41
Z31
G1 Z27 F283.3
Z7.6
G18 G2 X-26.288 Z7 I0.6
G1 X-25.688 F850
G17 G3 X-25.088 Y-25.4 J0.6
X-34.788 I-4.85
X-25.088 I4.85
X-25.688 Y-24.8 I-0.6
G1 X-26.288
G18 G3 X-26.888 Z7.6 K0.6
G0 Z41
G17

(dog_hole_015_widen 2)
G0 X-26.888 Y-101
Z41
Z31
G1 Z27 F283.3
Z7.6
G18 G2 X-26.288 Z7 I0.6
G1 X-25.688 F850
G17 G3 X-25.088 Y-100.4 J0.6
X-34.788 I-4.85
X-25.088 I4.85
X-25.688 Y-99.8 I-0.6
G1 X-26.288
G18 G3 X-26.888 Z7.6 K0.6
G0 Z41
G17

(dog_hole_015_widen 2)
G0 X-26.888 Y-176
Z41
Z31
G1 Z27 F283.3
Z7.6
G18 G2 X-26.288 Z7 I0.6
G1 X-25.688 F850
G17 G3 X-25.088 Y-175.4 J0.6
X-34.788 I-4.85
X-25.088 I4.85
X-25.688 Y-174.8 I-0.6
G1 X-26.288
G18 G3 X-26.888 Z7.6 K0.6
G0 Z41
G17

(dog_hole_015_widen 2)
G0 X-26.888 Y-251
Z41
Z31
G1 Z27 F283.3
Z7.6
G18 G2 X-26.288 Z7 I0.6
G1 X-25.688 F850
G17 G3 X-25.088 Y-250.4 J0.6
X-34.788 I-4.85
X-25.088 I4.85
X-25.688 Y-249.8 I-0.6
G1 X-26.288
G18 G3 X-26.888 Z7.6 K0.6
G0 Z41
G17

(dog_hole_015_widen 2)
G0 X-26.888 Y-326
Z41
Z31
G1 Z27 F283.3
Z7.6
G18 G2 X-26.288 Z7 I0.6
G1 X-25.688 F850
G17 G3 X-25.088 Y-325.4 J0.6
X-34.788 I-4.85
X-25.088 I4.85
X-25.688 Y-324.8 I-0.6
G1 X-26.288
G18 G3 X-26.888 Z7.6 K0.6
G0 Z41
G17

(dog_hole_015_widen 2)
G0 X-26.888 Y-401
Z41
Z31
G1 Z27 F283.3
Z7.6
G18 G2 X-26.288 Z7 I0.6
G1 X-25.688 F850
G17 G3 X-25.088 Y-400.4 J0.6
X-34.788 I-4.85
X-25.088 I4.85
X-25.688 Y-399.8 I-0.6
G1 X-26.288
G18 G3 X-26.888 Z7.6 K0.6
G0 Z41
G17

(dog_hole_015_widen 2)
G0 X-26.888 Y-476
Z41
Z31
G1 Z27 F283.3
Z7.6
G18 G2 X-26.288 Z7 I0.6
G1 X-25.688 F850
G17 G3 X-25.088 Y-475.4 J0.6
X-34.788 I-4.85
X-25.088 I4.85
X-25.688 Y-474.8 I-0.6
G1 X-26.288
G18 G3 X-26.888 Z7.6 K0.6
G0 Z41
G17

(dog_hole_015_widen 2)
G0 X-26.888 Y-551
Z41
Z31
G1 Z27 F283.3
Z7.6
G18 G2 X-26.288 Z7 I0.6
G1 X-25.688 F850
G17 G3 X-25.088 Y-550.4 J0.6
X-34.788 I-4.85
X-25.088 I4.85
X-25.688 Y-549.8 I-0.6
G1 X-26.288
G18 G3 X-26.888 Z7.6 K0.6
G0 Z41
G17

(dog_hole_015_widen 2)
G0 X-26.888 Y-626
Z41
Z31
G1 Z27 F283.3
Z7.6
G18 G2 X-26.288 Z7 I0.6
G1 X-25.688 F850
G17 G3 X-25.088 Y-625.4 J0.6
X-34.788 I-4.85
X-25.088 I4.85
X-25.688 Y-624.8 I-0.6
G1 X-26.288
G18 G3 X-26.888 Z7.6 K0.6
G0 Z41
G17

(dog_hole_015_widen 2)
G0 X-101.888 Y49
Z41
Z31
G1 Z27 F283.3
Z7.6
G18 G2 X-101.288 Z7 I0.6
G1 X-100.688 F850
G17 G3 X-100.088 Y49.6 J0.6
X-109.788 I-4.85
X-100.088 I4.85
X-100.688 Y50.2 I-0.6
G1 X-101.288
G18 G3 X-101.888 Z7.6 K0.6
G0 Z41
G17

(dog_hole_015_widen 2)
G0 X-101.888 Y-26
Z41
Z31
G1 Z27 F283.3
Z7.6
G18 G2 X-101.288 Z7 I0.6
G1 X-100.688 F850
G17 G3 X-100.088 Y-25.4 J0.6
X-109.788 I-4.85
X-100.088 I4.85
X-100.688 Y-24.8 I-0.6
G1 X-101.288
G18 G3 X-101.888 Z7.6 K0.6
G0 Z41
G17

(dog_hole_015_widen 2)
G0 X-101.888 Y-101
Z41
Z31
G1 Z27 F283.3
Z7.6
G18 G2 X-101.288 Z7 I0.6
G1 X-100.688 F850
G17 G3 X-100.088 Y-100.4 J0.6
X-109.788 I-4.85
X-100.088 I4.85
X-100.688 Y-99.8 I-0.6
G1 X-101.288
G18 G3 X-101.888 Z7.6 K0.6
G0 Z41
G17

(dog_hole_015_widen 2)
G0 X-101.888 Y-176
Z41
Z31
G1 Z27 F283.3
Z7.6
G18 G2 X-101.288 Z7 I0.6
G1 X-100.688 F850
G17 G3 X-100.088 Y-175.4 J0.6
X-109.788 I-4.85
X-100.088 I4.85
X-100.688 Y-174.8 I-0.6
G1 X-101.288
G18 G3 X-101.888 Z7.6 K0.6
G0 Z41
G17

(dog_hole_015_widen 2)
G0 X-101.888 Y-251
Z41
Z31
G1 Z27 F283.3
Z7.6
G18 G2 X-101.288 Z7 I0.6
G1 X-100.688 F850
G17 G3 X-100.088 Y-250.4 J0.6
X-109.788 I-4.85
X-100.088 I4.85
X-100.688 Y-249.8 I-0.6
G1 X-101.288
G18 G3 X-101.888 Z7.6 K0.6
G0 Z41
G17

(dog_hole_015_widen 2)
G0 X-101.888 Y-326
Z41
Z31
G1 Z27 F283.3
Z7.6
G18 G2 X-101.288 Z7 I0.6
G1 X-100.688 F850
G17 G3 X-100.088 Y-325.4 J0.6
X-109.788 I-4.85
X-100.088 I4.85
X-100.688 Y-324.8 I-0.6
G1 X-101.288
G18 G3 X-101.888 Z7.6 K0.6
G0 Z41
G17

(dog_hole_015_widen 2)
G0 X-101.888 Y-401
Z41
Z31
G1 Z27 F283.3
Z7.6
G18 G2 X-101.288 Z7 I0.6
G1 X-100.688 F850
G17 G3 X-100.088 Y-400.4 J0.6
X-109.788 I-4.85
X-100.088 I4.85
X-100.688 Y-399.8 I-0.6
G1 X-101.288
G18 G3 X-101.888 Z7.6 K0.6
G0 Z41
G17

(dog_hole_015_widen 2)
G0 X-101.888 Y-476
Z41
Z31
G1 Z27 F283.3
Z7.6
G18 G2 X-101.288 Z7 I0.6
G1 X-100.688 F850
G17 G3 X-100.088 Y-475.4 J0.6
X-109.788 I-4.85
X-100.088 I4.85
X-100.688 Y-474.8 I-0.6
G1 X-101.288
G18 G3 X-101.888 Z7.6 K0.6
G0 Z41
G17

(dog_hole_015_widen 2)
G0 X-101.888 Y-551
Z41
Z31
G1 Z27 F283.3
Z7.6
G18 G2 X-101.288 Z7 I0.6
G1 X-100.688 F850
G17 G3 X-100.088 Y-550.4 J0.6
X-109.788 I-4.85
X-100.088 I4.85
X-100.688 Y-549.8 I-0.6
G1 X-101.288
G18 G3 X-101.888 Z7.6 K0.6
G0 Z41
G17

(dog_hole_015_widen 2)
G0 X-101.888 Y-626
Z41
Z31
G1 Z27 F283.3
Z7.6
G18 G2 X-101.288 Z7 I0.6
G1 X-100.688 F850
G17 G3 X-100.088 Y-625.4 J0.6
X-109.788 I-4.85
X-100.088 I4.85
X-100.688 Y-624.8 I-0.6
G1 X-101.288
G18 G3 X-101.888 Z7.6 K0.6
G0 Z41
G17

(dog_hole_015_widen 2)
G0 X-176.888 Y49
Z41
Z31
G1 Z27 F283.3
Z7.6
G18 G2 X-176.288 Z7 I0.6
G1 X-175.688 F850
G17 G3 X-175.088 Y49.6 J0.6
X-184.788 I-4.85
X-175.088 I4.85
X-175.688 Y50.2 I-0.6
G1 X-176.288
G18 G3 X-176.888 Z7.6 K0.6
G0 Z41
G17

(dog_hole_015_widen 2)
G0 X-176.888 Y-26
Z41
Z31
G1 Z27 F283.3
Z7.6
G18 G2 X-176.288 Z7 I0.6
G1 X-175.688 F850
G17 G3 X-175.088 Y-25.4 J0.6
X-184.788 I-4.85
X-175.088 I4.85
X-175.688 Y-24.8 I-0.6
G1 X-176.288
G18 G3 X-176.888 Z7.6 K0.6
G0 Z41
G17

(dog_hole_015_widen 2)
G0 X-176.888 Y-101
Z41
Z31
G1 Z27 F283.3
Z7.6
G18 G2 X-176.288 Z7 I0.6
G1 X-175.688 F850
G17 G3 X-175.088 Y-100.4 J0.6
X-184.788 I-4.85
X-175.088 I4.85
X-175.688 Y-99.8 I-0.6
G1 X-176.288
G18 G3 X-176.888 Z7.6 K0.6
G0 Z41
G17

(dog_hole_015_widen 2)
G0 X-176.888 Y-176
Z41
Z31
G1 Z27 F283.3
Z7.6
G18 G2 X-176.288 Z7 I0.6
G1 X-175.688 F850
G17 G3 X-175.088 Y-175.4 J0.6
X-184.788 I-4.85
X-175.088 I4.85
X-175.688 Y-174.8 I-0.6
G1 X-176.288
G18 G3 X-176.888 Z7.6 K0.6
G0 Z41
G17

(dog_hole_015_widen 2)
G0 X-176.888 Y-251
Z41
Z31
G1 Z27 F283.3
Z7.6
G18 G2 X-176.288 Z7 I0.6
G1 X-175.688 F850
G17 G3 X-175.088 Y-250.4 J0.6
X-184.788 I-4.85
X-175.088 I4.85
X-175.688 Y-249.8 I-0.6
G1 X-176.288
G18 G3 X-176.888 Z7.6 K0.6
G0 Z41
G17

(dog_hole_015_widen 2)
G0 X-176.888 Y-326
Z41
Z31
G1 Z27 F283.3
Z7.6
G18 G2 X-176.288 Z7 I0.6
G1 X-175.688 F850
G17 G3 X-175.088 Y-325.4 J0.6
X-184.788 I-4.85
X-175.088 I4.85
X-175.688 Y-324.8 I-0.6
G1 X-176.288
G18 G3 X-176.888 Z7.6 K0.6
G0 Z41
G17

(dog_hole_015_widen 2)
G0 X-176.888 Y-401
Z41
Z31
G1 Z27 F283.3
Z7.6
G18 G2 X-176.288 Z7 I0.6
G1 X-175.688 F850
G17 G3 X-175.088 Y-400.4 J0.6
X-184.788 I-4.85
X-175.088 I4.85
X-175.688 Y-399.8 I-0.6
G1 X-176.288
G18 G3 X-176.888 Z7.6 K0.6
G0 Z41
G17

(dog_hole_015_widen 2)
G0 X-176.888 Y-476
Z41
Z31
G1 Z27 F283.3
Z7.6
G18 G2 X-176.288 Z7 I0.6
G1 X-175.688 F850
G17 G3 X-175.088 Y-475.4 J0.6
X-184.788 I-4.85
X-175.088 I4.85
X-175.688 Y-474.8 I-0.6
G1 X-176.288
G18 G3 X-176.888 Z7.6 K0.6
G0 Z41
G17

(dog_hole_015_widen 2)
G0 X-176.888 Y-551
Z41
Z31
G1 Z27 F283.3
Z7.6
G18 G2 X-176.288 Z7 I0.6
G1 X-175.688 F850
G17 G3 X-175.088 Y-550.4 J0.6
X-184.788 I-4.85
X-175.088 I4.85
X-175.688 Y-549.8 I-0.6
G1 X-176.288
G18 G3 X-176.888 Z7.6 K0.6
G0 Z41
G17

(dog_hole_015_widen 2)
G0 X-176.888 Y-626
Z41
Z31
G1 Z27 F283.3
Z7.6
G18 G2 X-176.288 Z7 I0.6
G1 X-175.688 F850
G17 G3 X-175.088 Y-625.4 J0.6
X-184.788 I-4.85
X-175.088 I4.85
X-175.688 Y-624.8 I-0.6
G1 X-176.288
G18 G3 X-176.888 Z7.6 K0.6
G0 Z41
G17

(dog_hole_015_widen 2)
G0 X-251.888 Y49
Z41
Z31
G1 Z27 F283.3
Z7.6
G18 G2 X-251.288 Z7 I0.6
G1 X-250.688 F850
G17 G3 X-250.088 Y49.6 J0.6
X-259.788 I-4.85
X-250.088 I4.85
X-250.688 Y50.2 I-0.6
G1 X-251.288
G18 G3 X-251.888 Z7.6 K0.6
G0 Z41
G17

(dog_hole_015_widen 2)
G0 X-251.888 Y-26
Z41
Z31
G1 Z27 F283.3
Z7.6
G18 G2 X-251.288 Z7 I0.6
G1 X-250.688 F850
G17 G3 X-250.088 Y-25.4 J0.6
X-259.788 I-4.85
X-250.088 I4.85
X-250.688 Y-24.8 I-0.6
G1 X-251.288
G18 G3 X-251.888 Z7.6 K0.6
G0 Z41
G17

(dog_hole_015_widen 2)
G0 X-251.888 Y-101
Z41
Z31
G1 Z27 F283.3
Z7.6
G18 G2 X-251.288 Z7 I0.6
G1 X-250.688 F850
G17 G3 X-250.088 Y-100.4 J0.6
X-259.788 I-4.85
X-250.088 I4.85
X-250.688 Y-99.8 I-0.6
G1 X-251.288
G18 G3 X-251.888 Z7.6 K0.6
G0 Z41
G17

(dog_hole_015_widen 2)
G0 X-251.888 Y-176
Z41
Z31
G1 Z27 F283.3
Z7.6
G18 G2 X-251.288 Z7 I0.6
G1 X-250.688 F850
G17 G3 X-250.088 Y-175.4 J0.6
X-259.788 I-4.85
X-250.088 I4.85
X-250.688 Y-174.8 I-0.6
G1 X-251.288
G18 G3 X-251.888 Z7.6 K0.6
G0 Z41
G17

(dog_hole_015_widen 2)
G0 X-251.888 Y-251
Z41
Z31
G1 Z27 F283.3
Z7.6
G18 G2 X-251.288 Z7 I0.6
G1 X-250.688 F850
G17 G3 X-250.088 Y-250.4 J0.6
X-259.788 I-4.85
X-250.088 I4.85
X-250.688 Y-249.8 I-0.6
G1 X-251.288
G18 G3 X-251.888 Z7.6 K0.6
G0 Z41
G17

(dog_hole_015_widen 2)
G0 X-251.888 Y-326
Z41
Z31
G1 Z27 F283.3
Z7.6
G18 G2 X-251.288 Z7 I0.6
G1 X-250.688 F850
G17 G3 X-250.088 Y-325.4 J0.6
X-259.788 I-4.85
X-250.088 I4.85
X-250.688 Y-324.8 I-0.6
G1 X-251.288
G18 G3 X-251.888 Z7.6 K0.6
G0 Z41
G17

(dog_hole_015_widen 2)
G0 X-251.888 Y-401
Z41
Z31
G1 Z27 F283.3
Z7.6
G18 G2 X-251.288 Z7 I0.6
G1 X-250.688 F850
G17 G3 X-250.088 Y-400.4 J0.6
X-259.788 I-4.85
X-250.088 I4.85
X-250.688 Y-399.8 I-0.6
G1 X-251.288
G18 G3 X-251.888 Z7.6 K0.6
G0 Z41
G17

(dog_hole_015_widen 2)
G0 X-251.888 Y-476
Z41
Z31
G1 Z27 F283.3
Z7.6
G18 G2 X-251.288 Z7 I0.6
G1 X-250.688 F850
G17 G3 X-250.088 Y-475.4 J0.6
X-259.788 I-4.85
X-250.088 I4.85
X-250.688 Y-474.8 I-0.6
G1 X-251.288
G18 G3 X-251.888 Z7.6 K0.6
G0 Z41
G17

(dog_hole_015_widen 2)
G0 X-251.888 Y-551
Z41
Z31
G1 Z27 F283.3
Z7.6
G18 G2 X-251.288 Z7 I0.6
G1 X-250.688 F850
G17 G3 X-250.088 Y-550.4 J0.6
X-259.788 I-4.85
X-250.088 I4.85
X-250.688 Y-549.8 I-0.6
G1 X-251.288
G18 G3 X-251.888 Z7.6 K0.6
G0 Z41
G17

(dog_hole_015_widen 2)
G0 X-251.888 Y-626
Z41
Z31
G1 Z27 F283.3
Z7.6
G18 G2 X-251.288 Z7 I0.6
G1 X-250.688 F850
G17 G3 X-250.088 Y-625.4 J0.6
X-259.788 I-4.85
X-250.088 I4.85
X-250.688 Y-624.8 I-0.6
G1 X-251.288
G18 G3 X-251.888 Z7.6 K0.6
G0 Z41
G17

(dog_hole_015_widen 2)
G0 X-326.888 Y49
Z41
Z31
G1 Z27 F283.3
Z7.6
G18 G2 X-326.288 Z7 I0.6
G1 X-325.688 F850
G17 G3 X-325.088 Y49.6 J0.6
X-334.788 I-4.85
X-325.088 I4.85
X-325.688 Y50.2 I-0.6
G1 X-326.288
G18 G3 X-326.888 Z7.6 K0.6
G0 Z41
G17

(dog_hole_015_widen 2)
G0 X-326.888 Y-26
Z41
Z31
G1 Z27 F283.3
Z7.6
G18 G2 X-326.288 Z7 I0.6
G1 X-325.688 F850
G17 G3 X-325.088 Y-25.4 J0.6
X-334.788 I-4.85
X-325.088 I4.85
X-325.688 Y-24.8 I-0.6
G1 X-326.288
G18 G3 X-326.888 Z7.6 K0.6
G0 Z41
G17

(dog_hole_015_widen 2)
G0 X-326.888 Y-101
Z41
Z31
G1 Z27 F283.3
Z7.6
G18 G2 X-326.288 Z7 I0.6
G1 X-325.688 F850
G17 G3 X-325.088 Y-100.4 J0.6
X-334.788 I-4.85
X-325.088 I4.85
X-325.688 Y-99.8 I-0.6
G1 X-326.288
G18 G3 X-326.888 Z7.6 K0.6
G0 Z41
G17

(dog_hole_015_widen 2)
G0 X-326.888 Y-176
Z41
Z31
G1 Z27 F283.3
Z7.6
G18 G2 X-326.288 Z7 I0.6
G1 X-325.688 F850
G17 G3 X-325.088 Y-175.4 J0.6
X-334.788 I-4.85
X-325.088 I4.85
X-325.688 Y-174.8 I-0.6
G1 X-326.288
G18 G3 X-326.888 Z7.6 K0.6
G0 Z41
G17

(dog_hole_015_widen 2)
G0 X-326.888 Y-251
Z41
Z31
G1 Z27 F283.3
Z7.6
G18 G2 X-326.288 Z7 I0.6
G1 X-325.688 F850
G17 G3 X-325.088 Y-250.4 J0.6
X-334.788 I-4.85
X-325.088 I4.85
X-325.688 Y-249.8 I-0.6
G1 X-326.288
G18 G3 X-326.888 Z7.6 K0.6
G0 Z41
G17

(dog_hole_015_widen 2)
G0 X-326.888 Y-326
Z41
Z31
G1 Z27 F283.3
Z7.6
G18 G2 X-326.288 Z7 I0.6
G1 X-325.688 F850
G17 G3 X-325.088 Y-325.4 J0.6
X-334.788 I-4.85
X-325.088 I4.85
X-325.688 Y-324.8 I-0.6
G1 X-326.288
G18 G3 X-326.888 Z7.6 K0.6
G0 Z41
G17

(dog_hole_015_widen 2)
G0 X-326.888 Y-401
Z41
Z31
G1 Z27 F283.3
Z7.6
G18 G2 X-326.288 Z7 I0.6
G1 X-325.688 F850
G17 G3 X-325.088 Y-400.4 J0.6
X-334.788 I-4.85
X-325.088 I4.85
X-325.688 Y-399.8 I-0.6
G1 X-326.288
G18 G3 X-326.888 Z7.6 K0.6
G0 Z41
G17

(dog_hole_015_widen 2)
G0 X-326.888 Y-476
Z41
Z31
G1 Z27 F283.3
Z7.6
G18 G2 X-326.288 Z7 I0.6
G1 X-325.688 F850
G17 G3 X-325.088 Y-475.4 J0.6
X-334.788 I-4.85
X-325.088 I4.85
X-325.688 Y-474.8 I-0.6
G1 X-326.288
G18 G3 X-326.888 Z7.6 K0.6
G0 Z41
G17

(dog_hole_015_widen 2)
G0 X-326.888 Y-551
Z41
Z31
G1 Z27 F283.3
Z7.6
G18 G2 X-326.288 Z7 I0.6
G1 X-325.688 F850
G17 G3 X-325.088 Y-550.4 J0.6
X-334.788 I-4.85
X-325.088 I4.85
X-325.688 Y-549.8 I-0.6
G1 X-326.288
G18 G3 X-326.888 Z7.6 K0.6
G0 Z41
G17

(dog_hole_015_widen 2)
G0 X-326.888 Y-626
Z41
Z31
G1 Z27 F283.3
Z7.6
G18 G2 X-326.288 Z7 I0.6
G1 X-325.688 F850
G17 G3 X-325.088 Y-625.4 J0.6
X-334.788 I-4.85
X-325.088 I4.85
X-325.688 Y-624.8 I-0.6
G1 X-326.288
G18 G3 X-326.888 Z7.6 K0.6
G0 Z41
G17

(dog_hole_015_widen 2)
G0 X-401.888 Y49
Z41
Z31
G1 Z27 F283.3
Z7.6
G18 G2 X-401.288 Z7 I0.6
G1 X-400.688 F850
G17 G3 X-400.088 Y49.6 J0.6
X-409.788 I-4.85
X-400.088 I4.85
X-400.688 Y50.2 I-0.6
G1 X-401.288
G18 G3 X-401.888 Z7.6 K0.6
G0 Z41
G17

(dog_hole_015_widen 2)
G0 X-401.888 Y-26
Z41
Z31
G1 Z27 F283.3
Z7.6
G18 G2 X-401.288 Z7 I0.6
G1 X-400.688 F850
G17 G3 X-400.088 Y-25.4 J0.6
X-409.788 I-4.85
X-400.088 I4.85
X-400.688 Y-24.8 I-0.6
G1 X-401.288
G18 G3 X-401.888 Z7.6 K0.6
G0 Z41
G17

(dog_hole_015_widen 2)
G0 X-401.888 Y-101
Z41
Z31
G1 Z27 F283.3
Z7.6
G18 G2 X-401.288 Z7 I0.6
G1 X-400.688 F850
G17 G3 X-400.088 Y-100.4 J0.6
X-409.788 I-4.85
X-400.088 I4.85
X-400.688 Y-99.8 I-0.6
G1 X-401.288
G18 G3 X-401.888 Z7.6 K0.6
G0 Z41
G17

(dog_hole_015_widen 2)
G0 X-401.888 Y-176
Z41
Z31
G1 Z27 F283.3
Z7.6
G18 G2 X-401.288 Z7 I0.6
G1 X-400.688 F850
G17 G3 X-400.088 Y-175.4 J0.6
X-409.788 I-4.85
X-400.088 I4.85
X-400.688 Y-174.8 I-0.6
G1 X-401.288
G18 G3 X-401.888 Z7.6 K0.6
G0 Z41
G17

(dog_hole_015_widen 2)
G0 X-401.888 Y-251
Z41
Z31
G1 Z27 F283.3
Z7.6
G18 G2 X-401.288 Z7 I0.6
G1 X-400.688 F850
G17 G3 X-400.088 Y-250.4 J0.6
X-409.788 I-4.85
X-400.088 I4.85
X-400.688 Y-249.8 I-0.6
G1 X-401.288
G18 G3 X-401.888 Z7.6 K0.6
G0 Z41
G17

(dog_hole_015_widen 2)
G0 X-401.888 Y-326
Z41
Z31
G1 Z27 F283.3
Z7.6
G18 G2 X-401.288 Z7 I0.6
G1 X-400.688 F850
G17 G3 X-400.088 Y-325.4 J0.6
X-409.788 I-4.85
X-400.088 I4.85
X-400.688 Y-324.8 I-0.6
G1 X-401.288
G18 G3 X-401.888 Z7.6 K0.6
G0 Z41
G17

(dog_hole_015_widen 2)
G0 X-401.888 Y-401
Z41
Z31
G1 Z27 F283.3
Z7.6
G18 G2 X-401.288 Z7 I0.6
G1 X-400.688 F850
G17 G3 X-400.088 Y-400.4 J0.6
X-409.788 I-4.85
X-400.088 I4.85
X-400.688 Y-399.8 I-0.6
G1 X-401.288
G18 G3 X-401.888 Z7.6 K0.6
G0 Z41
G17

(dog_hole_015_widen 2)
G0 X-401.888 Y-476
Z41
Z31
G1 Z27 F283.3
Z7.6
G18 G2 X-401.288 Z7 I0.6
G1 X-400.688 F850
G17 G3 X-400.088 Y-475.4 J0.6
X-409.788 I-4.85
X-400.088 I4.85
X-400.688 Y-474.8 I-0.6
G1 X-401.288
G18 G3 X-401.888 Z7.6 K0.6
G0 Z41
G17

(dog_hole_015_widen 2)
G0 X-401.888 Y-551
Z41
Z31
G1 Z27 F283.3
Z7.6
G18 G2 X-401.288 Z7 I0.6
G1 X-400.688 F850
G17 G3 X-400.088 Y-550.4 J0.6
X-409.788 I-4.85
X-400.088 I4.85
X-400.688 Y-549.8 I-0.6
G1 X-401.288
G18 G3 X-401.888 Z7.6 K0.6
G0 Z41
G17

(dog_hole_015_widen 2)
G0 X-401.888 Y-626
Z41
Z31
G1 Z27 F283.3
Z7.6
G18 G2 X-401.288 Z7 I0.6
G1 X-400.688 F850
G17 G3 X-400.088 Y-625.4 J0.6
X-409.788 I-4.85
X-400.088 I4.85
X-400.688 Y-624.8 I-0.6
G1 X-401.288
G18 G3 X-401.888 Z7.6 K0.6
G0 Z41
G17

(dog_hole_015_widen 2)
G0 X-476.888 Y49
Z41
Z31
G1 Z27 F283.3
Z7.6
G18 G2 X-476.288 Z7 I0.6
G1 X-475.688 F850
G17 G3 X-475.088 Y49.6 J0.6
X-484.788 I-4.85
X-475.088 I4.85
X-475.688 Y50.2 I-0.6
G1 X-476.288
G18 G3 X-476.888 Z7.6 K0.6
G0 Z41
G17

(dog_hole_015_widen 2)
G0 X-476.888 Y-26
Z41
Z31
G1 Z27 F283.3
Z7.6
G18 G2 X-476.288 Z7 I0.6
G1 X-475.688 F850
G17 G3 X-475.088 Y-25.4 J0.6
X-484.788 I-4.85
X-475.088 I4.85
X-475.688 Y-24.8 I-0.6
G1 X-476.288
G18 G3 X-476.888 Z7.6 K0.6
G0 Z41
G17

(dog_hole_015_widen 2)
G0 X-476.888 Y-101
Z41
Z31
G1 Z27 F283.3
Z7.6
G18 G2 X-476.288 Z7 I0.6
G1 X-475.688 F850
G17 G3 X-475.088 Y-100.4 J0.6
X-484.788 I-4.85
X-475.088 I4.85
X-475.688 Y-99.8 I-0.6
G1 X-476.288
G18 G3 X-476.888 Z7.6 K0.6
G0 Z41
G17

(dog_hole_015_widen 2)
G0 X-476.888 Y-176
Z41
Z31
G1 Z27 F283.3
Z7.6
G18 G2 X-476.288 Z7 I0.6
G1 X-475.688 F850
G17 G3 X-475.088 Y-175.4 J0.6
X-484.788 I-4.85
X-475.088 I4.85
X-475.688 Y-174.8 I-0.6
G1 X-476.288
G18 G3 X-476.888 Z7.6 K0.6
G0 Z41
G17

(dog_hole_015_widen 2)
G0 X-476.888 Y-251
Z41
Z31
G1 Z27 F283.3
Z7.6
G18 G2 X-476.288 Z7 I0.6
G1 X-475.688 F850
G17 G3 X-475.088 Y-250.4 J0.6
X-484.788 I-4.85
X-475.088 I4.85
X-475.688 Y-249.8 I-0.6
G1 X-476.288
G18 G3 X-476.888 Z7.6 K0.6
G0 Z41
G17

(dog_hole_015_widen 2)
G0 X-476.888 Y-326
Z41
Z31
G1 Z27 F283.3
Z7.6
G18 G2 X-476.288 Z7 I0.6
G1 X-475.688 F850
G17 G3 X-475.088 Y-325.4 J0.6
X-484.788 I-4.85
X-475.088 I4.85
X-475.688 Y-324.8 I-0.6
G1 X-476.288
G18 G3 X-476.888 Z7.6 K0.6
G0 Z41
G17

(dog_hole_015_widen 2)
G0 X-476.888 Y-401
Z41
Z31
G1 Z27 F283.3
Z7.6
G18 G2 X-476.288 Z7 I0.6
G1 X-475.688 F850
G17 G3 X-475.088 Y-400.4 J0.6
X-484.788 I-4.85
X-475.088 I4.85
X-475.688 Y-399.8 I-0.6
G1 X-476.288
G18 G3 X-476.888 Z7.6 K0.6
G0 Z41
G17

(dog_hole_015_widen 2)
G0 X-476.888 Y-476
Z41
Z31
G1 Z27 F283.3
Z7.6
G18 G2 X-476.288 Z7 I0.6
G1 X-475.688 F850
G17 G3 X-475.088 Y-475.4 J0.6
X-484.788 I-4.85
X-475.088 I4.85
X-475.688 Y-474.8 I-0.6
G1 X-476.288
G18 G3 X-476.888 Z7.6 K0.6
G0 Z41
G17

(dog_hole_015_widen 2)
G0 X-476.888 Y-551
Z41
Z31
G1 Z27 F283.3
Z7.6
G18 G2 X-476.288 Z7 I0.6
G1 X-475.688 F850
G17 G3 X-475.088 Y-550.4 J0.6
X-484.788 I-4.85
X-475.088 I4.85
X-475.688 Y-549.8 I-0.6
G1 X-476.288
G18 G3 X-476.888 Z7.6 K0.6
G0 Z41
G17

(dog_hole_015_widen 2)
G0 X-476.888 Y-626
Z41
Z31
G1 Z27 F283.3
Z7.6
G18 G2 X-476.288 Z7 I0.6
G1 X-475.688 F850
G17 G3 X-475.088 Y-625.4 J0.6
X-484.788 I-4.85
X-475.088 I4.85
X-475.688 Y-624.8 I-0.6
G1 X-476.288
G18 G3 X-476.888 Z7.6 K0.6
G0 Z41
G17

(dog_hole_015_widen 2)
G0 X-551.888 Y49
Z41
Z31
G1 Z27 F283.3
Z7.6
G18 G2 X-551.288 Z7 I0.6
G1 X-550.688 F850
G17 G3 X-550.088 Y49.6 J0.6
X-559.788 I-4.85
X-550.088 I4.85
X-550.688 Y50.2 I-0.6
G1 X-551.288
G18 G3 X-551.888 Z7.6 K0.6
G0 Z41
G17

(dog_hole_015_widen 2)
G0 X-551.888 Y-26
Z41
Z31
G1 Z27 F283.3
Z7.6
G18 G2 X-551.288 Z7 I0.6
G1 X-550.688 F850
G17 G3 X-550.088 Y-25.4 J0.6
X-559.788 I-4.85
X-550.088 I4.85
X-550.688 Y-24.8 I-0.6
G1 X-551.288
G18 G3 X-551.888 Z7.6 K0.6
G0 Z41
G17

(dog_hole_015_widen 2)
G0 X-551.888 Y-101
Z41
Z31
G1 Z27 F283.3
Z7.6
G18 G2 X-551.288 Z7 I0.6
G1 X-550.688 F850
G17 G3 X-550.088 Y-100.4 J0.6
X-559.788 I-4.85
X-550.088 I4.85
X-550.688 Y-99.8 I-0.6
G1 X-551.288
G18 G3 X-551.888 Z7.6 K0.6
G0 Z41
G17

(dog_hole_015_widen 2)
G0 X-551.888 Y-176
Z41
Z31
G1 Z27 F283.3
Z7.6
G18 G2 X-551.288 Z7 I0.6
G1 X-550.688 F850
G17 G3 X-550.088 Y-175.4 J0.6
X-559.788 I-4.85
X-550.088 I4.85
X-550.688 Y-174.8 I-0.6
G1 X-551.288
G18 G3 X-551.888 Z7.6 K0.6
G0 Z41
G17

(dog_hole_015_widen 2)
G0 X-551.888 Y-251
Z41
Z31
G1 Z27 F283.3
Z7.6
G18 G2 X-551.288 Z7 I0.6
G1 X-550.688 F850
G17 G3 X-550.088 Y-250.4 J0.6
X-559.788 I-4.85
X-550.088 I4.85
X-550.688 Y-249.8 I-0.6
G1 X-551.288
G18 G3 X-551.888 Z7.6 K0.6
G0 Z41
G17

(dog_hole_015_widen 2)
G0 X-551.888 Y-326
Z41
Z31
G1 Z27 F283.3
Z7.6
G18 G2 X-551.288 Z7 I0.6
G1 X-550.688 F850
G17 G3 X-550.088 Y-325.4 J0.6
X-559.788 I-4.85
X-550.088 I4.85
X-550.688 Y-324.8 I-0.6
G1 X-551.288
G18 G3 X-551.888 Z7.6 K0.6
G0 Z41
G17

(dog_hole_015_widen 2)
G0 X-551.888 Y-401
Z41
Z31
G1 Z27 F283.3
Z7.6
G18 G2 X-551.288 Z7 I0.6
G1 X-550.688 F850
G17 G3 X-550.088 Y-400.4 J0.6
X-559.788 I-4.85
X-550.088 I4.85
X-550.688 Y-399.8 I-0.6
G1 X-551.288
G18 G3 X-551.888 Z7.6 K0.6
G0 Z41
G17

(dog_hole_015_widen 2)
G0 X-551.888 Y-476
Z41
Z31
G1 Z27 F283.3
Z7.6
G18 G2 X-551.288 Z7 I0.6
G1 X-550.688 F850
G17 G3 X-550.088 Y-475.4 J0.6
X-559.788 I-4.85
X-550.088 I4.85
X-550.688 Y-474.8 I-0.6
G1 X-551.288
G18 G3 X-551.888 Z7.6 K0.6
G0 Z41
G17

(dog_hole_015_widen 2)
G0 X-551.888 Y-551
Z41
Z31
G1 Z27 F283.3
Z7.6
G18 G2 X-551.288 Z7 I0.6
G1 X-550.688 F850
G17 G3 X-550.088 Y-550.4 J0.6
X-559.788 I-4.85
X-550.088 I4.85
X-550.688 Y-549.8 I-0.6
G1 X-551.288
G18 G3 X-551.888 Z7.6 K0.6
G0 Z41
G17

(dog_hole_015_widen 2)
G0 X-551.888 Y-626
Z41
Z31
G1 Z27 F283.3
Z7.6
G18 G2 X-551.288 Z7 I0.6
G1 X-550.688 F850
G17 G3 X-550.088 Y-625.4 J0.6
X-559.788 I-4.85
X-550.088 I4.85
X-550.688 Y-624.8 I-0.6
G1 X-551.288
G18 G3 X-551.888 Z7.6 K0.6
G0 Z41
G17

(dog_hole_015_widen 2)
G0 X-626.888 Y49
Z41
Z31
G1 Z27 F283.3
Z7.6
G18 G2 X-626.288 Z7 I0.6
G1 X-625.688 F850
G17 G3 X-625.088 Y49.6 J0.6
X-634.788 I-4.85
X-625.088 I4.85
X-625.688 Y50.2 I-0.6
G1 X-626.288
G18 G3 X-626.888 Z7.6 K0.6
G0 Z41
G17

(dog_hole_015_widen 2)
G0 X-626.888 Y-26
Z41
Z31
G1 Z27 F283.3
Z7.6
G18 G2 X-626.288 Z7 I0.6
G1 X-625.688 F850
G17 G3 X-625.088 Y-25.4 J0.6
X-634.788 I-4.85
X-625.088 I4.85
X-625.688 Y-24.8 I-0.6
G1 X-626.288
G18 G3 X-626.888 Z7.6 K0.6
G0 Z41
G17

(dog_hole_015_widen 2)
G0 X-626.888 Y-101
Z41
Z31
G1 Z27 F283.3
Z7.6
G18 G2 X-626.288 Z7 I0.6
G1 X-625.688 F850
G17 G3 X-625.088 Y-100.4 J0.6
X-634.788 I-4.85
X-625.088 I4.85
X-625.688 Y-99.8 I-0.6
G1 X-626.288
G18 G3 X-626.888 Z7.6 K0.6
G0 Z41
G17

(dog_hole_015_widen 2)
G0 X-626.888 Y-176
Z41
Z31
G1 Z27 F283.3
Z7.6
G18 G2 X-626.288 Z7 I0.6
G1 X-625.688 F850
G17 G3 X-625.088 Y-175.4 J0.6
X-634.788 I-4.85
X-625.088 I4.85
X-625.688 Y-174.8 I-0.6
G1 X-626.288
G18 G3 X-626.888 Z7.6 K0.6
G0 Z41
G17

(dog_hole_015_widen 2)
G0 X-626.888 Y-251
Z41
Z31
G1 Z27 F283.3
Z7.6
G18 G2 X-626.288 Z7 I0.6
G1 X-625.688 F850
G17 G3 X-625.088 Y-250.4 J0.6
X-634.788 I-4.85
X-625.088 I4.85
X-625.688 Y-249.8 I-0.6
G1 X-626.288
G18 G3 X-626.888 Z7.6 K0.6
G0 Z41
G17

(dog_hole_015_widen 2)
G0 X-626.888 Y-326
Z41
Z31
G1 Z27 F283.3
Z7.6
G18 G2 X-626.288 Z7 I0.6
G1 X-625.688 F850
G17 G3 X-625.088 Y-325.4 J0.6
X-634.788 I-4.85
X-625.088 I4.85
X-625.688 Y-324.8 I-0.6
G1 X-626.288
G18 G3 X-626.888 Z7.6 K0.6
G0 Z41
G17

(dog_hole_015_widen 2)
G0 X-626.888 Y-401
Z41
Z31
G1 Z27 F283.3
Z7.6
G18 G2 X-626.288 Z7 I0.6
G1 X-625.688 F850
G17 G3 X-625.088 Y-400.4 J0.6
X-634.788 I-4.85
X-625.088 I4.85
X-625.688 Y-399.8 I-0.6
G1 X-626.288
G18 G3 X-626.888 Z7.6 K0.6
G0 Z41
G17

(dog_hole_015_widen 2)
G0 X-626.888 Y-476
Z41
Z31
G1 Z27 F283.3
Z7.6
G18 G2 X-626.288 Z7 I0.6
G1 X-625.688 F850
G17 G3 X-625.088 Y-475.4 J0.6
X-634.788 I-4.85
X-625.088 I4.85
X-625.688 Y-474.8 I-0.6
G1 X-626.288
G18 G3 X-626.888 Z7.6 K0.6
G0 Z41
G17

(dog_hole_015_widen 2)
G0 X-626.888 Y-551
Z41
Z31
G1 Z27 F283.3
Z7.6
G18 G2 X-626.288 Z7 I0.6
G1 X-625.688 F850
G17 G3 X-625.088 Y-550.4 J0.6
X-634.788 I-4.85
X-625.088 I4.85
X-625.688 Y-549.8 I-0.6
G1 X-626.288
G18 G3 X-626.888 Z7.6 K0.6
G0 Z41
G17

(dog_hole_015_widen 2)
G0 X-626.888 Y-626
Z41
Z31
G1 Z27 F283.3
Z7.6
G18 G2 X-626.288 Z7 I0.6
G1 X-625.688 F850
G17 G3 X-625.088 Y-625.4 J0.6
X-634.788 I-4.85
X-625.088 I4.85
X-625.688 Y-624.8 I-0.6
G1 X-626.288
G18 G3 X-626.888 Z7.6 K0.6
G0 Z41
G17

(dog_hole_015_widen 2)
G0 X-701.888 Y49
Z41
Z31
G1 Z27 F283.3
Z7.6
G18 G2 X-701.288 Z7 I0.6
G1 X-700.688 F850
G17 G3 X-700.088 Y49.6 J0.6
X-709.788 I-4.85
X-700.088 I4.85
X-700.688 Y50.2 I-0.6
G1 X-701.288
G18 G3 X-701.888 Z7.6 K0.6
G0 Z41
G17

(dog_hole_015_widen 2)
G0 X-701.888 Y-26
Z41
Z31
G1 Z27 F283.3
Z7.6
G18 G2 X-701.288 Z7 I0.6
G1 X-700.688 F850
G17 G3 X-700.088 Y-25.4 J0.6
X-709.788 I-4.85
X-700.088 I4.85
X-700.688 Y-24.8 I-0.6
G1 X-701.288
G18 G3 X-701.888 Z7.6 K0.6
G0 Z41
G17

(dog_hole_015_widen 2)
G0 X-701.888 Y-101
Z41
Z31
G1 Z27 F283.3
Z7.6
G18 G2 X-701.288 Z7 I0.6
G1 X-700.688 F850
G17 G3 X-700.088 Y-100.4 J0.6
X-709.788 I-4.85
X-700.088 I4.85
X-700.688 Y-99.8 I-0.6
G1 X-701.288
G18 G3 X-701.888 Z7.6 K0.6
G0 Z41
G17

(dog_hole_015_widen 2)
G0 X-701.888 Y-176
Z41
Z31
G1 Z27 F283.3
Z7.6
G18 G2 X-701.288 Z7 I0.6
G1 X-700.688 F850
G17 G3 X-700.088 Y-175.4 J0.6
X-709.788 I-4.85
X-700.088 I4.85
X-700.688 Y-174.8 I-0.6
G1 X-701.288
G18 G3 X-701.888 Z7.6 K0.6
G0 Z41
G17

(dog_hole_015_widen 2)
G0 X-701.888 Y-251
Z41
Z31
G1 Z27 F283.3
Z7.6
G18 G2 X-701.288 Z7 I0.6
G1 X-700.688 F850
G17 G3 X-700.088 Y-250.4 J0.6
X-709.788 I-4.85
X-700.088 I4.85
X-700.688 Y-249.8 I-0.6
G1 X-701.288
G18 G3 X-701.888 Z7.6 K0.6
G0 Z41
G17

(dog_hole_015_widen 2)
G0 X-701.888 Y-326
Z41
Z31
G1 Z27 F283.3
Z7.6
G18 G2 X-701.288 Z7 I0.6
G1 X-700.688 F850
G17 G3 X-700.088 Y-325.4 J0.6
X-709.788 I-4.85
X-700.088 I4.85
X-700.688 Y-324.8 I-0.6
G1 X-701.288
G18 G3 X-701.888 Z7.6 K0.6
G0 Z41
G17

(dog_hole_015_widen 2)
G0 X-701.888 Y-401
Z41
Z31
G1 Z27 F283.3
Z7.6
G18 G2 X-701.288 Z7 I0.6
G1 X-700.688 F850
G17 G3 X-700.088 Y-400.4 J0.6
X-709.788 I-4.85
X-700.088 I4.85
X-700.688 Y-399.8 I-0.6
G1 X-701.288
G18 G3 X-701.888 Z7.6 K0.6
G0 Z41
G17

(dog_hole_015_widen 2)
G0 X-701.888 Y-476
Z41
Z31
G1 Z27 F283.3
Z7.6
G18 G2 X-701.288 Z7 I0.6
G1 X-700.688 F850
G17 G3 X-700.088 Y-475.4 J0.6
X-709.788 I-4.85
X-700.088 I4.85
X-700.688 Y-474.8 I-0.6
G1 X-701.288
G18 G3 X-701.888 Z7.6 K0.6
G0 Z41
G17

(dog_hole_015_widen 2)
G0 X-701.888 Y-551
Z41
Z31
G1 Z27 F283.3
Z7.6
G18 G2 X-701.288 Z7 I0.6
G1 X-700.688 F850
G17 G3 X-700.088 Y-550.4 J0.6
X-709.788 I-4.85
X-700.088 I4.85
X-700.688 Y-549.8 I-0.6
G1 X-701.288
G18 G3 X-701.888 Z7.6 K0.6
G0 Z41
G17

(dog_hole_015_widen 2)
G0 X-701.888 Y-626
Z41
Z31
G1 Z27 F283.3
Z7.6
G18 G2 X-701.288 Z7 I0.6
G1 X-700.688 F850
G17 G3 X-700.088 Y-625.4 J0.6
X-709.788 I-4.85
X-700.088 I4.85
X-700.688 Y-624.8 I-0.6
G1 X-701.288
G18 G3 X-701.888 Z7.6 K0.6
G0 Z41
G17

(dog_hole_015_widen 2)
G0 X-776.888 Y49
Z41
Z31
G1 Z27 F283.3
Z7.6
G18 G2 X-776.288 Z7 I0.6
G1 X-775.688 F850
G17 G3 X-775.088 Y49.6 J0.6
X-784.788 I-4.85
X-775.088 I4.85
X-775.688 Y50.2 I-0.6
G1 X-776.288
G18 G3 X-776.888 Z7.6 K0.6
G0 Z41
G17

(dog_hole_015_widen 2)
G0 X-776.888 Y-26
Z41
Z31
G1 Z27 F283.3
Z7.6
G18 G2 X-776.288 Z7 I0.6
G1 X-775.688 F850
G17 G3 X-775.088 Y-25.4 J0.6
X-784.788 I-4.85
X-775.088 I4.85
X-775.688 Y-24.8 I-0.6
G1 X-776.288
G18 G3 X-776.888 Z7.6 K0.6
G0 Z41
G17

(dog_hole_015_widen 2)
G0 X-776.888 Y-101
Z41
Z31
G1 Z27 F283.3
Z7.6
G18 G2 X-776.288 Z7 I0.6
G1 X-775.688 F850
G17 G3 X-775.088 Y-100.4 J0.6
X-784.788 I-4.85
X-775.088 I4.85
X-775.688 Y-99.8 I-0.6
G1 X-776.288
G18 G3 X-776.888 Z7.6 K0.6
G0 Z41
G17

(dog_hole_015_widen 2)
G0 X-776.888 Y-176
Z41
Z31
G1 Z27 F283.3
Z7.6
G18 G2 X-776.288 Z7 I0.6
G1 X-775.688 F850
G17 G3 X-775.088 Y-175.4 J0.6
X-784.788 I-4.85
X-775.088 I4.85
X-775.688 Y-174.8 I-0.6
G1 X-776.288
G18 G3 X-776.888 Z7.6 K0.6
G0 Z41
G17

(dog_hole_015_widen 2)
G0 X-776.888 Y-251
Z41
Z31
G1 Z27 F283.3
Z7.6
G18 G2 X-776.288 Z7 I0.6
G1 X-775.688 F850
G17 G3 X-775.088 Y-250.4 J0.6
X-784.788 I-4.85
X-775.088 I4.85
X-775.688 Y-249.8 I-0.6
G1 X-776.288
G18 G3 X-776.888 Z7.6 K0.6
G0 Z41
G17

(dog_hole_015_widen 2)
G0 X-776.888 Y-326
Z41
Z31
G1 Z27 F283.3
Z7.6
G18 G2 X-776.288 Z7 I0.6
G1 X-775.688 F850
G17 G3 X-775.088 Y-325.4 J0.6
X-784.788 I-4.85
X-775.088 I4.85
X-775.688 Y-324.8 I-0.6
G1 X-776.288
G18 G3 X-776.888 Z7.6 K0.6
G0 Z41
G17

(dog_hole_015_widen 2)
G0 X-776.888 Y-401
Z41
Z31
G1 Z27 F283.3
Z7.6
G18 G2 X-776.288 Z7 I0.6
G1 X-775.688 F850
G17 G3 X-775.088 Y-400.4 J0.6
X-784.788 I-4.85
X-775.088 I4.85
X-775.688 Y-399.8 I-0.6
G1 X-776.288
G18 G3 X-776.888 Z7.6 K0.6
G0 Z41
G17

(dog_hole_015_widen 2)
G0 X-776.888 Y-476
Z41
Z31
G1 Z27 F283.3
Z7.6
G18 G2 X-776.288 Z7 I0.6
G1 X-775.688 F850
G17 G3 X-775.088 Y-475.4 J0.6
X-784.788 I-4.85
X-775.088 I4.85
X-775.688 Y-474.8 I-0.6
G1 X-776.288
G18 G3 X-776.888 Z7.6 K0.6
G0 Z41
G17

(dog_hole_015_widen 2)
G0 X-776.888 Y-551
Z41
Z31
G1 Z27 F283.3
Z7.6
G18 G2 X-776.288 Z7 I0.6
G1 X-775.688 F850
G17 G3 X-775.088 Y-550.4 J0.6
X-784.788 I-4.85
X-775.088 I4.85
X-775.688 Y-549.8 I-0.6
G1 X-776.288
G18 G3 X-776.888 Z7.6 K0.6
G0 Z41
G17

(dog_hole_015_widen 2)
G0 X-776.888 Y-626
Z41
Z31
G1 Z27 F283.3
Z7.6
G18 G2 X-776.288 Z7 I0.6
G1 X-775.688 F850
G17 G3 X-775.088 Y-625.4 J0.6
X-784.788 I-4.85
X-775.088 I4.85
X-775.688 Y-624.8 I-0.6
G1 X-776.288
G18 G3 X-776.888 Z7.6 K0.6
G0 Z41
G17

(dog_hole_015_widen 2)
G0 X-851.888 Y49
Z41
Z31
G1 Z27 F283.3
Z7.6
G18 G2 X-851.288 Z7 I0.6
G1 X-850.688 F850
G17 G3 X-850.088 Y49.6 J0.6
X-859.788 I-4.85
X-850.088 I4.85
X-850.688 Y50.2 I-0.6
G1 X-851.288
G18 G3 X-851.888 Z7.6 K0.6
G0 Z41
G17

(dog_hole_015_widen 2)
G0 X-851.888 Y-26
Z41
Z31
G1 Z27 F283.3
Z7.6
G18 G2 X-851.288 Z7 I0.6
G1 X-850.688 F850
G17 G3 X-850.088 Y-25.4 J0.6
X-859.788 I-4.85
X-850.088 I4.85
X-850.688 Y-24.8 I-0.6
G1 X-851.288
G18 G3 X-851.888 Z7.6 K0.6
G0 Z41
G17

(dog_hole_015_widen 2)
G0 X-851.888 Y-101
Z41
Z31
G1 Z27 F283.3
Z7.6
G18 G2 X-851.288 Z7 I0.6
G1 X-850.688 F850
G17 G3 X-850.088 Y-100.4 J0.6
X-859.788 I-4.85
X-850.088 I4.85
X-850.688 Y-99.8 I-0.6
G1 X-851.288
G18 G3 X-851.888 Z7.6 K0.6
G0 Z41
G17

(dog_hole_015_widen 2)
G0 X-851.888 Y-176
Z41
Z31
G1 Z27 F283.3
Z7.6
G18 G2 X-851.288 Z7 I0.6
G1 X-850.688 F850
G17 G3 X-850.088 Y-175.4 J0.6
X-859.788 I-4.85
X-850.088 I4.85
X-850.688 Y-174.8 I-0.6
G1 X-851.288
G18 G3 X-851.888 Z7.6 K0.6
G0 Z41
G17

(dog_hole_015_widen 2)
G0 X-851.888 Y-251
Z41
Z31
G1 Z27 F283.3
Z7.6
G18 G2 X-851.288 Z7 I0.6
G1 X-850.688 F850
G17 G3 X-850.088 Y-250.4 J0.6
X-859.788 I-4.85
X-850.088 I4.85
X-850.688 Y-249.8 I-0.6
G1 X-851.288
G18 G3 X-851.888 Z7.6 K0.6
G0 Z41
G17

(dog_hole_015_widen 2)
G0 X-851.888 Y-326
Z41
Z31
G1 Z27 F283.3
Z7.6
G18 G2 X-851.288 Z7 I0.6
G1 X-850.688 F850
G17 G3 X-850.088 Y-325.4 J0.6
X-859.788 I-4.85
X-850.088 I4.85
X-850.688 Y-324.8 I-0.6
G1 X-851.288
G18 G3 X-851.888 Z7.6 K0.6
G0 Z41
G17

(dog_hole_015_widen 2)
G0 X-851.888 Y-401
Z41
Z31
G1 Z27 F283.3
Z7.6
G18 G2 X-851.288 Z7 I0.6
G1 X-850.688 F850
G17 G3 X-850.088 Y-400.4 J0.6
X-859.788 I-4.85
X-850.088 I4.85
X-850.688 Y-399.8 I-0.6
G1 X-851.288
G18 G3 X-851.888 Z7.6 K0.6
G0 Z41
G17

(dog_hole_015_widen 2)
G0 X-851.888 Y-476
Z41
Z31
G1 Z27 F283.3
Z7.6
G18 G2 X-851.288 Z7 I0.6
G1 X-850.688 F850
G17 G3 X-850.088 Y-475.4 J0.6
X-859.788 I-4.85
X-850.088 I4.85
X-850.688 Y-474.8 I-0.6
G1 X-851.288
G18 G3 X-851.888 Z7.6 K0.6
G0 Z41
G17

(dog_hole_015_widen 2)
G0 X-851.888 Y-551
Z41
Z31
G1 Z27 F283.3
Z7.6
G18 G2 X-851.288 Z7 I0.6
G1 X-850.688 F850
G17 G3 X-850.088 Y-550.4 J0.6
X-859.788 I-4.85
X-850.088 I4.85
X-850.688 Y-549.8 I-0.6
G1 X-851.288
G18 G3 X-851.888 Z7.6 K0.6
G0 Z41
G17

(dog_hole_015_widen 2)
G0 X-851.888 Y-626
Z41
Z31
G1 Z27 F283.3
Z7.6
G18 G2 X-851.288 Z7 I0.6
G1 X-850.688 F850
G17 G3 X-850.088 Y-625.4 J0.6
X-859.788 I-4.85
X-850.088 I4.85
X-850.688 Y-624.8 I-0.6
G1 X-851.288
G18 G3 X-851.888 Z7.6 K0.6
G0 Z41
G17

(dog_hole_015_widen 2)
G0 X-926.888 Y49
Z41
Z31
G1 Z27 F283.3
Z7.6
G18 G2 X-926.288 Z7 I0.6
G1 X-925.688 F850
G17 G3 X-925.088 Y49.6 J0.6
X-934.788 I-4.85
X-925.088 I4.85
X-925.688 Y50.2 I-0.6
G1 X-926.288
G18 G3 X-926.888 Z7.6 K0.6
G0 Z41
G17

(dog_hole_015_widen 2)
G0 X-926.888 Y-26
Z41
Z31
G1 Z27 F283.3
Z7.6
G18 G2 X-926.288 Z7 I0.6
G1 X-925.688 F850
G17 G3 X-925.088 Y-25.4 J0.6
X-934.788 I-4.85
X-925.088 I4.85
X-925.688 Y-24.8 I-0.6
G1 X-926.288
G18 G3 X-926.888 Z7.6 K0.6
G0 Z41
G17

(dog_hole_015_widen 2)
G0 X-926.888 Y-101
Z41
Z31
G1 Z27 F283.3
Z7.6
G18 G2 X-926.288 Z7 I0.6
G1 X-925.688 F850
G17 G3 X-925.088 Y-100.4 J0.6
X-934.788 I-4.85
X-925.088 I4.85
X-925.688 Y-99.8 I-0.6
G1 X-926.288
G18 G3 X-926.888 Z7.6 K0.6
G0 Z41
G17

(dog_hole_015_widen 2)
G0 X-926.888 Y-176
Z41
Z31
G1 Z27 F283.3
Z7.6
G18 G2 X-926.288 Z7 I0.6
G1 X-925.688 F850
G17 G3 X-925.088 Y-175.4 J0.6
X-934.788 I-4.85
X-925.088 I4.85
X-925.688 Y-174.8 I-0.6
G1 X-926.288
G18 G3 X-926.888 Z7.6 K0.6
G0 Z41
G17

(dog_hole_015_widen 2)
G0 X-926.888 Y-251
Z41
Z31
G1 Z27 F283.3
Z7.6
G18 G2 X-926.288 Z7 I0.6
G1 X-925.688 F850
G17 G3 X-925.088 Y-250.4 J0.6
X-934.788 I-4.85
X-925.088 I4.85
X-925.688 Y-249.8 I-0.6
G1 X-926.288
G18 G3 X-926.888 Z7.6 K0.6
G0 Z41
G17

(dog_hole_015_widen 2)
G0 X-926.888 Y-326
Z41
Z31
G1 Z27 F283.3
Z7.6
G18 G2 X-926.288 Z7 I0.6
G1 X-925.688 F850
G17 G3 X-925.088 Y-325.4 J0.6
X-934.788 I-4.85
X-925.088 I4.85
X-925.688 Y-324.8 I-0.6
G1 X-926.288
G18 G3 X-926.888 Z7.6 K0.6
G0 Z41
G17

(dog_hole_015_widen 2)
G0 X-926.888 Y-401
Z41
Z31
G1 Z27 F283.3
Z7.6
G18 G2 X-926.288 Z7 I0.6
G1 X-925.688 F850
G17 G3 X-925.088 Y-400.4 J0.6
X-934.788 I-4.85
X-925.088 I4.85
X-925.688 Y-399.8 I-0.6
G1 X-926.288
G18 G3 X-926.888 Z7.6 K0.6
G0 Z41
G17

(dog_hole_015_widen 2)
G0 X-926.888 Y-476
Z41
Z31
G1 Z27 F283.3
Z7.6
G18 G2 X-926.288 Z7 I0.6
G1 X-925.688 F850
G17 G3 X-925.088 Y-475.4 J0.6
X-934.788 I-4.85
X-925.088 I4.85
X-925.688 Y-474.8 I-0.6
G1 X-926.288
G18 G3 X-926.888 Z7.6 K0.6
G0 Z41
G17

(dog_hole_015_widen 2)
G0 X-926.888 Y-551
Z41
Z31
G1 Z27 F283.3
Z7.6
G18 G2 X-926.288 Z7 I0.6
G1 X-925.688 F850
G17 G3 X-925.088 Y-550.4 J0.6
X-934.788 I-4.85
X-925.088 I4.85
X-925.688 Y-549.8 I-0.6
G1 X-926.288
G18 G3 X-926.888 Z7.6 K0.6
G0 Z41
G17

(dog_hole_015_widen 2)
G0 X-926.888 Y-626
Z41
Z31
G1 Z27 F283.3
Z7.6
G18 G2 X-926.288 Z7 I0.6
G1 X-925.688 F850
G17 G3 X-925.088 Y-625.4 J0.6
X-934.788 I-4.85
X-925.088 I4.85
X-925.688 Y-624.8 I-0.6
G1 X-926.288
G18 G3 X-926.888 Z7.6 K0.6
G0 Z41
G17

(dog_hole_015_widen 2)
G0 X-1001.888 Y49
Z41
Z31
G1 Z27 F283.3
Z7.6
G18 G2 X-1001.288 Z7 I0.6
G1 X-1000.688 F850
G17 G3 X-1000.088 Y49.6 J0.6
X-1009.788 I-4.85
X-1000.088 I4.85
X-1000.688 Y50.2 I-0.6
G1 X-1001.288
G18 G3 X-1001.888 Z7.6 K0.6
G0 Z41
G17

(dog_hole_015_widen 2)
G0 X-1001.888 Y-26
Z41
Z31
G1 Z27 F283.3
Z7.6
G18 G2 X-1001.288 Z7 I0.6
G1 X-1000.688 F850
G17 G3 X-1000.088 Y-25.4 J0.6
X-1009.788 I-4.85
X-1000.088 I4.85
X-1000.688 Y-24.8 I-0.6
G1 X-1001.288
G18 G3 X-1001.888 Z7.6 K0.6
G0 Z41
G17

(dog_hole_015_widen 2)
G0 X-1001.888 Y-101
Z41
Z31
G1 Z27 F283.3
Z7.6
G18 G2 X-1001.288 Z7 I0.6
G1 X-1000.688 F850
G17 G3 X-1000.088 Y-100.4 J0.6
X-1009.788 I-4.85
X-1000.088 I4.85
X-1000.688 Y-99.8 I-0.6
G1 X-1001.288
G18 G3 X-1001.888 Z7.6 K0.6
G0 Z41
G17

(dog_hole_015_widen 2)
G0 X-1001.888 Y-176
Z41
Z31
G1 Z27 F283.3
Z7.6
G18 G2 X-1001.288 Z7 I0.6
G1 X-1000.688 F850
G17 G3 X-1000.088 Y-175.4 J0.6
X-1009.788 I-4.85
X-1000.088 I4.85
X-1000.688 Y-174.8 I-0.6
G1 X-1001.288
G18 G3 X-1001.888 Z7.6 K0.6
G0 Z41
G17

(dog_hole_015_widen 2)
G0 X-1001.888 Y-251
Z41
Z31
G1 Z27 F283.3
Z7.6
G18 G2 X-1001.288 Z7 I0.6
G1 X-1000.688 F850
G17 G3 X-1000.088 Y-250.4 J0.6
X-1009.788 I-4.85
X-1000.088 I4.85
X-1000.688 Y-249.8 I-0.6
G1 X-1001.288
G18 G3 X-1001.888 Z7.6 K0.6
G0 Z41
G17

(dog_hole_015_widen 2)
G0 X-1001.888 Y-326
Z41
Z31
G1 Z27 F283.3
Z7.6
G18 G2 X-1001.288 Z7 I0.6
G1 X-1000.688 F850
G17 G3 X-1000.088 Y-325.4 J0.6
X-1009.788 I-4.85
X-1000.088 I4.85
X-1000.688 Y-324.8 I-0.6
G1 X-1001.288
G18 G3 X-1001.888 Z7.6 K0.6
G0 Z41
G17

(dog_hole_015_widen 2)
G0 X-1001.888 Y-401
Z41
Z31
G1 Z27 F283.3
Z7.6
G18 G2 X-1001.288 Z7 I0.6
G1 X-1000.688 F850
G17 G3 X-1000.088 Y-400.4 J0.6
X-1009.788 I-4.85
X-1000.088 I4.85
X-1000.688 Y-399.8 I-0.6
G1 X-1001.288
G18 G3 X-1001.888 Z7.6 K0.6
G0 Z41
G17

(dog_hole_015_widen 2)
G0 X-1001.888 Y-476
Z41
Z31
G1 Z27 F283.3
Z7.6
G18 G2 X-1001.288 Z7 I0.6
G1 X-1000.688 F850
G17 G3 X-1000.088 Y-475.4 J0.6
X-1009.788 I-4.85
X-1000.088 I4.85
X-1000.688 Y-474.8 I-0.6
G1 X-1001.288
G18 G3 X-1001.888 Z7.6 K0.6
G0 Z41
G17

(dog_hole_015_widen 2)
G0 X-1001.888 Y-551
Z41
Z31
G1 Z27 F283.3
Z7.6
G18 G2 X-1001.288 Z7 I0.6
G1 X-1000.688 F850
G17 G3 X-1000.088 Y-550.4 J0.6
X-1009.788 I-4.85
X-1000.088 I4.85
X-1000.688 Y-549.8 I-0.6
G1 X-1001.288
G18 G3 X-1001.888 Z7.6 K0.6
G0 Z41
G17

(dog_hole_015_widen 2)
G0 X-1001.888 Y-626
Z41
Z31
G1 Z27 F283.3
Z7.6
G18 G2 X-1001.288 Z7 I0.6
G1 X-1000.688 F850
G17 G3 X-1000.088 Y-625.4 J0.6
X-1009.788 I-4.85
X-1000.088 I4.85
X-1000.688 Y-624.8 I-0.6
G1 X-1001.288
G18 G3 X-1001.888 Z7.6 K0.6
G0 Z41
G17

(dog_hole_015_widen 2)
G0 X-1076.888 Y49
Z41
Z31
G1 Z27 F283.3
Z7.6
G18 G2 X-1076.288 Z7 I0.6
G1 X-1075.688 F850
G17 G3 X-1075.088 Y49.6 J0.6
X-1084.788 I-4.85
X-1075.088 I4.85
X-1075.688 Y50.2 I-0.6
G1 X-1076.288
G18 G3 X-1076.888 Z7.6 K0.6
G0 Z41
G17

(dog_hole_015_widen 2)
G0 X-1076.888 Y-26
Z41
Z31
G1 Z27 F283.3
Z7.6
G18 G2 X-1076.288 Z7 I0.6
G1 X-1075.688 F850
G17 G3 X-1075.088 Y-25.4 J0.6
X-1084.788 I-4.85
X-1075.088 I4.85
X-1075.688 Y-24.8 I-0.6
G1 X-1076.288
G18 G3 X-1076.888 Z7.6 K0.6
G0 Z41
G17

(dog_hole_015_widen 2)
G0 X-1076.888 Y-101
Z41
Z31
G1 Z27 F283.3
Z7.6
G18 G2 X-1076.288 Z7 I0.6
G1 X-1075.688 F850
G17 G3 X-1075.088 Y-100.4 J0.6
X-1084.788 I-4.85
X-1075.088 I4.85
X-1075.688 Y-99.8 I-0.6
G1 X-1076.288
G18 G3 X-1076.888 Z7.6 K0.6
G0 Z41
G17

(dog_hole_015_widen 2)
G0 X-1076.888 Y-176
Z41
Z31
G1 Z27 F283.3
Z7.6
G18 G2 X-1076.288 Z7 I0.6
G1 X-1075.688 F850
G17 G3 X-1075.088 Y-175.4 J0.6
X-1084.788 I-4.85
X-1075.088 I4.85
X-1075.688 Y-174.8 I-0.6
G1 X-1076.288
G18 G3 X-1076.888 Z7.6 K0.6
G0 Z41
G17

(dog_hole_015_widen 2)
G0 X-1076.888 Y-251
Z41
Z31
G1 Z27 F283.3
Z7.6
G18 G2 X-1076.288 Z7 I0.6
G1 X-1075.688 F850
G17 G3 X-1075.088 Y-250.4 J0.6
X-1084.788 I-4.85
X-1075.088 I4.85
X-1075.688 Y-249.8 I-0.6
G1 X-1076.288
G18 G3 X-1076.888 Z7.6 K0.6
G0 Z41
G17

(dog_hole_015_widen 2)
G0 X-1076.888 Y-326
Z41
Z31
G1 Z27 F283.3
Z7.6
G18 G2 X-1076.288 Z7 I0.6
G1 X-1075.688 F850
G17 G3 X-1075.088 Y-325.4 J0.6
X-1084.788 I-4.85
X-1075.088 I4.85
X-1075.688 Y-324.8 I-0.6
G1 X-1076.288
G18 G3 X-1076.888 Z7.6 K0.6
G0 Z41
G17

(dog_hole_015_widen 2)
G0 X-1076.888 Y-401
Z41
Z31
G1 Z27 F283.3
Z7.6
G18 G2 X-1076.288 Z7 I0.6
G1 X-1075.688 F850
G17 G3 X-1075.088 Y-400.4 J0.6
X-1084.788 I-4.85
X-1075.088 I4.85
X-1075.688 Y-399.8 I-0.6
G1 X-1076.288
G18 G3 X-1076.888 Z7.6 K0.6
G0 Z41
G17

(dog_hole_015_widen 2)
G0 X-1076.888 Y-476
Z41
Z31
G1 Z27 F283.3
Z7.6
G18 G2 X-1076.288 Z7 I0.6
G1 X-1075.688 F850
G17 G3 X-1075.088 Y-475.4 J0.6
X-1084.788 I-4.85
X-1075.088 I4.85
X-1075.688 Y-474.8 I-0.6
G1 X-1076.288
G18 G3 X-1076.888 Z7.6 K0.6
G0 Z41
G17

(dog_hole_015_widen 2)
G0 X-1076.888 Y-551
Z41
Z31
G1 Z27 F283.3
Z7.6
G18 G2 X-1076.288 Z7 I0.6
G1 X-1075.688 F850
G17 G3 X-1075.088 Y-550.4 J0.6
X-1084.788 I-4.85
X-1075.088 I4.85
X-1075.688 Y-549.8 I-0.6
G1 X-1076.288
G18 G3 X-1076.888 Z7.6 K0.6
G0 Z41
G17

(dog_hole_015_widen 2)
G0 X-1076.888 Y-626
Z41
Z31
G1 Z27 F283.3
Z7.6
G18 G2 X-1076.288 Z7 I0.6
G1 X-1075.688 F850
G17 G3 X-1075.088 Y-625.4 J0.6
X-1084.788 I-4.85
X-1075.088 I4.85
X-1075.688 Y-624.8 I-0.6
G1 X-1076.288
G18 G3 X-1076.888 Z7.6 K0.6
G0 Z41
G17

(dog_hole_015_widen 2)
G0 X-1151.888 Y49
Z41
Z31
G1 Z27 F283.3
Z7.6
G18 G2 X-1151.288 Z7 I0.6
G1 X-1150.688 F850
G17 G3 X-1150.088 Y49.6 J0.6
X-1159.788 I-4.85
X-1150.088 I4.85
X-1150.688 Y50.2 I-0.6
G1 X-1151.288
G18 G3 X-1151.888 Z7.6 K0.6
G0 Z41
G17

(dog_hole_015_widen 2)
G0 X-1151.888 Y-26
Z41
Z31
G1 Z27 F283.3
Z7.6
G18 G2 X-1151.288 Z7 I0.6
G1 X-1150.688 F850
G17 G3 X-1150.088 Y-25.4 J0.6
X-1159.788 I-4.85
X-1150.088 I4.85
X-1150.688 Y-24.8 I-0.6
G1 X-1151.288
G18 G3 X-1151.888 Z7.6 K0.6
G0 Z41
G17

(dog_hole_015_widen 2)
G0 X-1151.888 Y-101
Z41
Z31
G1 Z27 F283.3
Z7.6
G18 G2 X-1151.288 Z7 I0.6
G1 X-1150.688 F850
G17 G3 X-1150.088 Y-100.4 J0.6
X-1159.788 I-4.85
X-1150.088 I4.85
X-1150.688 Y-99.8 I-0.6
G1 X-1151.288
G18 G3 X-1151.888 Z7.6 K0.6
G0 Z41
G17

(dog_hole_015_widen 2)
G0 X-1151.888 Y-176
Z41
Z31
G1 Z27 F283.3
Z7.6
G18 G2 X-1151.288 Z7 I0.6
G1 X-1150.688 F850
G17 G3 X-1150.088 Y-175.4 J0.6
X-1159.788 I-4.85
X-1150.088 I4.85
X-1150.688 Y-174.8 I-0.6
G1 X-1151.288
G18 G3 X-1151.888 Z7.6 K0.6
G0 Z41
G17

(dog_hole_015_widen 2)
G0 X-1151.888 Y-251
Z41
Z31
G1 Z27 F283.3
Z7.6
G18 G2 X-1151.288 Z7 I0.6
G1 X-1150.688 F850
G17 G3 X-1150.088 Y-250.4 J0.6
X-1159.788 I-4.85
X-1150.088 I4.85
X-1150.688 Y-249.8 I-0.6
G1 X-1151.288
G18 G3 X-1151.888 Z7.6 K0.6
G0 Z41
G17

(dog_hole_015_widen 2)
G0 X-1151.888 Y-326
Z41
Z31
G1 Z27 F283.3
Z7.6
G18 G2 X-1151.288 Z7 I0.6
G1 X-1150.688 F850
G17 G3 X-1150.088 Y-325.4 J0.6
X-1159.788 I-4.85
X-1150.088 I4.85
X-1150.688 Y-324.8 I-0.6
G1 X-1151.288
G18 G3 X-1151.888 Z7.6 K0.6
G0 Z41
G17

(dog_hole_015_widen 2)
G0 X-1151.888 Y-401
Z41
Z31
G1 Z27 F283.3
Z7.6
G18 G2 X-1151.288 Z7 I0.6
G1 X-1150.688 F850
G17 G3 X-1150.088 Y-400.4 J0.6
X-1159.788 I-4.85
X-1150.088 I4.85
X-1150.688 Y-399.8 I-0.6
G1 X-1151.288
G18 G3 X-1151.888 Z7.6 K0.6
G0 Z41
G17

(dog_hole_015_widen 2)
G0 X-1151.888 Y-476
Z41
Z31
G1 Z27 F283.3
Z7.6
G18 G2 X-1151.288 Z7 I0.6
G1 X-1150.688 F850
G17 G3 X-1150.088 Y-475.4 J0.6
X-1159.788 I-4.85
X-1150.088 I4.85
X-1150.688 Y-474.8 I-0.6
G1 X-1151.288
G18 G3 X-1151.888 Z7.6 K0.6
G0 Z41
G17

(dog_hole_015_widen 2)
G0 X-1151.888 Y-551
Z41
Z31
G1 Z27 F283.3
Z7.6
G18 G2 X-1151.288 Z7 I0.6
G1 X-1150.688 F850
G17 G3 X-1150.088 Y-550.4 J0.6
X-1159.788 I-4.85
X-1150.088 I4.85
X-1150.688 Y-549.8 I-0.6
G1 X-1151.288
G18 G3 X-1151.888 Z7.6 K0.6
G0 Z41
G17

(dog_hole_015_widen 2)
G0 X-1151.888 Y-626
Z41
Z31
G1 Z27 F283.3
Z7.6
G18 G2 X-1151.288 Z7 I0.6
G1 X-1150.688 F850
G17 G3 X-1150.088 Y-625.4 J0.6
X-1159.788 I-4.85
X-1150.088 I4.85
X-1150.688 Y-624.8 I-0.6
G1 X-1151.288
G18 G3 X-1151.888 Z7.6 K0.6
G0 Z41
G17

(dog_hole_015_widen 2)
G0 X-1226.888 Y49
Z41
Z31
G1 Z27 F283.3
Z7.6
G18 G2 X-1226.288 Z7 I0.6
G1 X-1225.688 F850
G17 G3 X-1225.088 Y49.6 J0.6
X-1234.788 I-4.85
X-1225.088 I4.85
X-1225.688 Y50.2 I-0.6
G1 X-1226.288
G18 G3 X-1226.888 Z7.6 K0.6
G0 Z41
G17

(dog_hole_015_widen 2)
G0 X-1226.888 Y-26
Z41
Z31
G1 Z27 F283.3
Z7.6
G18 G2 X-1226.288 Z7 I0.6
G1 X-1225.688 F850
G17 G3 X-1225.088 Y-25.4 J0.6
X-1234.788 I-4.85
X-1225.088 I4.85
X-1225.688 Y-24.8 I-0.6
G1 X-1226.288
G18 G3 X-1226.888 Z7.6 K0.6
G0 Z41
G17

(dog_hole_015_widen 2)
G0 X-1226.888 Y-101
Z41
Z31
G1 Z27 F283.3
Z7.6
G18 G2 X-1226.288 Z7 I0.6
G1 X-1225.688 F850
G17 G3 X-1225.088 Y-100.4 J0.6
X-1234.788 I-4.85
X-1225.088 I4.85
X-1225.688 Y-99.8 I-0.6
G1 X-1226.288
G18 G3 X-1226.888 Z7.6 K0.6
G0 Z41
G17

(dog_hole_015_widen 2)
G0 X-1226.888 Y-176
Z41
Z31
G1 Z27 F283.3
Z7.6
G18 G2 X-1226.288 Z7 I0.6
G1 X-1225.688 F850
G17 G3 X-1225.088 Y-175.4 J0.6
X-1234.788 I-4.85
X-1225.088 I4.85
X-1225.688 Y-174.8 I-0.6
G1 X-1226.288
G18 G3 X-1226.888 Z7.6 K0.6
G0 Z41
G17

(dog_hole_015_widen 2)
G0 X-1226.888 Y-251
Z41
Z31
G1 Z27 F283.3
Z7.6
G18 G2 X-1226.288 Z7 I0.6
G1 X-1225.688 F850
G17 G3 X-1225.088 Y-250.4 J0.6
X-1234.788 I-4.85
X-1225.088 I4.85
X-1225.688 Y-249.8 I-0.6
G1 X-1226.288
G18 G3 X-1226.888 Z7.6 K0.6
G0 Z41
G17

(dog_hole_015_widen 2)
G0 X-1226.888 Y-326
Z41
Z31
G1 Z27 F283.3
Z7.6
G18 G2 X-1226.288 Z7 I0.6
G1 X-1225.688 F850
G17 G3 X-1225.088 Y-325.4 J0.6
X-1234.788 I-4.85
X-1225.088 I4.85
X-1225.688 Y-324.8 I-0.6
G1 X-1226.288
G18 G3 X-1226.888 Z7.6 K0.6
G0 Z41
G17

(dog_hole_015_widen 2)
G0 X-1226.888 Y-401
Z41
Z31
G1 Z27 F283.3
Z7.6
G18 G2 X-1226.288 Z7 I0.6
G1 X-1225.688 F850
G17 G3 X-1225.088 Y-400.4 J0.6
X-1234.788 I-4.85
X-1225.088 I4.85
X-1225.688 Y-399.8 I-0.6
G1 X-1226.288
G18 G3 X-1226.888 Z7.6 K0.6
G0 Z41
G17

(dog_hole_015_widen 2)
G0 X-1226.888 Y-476
Z41
Z31
G1 Z27 F283.3
Z7.6
G18 G2 X-1226.288 Z7 I0.6
G1 X-1225.688 F850
G17 G3 X-1225.088 Y-475.4 J0.6
X-1234.788 I-4.85
X-1225.088 I4.85
X-1225.688 Y-474.8 I-0.6
G1 X-1226.288
G18 G3 X-1226.888 Z7.6 K0.6
G0 Z41
G17

(dog_hole_015_widen 2)
G0 X-1226.888 Y-551
Z41
Z31
G1 Z27 F283.3
Z7.6
G18 G2 X-1226.288 Z7 I0.6
G1 X-1225.688 F850
G17 G3 X-1225.088 Y-550.4 J0.6
X-1234.788 I-4.85
X-1225.088 I4.85
X-1225.688 Y-549.8 I-0.6
G1 X-1226.288
G18 G3 X-1226.888 Z7.6 K0.6
G0 Z41
G17

(dog_hole_015_widen 2)
G0 X-1226.888 Y-626
Z41
Z31
G1 Z27 F283.3
Z7.6
G18 G2 X-1226.288 Z7 I0.6
G1 X-1225.688 F850
G17 G3 X-1225.088 Y-625.4 J0.6
X-1234.788 I-4.85
X-1225.088 I4.85
X-1225.688 Y-624.8 I-0.6
G1 X-1226.288
G18 G3 X-1226.888 Z7.6 K0.6
G0 Z41
G17
M30
%
