%
(1001)
(origin bottom left anchor hole stock bottom)
(T1  D=6 CR=0 - ZMIN=7 - flat end mill)
G90 G94
G17
G21

(dog_hole_005_widen)
M9
T1 M6
S15000 M3
G54
G0 X48.012 Y49
Z41
Z31
G1 Z27 F283.3
Z7.6
G18 G2 X48.612 Z7 I0.6
G1 X49.212 F850
G17 G3 X49.812 Y49.6 J0.6
X40.312 I-4.75
X49.812 I4.75
X49.212 Y50.2 I-0.6
G1 X48.612
G18 G3 X48.012 Z7.6 K0.6
G0 Z41
G17

(dog_hole_005_widen)
G0 X48.012 Y-26
Z41
Z31
G1 Z27 F283.3
Z7.6
G18 G2 X48.612 Z7 I0.6
G1 X49.212 F850
G17 G3 X49.812 Y-25.4 J0.6
X40.312 I-4.75
X49.812 I4.75
X49.212 Y-24.8 I-0.6
G1 X48.612
G18 G3 X48.012 Z7.6 K0.6
G0 Z41
G17

(dog_hole_005_widen)
G0 X48.012 Y-101
Z41
Z31
G1 Z27 F283.3
Z7.6
G18 G2 X48.612 Z7 I0.6
G1 X49.212 F850
G17 G3 X49.812 Y-100.4 J0.6
X40.312 I-4.75
X49.812 I4.75
X49.212 Y-99.8 I-0.6
G1 X48.612
G18 G3 X48.012 Z7.6 K0.6
G0 Z41
G17

(dog_hole_005_widen)
G0 X48.012 Y-176
Z41
Z31
G1 Z27 F283.3
Z7.6
G18 G2 X48.612 Z7 I0.6
G1 X49.212 F850
G17 G3 X49.812 Y-175.4 J0.6
X40.312 I-4.75
X49.812 I4.75
X49.212 Y-174.8 I-0.6
G1 X48.612
G18 G3 X48.012 Z7.6 K0.6
G0 Z41
G17

(dog_hole_005_widen)
G0 X48.012 Y-251
Z41
Z31
G1 Z27 F283.3
Z7.6
G18 G2 X48.612 Z7 I0.6
G1 X49.212 F850
G17 G3 X49.812 Y-250.4 J0.6
X40.312 I-4.75
X49.812 I4.75
X49.212 Y-249.8 I-0.6
G1 X48.612
G18 G3 X48.012 Z7.6 K0.6
G0 Z41
G17

(dog_hole_005_widen)
G0 X48.012 Y-326
Z41
Z31
G1 Z27 F283.3
Z7.6
G18 G2 X48.612 Z7 I0.6
G1 X49.212 F850
G17 G3 X49.812 Y-325.4 J0.6
X40.312 I-4.75
X49.812 I4.75
X49.212 Y-324.8 I-0.6
G1 X48.612
G18 G3 X48.012 Z7.6 K0.6
G0 Z41
G17

(dog_hole_005_widen)
G0 X48.012 Y-401
Z41
Z31
G1 Z27 F283.3
Z7.6
G18 G2 X48.612 Z7 I0.6
G1 X49.212 F850
G17 G3 X49.812 Y-400.4 J0.6
X40.312 I-4.75
X49.812 I4.75
X49.212 Y-399.8 I-0.6
G1 X48.612
G18 G3 X48.012 Z7.6 K0.6
G0 Z41
G17

(dog_hole_005_widen)
G0 X48.012 Y-476
Z41
Z31
G1 Z27 F283.3
Z7.6
G18 G2 X48.612 Z7 I0.6
G1 X49.212 F850
G17 G3 X49.812 Y-475.4 J0.6
X40.312 I-4.75
X49.812 I4.75
X49.212 Y-474.8 I-0.6
G1 X48.612
G18 G3 X48.012 Z7.6 K0.6
G0 Z41
G17

(dog_hole_005_widen)
G0 X48.012 Y-551
Z41
Z31
G1 Z27 F283.3
Z7.6
G18 G2 X48.612 Z7 I0.6
G1 X49.212 F850
G17 G3 X49.812 Y-550.4 J0.6
X40.312 I-4.75
X49.812 I4.75
X49.212 Y-549.8 I-0.6
G1 X48.612
G18 G3 X48.012 Z7.6 K0.6
G0 Z41
G17

(dog_hole_005_widen)
G0 X48.012 Y-626
Z41
Z31
G1 Z27 F283.3
Z7.6
G18 G2 X48.612 Z7 I0.6
G1 X49.212 F850
G17 G3 X49.812 Y-625.4 J0.6
X40.312 I-4.75
X49.812 I4.75
X49.212 Y-624.8 I-0.6
G1 X48.612
G18 G3 X48.012 Z7.6 K0.6
G0 Z41
G17

(dog_hole_005_widen)
G0 X-26.988 Y49
Z41
Z31
G1 Z27 F283.3
Z7.6
G18 G2 X-26.388 Z7 I0.6
G1 X-25.788 F850
G17 G3 X-25.188 Y49.6 J0.6
X-34.688 I-4.75
X-25.188 I4.75
X-25.788 Y50.2 I-0.6
G1 X-26.388
G18 G3 X-26.988 Z7.6 K0.6
G0 Z41
G17

(dog_hole_005_widen)
G0 X-26.988 Y-26
Z41
Z31
G1 Z27 F283.3
Z7.6
G18 G2 X-26.388 Z7 I0.6
G1 X-25.788 F850
G17 G3 X-25.188 Y-25.4 J0.6
X-34.688 I-4.75
X-25.188 I4.75
X-25.788 Y-24.8 I-0.6
G1 X-26.388
G18 G3 X-26.988 Z7.6 K0.6
G0 Z41
G17

(dog_hole_005_widen)
G0 X-26.988 Y-101
Z41
Z31
G1 Z27 F283.3
Z7.6
G18 G2 X-26.388 Z7 I0.6
G1 X-25.788 F850
G17 G3 X-25.188 Y-100.4 J0.6
X-34.688 I-4.75
X-25.188 I4.75
X-25.788 Y-99.8 I-0.6
G1 X-26.388
G18 G3 X-26.988 Z7.6 K0.6
G0 Z41
G17

(dog_hole_005_widen)
G0 X-26.988 Y-176
Z41
Z31
G1 Z27 F283.3
Z7.6
G18 G2 X-26.388 Z7 I0.6
G1 X-25.788 F850
G17 G3 X-25.188 Y-175.4 J0.6
X-34.688 I-4.75
X-25.188 I4.75
X-25.788 Y-174.8 I-0.6
G1 X-26.388
G18 G3 X-26.988 Z7.6 K0.6
G0 Z41
G17

(dog_hole_005_widen)
G0 X-26.988 Y-251
Z41
Z31
G1 Z27 F283.3
Z7.6
G18 G2 X-26.388 Z7 I0.6
G1 X-25.788 F850
G17 G3 X-25.188 Y-250.4 J0.6
X-34.688 I-4.75
X-25.188 I4.75
X-25.788 Y-249.8 I-0.6
G1 X-26.388
G18 G3 X-26.988 Z7.6 K0.6
G0 Z41
G17

(dog_hole_005_widen)
G0 X-26.988 Y-326
Z41
Z31
G1 Z27 F283.3
Z7.6
G18 G2 X-26.388 Z7 I0.6
G1 X-25.788 F850
G17 G3 X-25.188 Y-325.4 J0.6
X-34.688 I-4.75
X-25.188 I4.75
X-25.788 Y-324.8 I-0.6
G1 X-26.388
G18 G3 X-26.988 Z7.6 K0.6
G0 Z41
G17

(dog_hole_005_widen)
G0 X-26.988 Y-401
Z41
Z31
G1 Z27 F283.3
Z7.6
G18 G2 X-26.388 Z7 I0.6
G1 X-25.788 F850
G17 G3 X-25.188 Y-400.4 J0.6
X-34.688 I-4.75
X-25.188 I4.75
X-25.788 Y-399.8 I-0.6
G1 X-26.388
G18 G3 X-26.988 Z7.6 K0.6
G0 Z41
G17

(dog_hole_005_widen)
G0 X-26.988 Y-476
Z41
Z31
G1 Z27 F283.3
Z7.6
G18 G2 X-26.388 Z7 I0.6
G1 X-25.788 F850
G17 G3 X-25.188 Y-475.4 J0.6
X-34.688 I-4.75
X-25.188 I4.75
X-25.788 Y-474.8 I-0.6
G1 X-26.388
G18 G3 X-26.988 Z7.6 K0.6
G0 Z41
G17

(dog_hole_005_widen)
G0 X-26.988 Y-551
Z41
Z31
G1 Z27 F283.3
Z7.6
G18 G2 X-26.388 Z7 I0.6
G1 X-25.788 F850
G17 G3 X-25.188 Y-550.4 J0.6
X-34.688 I-4.75
X-25.188 I4.75
X-25.788 Y-549.8 I-0.6
G1 X-26.388
G18 G3 X-26.988 Z7.6 K0.6
G0 Z41
G17

(dog_hole_005_widen)
G0 X-26.988 Y-626
Z41
Z31
G1 Z27 F283.3
Z7.6
G18 G2 X-26.388 Z7 I0.6
G1 X-25.788 F850
G17 G3 X-25.188 Y-625.4 J0.6
X-34.688 I-4.75
X-25.188 I4.75
X-25.788 Y-624.8 I-0.6
G1 X-26.388
G18 G3 X-26.988 Z7.6 K0.6
G0 Z41
G17

(dog_hole_005_widen)
G0 X-101.988 Y49
Z41
Z31
G1 Z27 F283.3
Z7.6
G18 G2 X-101.388 Z7 I0.6
G1 X-100.788 F850
G17 G3 X-100.188 Y49.6 J0.6
X-109.688 I-4.75
X-100.188 I4.75
X-100.788 Y50.2 I-0.6
G1 X-101.388
G18 G3 X-101.988 Z7.6 K0.6
G0 Z41
G17

(dog_hole_005_widen)
G0 X-101.988 Y-26
Z41
Z31
G1 Z27 F283.3
Z7.6
G18 G2 X-101.388 Z7 I0.6
G1 X-100.788 F850
G17 G3 X-100.188 Y-25.4 J0.6
X-109.688 I-4.75
X-100.188 I4.75
X-100.788 Y-24.8 I-0.6
G1 X-101.388
G18 G3 X-101.988 Z7.6 K0.6
G0 Z41
G17

(dog_hole_005_widen)
G0 X-101.988 Y-101
Z41
Z31
G1 Z27 F283.3
Z7.6
G18 G2 X-101.388 Z7 I0.6
G1 X-100.788 F850
G17 G3 X-100.188 Y-100.4 J0.6
X-109.688 I-4.75
X-100.188 I4.75
X-100.788 Y-99.8 I-0.6
G1 X-101.388
G18 G3 X-101.988 Z7.6 K0.6
G0 Z41
G17

(dog_hole_005_widen)
G0 X-101.988 Y-176
Z41
Z31
G1 Z27 F283.3
Z7.6
G18 G2 X-101.388 Z7 I0.6
G1 X-100.788 F850
G17 G3 X-100.188 Y-175.4 J0.6
X-109.688 I-4.75
X-100.188 I4.75
X-100.788 Y-174.8 I-0.6
G1 X-101.388
G18 G3 X-101.988 Z7.6 K0.6
G0 Z41
G17

(dog_hole_005_widen)
G0 X-101.988 Y-251
Z41
Z31
G1 Z27 F283.3
Z7.6
G18 G2 X-101.388 Z7 I0.6
G1 X-100.788 F850
G17 G3 X-100.188 Y-250.4 J0.6
X-109.688 I-4.75
X-100.188 I4.75
X-100.788 Y-249.8 I-0.6
G1 X-101.388
G18 G3 X-101.988 Z7.6 K0.6
G0 Z41
G17

(dog_hole_005_widen)
G0 X-101.988 Y-326
Z41
Z31
G1 Z27 F283.3
Z7.6
G18 G2 X-101.388 Z7 I0.6
G1 X-100.788 F850
G17 G3 X-100.188 Y-325.4 J0.6
X-109.688 I-4.75
X-100.188 I4.75
X-100.788 Y-324.8 I-0.6
G1 X-101.388
G18 G3 X-101.988 Z7.6 K0.6
G0 Z41
G17

(dog_hole_005_widen)
G0 X-101.988 Y-401
Z41
Z31
G1 Z27 F283.3
Z7.6
G18 G2 X-101.388 Z7 I0.6
G1 X-100.788 F850
G17 G3 X-100.188 Y-400.4 J0.6
X-109.688 I-4.75
X-100.188 I4.75
X-100.788 Y-399.8 I-0.6
G1 X-101.388
G18 G3 X-101.988 Z7.6 K0.6
G0 Z41
G17

(dog_hole_005_widen)
G0 X-101.988 Y-476
Z41
Z31
G1 Z27 F283.3
Z7.6
G18 G2 X-101.388 Z7 I0.6
G1 X-100.788 F850
G17 G3 X-100.188 Y-475.4 J0.6
X-109.688 I-4.75
X-100.188 I4.75
X-100.788 Y-474.8 I-0.6
G1 X-101.388
G18 G3 X-101.988 Z7.6 K0.6
G0 Z41
G17

(dog_hole_005_widen)
G0 X-101.988 Y-551
Z41
Z31
G1 Z27 F283.3
Z7.6
G18 G2 X-101.388 Z7 I0.6
G1 X-100.788 F850
G17 G3 X-100.188 Y-550.4 J0.6
X-109.688 I-4.75
X-100.188 I4.75
X-100.788 Y-549.8 I-0.6
G1 X-101.388
G18 G3 X-101.988 Z7.6 K0.6
G0 Z41
G17

(dog_hole_005_widen)
G0 X-101.988 Y-626
Z41
Z31
G1 Z27 F283.3
Z7.6
G18 G2 X-101.388 Z7 I0.6
G1 X-100.788 F850
G17 G3 X-100.188 Y-625.4 J0.6
X-109.688 I-4.75
X-100.188 I4.75
X-100.788 Y-624.8 I-0.6
G1 X-101.388
G18 G3 X-101.988 Z7.6 K0.6
G0 Z41
G17

(dog_hole_005_widen)
G0 X-176.988 Y49
Z41
Z31
G1 Z27 F283.3
Z7.6
G18 G2 X-176.388 Z7 I0.6
G1 X-175.788 F850
G17 G3 X-175.188 Y49.6 J0.6
X-184.688 I-4.75
X-175.188 I4.75
X-175.788 Y50.2 I-0.6
G1 X-176.388
G18 G3 X-176.988 Z7.6 K0.6
G0 Z41
G17

(dog_hole_005_widen)
G0 X-176.988 Y-26
Z41
Z31
G1 Z27 F283.3
Z7.6
G18 G2 X-176.388 Z7 I0.6
G1 X-175.788 F850
G17 G3 X-175.188 Y-25.4 J0.6
X-184.688 I-4.75
X-175.188 I4.75
X-175.788 Y-24.8 I-0.6
G1 X-176.388
G18 G3 X-176.988 Z7.6 K0.6
G0 Z41
G17

(dog_hole_005_widen)
G0 X-176.988 Y-101
Z41
Z31
G1 Z27 F283.3
Z7.6
G18 G2 X-176.388 Z7 I0.6
G1 X-175.788 F850
G17 G3 X-175.188 Y-100.4 J0.6
X-184.688 I-4.75
X-175.188 I4.75
X-175.788 Y-99.8 I-0.6
G1 X-176.388
G18 G3 X-176.988 Z7.6 K0.6
G0 Z41
G17

(dog_hole_005_widen)
G0 X-176.988 Y-176
Z41
Z31
G1 Z27 F283.3
Z7.6
G18 G2 X-176.388 Z7 I0.6
G1 X-175.788 F850
G17 G3 X-175.188 Y-175.4 J0.6
X-184.688 I-4.75
X-175.188 I4.75
X-175.788 Y-174.8 I-0.6
G1 X-176.388
G18 G3 X-176.988 Z7.6 K0.6
G0 Z41
G17

(dog_hole_005_widen)
G0 X-176.988 Y-251
Z41
Z31
G1 Z27 F283.3
Z7.6
G18 G2 X-176.388 Z7 I0.6
G1 X-175.788 F850
G17 G3 X-175.188 Y-250.4 J0.6
X-184.688 I-4.75
X-175.188 I4.75
X-175.788 Y-249.8 I-0.6
G1 X-176.388
G18 G3 X-176.988 Z7.6 K0.6
G0 Z41
G17

(dog_hole_005_widen)
G0 X-176.988 Y-326
Z41
Z31
G1 Z27 F283.3
Z7.6
G18 G2 X-176.388 Z7 I0.6
G1 X-175.788 F850
G17 G3 X-175.188 Y-325.4 J0.6
X-184.688 I-4.75
X-175.188 I4.75
X-175.788 Y-324.8 I-0.6
G1 X-176.388
G18 G3 X-176.988 Z7.6 K0.6
G0 Z41
G17

(dog_hole_005_widen)
G0 X-176.988 Y-401
Z41
Z31
G1 Z27 F283.3
Z7.6
G18 G2 X-176.388 Z7 I0.6
G1 X-175.788 F850
G17 G3 X-175.188 Y-400.4 J0.6
X-184.688 I-4.75
X-175.188 I4.75
X-175.788 Y-399.8 I-0.6
G1 X-176.388
G18 G3 X-176.988 Z7.6 K0.6
G0 Z41
G17

(dog_hole_005_widen)
G0 X-176.988 Y-476
Z41
Z31
G1 Z27 F283.3
Z7.6
G18 G2 X-176.388 Z7 I0.6
G1 X-175.788 F850
G17 G3 X-175.188 Y-475.4 J0.6
X-184.688 I-4.75
X-175.188 I4.75
X-175.788 Y-474.8 I-0.6
G1 X-176.388
G18 G3 X-176.988 Z7.6 K0.6
G0 Z41
G17

(dog_hole_005_widen)
G0 X-176.988 Y-551
Z41
Z31
G1 Z27 F283.3
Z7.6
G18 G2 X-176.388 Z7 I0.6
G1 X-175.788 F850
G17 G3 X-175.188 Y-550.4 J0.6
X-184.688 I-4.75
X-175.188 I4.75
X-175.788 Y-549.8 I-0.6
G1 X-176.388
G18 G3 X-176.988 Z7.6 K0.6
G0 Z41
G17

(dog_hole_005_widen)
G0 X-176.988 Y-626
Z41
Z31
G1 Z27 F283.3
Z7.6
G18 G2 X-176.388 Z7 I0.6
G1 X-175.788 F850
G17 G3 X-175.188 Y-625.4 J0.6
X-184.688 I-4.75
X-175.188 I4.75
X-175.788 Y-624.8 I-0.6
G1 X-176.388
G18 G3 X-176.988 Z7.6 K0.6
G0 Z41
G17

(dog_hole_005_widen)
G0 X-251.988 Y49
Z41
Z31
G1 Z27 F283.3
Z7.6
G18 G2 X-251.388 Z7 I0.6
G1 X-250.788 F850
G17 G3 X-250.188 Y49.6 J0.6
X-259.688 I-4.75
X-250.188 I4.75
X-250.788 Y50.2 I-0.6
G1 X-251.388
G18 G3 X-251.988 Z7.6 K0.6
G0 Z41
G17

(dog_hole_005_widen)
G0 X-251.988 Y-26
Z41
Z31
G1 Z27 F283.3
Z7.6
G18 G2 X-251.388 Z7 I0.6
G1 X-250.788 F850
G17 G3 X-250.188 Y-25.4 J0.6
X-259.688 I-4.75
X-250.188 I4.75
X-250.788 Y-24.8 I-0.6
G1 X-251.388
G18 G3 X-251.988 Z7.6 K0.6
G0 Z41
G17

(dog_hole_005_widen)
G0 X-251.988 Y-101
Z41
Z31
G1 Z27 F283.3
Z7.6
G18 G2 X-251.388 Z7 I0.6
G1 X-250.788 F850
G17 G3 X-250.188 Y-100.4 J0.6
X-259.688 I-4.75
X-250.188 I4.75
X-250.788 Y-99.8 I-0.6
G1 X-251.388
G18 G3 X-251.988 Z7.6 K0.6
G0 Z41
G17

(dog_hole_005_widen)
G0 X-251.988 Y-176
Z41
Z31
G1 Z27 F283.3
Z7.6
G18 G2 X-251.388 Z7 I0.6
G1 X-250.788 F850
G17 G3 X-250.188 Y-175.4 J0.6
X-259.688 I-4.75
X-250.188 I4.75
X-250.788 Y-174.8 I-0.6
G1 X-251.388
G18 G3 X-251.988 Z7.6 K0.6
G0 Z41
G17

(dog_hole_005_widen)
G0 X-251.988 Y-251
Z41
Z31
G1 Z27 F283.3
Z7.6
G18 G2 X-251.388 Z7 I0.6
G1 X-250.788 F850
G17 G3 X-250.188 Y-250.4 J0.6
X-259.688 I-4.75
X-250.188 I4.75
X-250.788 Y-249.8 I-0.6
G1 X-251.388
G18 G3 X-251.988 Z7.6 K0.6
G0 Z41
G17

(dog_hole_005_widen)
G0 X-251.988 Y-326
Z41
Z31
G1 Z27 F283.3
Z7.6
G18 G2 X-251.388 Z7 I0.6
G1 X-250.788 F850
G17 G3 X-250.188 Y-325.4 J0.6
X-259.688 I-4.75
X-250.188 I4.75
X-250.788 Y-324.8 I-0.6
G1 X-251.388
G18 G3 X-251.988 Z7.6 K0.6
G0 Z41
G17

(dog_hole_005_widen)
G0 X-251.988 Y-401
Z41
Z31
G1 Z27 F283.3
Z7.6
G18 G2 X-251.388 Z7 I0.6
G1 X-250.788 F850
G17 G3 X-250.188 Y-400.4 J0.6
X-259.688 I-4.75
X-250.188 I4.75
X-250.788 Y-399.8 I-0.6
G1 X-251.388
G18 G3 X-251.988 Z7.6 K0.6
G0 Z41
G17

(dog_hole_005_widen)
G0 X-251.988 Y-476
Z41
Z31
G1 Z27 F283.3
Z7.6
G18 G2 X-251.388 Z7 I0.6
G1 X-250.788 F850
G17 G3 X-250.188 Y-475.4 J0.6
X-259.688 I-4.75
X-250.188 I4.75
X-250.788 Y-474.8 I-0.6
G1 X-251.388
G18 G3 X-251.988 Z7.6 K0.6
G0 Z41
G17

(dog_hole_005_widen)
G0 X-251.988 Y-551
Z41
Z31
G1 Z27 F283.3
Z7.6
G18 G2 X-251.388 Z7 I0.6
G1 X-250.788 F850
G17 G3 X-250.188 Y-550.4 J0.6
X-259.688 I-4.75
X-250.188 I4.75
X-250.788 Y-549.8 I-0.6
G1 X-251.388
G18 G3 X-251.988 Z7.6 K0.6
G0 Z41
G17

(dog_hole_005_widen)
G0 X-251.988 Y-626
Z41
Z31
G1 Z27 F283.3
Z7.6
G18 G2 X-251.388 Z7 I0.6
G1 X-250.788 F850
G17 G3 X-250.188 Y-625.4 J0.6
X-259.688 I-4.75
X-250.188 I4.75
X-250.788 Y-624.8 I-0.6
G1 X-251.388
G18 G3 X-251.988 Z7.6 K0.6
G0 Z41
G17

(dog_hole_005_widen)
G0 X-326.988 Y49
Z41
Z31
G1 Z27 F283.3
Z7.6
G18 G2 X-326.388 Z7 I0.6
G1 X-325.788 F850
G17 G3 X-325.188 Y49.6 J0.6
X-334.688 I-4.75
X-325.188 I4.75
X-325.788 Y50.2 I-0.6
G1 X-326.388
G18 G3 X-326.988 Z7.6 K0.6
G0 Z41
G17

(dog_hole_005_widen)
G0 X-326.988 Y-26
Z41
Z31
G1 Z27 F283.3
Z7.6
G18 G2 X-326.388 Z7 I0.6
G1 X-325.788 F850
G17 G3 X-325.188 Y-25.4 J0.6
X-334.688 I-4.75
X-325.188 I4.75
X-325.788 Y-24.8 I-0.6
G1 X-326.388
G18 G3 X-326.988 Z7.6 K0.6
G0 Z41
G17

(dog_hole_005_widen)
G0 X-326.988 Y-101
Z41
Z31
G1 Z27 F283.3
Z7.6
G18 G2 X-326.388 Z7 I0.6
G1 X-325.788 F850
G17 G3 X-325.188 Y-100.4 J0.6
X-334.688 I-4.75
X-325.188 I4.75
X-325.788 Y-99.8 I-0.6
G1 X-326.388
G18 G3 X-326.988 Z7.6 K0.6
G0 Z41
G17

(dog_hole_005_widen)
G0 X-326.988 Y-176
Z41
Z31
G1 Z27 F283.3
Z7.6
G18 G2 X-326.388 Z7 I0.6
G1 X-325.788 F850
G17 G3 X-325.188 Y-175.4 J0.6
X-334.688 I-4.75
X-325.188 I4.75
X-325.788 Y-174.8 I-0.6
G1 X-326.388
G18 G3 X-326.988 Z7.6 K0.6
G0 Z41
G17

(dog_hole_005_widen)
G0 X-326.988 Y-251
Z41
Z31
G1 Z27 F283.3
Z7.6
G18 G2 X-326.388 Z7 I0.6
G1 X-325.788 F850
G17 G3 X-325.188 Y-250.4 J0.6
X-334.688 I-4.75
X-325.188 I4.75
X-325.788 Y-249.8 I-0.6
G1 X-326.388
G18 G3 X-326.988 Z7.6 K0.6
G0 Z41
G17

(dog_hole_005_widen)
G0 X-326.988 Y-326
Z41
Z31
G1 Z27 F283.3
Z7.6
G18 G2 X-326.388 Z7 I0.6
G1 X-325.788 F850
G17 G3 X-325.188 Y-325.4 J0.6
X-334.688 I-4.75
X-325.188 I4.75
X-325.788 Y-324.8 I-0.6
G1 X-326.388
G18 G3 X-326.988 Z7.6 K0.6
G0 Z41
G17

(dog_hole_005_widen)
G0 X-326.988 Y-401
Z41
Z31
G1 Z27 F283.3
Z7.6
G18 G2 X-326.388 Z7 I0.6
G1 X-325.788 F850
G17 G3 X-325.188 Y-400.4 J0.6
X-334.688 I-4.75
X-325.188 I4.75
X-325.788 Y-399.8 I-0.6
G1 X-326.388
G18 G3 X-326.988 Z7.6 K0.6
G0 Z41
G17

(dog_hole_005_widen)
G0 X-326.988 Y-476
Z41
Z31
G1 Z27 F283.3
Z7.6
G18 G2 X-326.388 Z7 I0.6
G1 X-325.788 F850
G17 G3 X-325.188 Y-475.4 J0.6
X-334.688 I-4.75
X-325.188 I4.75
X-325.788 Y-474.8 I-0.6
G1 X-326.388
G18 G3 X-326.988 Z7.6 K0.6
G0 Z41
G17

(dog_hole_005_widen)
G0 X-326.988 Y-551
Z41
Z31
G1 Z27 F283.3
Z7.6
G18 G2 X-326.388 Z7 I0.6
G1 X-325.788 F850
G17 G3 X-325.188 Y-550.4 J0.6
X-334.688 I-4.75
X-325.188 I4.75
X-325.788 Y-549.8 I-0.6
G1 X-326.388
G18 G3 X-326.988 Z7.6 K0.6
G0 Z41
G17

(dog_hole_005_widen)
G0 X-326.988 Y-626
Z41
Z31
G1 Z27 F283.3
Z7.6
G18 G2 X-326.388 Z7 I0.6
G1 X-325.788 F850
G17 G3 X-325.188 Y-625.4 J0.6
X-334.688 I-4.75
X-325.188 I4.75
X-325.788 Y-624.8 I-0.6
G1 X-326.388
G18 G3 X-326.988 Z7.6 K0.6
G0 Z41
G17

(dog_hole_005_widen)
G0 X-401.988 Y49
Z41
Z31
G1 Z27 F283.3
Z7.6
G18 G2 X-401.388 Z7 I0.6
G1 X-400.788 F850
G17 G3 X-400.188 Y49.6 J0.6
X-409.688 I-4.75
X-400.188 I4.75
X-400.788 Y50.2 I-0.6
G1 X-401.388
G18 G3 X-401.988 Z7.6 K0.6
G0 Z41
G17

(dog_hole_005_widen)
G0 X-401.988 Y-26
Z41
Z31
G1 Z27 F283.3
Z7.6
G18 G2 X-401.388 Z7 I0.6
G1 X-400.788 F850
G17 G3 X-400.188 Y-25.4 J0.6
X-409.688 I-4.75
X-400.188 I4.75
X-400.788 Y-24.8 I-0.6
G1 X-401.388
G18 G3 X-401.988 Z7.6 K0.6
G0 Z41
G17

(dog_hole_005_widen)
G0 X-401.988 Y-101
Z41
Z31
G1 Z27 F283.3
Z7.6
G18 G2 X-401.388 Z7 I0.6
G1 X-400.788 F850
G17 G3 X-400.188 Y-100.4 J0.6
X-409.688 I-4.75
X-400.188 I4.75
X-400.788 Y-99.8 I-0.6
G1 X-401.388
G18 G3 X-401.988 Z7.6 K0.6
G0 Z41
G17

(dog_hole_005_widen)
G0 X-401.988 Y-176
Z41
Z31
G1 Z27 F283.3
Z7.6
G18 G2 X-401.388 Z7 I0.6
G1 X-400.788 F850
G17 G3 X-400.188 Y-175.4 J0.6
X-409.688 I-4.75
X-400.188 I4.75
X-400.788 Y-174.8 I-0.6
G1 X-401.388
G18 G3 X-401.988 Z7.6 K0.6
G0 Z41
G17

(dog_hole_005_widen)
G0 X-401.988 Y-251
Z41
Z31
G1 Z27 F283.3
Z7.6
G18 G2 X-401.388 Z7 I0.6
G1 X-400.788 F850
G17 G3 X-400.188 Y-250.4 J0.6
X-409.688 I-4.75
X-400.188 I4.75
X-400.788 Y-249.8 I-0.6
G1 X-401.388
G18 G3 X-401.988 Z7.6 K0.6
G0 Z41
G17

(dog_hole_005_widen)
G0 X-401.988 Y-326
Z41
Z31
G1 Z27 F283.3
Z7.6
G18 G2 X-401.388 Z7 I0.6
G1 X-400.788 F850
G17 G3 X-400.188 Y-325.4 J0.6
X-409.688 I-4.75
X-400.188 I4.75
X-400.788 Y-324.8 I-0.6
G1 X-401.388
G18 G3 X-401.988 Z7.6 K0.6
G0 Z41
G17

(dog_hole_005_widen)
G0 X-401.988 Y-401
Z41
Z31
G1 Z27 F283.3
Z7.6
G18 G2 X-401.388 Z7 I0.6
G1 X-400.788 F850
G17 G3 X-400.188 Y-400.4 J0.6
X-409.688 I-4.75
X-400.188 I4.75
X-400.788 Y-399.8 I-0.6
G1 X-401.388
G18 G3 X-401.988 Z7.6 K0.6
G0 Z41
G17

(dog_hole_005_widen)
G0 X-401.988 Y-476
Z41
Z31
G1 Z27 F283.3
Z7.6
G18 G2 X-401.388 Z7 I0.6
G1 X-400.788 F850
G17 G3 X-400.188 Y-475.4 J0.6
X-409.688 I-4.75
X-400.188 I4.75
X-400.788 Y-474.8 I-0.6
G1 X-401.388
G18 G3 X-401.988 Z7.6 K0.6
G0 Z41
G17

(dog_hole_005_widen)
G0 X-401.988 Y-551
Z41
Z31
G1 Z27 F283.3
Z7.6
G18 G2 X-401.388 Z7 I0.6
G1 X-400.788 F850
G17 G3 X-400.188 Y-550.4 J0.6
X-409.688 I-4.75
X-400.188 I4.75
X-400.788 Y-549.8 I-0.6
G1 X-401.388
G18 G3 X-401.988 Z7.6 K0.6
G0 Z41
G17

(dog_hole_005_widen)
G0 X-401.988 Y-626
Z41
Z31
G1 Z27 F283.3
Z7.6
G18 G2 X-401.388 Z7 I0.6
G1 X-400.788 F850
G17 G3 X-400.188 Y-625.4 J0.6
X-409.688 I-4.75
X-400.188 I4.75
X-400.788 Y-624.8 I-0.6
G1 X-401.388
G18 G3 X-401.988 Z7.6 K0.6
G0 Z41
G17

(dog_hole_005_widen)
G0 X-476.988 Y49
Z41
Z31
G1 Z27 F283.3
Z7.6
G18 G2 X-476.388 Z7 I0.6
G1 X-475.788 F850
G17 G3 X-475.188 Y49.6 J0.6
X-484.688 I-4.75
X-475.188 I4.75
X-475.788 Y50.2 I-0.6
G1 X-476.388
G18 G3 X-476.988 Z7.6 K0.6
G0 Z41
G17

(dog_hole_005_widen)
G0 X-476.988 Y-26
Z41
Z31
G1 Z27 F283.3
Z7.6
G18 G2 X-476.388 Z7 I0.6
G1 X-475.788 F850
G17 G3 X-475.188 Y-25.4 J0.6
X-484.688 I-4.75
X-475.188 I4.75
X-475.788 Y-24.8 I-0.6
G1 X-476.388
G18 G3 X-476.988 Z7.6 K0.6
G0 Z41
G17

(dog_hole_005_widen)
G0 X-476.988 Y-101
Z41
Z31
G1 Z27 F283.3
Z7.6
G18 G2 X-476.388 Z7 I0.6
G1 X-475.788 F850
G17 G3 X-475.188 Y-100.4 J0.6
X-484.688 I-4.75
X-475.188 I4.75
X-475.788 Y-99.8 I-0.6
G1 X-476.388
G18 G3 X-476.988 Z7.6 K0.6
G0 Z41
G17

(dog_hole_005_widen)
G0 X-476.988 Y-176
Z41
Z31
G1 Z27 F283.3
Z7.6
G18 G2 X-476.388 Z7 I0.6
G1 X-475.788 F850
G17 G3 X-475.188 Y-175.4 J0.6
X-484.688 I-4.75
X-475.188 I4.75
X-475.788 Y-174.8 I-0.6
G1 X-476.388
G18 G3 X-476.988 Z7.6 K0.6
G0 Z41
G17

(dog_hole_005_widen)
G0 X-476.988 Y-251
Z41
Z31
G1 Z27 F283.3
Z7.6
G18 G2 X-476.388 Z7 I0.6
G1 X-475.788 F850
G17 G3 X-475.188 Y-250.4 J0.6
X-484.688 I-4.75
X-475.188 I4.75
X-475.788 Y-249.8 I-0.6
G1 X-476.388
G18 G3 X-476.988 Z7.6 K0.6
G0 Z41
G17

(dog_hole_005_widen)
G0 X-476.988 Y-326
Z41
Z31
G1 Z27 F283.3
Z7.6
G18 G2 X-476.388 Z7 I0.6
G1 X-475.788 F850
G17 G3 X-475.188 Y-325.4 J0.6
X-484.688 I-4.75
X-475.188 I4.75
X-475.788 Y-324.8 I-0.6
G1 X-476.388
G18 G3 X-476.988 Z7.6 K0.6
G0 Z41
G17

(dog_hole_005_widen)
G0 X-476.988 Y-401
Z41
Z31
G1 Z27 F283.3
Z7.6
G18 G2 X-476.388 Z7 I0.6
G1 X-475.788 F850
G17 G3 X-475.188 Y-400.4 J0.6
X-484.688 I-4.75
X-475.188 I4.75
X-475.788 Y-399.8 I-0.6
G1 X-476.388
G18 G3 X-476.988 Z7.6 K0.6
G0 Z41
G17

(dog_hole_005_widen)
G0 X-476.988 Y-476
Z41
Z31
G1 Z27 F283.3
Z7.6
G18 G2 X-476.388 Z7 I0.6
G1 X-475.788 F850
G17 G3 X-475.188 Y-475.4 J0.6
X-484.688 I-4.75
X-475.188 I4.75
X-475.788 Y-474.8 I-0.6
G1 X-476.388
G18 G3 X-476.988 Z7.6 K0.6
G0 Z41
G17

(dog_hole_005_widen)
G0 X-476.988 Y-551
Z41
Z31
G1 Z27 F283.3
Z7.6
G18 G2 X-476.388 Z7 I0.6
G1 X-475.788 F850
G17 G3 X-475.188 Y-550.4 J0.6
X-484.688 I-4.75
X-475.188 I4.75
X-475.788 Y-549.8 I-0.6
G1 X-476.388
G18 G3 X-476.988 Z7.6 K0.6
G0 Z41
G17

(dog_hole_005_widen)
G0 X-476.988 Y-626
Z41
Z31
G1 Z27 F283.3
Z7.6
G18 G2 X-476.388 Z7 I0.6
G1 X-475.788 F850
G17 G3 X-475.188 Y-625.4 J0.6
X-484.688 I-4.75
X-475.188 I4.75
X-475.788 Y-624.8 I-0.6
G1 X-476.388
G18 G3 X-476.988 Z7.6 K0.6
G0 Z41
G17

(dog_hole_005_widen)
G0 X-551.988 Y49
Z41
Z31
G1 Z27 F283.3
Z7.6
G18 G2 X-551.388 Z7 I0.6
G1 X-550.788 F850
G17 G3 X-550.188 Y49.6 J0.6
X-559.688 I-4.75
X-550.188 I4.75
X-550.788 Y50.2 I-0.6
G1 X-551.388
G18 G3 X-551.988 Z7.6 K0.6
G0 Z41
G17

(dog_hole_005_widen)
G0 X-551.988 Y-26
Z41
Z31
G1 Z27 F283.3
Z7.6
G18 G2 X-551.388 Z7 I0.6
G1 X-550.788 F850
G17 G3 X-550.188 Y-25.4 J0.6
X-559.688 I-4.75
X-550.188 I4.75
X-550.788 Y-24.8 I-0.6
G1 X-551.388
G18 G3 X-551.988 Z7.6 K0.6
G0 Z41
G17

(dog_hole_005_widen)
G0 X-551.988 Y-101
Z41
Z31
G1 Z27 F283.3
Z7.6
G18 G2 X-551.388 Z7 I0.6
G1 X-550.788 F850
G17 G3 X-550.188 Y-100.4 J0.6
X-559.688 I-4.75
X-550.188 I4.75
X-550.788 Y-99.8 I-0.6
G1 X-551.388
G18 G3 X-551.988 Z7.6 K0.6
G0 Z41
G17

(dog_hole_005_widen)
G0 X-551.988 Y-176
Z41
Z31
G1 Z27 F283.3
Z7.6
G18 G2 X-551.388 Z7 I0.6
G1 X-550.788 F850
G17 G3 X-550.188 Y-175.4 J0.6
X-559.688 I-4.75
X-550.188 I4.75
X-550.788 Y-174.8 I-0.6
G1 X-551.388
G18 G3 X-551.988 Z7.6 K0.6
G0 Z41
G17

(dog_hole_005_widen)
G0 X-551.988 Y-251
Z41
Z31
G1 Z27 F283.3
Z7.6
G18 G2 X-551.388 Z7 I0.6
G1 X-550.788 F850
G17 G3 X-550.188 Y-250.4 J0.6
X-559.688 I-4.75
X-550.188 I4.75
X-550.788 Y-249.8 I-0.6
G1 X-551.388
G18 G3 X-551.988 Z7.6 K0.6
G0 Z41
G17

(dog_hole_005_widen)
G0 X-551.988 Y-326
Z41
Z31
G1 Z27 F283.3
Z7.6
G18 G2 X-551.388 Z7 I0.6
G1 X-550.788 F850
G17 G3 X-550.188 Y-325.4 J0.6
X-559.688 I-4.75
X-550.188 I4.75
X-550.788 Y-324.8 I-0.6
G1 X-551.388
G18 G3 X-551.988 Z7.6 K0.6
G0 Z41
G17

(dog_hole_005_widen)
G0 X-551.988 Y-401
Z41
Z31
G1 Z27 F283.3
Z7.6
G18 G2 X-551.388 Z7 I0.6
G1 X-550.788 F850
G17 G3 X-550.188 Y-400.4 J0.6
X-559.688 I-4.75
X-550.188 I4.75
X-550.788 Y-399.8 I-0.6
G1 X-551.388
G18 G3 X-551.988 Z7.6 K0.6
G0 Z41
G17

(dog_hole_005_widen)
G0 X-551.988 Y-476
Z41
Z31
G1 Z27 F283.3
Z7.6
G18 G2 X-551.388 Z7 I0.6
G1 X-550.788 F850
G17 G3 X-550.188 Y-475.4 J0.6
X-559.688 I-4.75
X-550.188 I4.75
X-550.788 Y-474.8 I-0.6
G1 X-551.388
G18 G3 X-551.988 Z7.6 K0.6
G0 Z41
G17

(dog_hole_005_widen)
G0 X-551.988 Y-551
Z41
Z31
G1 Z27 F283.3
Z7.6
G18 G2 X-551.388 Z7 I0.6
G1 X-550.788 F850
G17 G3 X-550.188 Y-550.4 J0.6
X-559.688 I-4.75
X-550.188 I4.75
X-550.788 Y-549.8 I-0.6
G1 X-551.388
G18 G3 X-551.988 Z7.6 K0.6
G0 Z41
G17

(dog_hole_005_widen)
G0 X-551.988 Y-626
Z41
Z31
G1 Z27 F283.3
Z7.6
G18 G2 X-551.388 Z7 I0.6
G1 X-550.788 F850
G17 G3 X-550.188 Y-625.4 J0.6
X-559.688 I-4.75
X-550.188 I4.75
X-550.788 Y-624.8 I-0.6
G1 X-551.388
G18 G3 X-551.988 Z7.6 K0.6
G0 Z41
G17

(dog_hole_005_widen)
G0 X-626.988 Y49
Z41
Z31
G1 Z27 F283.3
Z7.6
G18 G2 X-626.388 Z7 I0.6
G1 X-625.788 F850
G17 G3 X-625.188 Y49.6 J0.6
X-634.688 I-4.75
X-625.188 I4.75
X-625.788 Y50.2 I-0.6
G1 X-626.388
G18 G3 X-626.988 Z7.6 K0.6
G0 Z41
G17

(dog_hole_005_widen)
G0 X-626.988 Y-26
Z41
Z31
G1 Z27 F283.3
Z7.6
G18 G2 X-626.388 Z7 I0.6
G1 X-625.788 F850
G17 G3 X-625.188 Y-25.4 J0.6
X-634.688 I-4.75
X-625.188 I4.75
X-625.788 Y-24.8 I-0.6
G1 X-626.388
G18 G3 X-626.988 Z7.6 K0.6
G0 Z41
G17

(dog_hole_005_widen)
G0 X-626.988 Y-101
Z41
Z31
G1 Z27 F283.3
Z7.6
G18 G2 X-626.388 Z7 I0.6
G1 X-625.788 F850
G17 G3 X-625.188 Y-100.4 J0.6
X-634.688 I-4.75
X-625.188 I4.75
X-625.788 Y-99.8 I-0.6
G1 X-626.388
G18 G3 X-626.988 Z7.6 K0.6
G0 Z41
G17

(dog_hole_005_widen)
G0 X-626.988 Y-176
Z41
Z31
G1 Z27 F283.3
Z7.6
G18 G2 X-626.388 Z7 I0.6
G1 X-625.788 F850
G17 G3 X-625.188 Y-175.4 J0.6
X-634.688 I-4.75
X-625.188 I4.75
X-625.788 Y-174.8 I-0.6
G1 X-626.388
G18 G3 X-626.988 Z7.6 K0.6
G0 Z41
G17

(dog_hole_005_widen)
G0 X-626.988 Y-251
Z41
Z31
G1 Z27 F283.3
Z7.6
G18 G2 X-626.388 Z7 I0.6
G1 X-625.788 F850
G17 G3 X-625.188 Y-250.4 J0.6
X-634.688 I-4.75
X-625.188 I4.75
X-625.788 Y-249.8 I-0.6
G1 X-626.388
G18 G3 X-626.988 Z7.6 K0.6
G0 Z41
G17

(dog_hole_005_widen)
G0 X-626.988 Y-326
Z41
Z31
G1 Z27 F283.3
Z7.6
G18 G2 X-626.388 Z7 I0.6
G1 X-625.788 F850
G17 G3 X-625.188 Y-325.4 J0.6
X-634.688 I-4.75
X-625.188 I4.75
X-625.788 Y-324.8 I-0.6
G1 X-626.388
G18 G3 X-626.988 Z7.6 K0.6
G0 Z41
G17

(dog_hole_005_widen)
G0 X-626.988 Y-401
Z41
Z31
G1 Z27 F283.3
Z7.6
G18 G2 X-626.388 Z7 I0.6
G1 X-625.788 F850
G17 G3 X-625.188 Y-400.4 J0.6
X-634.688 I-4.75
X-625.188 I4.75
X-625.788 Y-399.8 I-0.6
G1 X-626.388
G18 G3 X-626.988 Z7.6 K0.6
G0 Z41
G17

(dog_hole_005_widen)
G0 X-626.988 Y-476
Z41
Z31
G1 Z27 F283.3
Z7.6
G18 G2 X-626.388 Z7 I0.6
G1 X-625.788 F850
G17 G3 X-625.188 Y-475.4 J0.6
X-634.688 I-4.75
X-625.188 I4.75
X-625.788 Y-474.8 I-0.6
G1 X-626.388
G18 G3 X-626.988 Z7.6 K0.6
G0 Z41
G17

(dog_hole_005_widen)
G0 X-626.988 Y-551
Z41
Z31
G1 Z27 F283.3
Z7.6
G18 G2 X-626.388 Z7 I0.6
G1 X-625.788 F850
G17 G3 X-625.188 Y-550.4 J0.6
X-634.688 I-4.75
X-625.188 I4.75
X-625.788 Y-549.8 I-0.6
G1 X-626.388
G18 G3 X-626.988 Z7.6 K0.6
G0 Z41
G17

(dog_hole_005_widen)
G0 X-626.988 Y-626
Z41
Z31
G1 Z27 F283.3
Z7.6
G18 G2 X-626.388 Z7 I0.6
G1 X-625.788 F850
G17 G3 X-625.188 Y-625.4 J0.6
X-634.688 I-4.75
X-625.188 I4.75
X-625.788 Y-624.8 I-0.6
G1 X-626.388
G18 G3 X-626.988 Z7.6 K0.6
G0 Z41
G17

(dog_hole_005_widen)
G0 X-701.988 Y49
Z41
Z31
G1 Z27 F283.3
Z7.6
G18 G2 X-701.388 Z7 I0.6
G1 X-700.788 F850
G17 G3 X-700.188 Y49.6 J0.6
X-709.688 I-4.75
X-700.188 I4.75
X-700.788 Y50.2 I-0.6
G1 X-701.388
G18 G3 X-701.988 Z7.6 K0.6
G0 Z41
G17

(dog_hole_005_widen)
G0 X-701.988 Y-26
Z41
Z31
G1 Z27 F283.3
Z7.6
G18 G2 X-701.388 Z7 I0.6
G1 X-700.788 F850
G17 G3 X-700.188 Y-25.4 J0.6
X-709.688 I-4.75
X-700.188 I4.75
X-700.788 Y-24.8 I-0.6
G1 X-701.388
G18 G3 X-701.988 Z7.6 K0.6
G0 Z41
G17

(dog_hole_005_widen)
G0 X-701.988 Y-101
Z41
Z31
G1 Z27 F283.3
Z7.6
G18 G2 X-701.388 Z7 I0.6
G1 X-700.788 F850
G17 G3 X-700.188 Y-100.4 J0.6
X-709.688 I-4.75
X-700.188 I4.75
X-700.788 Y-99.8 I-0.6
G1 X-701.388
G18 G3 X-701.988 Z7.6 K0.6
G0 Z41
G17

(dog_hole_005_widen)
G0 X-701.988 Y-176
Z41
Z31
G1 Z27 F283.3
Z7.6
G18 G2 X-701.388 Z7 I0.6
G1 X-700.788 F850
G17 G3 X-700.188 Y-175.4 J0.6
X-709.688 I-4.75
X-700.188 I4.75
X-700.788 Y-174.8 I-0.6
G1 X-701.388
G18 G3 X-701.988 Z7.6 K0.6
G0 Z41
G17

(dog_hole_005_widen)
G0 X-701.988 Y-251
Z41
Z31
G1 Z27 F283.3
Z7.6
G18 G2 X-701.388 Z7 I0.6
G1 X-700.788 F850
G17 G3 X-700.188 Y-250.4 J0.6
X-709.688 I-4.75
X-700.188 I4.75
X-700.788 Y-249.8 I-0.6
G1 X-701.388
G18 G3 X-701.988 Z7.6 K0.6
G0 Z41
G17

(dog_hole_005_widen)
G0 X-701.988 Y-326
Z41
Z31
G1 Z27 F283.3
Z7.6
G18 G2 X-701.388 Z7 I0.6
G1 X-700.788 F850
G17 G3 X-700.188 Y-325.4 J0.6
X-709.688 I-4.75
X-700.188 I4.75
X-700.788 Y-324.8 I-0.6
G1 X-701.388
G18 G3 X-701.988 Z7.6 K0.6
G0 Z41
G17

(dog_hole_005_widen)
G0 X-701.988 Y-401
Z41
Z31
G1 Z27 F283.3
Z7.6
G18 G2 X-701.388 Z7 I0.6
G1 X-700.788 F850
G17 G3 X-700.188 Y-400.4 J0.6
X-709.688 I-4.75
X-700.188 I4.75
X-700.788 Y-399.8 I-0.6
G1 X-701.388
G18 G3 X-701.988 Z7.6 K0.6
G0 Z41
G17

(dog_hole_005_widen)
G0 X-701.988 Y-476
Z41
Z31
G1 Z27 F283.3
Z7.6
G18 G2 X-701.388 Z7 I0.6
G1 X-700.788 F850
G17 G3 X-700.188 Y-475.4 J0.6
X-709.688 I-4.75
X-700.188 I4.75
X-700.788 Y-474.8 I-0.6
G1 X-701.388
G18 G3 X-701.988 Z7.6 K0.6
G0 Z41
G17

(dog_hole_005_widen)
G0 X-701.988 Y-551
Z41
Z31
G1 Z27 F283.3
Z7.6
G18 G2 X-701.388 Z7 I0.6
G1 X-700.788 F850
G17 G3 X-700.188 Y-550.4 J0.6
X-709.688 I-4.75
X-700.188 I4.75
X-700.788 Y-549.8 I-0.6
G1 X-701.388
G18 G3 X-701.988 Z7.6 K0.6
G0 Z41
G17

(dog_hole_005_widen)
G0 X-701.988 Y-626
Z41
Z31
G1 Z27 F283.3
Z7.6
G18 G2 X-701.388 Z7 I0.6
G1 X-700.788 F850
G17 G3 X-700.188 Y-625.4 J0.6
X-709.688 I-4.75
X-700.188 I4.75
X-700.788 Y-624.8 I-0.6
G1 X-701.388
G18 G3 X-701.988 Z7.6 K0.6
G0 Z41
G17

(dog_hole_005_widen)
G0 X-776.988 Y49
Z41
Z31
G1 Z27 F283.3
Z7.6
G18 G2 X-776.388 Z7 I0.6
G1 X-775.788 F850
G17 G3 X-775.188 Y49.6 J0.6
X-784.688 I-4.75
X-775.188 I4.75
X-775.788 Y50.2 I-0.6
G1 X-776.388
G18 G3 X-776.988 Z7.6 K0.6
G0 Z41
G17

(dog_hole_005_widen)
G0 X-776.988 Y-26
Z41
Z31
G1 Z27 F283.3
Z7.6
G18 G2 X-776.388 Z7 I0.6
G1 X-775.788 F850
G17 G3 X-775.188 Y-25.4 J0.6
X-784.688 I-4.75
X-775.188 I4.75
X-775.788 Y-24.8 I-0.6
G1 X-776.388
G18 G3 X-776.988 Z7.6 K0.6
G0 Z41
G17

(dog_hole_005_widen)
G0 X-776.988 Y-101
Z41
Z31
G1 Z27 F283.3
Z7.6
G18 G2 X-776.388 Z7 I0.6
G1 X-775.788 F850
G17 G3 X-775.188 Y-100.4 J0.6
X-784.688 I-4.75
X-775.188 I4.75
X-775.788 Y-99.8 I-0.6
G1 X-776.388
G18 G3 X-776.988 Z7.6 K0.6
G0 Z41
G17

(dog_hole_005_widen)
G0 X-776.988 Y-176
Z41
Z31
G1 Z27 F283.3
Z7.6
G18 G2 X-776.388 Z7 I0.6
G1 X-775.788 F850
G17 G3 X-775.188 Y-175.4 J0.6
X-784.688 I-4.75
X-775.188 I4.75
X-775.788 Y-174.8 I-0.6
G1 X-776.388
G18 G3 X-776.988 Z7.6 K0.6
G0 Z41
G17

(dog_hole_005_widen)
G0 X-776.988 Y-251
Z41
Z31
G1 Z27 F283.3
Z7.6
G18 G2 X-776.388 Z7 I0.6
G1 X-775.788 F850
G17 G3 X-775.188 Y-250.4 J0.6
X-784.688 I-4.75
X-775.188 I4.75
X-775.788 Y-249.8 I-0.6
G1 X-776.388
G18 G3 X-776.988 Z7.6 K0.6
G0 Z41
G17

(dog_hole_005_widen)
G0 X-776.988 Y-326
Z41
Z31
G1 Z27 F283.3
Z7.6
G18 G2 X-776.388 Z7 I0.6
G1 X-775.788 F850
G17 G3 X-775.188 Y-325.4 J0.6
X-784.688 I-4.75
X-775.188 I4.75
X-775.788 Y-324.8 I-0.6
G1 X-776.388
G18 G3 X-776.988 Z7.6 K0.6
G0 Z41
G17

(dog_hole_005_widen)
G0 X-776.988 Y-401
Z41
Z31
G1 Z27 F283.3
Z7.6
G18 G2 X-776.388 Z7 I0.6
G1 X-775.788 F850
G17 G3 X-775.188 Y-400.4 J0.6
X-784.688 I-4.75
X-775.188 I4.75
X-775.788 Y-399.8 I-0.6
G1 X-776.388
G18 G3 X-776.988 Z7.6 K0.6
G0 Z41
G17

(dog_hole_005_widen)
G0 X-776.988 Y-476
Z41
Z31
G1 Z27 F283.3
Z7.6
G18 G2 X-776.388 Z7 I0.6
G1 X-775.788 F850
G17 G3 X-775.188 Y-475.4 J0.6
X-784.688 I-4.75
X-775.188 I4.75
X-775.788 Y-474.8 I-0.6
G1 X-776.388
G18 G3 X-776.988 Z7.6 K0.6
G0 Z41
G17

(dog_hole_005_widen)
G0 X-776.988 Y-551
Z41
Z31
G1 Z27 F283.3
Z7.6
G18 G2 X-776.388 Z7 I0.6
G1 X-775.788 F850
G17 G3 X-775.188 Y-550.4 J0.6
X-784.688 I-4.75
X-775.188 I4.75
X-775.788 Y-549.8 I-0.6
G1 X-776.388
G18 G3 X-776.988 Z7.6 K0.6
G0 Z41
G17

(dog_hole_005_widen)
G0 X-776.988 Y-626
Z41
Z31
G1 Z27 F283.3
Z7.6
G18 G2 X-776.388 Z7 I0.6
G1 X-775.788 F850
G17 G3 X-775.188 Y-625.4 J0.6
X-784.688 I-4.75
X-775.188 I4.75
X-775.788 Y-624.8 I-0.6
G1 X-776.388
G18 G3 X-776.988 Z7.6 K0.6
G0 Z41
G17

(dog_hole_005_widen)
G0 X-851.988 Y49
Z41
Z31
G1 Z27 F283.3
Z7.6
G18 G2 X-851.388 Z7 I0.6
G1 X-850.788 F850
G17 G3 X-850.188 Y49.6 J0.6
X-859.688 I-4.75
X-850.188 I4.75
X-850.788 Y50.2 I-0.6
G1 X-851.388
G18 G3 X-851.988 Z7.6 K0.6
G0 Z41
G17

(dog_hole_005_widen)
G0 X-851.988 Y-26
Z41
Z31
G1 Z27 F283.3
Z7.6
G18 G2 X-851.388 Z7 I0.6
G1 X-850.788 F850
G17 G3 X-850.188 Y-25.4 J0.6
X-859.688 I-4.75
X-850.188 I4.75
X-850.788 Y-24.8 I-0.6
G1 X-851.388
G18 G3 X-851.988 Z7.6 K0.6
G0 Z41
G17

(dog_hole_005_widen)
G0 X-851.988 Y-101
Z41
Z31
G1 Z27 F283.3
Z7.6
G18 G2 X-851.388 Z7 I0.6
G1 X-850.788 F850
G17 G3 X-850.188 Y-100.4 J0.6
X-859.688 I-4.75
X-850.188 I4.75
X-850.788 Y-99.8 I-0.6
G1 X-851.388
G18 G3 X-851.988 Z7.6 K0.6
G0 Z41
G17

(dog_hole_005_widen)
G0 X-851.988 Y-176
Z41
Z31
G1 Z27 F283.3
Z7.6
G18 G2 X-851.388 Z7 I0.6
G1 X-850.788 F850
G17 G3 X-850.188 Y-175.4 J0.6
X-859.688 I-4.75
X-850.188 I4.75
X-850.788 Y-174.8 I-0.6
G1 X-851.388
G18 G3 X-851.988 Z7.6 K0.6
G0 Z41
G17

(dog_hole_005_widen)
G0 X-851.988 Y-251
Z41
Z31
G1 Z27 F283.3
Z7.6
G18 G2 X-851.388 Z7 I0.6
G1 X-850.788 F850
G17 G3 X-850.188 Y-250.4 J0.6
X-859.688 I-4.75
X-850.188 I4.75
X-850.788 Y-249.8 I-0.6
G1 X-851.388
G18 G3 X-851.988 Z7.6 K0.6
G0 Z41
G17

(dog_hole_005_widen)
G0 X-851.988 Y-326
Z41
Z31
G1 Z27 F283.3
Z7.6
G18 G2 X-851.388 Z7 I0.6
G1 X-850.788 F850
G17 G3 X-850.188 Y-325.4 J0.6
X-859.688 I-4.75
X-850.188 I4.75
X-850.788 Y-324.8 I-0.6
G1 X-851.388
G18 G3 X-851.988 Z7.6 K0.6
G0 Z41
G17

(dog_hole_005_widen)
G0 X-851.988 Y-401
Z41
Z31
G1 Z27 F283.3
Z7.6
G18 G2 X-851.388 Z7 I0.6
G1 X-850.788 F850
G17 G3 X-850.188 Y-400.4 J0.6
X-859.688 I-4.75
X-850.188 I4.75
X-850.788 Y-399.8 I-0.6
G1 X-851.388
G18 G3 X-851.988 Z7.6 K0.6
G0 Z41
G17

(dog_hole_005_widen)
G0 X-851.988 Y-476
Z41
Z31
G1 Z27 F283.3
Z7.6
G18 G2 X-851.388 Z7 I0.6
G1 X-850.788 F850
G17 G3 X-850.188 Y-475.4 J0.6
X-859.688 I-4.75
X-850.188 I4.75
X-850.788 Y-474.8 I-0.6
G1 X-851.388
G18 G3 X-851.988 Z7.6 K0.6
G0 Z41
G17

(dog_hole_005_widen)
G0 X-851.988 Y-551
Z41
Z31
G1 Z27 F283.3
Z7.6
G18 G2 X-851.388 Z7 I0.6
G1 X-850.788 F850
G17 G3 X-850.188 Y-550.4 J0.6
X-859.688 I-4.75
X-850.188 I4.75
X-850.788 Y-549.8 I-0.6
G1 X-851.388
G18 G3 X-851.988 Z7.6 K0.6
G0 Z41
G17

(dog_hole_005_widen)
G0 X-851.988 Y-626
Z41
Z31
G1 Z27 F283.3
Z7.6
G18 G2 X-851.388 Z7 I0.6
G1 X-850.788 F850
G17 G3 X-850.188 Y-625.4 J0.6
X-859.688 I-4.75
X-850.188 I4.75
X-850.788 Y-624.8 I-0.6
G1 X-851.388
G18 G3 X-851.988 Z7.6 K0.6
G0 Z41
G17

(dog_hole_005_widen)
G0 X-926.988 Y49
Z41
Z31
G1 Z27 F283.3
Z7.6
G18 G2 X-926.388 Z7 I0.6
G1 X-925.788 F850
G17 G3 X-925.188 Y49.6 J0.6
X-934.688 I-4.75
X-925.188 I4.75
X-925.788 Y50.2 I-0.6
G1 X-926.388
G18 G3 X-926.988 Z7.6 K0.6
G0 Z41
G17

(dog_hole_005_widen)
G0 X-926.988 Y-26
Z41
Z31
G1 Z27 F283.3
Z7.6
G18 G2 X-926.388 Z7 I0.6
G1 X-925.788 F850
G17 G3 X-925.188 Y-25.4 J0.6
X-934.688 I-4.75
X-925.188 I4.75
X-925.788 Y-24.8 I-0.6
G1 X-926.388
G18 G3 X-926.988 Z7.6 K0.6
G0 Z41
G17

(dog_hole_005_widen)
G0 X-926.988 Y-101
Z41
Z31
G1 Z27 F283.3
Z7.6
G18 G2 X-926.388 Z7 I0.6
G1 X-925.788 F850
G17 G3 X-925.188 Y-100.4 J0.6
X-934.688 I-4.75
X-925.188 I4.75
X-925.788 Y-99.8 I-0.6
G1 X-926.388
G18 G3 X-926.988 Z7.6 K0.6
G0 Z41
G17

(dog_hole_005_widen)
G0 X-926.988 Y-176
Z41
Z31
G1 Z27 F283.3
Z7.6
G18 G2 X-926.388 Z7 I0.6
G1 X-925.788 F850
G17 G3 X-925.188 Y-175.4 J0.6
X-934.688 I-4.75
X-925.188 I4.75
X-925.788 Y-174.8 I-0.6
G1 X-926.388
G18 G3 X-926.988 Z7.6 K0.6
G0 Z41
G17

(dog_hole_005_widen)
G0 X-926.988 Y-251
Z41
Z31
G1 Z27 F283.3
Z7.6
G18 G2 X-926.388 Z7 I0.6
G1 X-925.788 F850
G17 G3 X-925.188 Y-250.4 J0.6
X-934.688 I-4.75
X-925.188 I4.75
X-925.788 Y-249.8 I-0.6
G1 X-926.388
G18 G3 X-926.988 Z7.6 K0.6
G0 Z41
G17

(dog_hole_005_widen)
G0 X-926.988 Y-326
Z41
Z31
G1 Z27 F283.3
Z7.6
G18 G2 X-926.388 Z7 I0.6
G1 X-925.788 F850
G17 G3 X-925.188 Y-325.4 J0.6
X-934.688 I-4.75
X-925.188 I4.75
X-925.788 Y-324.8 I-0.6
G1 X-926.388
G18 G3 X-926.988 Z7.6 K0.6
G0 Z41
G17

(dog_hole_005_widen)
G0 X-926.988 Y-401
Z41
Z31
G1 Z27 F283.3
Z7.6
G18 G2 X-926.388 Z7 I0.6
G1 X-925.788 F850
G17 G3 X-925.188 Y-400.4 J0.6
X-934.688 I-4.75
X-925.188 I4.75
X-925.788 Y-399.8 I-0.6
G1 X-926.388
G18 G3 X-926.988 Z7.6 K0.6
G0 Z41
G17

(dog_hole_005_widen)
G0 X-926.988 Y-476
Z41
Z31
G1 Z27 F283.3
Z7.6
G18 G2 X-926.388 Z7 I0.6
G1 X-925.788 F850
G17 G3 X-925.188 Y-475.4 J0.6
X-934.688 I-4.75
X-925.188 I4.75
X-925.788 Y-474.8 I-0.6
G1 X-926.388
G18 G3 X-926.988 Z7.6 K0.6
G0 Z41
G17

(dog_hole_005_widen)
G0 X-926.988 Y-551
Z41
Z31
G1 Z27 F283.3
Z7.6
G18 G2 X-926.388 Z7 I0.6
G1 X-925.788 F850
G17 G3 X-925.188 Y-550.4 J0.6
X-934.688 I-4.75
X-925.188 I4.75
X-925.788 Y-549.8 I-0.6
G1 X-926.388
G18 G3 X-926.988 Z7.6 K0.6
G0 Z41
G17

(dog_hole_005_widen)
G0 X-926.988 Y-626
Z41
Z31
G1 Z27 F283.3
Z7.6
G18 G2 X-926.388 Z7 I0.6
G1 X-925.788 F850
G17 G3 X-925.188 Y-625.4 J0.6
X-934.688 I-4.75
X-925.188 I4.75
X-925.788 Y-624.8 I-0.6
G1 X-926.388
G18 G3 X-926.988 Z7.6 K0.6
G0 Z41
G17

(dog_hole_005_widen)
G0 X-1001.988 Y49
Z41
Z31
G1 Z27 F283.3
Z7.6
G18 G2 X-1001.388 Z7 I0.6
G1 X-1000.788 F850
G17 G3 X-1000.188 Y49.6 J0.6
X-1009.688 I-4.75
X-1000.188 I4.75
X-1000.788 Y50.2 I-0.6
G1 X-1001.388
G18 G3 X-1001.988 Z7.6 K0.6
G0 Z41
G17

(dog_hole_005_widen)
G0 X-1001.988 Y-26
Z41
Z31
G1 Z27 F283.3
Z7.6
G18 G2 X-1001.388 Z7 I0.6
G1 X-1000.788 F850
G17 G3 X-1000.188 Y-25.4 J0.6
X-1009.688 I-4.75
X-1000.188 I4.75
X-1000.788 Y-24.8 I-0.6
G1 X-1001.388
G18 G3 X-1001.988 Z7.6 K0.6
G0 Z41
G17

(dog_hole_005_widen)
G0 X-1001.988 Y-101
Z41
Z31
G1 Z27 F283.3
Z7.6
G18 G2 X-1001.388 Z7 I0.6
G1 X-1000.788 F850
G17 G3 X-1000.188 Y-100.4 J0.6
X-1009.688 I-4.75
X-1000.188 I4.75
X-1000.788 Y-99.8 I-0.6
G1 X-1001.388
G18 G3 X-1001.988 Z7.6 K0.6
G0 Z41
G17

(dog_hole_005_widen)
G0 X-1001.988 Y-176
Z41
Z31
G1 Z27 F283.3
Z7.6
G18 G2 X-1001.388 Z7 I0.6
G1 X-1000.788 F850
G17 G3 X-1000.188 Y-175.4 J0.6
X-1009.688 I-4.75
X-1000.188 I4.75
X-1000.788 Y-174.8 I-0.6
G1 X-1001.388
G18 G3 X-1001.988 Z7.6 K0.6
G0 Z41
G17

(dog_hole_005_widen)
G0 X-1001.988 Y-251
Z41
Z31
G1 Z27 F283.3
Z7.6
G18 G2 X-1001.388 Z7 I0.6
G1 X-1000.788 F850
G17 G3 X-1000.188 Y-250.4 J0.6
X-1009.688 I-4.75
X-1000.188 I4.75
X-1000.788 Y-249.8 I-0.6
G1 X-1001.388
G18 G3 X-1001.988 Z7.6 K0.6
G0 Z41
G17

(dog_hole_005_widen)
G0 X-1001.988 Y-326
Z41
Z31
G1 Z27 F283.3
Z7.6
G18 G2 X-1001.388 Z7 I0.6
G1 X-1000.788 F850
G17 G3 X-1000.188 Y-325.4 J0.6
X-1009.688 I-4.75
X-1000.188 I4.75
X-1000.788 Y-324.8 I-0.6
G1 X-1001.388
G18 G3 X-1001.988 Z7.6 K0.6
G0 Z41
G17

(dog_hole_005_widen)
G0 X-1001.988 Y-401
Z41
Z31
G1 Z27 F283.3
Z7.6
G18 G2 X-1001.388 Z7 I0.6
G1 X-1000.788 F850
G17 G3 X-1000.188 Y-400.4 J0.6
X-1009.688 I-4.75
X-1000.188 I4.75
X-1000.788 Y-399.8 I-0.6
G1 X-1001.388
G18 G3 X-1001.988 Z7.6 K0.6
G0 Z41
G17

(dog_hole_005_widen)
G0 X-1001.988 Y-476
Z41
Z31
G1 Z27 F283.3
Z7.6
G18 G2 X-1001.388 Z7 I0.6
G1 X-1000.788 F850
G17 G3 X-1000.188 Y-475.4 J0.6
X-1009.688 I-4.75
X-1000.188 I4.75
X-1000.788 Y-474.8 I-0.6
G1 X-1001.388
G18 G3 X-1001.988 Z7.6 K0.6
G0 Z41
G17

(dog_hole_005_widen)
G0 X-1001.988 Y-551
Z41
Z31
G1 Z27 F283.3
Z7.6
G18 G2 X-1001.388 Z7 I0.6
G1 X-1000.788 F850
G17 G3 X-1000.188 Y-550.4 J0.6
X-1009.688 I-4.75
X-1000.188 I4.75
X-1000.788 Y-549.8 I-0.6
G1 X-1001.388
G18 G3 X-1001.988 Z7.6 K0.6
G0 Z41
G17

(dog_hole_005_widen)
G0 X-1001.988 Y-626
Z41
Z31
G1 Z27 F283.3
Z7.6
G18 G2 X-1001.388 Z7 I0.6
G1 X-1000.788 F850
G17 G3 X-1000.188 Y-625.4 J0.6
X-1009.688 I-4.75
X-1000.188 I4.75
X-1000.788 Y-624.8 I-0.6
G1 X-1001.388
G18 G3 X-1001.988 Z7.6 K0.6
G0 Z41
G17

(dog_hole_005_widen)
G0 X-1076.988 Y49
Z41
Z31
G1 Z27 F283.3
Z7.6
G18 G2 X-1076.388 Z7 I0.6
G1 X-1075.788 F850
G17 G3 X-1075.188 Y49.6 J0.6
X-1084.688 I-4.75
X-1075.188 I4.75
X-1075.788 Y50.2 I-0.6
G1 X-1076.388
G18 G3 X-1076.988 Z7.6 K0.6
G0 Z41
G17

(dog_hole_005_widen)
G0 X-1076.988 Y-26
Z41
Z31
G1 Z27 F283.3
Z7.6
G18 G2 X-1076.388 Z7 I0.6
G1 X-1075.788 F850
G17 G3 X-1075.188 Y-25.4 J0.6
X-1084.688 I-4.75
X-1075.188 I4.75
X-1075.788 Y-24.8 I-0.6
G1 X-1076.388
G18 G3 X-1076.988 Z7.6 K0.6
G0 Z41
G17

(dog_hole_005_widen)
G0 X-1076.988 Y-101
Z41
Z31
G1 Z27 F283.3
Z7.6
G18 G2 X-1076.388 Z7 I0.6
G1 X-1075.788 F850
G17 G3 X-1075.188 Y-100.4 J0.6
X-1084.688 I-4.75
X-1075.188 I4.75
X-1075.788 Y-99.8 I-0.6
G1 X-1076.388
G18 G3 X-1076.988 Z7.6 K0.6
G0 Z41
G17

(dog_hole_005_widen)
G0 X-1076.988 Y-176
Z41
Z31
G1 Z27 F283.3
Z7.6
G18 G2 X-1076.388 Z7 I0.6
G1 X-1075.788 F850
G17 G3 X-1075.188 Y-175.4 J0.6
X-1084.688 I-4.75
X-1075.188 I4.75
X-1075.788 Y-174.8 I-0.6
G1 X-1076.388
G18 G3 X-1076.988 Z7.6 K0.6
G0 Z41
G17

(dog_hole_005_widen)
G0 X-1076.988 Y-251
Z41
Z31
G1 Z27 F283.3
Z7.6
G18 G2 X-1076.388 Z7 I0.6
G1 X-1075.788 F850
G17 G3 X-1075.188 Y-250.4 J0.6
X-1084.688 I-4.75
X-1075.188 I4.75
X-1075.788 Y-249.8 I-0.6
G1 X-1076.388
G18 G3 X-1076.988 Z7.6 K0.6
G0 Z41
G17

(dog_hole_005_widen)
G0 X-1076.988 Y-326
Z41
Z31
G1 Z27 F283.3
Z7.6
G18 G2 X-1076.388 Z7 I0.6
G1 X-1075.788 F850
G17 G3 X-1075.188 Y-325.4 J0.6
X-1084.688 I-4.75
X-1075.188 I4.75
X-1075.788 Y-324.8 I-0.6
G1 X-1076.388
G18 G3 X-1076.988 Z7.6 K0.6
G0 Z41
G17

(dog_hole_005_widen)
G0 X-1076.988 Y-401
Z41
Z31
G1 Z27 F283.3
Z7.6
G18 G2 X-1076.388 Z7 I0.6
G1 X-1075.788 F850
G17 G3 X-1075.188 Y-400.4 J0.6
X-1084.688 I-4.75
X-1075.188 I4.75
X-1075.788 Y-399.8 I-0.6
G1 X-1076.388
G18 G3 X-1076.988 Z7.6 K0.6
G0 Z41
G17

(dog_hole_005_widen)
G0 X-1076.988 Y-476
Z41
Z31
G1 Z27 F283.3
Z7.6
G18 G2 X-1076.388 Z7 I0.6
G1 X-1075.788 F850
G17 G3 X-1075.188 Y-475.4 J0.6
X-1084.688 I-4.75
X-1075.188 I4.75
X-1075.788 Y-474.8 I-0.6
G1 X-1076.388
G18 G3 X-1076.988 Z7.6 K0.6
G0 Z41
G17

(dog_hole_005_widen)
G0 X-1076.988 Y-551
Z41
Z31
G1 Z27 F283.3
Z7.6
G18 G2 X-1076.388 Z7 I0.6
G1 X-1075.788 F850
G17 G3 X-1075.188 Y-550.4 J0.6
X-1084.688 I-4.75
X-1075.188 I4.75
X-1075.788 Y-549.8 I-0.6
G1 X-1076.388
G18 G3 X-1076.988 Z7.6 K0.6
G0 Z41
G17

(dog_hole_005_widen)
G0 X-1076.988 Y-626
Z41
Z31
G1 Z27 F283.3
Z7.6
G18 G2 X-1076.388 Z7 I0.6
G1 X-1075.788 F850
G17 G3 X-1075.188 Y-625.4 J0.6
X-1084.688 I-4.75
X-1075.188 I4.75
X-1075.788 Y-624.8 I-0.6
G1 X-1076.388
G18 G3 X-1076.988 Z7.6 K0.6
G0 Z41
G17

(dog_hole_005_widen)
G0 X-1151.988 Y49
Z41
Z31
G1 Z27 F283.3
Z7.6
G18 G2 X-1151.388 Z7 I0.6
G1 X-1150.788 F850
G17 G3 X-1150.188 Y49.6 J0.6
X-1159.688 I-4.75
X-1150.188 I4.75
X-1150.788 Y50.2 I-0.6
G1 X-1151.388
G18 G3 X-1151.988 Z7.6 K0.6
G0 Z41
G17

(dog_hole_005_widen)
G0 X-1151.988 Y-26
Z41
Z31
G1 Z27 F283.3
Z7.6
G18 G2 X-1151.388 Z7 I0.6
G1 X-1150.788 F850
G17 G3 X-1150.188 Y-25.4 J0.6
X-1159.688 I-4.75
X-1150.188 I4.75
X-1150.788 Y-24.8 I-0.6
G1 X-1151.388
G18 G3 X-1151.988 Z7.6 K0.6
G0 Z41
G17

(dog_hole_005_widen)
G0 X-1151.988 Y-101
Z41
Z31
G1 Z27 F283.3
Z7.6
G18 G2 X-1151.388 Z7 I0.6
G1 X-1150.788 F850
G17 G3 X-1150.188 Y-100.4 J0.6
X-1159.688 I-4.75
X-1150.188 I4.75
X-1150.788 Y-99.8 I-0.6
G1 X-1151.388
G18 G3 X-1151.988 Z7.6 K0.6
G0 Z41
G17

(dog_hole_005_widen)
G0 X-1151.988 Y-176
Z41
Z31
G1 Z27 F283.3
Z7.6
G18 G2 X-1151.388 Z7 I0.6
G1 X-1150.788 F850
G17 G3 X-1150.188 Y-175.4 J0.6
X-1159.688 I-4.75
X-1150.188 I4.75
X-1150.788 Y-174.8 I-0.6
G1 X-1151.388
G18 G3 X-1151.988 Z7.6 K0.6
G0 Z41
G17

(dog_hole_005_widen)
G0 X-1151.988 Y-251
Z41
Z31
G1 Z27 F283.3
Z7.6
G18 G2 X-1151.388 Z7 I0.6
G1 X-1150.788 F850
G17 G3 X-1150.188 Y-250.4 J0.6
X-1159.688 I-4.75
X-1150.188 I4.75
X-1150.788 Y-249.8 I-0.6
G1 X-1151.388
G18 G3 X-1151.988 Z7.6 K0.6
G0 Z41
G17

(dog_hole_005_widen)
G0 X-1151.988 Y-326
Z41
Z31
G1 Z27 F283.3
Z7.6
G18 G2 X-1151.388 Z7 I0.6
G1 X-1150.788 F850
G17 G3 X-1150.188 Y-325.4 J0.6
X-1159.688 I-4.75
X-1150.188 I4.75
X-1150.788 Y-324.8 I-0.6
G1 X-1151.388
G18 G3 X-1151.988 Z7.6 K0.6
G0 Z41
G17

(dog_hole_005_widen)
G0 X-1151.988 Y-401
Z41
Z31
G1 Z27 F283.3
Z7.6
G18 G2 X-1151.388 Z7 I0.6
G1 X-1150.788 F850
G17 G3 X-1150.188 Y-400.4 J0.6
X-1159.688 I-4.75
X-1150.188 I4.75
X-1150.788 Y-399.8 I-0.6
G1 X-1151.388
G18 G3 X-1151.988 Z7.6 K0.6
G0 Z41
G17

(dog_hole_005_widen)
G0 X-1151.988 Y-476
Z41
Z31
G1 Z27 F283.3
Z7.6
G18 G2 X-1151.388 Z7 I0.6
G1 X-1150.788 F850
G17 G3 X-1150.188 Y-475.4 J0.6
X-1159.688 I-4.75
X-1150.188 I4.75
X-1150.788 Y-474.8 I-0.6
G1 X-1151.388
G18 G3 X-1151.988 Z7.6 K0.6
G0 Z41
G17

(dog_hole_005_widen)
G0 X-1151.988 Y-551
Z41
Z31
G1 Z27 F283.3
Z7.6
G18 G2 X-1151.388 Z7 I0.6
G1 X-1150.788 F850
G17 G3 X-1150.188 Y-550.4 J0.6
X-1159.688 I-4.75
X-1150.188 I4.75
X-1150.788 Y-549.8 I-0.6
G1 X-1151.388
G18 G3 X-1151.988 Z7.6 K0.6
G0 Z41
G17

(dog_hole_005_widen)
G0 X-1151.988 Y-626
Z41
Z31
G1 Z27 F283.3
Z7.6
G18 G2 X-1151.388 Z7 I0.6
G1 X-1150.788 F850
G17 G3 X-1150.188 Y-625.4 J0.6
X-1159.688 I-4.75
X-1150.188 I4.75
X-1150.788 Y-624.8 I-0.6
G1 X-1151.388
G18 G3 X-1151.988 Z7.6 K0.6
G0 Z41
G17

(dog_hole_005_widen)
G0 X-1226.988 Y49
Z41
Z31
G1 Z27 F283.3
Z7.6
G18 G2 X-1226.388 Z7 I0.6
G1 X-1225.788 F850
G17 G3 X-1225.188 Y49.6 J0.6
X-1234.688 I-4.75
X-1225.188 I4.75
X-1225.788 Y50.2 I-0.6
G1 X-1226.388
G18 G3 X-1226.988 Z7.6 K0.6
G0 Z41
G17

(dog_hole_005_widen)
G0 X-1226.988 Y-26
Z41
Z31
G1 Z27 F283.3
Z7.6
G18 G2 X-1226.388 Z7 I0.6
G1 X-1225.788 F850
G17 G3 X-1225.188 Y-25.4 J0.6
X-1234.688 I-4.75
X-1225.188 I4.75
X-1225.788 Y-24.8 I-0.6
G1 X-1226.388
G18 G3 X-1226.988 Z7.6 K0.6
G0 Z41
G17

(dog_hole_005_widen)
G0 X-1226.988 Y-101
Z41
Z31
G1 Z27 F283.3
Z7.6
G18 G2 X-1226.388 Z7 I0.6
G1 X-1225.788 F850
G17 G3 X-1225.188 Y-100.4 J0.6
X-1234.688 I-4.75
X-1225.188 I4.75
X-1225.788 Y-99.8 I-0.6
G1 X-1226.388
G18 G3 X-1226.988 Z7.6 K0.6
G0 Z41
G17

(dog_hole_005_widen)
G0 X-1226.988 Y-176
Z41
Z31
G1 Z27 F283.3
Z7.6
G18 G2 X-1226.388 Z7 I0.6
G1 X-1225.788 F850
G17 G3 X-1225.188 Y-175.4 J0.6
X-1234.688 I-4.75
X-1225.188 I4.75
X-1225.788 Y-174.8 I-0.6
G1 X-1226.388
G18 G3 X-1226.988 Z7.6 K0.6
G0 Z41
G17

(dog_hole_005_widen)
G0 X-1226.988 Y-251
Z41
Z31
G1 Z27 F283.3
Z7.6
G18 G2 X-1226.388 Z7 I0.6
G1 X-1225.788 F850
G17 G3 X-1225.188 Y-250.4 J0.6
X-1234.688 I-4.75
X-1225.188 I4.75
X-1225.788 Y-249.8 I-0.6
G1 X-1226.388
G18 G3 X-1226.988 Z7.6 K0.6
G0 Z41
G17

(dog_hole_005_widen)
G0 X-1226.988 Y-326
Z41
Z31
G1 Z27 F283.3
Z7.6
G18 G2 X-1226.388 Z7 I0.6
G1 X-1225.788 F850
G17 G3 X-1225.188 Y-325.4 J0.6
X-1234.688 I-4.75
X-1225.188 I4.75
X-1225.788 Y-324.8 I-0.6
G1 X-1226.388
G18 G3 X-1226.988 Z7.6 K0.6
G0 Z41
G17

(dog_hole_005_widen)
G0 X-1226.988 Y-401
Z41
Z31
G1 Z27 F283.3
Z7.6
G18 G2 X-1226.388 Z7 I0.6
G1 X-1225.788 F850
G17 G3 X-1225.188 Y-400.4 J0.6
X-1234.688 I-4.75
X-1225.188 I4.75
X-1225.788 Y-399.8 I-0.6
G1 X-1226.388
G18 G3 X-1226.988 Z7.6 K0.6
G0 Z41
G17

(dog_hole_005_widen)
G0 X-1226.988 Y-476
Z41
Z31
G1 Z27 F283.3
Z7.6
G18 G2 X-1226.388 Z7 I0.6
G1 X-1225.788 F850
G17 G3 X-1225.188 Y-475.4 J0.6
X-1234.688 I-4.75
X-1225.188 I4.75
X-1225.788 Y-474.8 I-0.6
G1 X-1226.388
G18 G3 X-1226.988 Z7.6 K0.6
G0 Z41
G17

(dog_hole_005_widen)
G0 X-1226.988 Y-551
Z41
Z31
G1 Z27 F283.3
Z7.6
G18 G2 X-1226.388 Z7 I0.6
G1 X-1225.788 F850
G17 G3 X-1225.188 Y-550.4 J0.6
X-1234.688 I-4.75
X-1225.188 I4.75
X-1225.788 Y-549.8 I-0.6
G1 X-1226.388
G18 G3 X-1226.988 Z7.6 K0.6
G0 Z41
G17

(dog_hole_005_widen)
G0 X-1226.988 Y-626
Z41
Z31
G1 Z27 F283.3
Z7.6
G18 G2 X-1226.388 Z7 I0.6
G1 X-1225.788 F850
G17 G3 X-1225.188 Y-625.4 J0.6
X-1234.688 I-4.75
X-1225.188 I4.75
X-1225.788 Y-624.8 I-0.6
G1 X-1226.388
G18 G3 X-1226.988 Z7.6 K0.6
G0 Z41
G17
M30
%
