%
(1001)
(origin bottom left anchor hole stock bottom)
(T1  D=6 CR=0 - ZMIN=7 - flat end mill)
G90 G94
G17
G21

(dog_hole_025_widen 2)
M9
T1 M6
S15000 M3
G54
G0 X48.212 Y49
Z41
Z31
G1 Z27 F283.3
Z7.6
G18 G2 X48.812 Z7 I0.6
G1 X49.412 F850
G17 G3 X50.012 Y49.6 J0.6
X40.112 I-4.95
X50.012 I4.95
X49.412 Y50.2 I-0.6
G1 X48.812
G18 G3 X48.212 Z7.6 K0.6
G0 Z41
G17

(dog_hole_025_widen 2)
G0 X48.212 Y-26
Z41
Z31
G1 Z27 F283.3
Z7.6
G18 G2 X48.812 Z7 I0.6
G1 X49.412 F850
G17 G3 X50.012 Y-25.4 J0.6
X40.112 I-4.95
X50.012 I4.95
X49.412 Y-24.8 I-0.6
G1 X48.812
G18 G3 X48.212 Z7.6 K0.6
G0 Z41
G17

(dog_hole_025_widen 2)
G0 X48.212 Y-101
Z41
Z31
G1 Z27 F283.3
Z7.6
G18 G2 X48.812 Z7 I0.6
G1 X49.412 F850
G17 G3 X50.012 Y-100.4 J0.6
X40.112 I-4.95
X50.012 I4.95
X49.412 Y-99.8 I-0.6
G1 X48.812
G18 G3 X48.212 Z7.6 K0.6
G0 Z41
G17

(dog_hole_025_widen 2)
G0 X48.212 Y-176
Z41
Z31
G1 Z27 F283.3
Z7.6
G18 G2 X48.812 Z7 I0.6
G1 X49.412 F850
G17 G3 X50.012 Y-175.4 J0.6
X40.112 I-4.95
X50.012 I4.95
X49.412 Y-174.8 I-0.6
G1 X48.812
G18 G3 X48.212 Z7.6 K0.6
G0 Z41
G17

(dog_hole_025_widen 2)
G0 X48.212 Y-251
Z41
Z31
G1 Z27 F283.3
Z7.6
G18 G2 X48.812 Z7 I0.6
G1 X49.412 F850
G17 G3 X50.012 Y-250.4 J0.6
X40.112 I-4.95
X50.012 I4.95
X49.412 Y-249.8 I-0.6
G1 X48.812
G18 G3 X48.212 Z7.6 K0.6
G0 Z41
G17

(dog_hole_025_widen 2)
G0 X48.212 Y-326
Z41
Z31
G1 Z27 F283.3
Z7.6
G18 G2 X48.812 Z7 I0.6
G1 X49.412 F850
G17 G3 X50.012 Y-325.4 J0.6
X40.112 I-4.95
X50.012 I4.95
X49.412 Y-324.8 I-0.6
G1 X48.812
G18 G3 X48.212 Z7.6 K0.6
G0 Z41
G17

(dog_hole_025_widen 2)
G0 X48.212 Y-401
Z41
Z31
G1 Z27 F283.3
Z7.6
G18 G2 X48.812 Z7 I0.6
G1 X49.412 F850
G17 G3 X50.012 Y-400.4 J0.6
X40.112 I-4.95
X50.012 I4.95
X49.412 Y-399.8 I-0.6
G1 X48.812
G18 G3 X48.212 Z7.6 K0.6
G0 Z41
G17

(dog_hole_025_widen 2)
G0 X48.212 Y-476
Z41
Z31
G1 Z27 F283.3
Z7.6
G18 G2 X48.812 Z7 I0.6
G1 X49.412 F850
G17 G3 X50.012 Y-475.4 J0.6
X40.112 I-4.95
X50.012 I4.95
X49.412 Y-474.8 I-0.6
G1 X48.812
G18 G3 X48.212 Z7.6 K0.6
G0 Z41
G17

(dog_hole_025_widen 2)
G0 X48.212 Y-551
Z41
Z31
G1 Z27 F283.3
Z7.6
G18 G2 X48.812 Z7 I0.6
G1 X49.412 F850
G17 G3 X50.012 Y-550.4 J0.6
X40.112 I-4.95
X50.012 I4.95
X49.412 Y-549.8 I-0.6
G1 X48.812
G18 G3 X48.212 Z7.6 K0.6
G0 Z41
G17

(dog_hole_025_widen 2)
G0 X48.212 Y-626
Z41
Z31
G1 Z27 F283.3
Z7.6
G18 G2 X48.812 Z7 I0.6
G1 X49.412 F850
G17 G3 X50.012 Y-625.4 J0.6
X40.112 I-4.95
X50.012 I4.95
X49.412 Y-624.8 I-0.6
G1 X48.812
G18 G3 X48.212 Z7.6 K0.6
G0 Z41
G17

(dog_hole_025_widen 2)
G0 X-26.788 Y49
Z41
Z31
G1 Z27 F283.3
Z7.6
G18 G2 X-26.188 Z7 I0.6
G1 X-25.588 F850
G17 G3 X-24.988 Y49.6 J0.6
X-34.888 I-4.95
X-24.988 I4.95
X-25.588 Y50.2 I-0.6
G1 X-26.188
G18 G3 X-26.788 Z7.6 K0.6
G0 Z41
G17

(dog_hole_025_widen 2)
G0 X-26.788 Y-26
Z41
Z31
G1 Z27 F283.3
Z7.6
G18 G2 X-26.188 Z7 I0.6
G1 X-25.588 F850
G17 G3 X-24.988 Y-25.4 J0.6
X-34.888 I-4.95
X-24.988 I4.95
X-25.588 Y-24.8 I-0.6
G1 X-26.188
G18 G3 X-26.788 Z7.6 K0.6
G0 Z41
G17

(dog_hole_025_widen 2)
G0 X-26.788 Y-101
Z41
Z31
G1 Z27 F283.3
Z7.6
G18 G2 X-26.188 Z7 I0.6
G1 X-25.588 F850
G17 G3 X-24.988 Y-100.4 J0.6
X-34.888 I-4.95
X-24.988 I4.95
X-25.588 Y-99.8 I-0.6
G1 X-26.188
G18 G3 X-26.788 Z7.6 K0.6
G0 Z41
G17

(dog_hole_025_widen 2)
G0 X-26.788 Y-176
Z41
Z31
G1 Z27 F283.3
Z7.6
G18 G2 X-26.188 Z7 I0.6
G1 X-25.588 F850
G17 G3 X-24.988 Y-175.4 J0.6
X-34.888 I-4.95
X-24.988 I4.95
X-25.588 Y-174.8 I-0.6
G1 X-26.188
G18 G3 X-26.788 Z7.6 K0.6
G0 Z41
G17

(dog_hole_025_widen 2)
G0 X-26.788 Y-251
Z41
Z31
G1 Z27 F283.3
Z7.6
G18 G2 X-26.188 Z7 I0.6
G1 X-25.588 F850
G17 G3 X-24.988 Y-250.4 J0.6
X-34.888 I-4.95
X-24.988 I4.95
X-25.588 Y-249.8 I-0.6
G1 X-26.188
G18 G3 X-26.788 Z7.6 K0.6
G0 Z41
G17

(dog_hole_025_widen 2)
G0 X-26.788 Y-326
Z41
Z31
G1 Z27 F283.3
Z7.6
G18 G2 X-26.188 Z7 I0.6
G1 X-25.588 F850
G17 G3 X-24.988 Y-325.4 J0.6
X-34.888 I-4.95
X-24.988 I4.95
X-25.588 Y-324.8 I-0.6
G1 X-26.188
G18 G3 X-26.788 Z7.6 K0.6
G0 Z41
G17

(dog_hole_025_widen 2)
G0 X-26.788 Y-401
Z41
Z31
G1 Z27 F283.3
Z7.6
G18 G2 X-26.188 Z7 I0.6
G1 X-25.588 F850
G17 G3 X-24.988 Y-400.4 J0.6
X-34.888 I-4.95
X-24.988 I4.95
X-25.588 Y-399.8 I-0.6
G1 X-26.188
G18 G3 X-26.788 Z7.6 K0.6
G0 Z41
G17

(dog_hole_025_widen 2)
G0 X-26.788 Y-476
Z41
Z31
G1 Z27 F283.3
Z7.6
G18 G2 X-26.188 Z7 I0.6
G1 X-25.588 F850
G17 G3 X-24.988 Y-475.4 J0.6
X-34.888 I-4.95
X-24.988 I4.95
X-25.588 Y-474.8 I-0.6
G1 X-26.188
G18 G3 X-26.788 Z7.6 K0.6
G0 Z41
G17

(dog_hole_025_widen 2)
G0 X-26.788 Y-551
Z41
Z31
G1 Z27 F283.3
Z7.6
G18 G2 X-26.188 Z7 I0.6
G1 X-25.588 F850
G17 G3 X-24.988 Y-550.4 J0.6
X-34.888 I-4.95
X-24.988 I4.95
X-25.588 Y-549.8 I-0.6
G1 X-26.188
G18 G3 X-26.788 Z7.6 K0.6
G0 Z41
G17

(dog_hole_025_widen 2)
G0 X-26.788 Y-626
Z41
Z31
G1 Z27 F283.3
Z7.6
G18 G2 X-26.188 Z7 I0.6
G1 X-25.588 F850
G17 G3 X-24.988 Y-625.4 J0.6
X-34.888 I-4.95
X-24.988 I4.95
X-25.588 Y-624.8 I-0.6
G1 X-26.188
G18 G3 X-26.788 Z7.6 K0.6
G0 Z41
G17

(dog_hole_025_widen 2)
G0 X-101.788 Y49
Z41
Z31
G1 Z27 F283.3
Z7.6
G18 G2 X-101.188 Z7 I0.6
G1 X-100.588 F850
G17 G3 X-99.988 Y49.6 J0.6
X-109.888 I-4.95
X-99.988 I4.95
X-100.588 Y50.2 I-0.6
G1 X-101.188
G18 G3 X-101.788 Z7.6 K0.6
G0 Z41
G17

(dog_hole_025_widen 2)
G0 X-101.788 Y-26
Z41
Z31
G1 Z27 F283.3
Z7.6
G18 G2 X-101.188 Z7 I0.6
G1 X-100.588 F850
G17 G3 X-99.988 Y-25.4 J0.6
X-109.888 I-4.95
X-99.988 I4.95
X-100.588 Y-24.8 I-0.6
G1 X-101.188
G18 G3 X-101.788 Z7.6 K0.6
G0 Z41
G17

(dog_hole_025_widen 2)
G0 X-101.788 Y-101
Z41
Z31
G1 Z27 F283.3
Z7.6
G18 G2 X-101.188 Z7 I0.6
G1 X-100.588 F850
G17 G3 X-99.988 Y-100.4 J0.6
X-109.888 I-4.95
X-99.988 I4.95
X-100.588 Y-99.8 I-0.6
G1 X-101.188
G18 G3 X-101.788 Z7.6 K0.6
G0 Z41
G17

(dog_hole_025_widen 2)
G0 X-101.788 Y-176
Z41
Z31
G1 Z27 F283.3
Z7.6
G18 G2 X-101.188 Z7 I0.6
G1 X-100.588 F850
G17 G3 X-99.988 Y-175.4 J0.6
X-109.888 I-4.95
X-99.988 I4.95
X-100.588 Y-174.8 I-0.6
G1 X-101.188
G18 G3 X-101.788 Z7.6 K0.6
G0 Z41
G17

(dog_hole_025_widen 2)
G0 X-101.788 Y-251
Z41
Z31
G1 Z27 F283.3
Z7.6
G18 G2 X-101.188 Z7 I0.6
G1 X-100.588 F850
G17 G3 X-99.988 Y-250.4 J0.6
X-109.888 I-4.95
X-99.988 I4.95
X-100.588 Y-249.8 I-0.6
G1 X-101.188
G18 G3 X-101.788 Z7.6 K0.6
G0 Z41
G17

(dog_hole_025_widen 2)
G0 X-101.788 Y-326
Z41
Z31
G1 Z27 F283.3
Z7.6
G18 G2 X-101.188 Z7 I0.6
G1 X-100.588 F850
G17 G3 X-99.988 Y-325.4 J0.6
X-109.888 I-4.95
X-99.988 I4.95
X-100.588 Y-324.8 I-0.6
G1 X-101.188
G18 G3 X-101.788 Z7.6 K0.6
G0 Z41
G17

(dog_hole_025_widen 2)
G0 X-101.788 Y-401
Z41
Z31
G1 Z27 F283.3
Z7.6
G18 G2 X-101.188 Z7 I0.6
G1 X-100.588 F850
G17 G3 X-99.988 Y-400.4 J0.6
X-109.888 I-4.95
X-99.988 I4.95
X-100.588 Y-399.8 I-0.6
G1 X-101.188
G18 G3 X-101.788 Z7.6 K0.6
G0 Z41
G17

(dog_hole_025_widen 2)
G0 X-101.788 Y-476
Z41
Z31
G1 Z27 F283.3
Z7.6
G18 G2 X-101.188 Z7 I0.6
G1 X-100.588 F850
G17 G3 X-99.988 Y-475.4 J0.6
X-109.888 I-4.95
X-99.988 I4.95
X-100.588 Y-474.8 I-0.6
G1 X-101.188
G18 G3 X-101.788 Z7.6 K0.6
G0 Z41
G17

(dog_hole_025_widen 2)
G0 X-101.788 Y-551
Z41
Z31
G1 Z27 F283.3
Z7.6
G18 G2 X-101.188 Z7 I0.6
G1 X-100.588 F850
G17 G3 X-99.988 Y-550.4 J0.6
X-109.888 I-4.95
X-99.988 I4.95
X-100.588 Y-549.8 I-0.6
G1 X-101.188
G18 G3 X-101.788 Z7.6 K0.6
G0 Z41
G17

(dog_hole_025_widen 2)
G0 X-101.788 Y-626
Z41
Z31
G1 Z27 F283.3
Z7.6
G18 G2 X-101.188 Z7 I0.6
G1 X-100.588 F850
G17 G3 X-99.988 Y-625.4 J0.6
X-109.888 I-4.95
X-99.988 I4.95
X-100.588 Y-624.8 I-0.6
G1 X-101.188
G18 G3 X-101.788 Z7.6 K0.6
G0 Z41
G17

(dog_hole_025_widen 2)
G0 X-176.788 Y49
Z41
Z31
G1 Z27 F283.3
Z7.6
G18 G2 X-176.188 Z7 I0.6
G1 X-175.588 F850
G17 G3 X-174.988 Y49.6 J0.6
X-184.888 I-4.95
X-174.988 I4.95
X-175.588 Y50.2 I-0.6
G1 X-176.188
G18 G3 X-176.788 Z7.6 K0.6
G0 Z41
G17

(dog_hole_025_widen 2)
G0 X-176.788 Y-26
Z41
Z31
G1 Z27 F283.3
Z7.6
G18 G2 X-176.188 Z7 I0.6
G1 X-175.588 F850
G17 G3 X-174.988 Y-25.4 J0.6
X-184.888 I-4.95
X-174.988 I4.95
X-175.588 Y-24.8 I-0.6
G1 X-176.188
G18 G3 X-176.788 Z7.6 K0.6
G0 Z41
G17

(dog_hole_025_widen 2)
G0 X-176.788 Y-101
Z41
Z31
G1 Z27 F283.3
Z7.6
G18 G2 X-176.188 Z7 I0.6
G1 X-175.588 F850
G17 G3 X-174.988 Y-100.4 J0.6
X-184.888 I-4.95
X-174.988 I4.95
X-175.588 Y-99.8 I-0.6
G1 X-176.188
G18 G3 X-176.788 Z7.6 K0.6
G0 Z41
G17

(dog_hole_025_widen 2)
G0 X-176.788 Y-176
Z41
Z31
G1 Z27 F283.3
Z7.6
G18 G2 X-176.188 Z7 I0.6
G1 X-175.588 F850
G17 G3 X-174.988 Y-175.4 J0.6
X-184.888 I-4.95
X-174.988 I4.95
X-175.588 Y-174.8 I-0.6
G1 X-176.188
G18 G3 X-176.788 Z7.6 K0.6
G0 Z41
G17

(dog_hole_025_widen 2)
G0 X-176.788 Y-251
Z41
Z31
G1 Z27 F283.3
Z7.6
G18 G2 X-176.188 Z7 I0.6
G1 X-175.588 F850
G17 G3 X-174.988 Y-250.4 J0.6
X-184.888 I-4.95
X-174.988 I4.95
X-175.588 Y-249.8 I-0.6
G1 X-176.188
G18 G3 X-176.788 Z7.6 K0.6
G0 Z41
G17

(dog_hole_025_widen 2)
G0 X-176.788 Y-326
Z41
Z31
G1 Z27 F283.3
Z7.6
G18 G2 X-176.188 Z7 I0.6
G1 X-175.588 F850
G17 G3 X-174.988 Y-325.4 J0.6
X-184.888 I-4.95
X-174.988 I4.95
X-175.588 Y-324.8 I-0.6
G1 X-176.188
G18 G3 X-176.788 Z7.6 K0.6
G0 Z41
G17

(dog_hole_025_widen 2)
G0 X-176.788 Y-401
Z41
Z31
G1 Z27 F283.3
Z7.6
G18 G2 X-176.188 Z7 I0.6
G1 X-175.588 F850
G17 G3 X-174.988 Y-400.4 J0.6
X-184.888 I-4.95
X-174.988 I4.95
X-175.588 Y-399.8 I-0.6
G1 X-176.188
G18 G3 X-176.788 Z7.6 K0.6
G0 Z41
G17

(dog_hole_025_widen 2)
G0 X-176.788 Y-476
Z41
Z31
G1 Z27 F283.3
Z7.6
G18 G2 X-176.188 Z7 I0.6
G1 X-175.588 F850
G17 G3 X-174.988 Y-475.4 J0.6
X-184.888 I-4.95
X-174.988 I4.95
X-175.588 Y-474.8 I-0.6
G1 X-176.188
G18 G3 X-176.788 Z7.6 K0.6
G0 Z41
G17

(dog_hole_025_widen 2)
G0 X-176.788 Y-551
Z41
Z31
G1 Z27 F283.3
Z7.6
G18 G2 X-176.188 Z7 I0.6
G1 X-175.588 F850
G17 G3 X-174.988 Y-550.4 J0.6
X-184.888 I-4.95
X-174.988 I4.95
X-175.588 Y-549.8 I-0.6
G1 X-176.188
G18 G3 X-176.788 Z7.6 K0.6
G0 Z41
G17

(dog_hole_025_widen 2)
G0 X-176.788 Y-626
Z41
Z31
G1 Z27 F283.3
Z7.6
G18 G2 X-176.188 Z7 I0.6
G1 X-175.588 F850
G17 G3 X-174.988 Y-625.4 J0.6
X-184.888 I-4.95
X-174.988 I4.95
X-175.588 Y-624.8 I-0.6
G1 X-176.188
G18 G3 X-176.788 Z7.6 K0.6
G0 Z41
G17

(dog_hole_025_widen 2)
G0 X-251.788 Y49
Z41
Z31
G1 Z27 F283.3
Z7.6
G18 G2 X-251.188 Z7 I0.6
G1 X-250.588 F850
G17 G3 X-249.988 Y49.6 J0.6
X-259.888 I-4.95
X-249.988 I4.95
X-250.588 Y50.2 I-0.6
G1 X-251.188
G18 G3 X-251.788 Z7.6 K0.6
G0 Z41
G17

(dog_hole_025_widen 2)
G0 X-251.788 Y-26
Z41
Z31
G1 Z27 F283.3
Z7.6
G18 G2 X-251.188 Z7 I0.6
G1 X-250.588 F850
G17 G3 X-249.988 Y-25.4 J0.6
X-259.888 I-4.95
X-249.988 I4.95
X-250.588 Y-24.8 I-0.6
G1 X-251.188
G18 G3 X-251.788 Z7.6 K0.6
G0 Z41
G17

(dog_hole_025_widen 2)
G0 X-251.788 Y-101
Z41
Z31
G1 Z27 F283.3
Z7.6
G18 G2 X-251.188 Z7 I0.6
G1 X-250.588 F850
G17 G3 X-249.988 Y-100.4 J0.6
X-259.888 I-4.95
X-249.988 I4.95
X-250.588 Y-99.8 I-0.6
G1 X-251.188
G18 G3 X-251.788 Z7.6 K0.6
G0 Z41
G17

(dog_hole_025_widen 2)
G0 X-251.788 Y-176
Z41
Z31
G1 Z27 F283.3
Z7.6
G18 G2 X-251.188 Z7 I0.6
G1 X-250.588 F850
G17 G3 X-249.988 Y-175.4 J0.6
X-259.888 I-4.95
X-249.988 I4.95
X-250.588 Y-174.8 I-0.6
G1 X-251.188
G18 G3 X-251.788 Z7.6 K0.6
G0 Z41
G17

(dog_hole_025_widen 2)
G0 X-251.788 Y-251
Z41
Z31
G1 Z27 F283.3
Z7.6
G18 G2 X-251.188 Z7 I0.6
G1 X-250.588 F850
G17 G3 X-249.988 Y-250.4 J0.6
X-259.888 I-4.95
X-249.988 I4.95
X-250.588 Y-249.8 I-0.6
G1 X-251.188
G18 G3 X-251.788 Z7.6 K0.6
G0 Z41
G17

(dog_hole_025_widen 2)
G0 X-251.788 Y-326
Z41
Z31
G1 Z27 F283.3
Z7.6
G18 G2 X-251.188 Z7 I0.6
G1 X-250.588 F850
G17 G3 X-249.988 Y-325.4 J0.6
X-259.888 I-4.95
X-249.988 I4.95
X-250.588 Y-324.8 I-0.6
G1 X-251.188
G18 G3 X-251.788 Z7.6 K0.6
G0 Z41
G17

(dog_hole_025_widen 2)
G0 X-251.788 Y-401
Z41
Z31
G1 Z27 F283.3
Z7.6
G18 G2 X-251.188 Z7 I0.6
G1 X-250.588 F850
G17 G3 X-249.988 Y-400.4 J0.6
X-259.888 I-4.95
X-249.988 I4.95
X-250.588 Y-399.8 I-0.6
G1 X-251.188
G18 G3 X-251.788 Z7.6 K0.6
G0 Z41
G17

(dog_hole_025_widen 2)
G0 X-251.788 Y-476
Z41
Z31
G1 Z27 F283.3
Z7.6
G18 G2 X-251.188 Z7 I0.6
G1 X-250.588 F850
G17 G3 X-249.988 Y-475.4 J0.6
X-259.888 I-4.95
X-249.988 I4.95
X-250.588 Y-474.8 I-0.6
G1 X-251.188
G18 G3 X-251.788 Z7.6 K0.6
G0 Z41
G17

(dog_hole_025_widen 2)
G0 X-251.788 Y-551
Z41
Z31
G1 Z27 F283.3
Z7.6
G18 G2 X-251.188 Z7 I0.6
G1 X-250.588 F850
G17 G3 X-249.988 Y-550.4 J0.6
X-259.888 I-4.95
X-249.988 I4.95
X-250.588 Y-549.8 I-0.6
G1 X-251.188
G18 G3 X-251.788 Z7.6 K0.6
G0 Z41
G17

(dog_hole_025_widen 2)
G0 X-251.788 Y-626
Z41
Z31
G1 Z27 F283.3
Z7.6
G18 G2 X-251.188 Z7 I0.6
G1 X-250.588 F850
G17 G3 X-249.988 Y-625.4 J0.6
X-259.888 I-4.95
X-249.988 I4.95
X-250.588 Y-624.8 I-0.6
G1 X-251.188
G18 G3 X-251.788 Z7.6 K0.6
G0 Z41
G17

(dog_hole_025_widen 2)
G0 X-326.788 Y49
Z41
Z31
G1 Z27 F283.3
Z7.6
G18 G2 X-326.188 Z7 I0.6
G1 X-325.588 F850
G17 G3 X-324.988 Y49.6 J0.6
X-334.888 I-4.95
X-324.988 I4.95
X-325.588 Y50.2 I-0.6
G1 X-326.188
G18 G3 X-326.788 Z7.6 K0.6
G0 Z41
G17

(dog_hole_025_widen 2)
G0 X-326.788 Y-26
Z41
Z31
G1 Z27 F283.3
Z7.6
G18 G2 X-326.188 Z7 I0.6
G1 X-325.588 F850
G17 G3 X-324.988 Y-25.4 J0.6
X-334.888 I-4.95
X-324.988 I4.95
X-325.588 Y-24.8 I-0.6
G1 X-326.188
G18 G3 X-326.788 Z7.6 K0.6
G0 Z41
G17

(dog_hole_025_widen 2)
G0 X-326.788 Y-101
Z41
Z31
G1 Z27 F283.3
Z7.6
G18 G2 X-326.188 Z7 I0.6
G1 X-325.588 F850
G17 G3 X-324.988 Y-100.4 J0.6
X-334.888 I-4.95
X-324.988 I4.95
X-325.588 Y-99.8 I-0.6
G1 X-326.188
G18 G3 X-326.788 Z7.6 K0.6
G0 Z41
G17

(dog_hole_025_widen 2)
G0 X-326.788 Y-176
Z41
Z31
G1 Z27 F283.3
Z7.6
G18 G2 X-326.188 Z7 I0.6
G1 X-325.588 F850
G17 G3 X-324.988 Y-175.4 J0.6
X-334.888 I-4.95
X-324.988 I4.95
X-325.588 Y-174.8 I-0.6
G1 X-326.188
G18 G3 X-326.788 Z7.6 K0.6
G0 Z41
G17

(dog_hole_025_widen 2)
G0 X-326.788 Y-251
Z41
Z31
G1 Z27 F283.3
Z7.6
G18 G2 X-326.188 Z7 I0.6
G1 X-325.588 F850
G17 G3 X-324.988 Y-250.4 J0.6
X-334.888 I-4.95
X-324.988 I4.95
X-325.588 Y-249.8 I-0.6
G1 X-326.188
G18 G3 X-326.788 Z7.6 K0.6
G0 Z41
G17

(dog_hole_025_widen 2)
G0 X-326.788 Y-326
Z41
Z31
G1 Z27 F283.3
Z7.6
G18 G2 X-326.188 Z7 I0.6
G1 X-325.588 F850
G17 G3 X-324.988 Y-325.4 J0.6
X-334.888 I-4.95
X-324.988 I4.95
X-325.588 Y-324.8 I-0.6
G1 X-326.188
G18 G3 X-326.788 Z7.6 K0.6
G0 Z41
G17

(dog_hole_025_widen 2)
G0 X-326.788 Y-401
Z41
Z31
G1 Z27 F283.3
Z7.6
G18 G2 X-326.188 Z7 I0.6
G1 X-325.588 F850
G17 G3 X-324.988 Y-400.4 J0.6
X-334.888 I-4.95
X-324.988 I4.95
X-325.588 Y-399.8 I-0.6
G1 X-326.188
G18 G3 X-326.788 Z7.6 K0.6
G0 Z41
G17

(dog_hole_025_widen 2)
G0 X-326.788 Y-476
Z41
Z31
G1 Z27 F283.3
Z7.6
G18 G2 X-326.188 Z7 I0.6
G1 X-325.588 F850
G17 G3 X-324.988 Y-475.4 J0.6
X-334.888 I-4.95
X-324.988 I4.95
X-325.588 Y-474.8 I-0.6
G1 X-326.188
G18 G3 X-326.788 Z7.6 K0.6
G0 Z41
G17

(dog_hole_025_widen 2)
G0 X-326.788 Y-551
Z41
Z31
G1 Z27 F283.3
Z7.6
G18 G2 X-326.188 Z7 I0.6
G1 X-325.588 F850
G17 G3 X-324.988 Y-550.4 J0.6
X-334.888 I-4.95
X-324.988 I4.95
X-325.588 Y-549.8 I-0.6
G1 X-326.188
G18 G3 X-326.788 Z7.6 K0.6
G0 Z41
G17

(dog_hole_025_widen 2)
G0 X-326.788 Y-626
Z41
Z31
G1 Z27 F283.3
Z7.6
G18 G2 X-326.188 Z7 I0.6
G1 X-325.588 F850
G17 G3 X-324.988 Y-625.4 J0.6
X-334.888 I-4.95
X-324.988 I4.95
X-325.588 Y-624.8 I-0.6
G1 X-326.188
G18 G3 X-326.788 Z7.6 K0.6
G0 Z41
G17

(dog_hole_025_widen 2)
G0 X-401.788 Y49
Z41
Z31
G1 Z27 F283.3
Z7.6
G18 G2 X-401.188 Z7 I0.6
G1 X-400.588 F850
G17 G3 X-399.988 Y49.6 J0.6
X-409.888 I-4.95
X-399.988 I4.95
X-400.588 Y50.2 I-0.6
G1 X-401.188
G18 G3 X-401.788 Z7.6 K0.6
G0 Z41
G17

(dog_hole_025_widen 2)
G0 X-401.788 Y-26
Z41
Z31
G1 Z27 F283.3
Z7.6
G18 G2 X-401.188 Z7 I0.6
G1 X-400.588 F850
G17 G3 X-399.988 Y-25.4 J0.6
X-409.888 I-4.95
X-399.988 I4.95
X-400.588 Y-24.8 I-0.6
G1 X-401.188
G18 G3 X-401.788 Z7.6 K0.6
G0 Z41
G17

(dog_hole_025_widen 2)
G0 X-401.788 Y-101
Z41
Z31
G1 Z27 F283.3
Z7.6
G18 G2 X-401.188 Z7 I0.6
G1 X-400.588 F850
G17 G3 X-399.988 Y-100.4 J0.6
X-409.888 I-4.95
X-399.988 I4.95
X-400.588 Y-99.8 I-0.6
G1 X-401.188
G18 G3 X-401.788 Z7.6 K0.6
G0 Z41
G17

(dog_hole_025_widen 2)
G0 X-401.788 Y-176
Z41
Z31
G1 Z27 F283.3
Z7.6
G18 G2 X-401.188 Z7 I0.6
G1 X-400.588 F850
G17 G3 X-399.988 Y-175.4 J0.6
X-409.888 I-4.95
X-399.988 I4.95
X-400.588 Y-174.8 I-0.6
G1 X-401.188
G18 G3 X-401.788 Z7.6 K0.6
G0 Z41
G17

(dog_hole_025_widen 2)
G0 X-401.788 Y-251
Z41
Z31
G1 Z27 F283.3
Z7.6
G18 G2 X-401.188 Z7 I0.6
G1 X-400.588 F850
G17 G3 X-399.988 Y-250.4 J0.6
X-409.888 I-4.95
X-399.988 I4.95
X-400.588 Y-249.8 I-0.6
G1 X-401.188
G18 G3 X-401.788 Z7.6 K0.6
G0 Z41
G17

(dog_hole_025_widen 2)
G0 X-401.788 Y-326
Z41
Z31
G1 Z27 F283.3
Z7.6
G18 G2 X-401.188 Z7 I0.6
G1 X-400.588 F850
G17 G3 X-399.988 Y-325.4 J0.6
X-409.888 I-4.95
X-399.988 I4.95
X-400.588 Y-324.8 I-0.6
G1 X-401.188
G18 G3 X-401.788 Z7.6 K0.6
G0 Z41
G17

(dog_hole_025_widen 2)
G0 X-401.788 Y-401
Z41
Z31
G1 Z27 F283.3
Z7.6
G18 G2 X-401.188 Z7 I0.6
G1 X-400.588 F850
G17 G3 X-399.988 Y-400.4 J0.6
X-409.888 I-4.95
X-399.988 I4.95
X-400.588 Y-399.8 I-0.6
G1 X-401.188
G18 G3 X-401.788 Z7.6 K0.6
G0 Z41
G17

(dog_hole_025_widen 2)
G0 X-401.788 Y-476
Z41
Z31
G1 Z27 F283.3
Z7.6
G18 G2 X-401.188 Z7 I0.6
G1 X-400.588 F850
G17 G3 X-399.988 Y-475.4 J0.6
X-409.888 I-4.95
X-399.988 I4.95
X-400.588 Y-474.8 I-0.6
G1 X-401.188
G18 G3 X-401.788 Z7.6 K0.6
G0 Z41
G17

(dog_hole_025_widen 2)
G0 X-401.788 Y-551
Z41
Z31
G1 Z27 F283.3
Z7.6
G18 G2 X-401.188 Z7 I0.6
G1 X-400.588 F850
G17 G3 X-399.988 Y-550.4 J0.6
X-409.888 I-4.95
X-399.988 I4.95
X-400.588 Y-549.8 I-0.6
G1 X-401.188
G18 G3 X-401.788 Z7.6 K0.6
G0 Z41
G17

(dog_hole_025_widen 2)
G0 X-401.788 Y-626
Z41
Z31
G1 Z27 F283.3
Z7.6
G18 G2 X-401.188 Z7 I0.6
G1 X-400.588 F850
G17 G3 X-399.988 Y-625.4 J0.6
X-409.888 I-4.95
X-399.988 I4.95
X-400.588 Y-624.8 I-0.6
G1 X-401.188
G18 G3 X-401.788 Z7.6 K0.6
G0 Z41
G17

(dog_hole_025_widen 2)
G0 X-476.788 Y49
Z41
Z31
G1 Z27 F283.3
Z7.6
G18 G2 X-476.188 Z7 I0.6
G1 X-475.588 F850
G17 G3 X-474.988 Y49.6 J0.6
X-484.888 I-4.95
X-474.988 I4.95
X-475.588 Y50.2 I-0.6
G1 X-476.188
G18 G3 X-476.788 Z7.6 K0.6
G0 Z41
G17

(dog_hole_025_widen 2)
G0 X-476.788 Y-26
Z41
Z31
G1 Z27 F283.3
Z7.6
G18 G2 X-476.188 Z7 I0.6
G1 X-475.588 F850
G17 G3 X-474.988 Y-25.4 J0.6
X-484.888 I-4.95
X-474.988 I4.95
X-475.588 Y-24.8 I-0.6
G1 X-476.188
G18 G3 X-476.788 Z7.6 K0.6
G0 Z41
G17

(dog_hole_025_widen 2)
G0 X-476.788 Y-101
Z41
Z31
G1 Z27 F283.3
Z7.6
G18 G2 X-476.188 Z7 I0.6
G1 X-475.588 F850
G17 G3 X-474.988 Y-100.4 J0.6
X-484.888 I-4.95
X-474.988 I4.95
X-475.588 Y-99.8 I-0.6
G1 X-476.188
G18 G3 X-476.788 Z7.6 K0.6
G0 Z41
G17

(dog_hole_025_widen 2)
G0 X-476.788 Y-176
Z41
Z31
G1 Z27 F283.3
Z7.6
G18 G2 X-476.188 Z7 I0.6
G1 X-475.588 F850
G17 G3 X-474.988 Y-175.4 J0.6
X-484.888 I-4.95
X-474.988 I4.95
X-475.588 Y-174.8 I-0.6
G1 X-476.188
G18 G3 X-476.788 Z7.6 K0.6
G0 Z41
G17

(dog_hole_025_widen 2)
G0 X-476.788 Y-251
Z41
Z31
G1 Z27 F283.3
Z7.6
G18 G2 X-476.188 Z7 I0.6
G1 X-475.588 F850
G17 G3 X-474.988 Y-250.4 J0.6
X-484.888 I-4.95
X-474.988 I4.95
X-475.588 Y-249.8 I-0.6
G1 X-476.188
G18 G3 X-476.788 Z7.6 K0.6
G0 Z41
G17

(dog_hole_025_widen 2)
G0 X-476.788 Y-326
Z41
Z31
G1 Z27 F283.3
Z7.6
G18 G2 X-476.188 Z7 I0.6
G1 X-475.588 F850
G17 G3 X-474.988 Y-325.4 J0.6
X-484.888 I-4.95
X-474.988 I4.95
X-475.588 Y-324.8 I-0.6
G1 X-476.188
G18 G3 X-476.788 Z7.6 K0.6
G0 Z41
G17

(dog_hole_025_widen 2)
G0 X-476.788 Y-401
Z41
Z31
G1 Z27 F283.3
Z7.6
G18 G2 X-476.188 Z7 I0.6
G1 X-475.588 F850
G17 G3 X-474.988 Y-400.4 J0.6
X-484.888 I-4.95
X-474.988 I4.95
X-475.588 Y-399.8 I-0.6
G1 X-476.188
G18 G3 X-476.788 Z7.6 K0.6
G0 Z41
G17

(dog_hole_025_widen 2)
G0 X-476.788 Y-476
Z41
Z31
G1 Z27 F283.3
Z7.6
G18 G2 X-476.188 Z7 I0.6
G1 X-475.588 F850
G17 G3 X-474.988 Y-475.4 J0.6
X-484.888 I-4.95
X-474.988 I4.95
X-475.588 Y-474.8 I-0.6
G1 X-476.188
G18 G3 X-476.788 Z7.6 K0.6
G0 Z41
G17

(dog_hole_025_widen 2)
G0 X-476.788 Y-551
Z41
Z31
G1 Z27 F283.3
Z7.6
G18 G2 X-476.188 Z7 I0.6
G1 X-475.588 F850
G17 G3 X-474.988 Y-550.4 J0.6
X-484.888 I-4.95
X-474.988 I4.95
X-475.588 Y-549.8 I-0.6
G1 X-476.188
G18 G3 X-476.788 Z7.6 K0.6
G0 Z41
G17

(dog_hole_025_widen 2)
G0 X-476.788 Y-626
Z41
Z31
G1 Z27 F283.3
Z7.6
G18 G2 X-476.188 Z7 I0.6
G1 X-475.588 F850
G17 G3 X-474.988 Y-625.4 J0.6
X-484.888 I-4.95
X-474.988 I4.95
X-475.588 Y-624.8 I-0.6
G1 X-476.188
G18 G3 X-476.788 Z7.6 K0.6
G0 Z41
G17

(dog_hole_025_widen 2)
G0 X-551.788 Y49
Z41
Z31
G1 Z27 F283.3
Z7.6
G18 G2 X-551.188 Z7 I0.6
G1 X-550.588 F850
G17 G3 X-549.988 Y49.6 J0.6
X-559.888 I-4.95
X-549.988 I4.95
X-550.588 Y50.2 I-0.6
G1 X-551.188
G18 G3 X-551.788 Z7.6 K0.6
G0 Z41
G17

(dog_hole_025_widen 2)
G0 X-551.788 Y-26
Z41
Z31
G1 Z27 F283.3
Z7.6
G18 G2 X-551.188 Z7 I0.6
G1 X-550.588 F850
G17 G3 X-549.988 Y-25.4 J0.6
X-559.888 I-4.95
X-549.988 I4.95
X-550.588 Y-24.8 I-0.6
G1 X-551.188
G18 G3 X-551.788 Z7.6 K0.6
G0 Z41
G17

(dog_hole_025_widen 2)
G0 X-551.788 Y-101
Z41
Z31
G1 Z27 F283.3
Z7.6
G18 G2 X-551.188 Z7 I0.6
G1 X-550.588 F850
G17 G3 X-549.988 Y-100.4 J0.6
X-559.888 I-4.95
X-549.988 I4.95
X-550.588 Y-99.8 I-0.6
G1 X-551.188
G18 G3 X-551.788 Z7.6 K0.6
G0 Z41
G17

(dog_hole_025_widen 2)
G0 X-551.788 Y-176
Z41
Z31
G1 Z27 F283.3
Z7.6
G18 G2 X-551.188 Z7 I0.6
G1 X-550.588 F850
G17 G3 X-549.988 Y-175.4 J0.6
X-559.888 I-4.95
X-549.988 I4.95
X-550.588 Y-174.8 I-0.6
G1 X-551.188
G18 G3 X-551.788 Z7.6 K0.6
G0 Z41
G17

(dog_hole_025_widen 2)
G0 X-551.788 Y-251
Z41
Z31
G1 Z27 F283.3
Z7.6
G18 G2 X-551.188 Z7 I0.6
G1 X-550.588 F850
G17 G3 X-549.988 Y-250.4 J0.6
X-559.888 I-4.95
X-549.988 I4.95
X-550.588 Y-249.8 I-0.6
G1 X-551.188
G18 G3 X-551.788 Z7.6 K0.6
G0 Z41
G17

(dog_hole_025_widen 2)
G0 X-551.788 Y-326
Z41
Z31
G1 Z27 F283.3
Z7.6
G18 G2 X-551.188 Z7 I0.6
G1 X-550.588 F850
G17 G3 X-549.988 Y-325.4 J0.6
X-559.888 I-4.95
X-549.988 I4.95
X-550.588 Y-324.8 I-0.6
G1 X-551.188
G18 G3 X-551.788 Z7.6 K0.6
G0 Z41
G17

(dog_hole_025_widen 2)
G0 X-551.788 Y-401
Z41
Z31
G1 Z27 F283.3
Z7.6
G18 G2 X-551.188 Z7 I0.6
G1 X-550.588 F850
G17 G3 X-549.988 Y-400.4 J0.6
X-559.888 I-4.95
X-549.988 I4.95
X-550.588 Y-399.8 I-0.6
G1 X-551.188
G18 G3 X-551.788 Z7.6 K0.6
G0 Z41
G17

(dog_hole_025_widen 2)
G0 X-551.788 Y-476
Z41
Z31
G1 Z27 F283.3
Z7.6
G18 G2 X-551.188 Z7 I0.6
G1 X-550.588 F850
G17 G3 X-549.988 Y-475.4 J0.6
X-559.888 I-4.95
X-549.988 I4.95
X-550.588 Y-474.8 I-0.6
G1 X-551.188
G18 G3 X-551.788 Z7.6 K0.6
G0 Z41
G17

(dog_hole_025_widen 2)
G0 X-551.788 Y-551
Z41
Z31
G1 Z27 F283.3
Z7.6
G18 G2 X-551.188 Z7 I0.6
G1 X-550.588 F850
G17 G3 X-549.988 Y-550.4 J0.6
X-559.888 I-4.95
X-549.988 I4.95
X-550.588 Y-549.8 I-0.6
G1 X-551.188
G18 G3 X-551.788 Z7.6 K0.6
G0 Z41
G17

(dog_hole_025_widen 2)
G0 X-551.788 Y-626
Z41
Z31
G1 Z27 F283.3
Z7.6
G18 G2 X-551.188 Z7 I0.6
G1 X-550.588 F850
G17 G3 X-549.988 Y-625.4 J0.6
X-559.888 I-4.95
X-549.988 I4.95
X-550.588 Y-624.8 I-0.6
G1 X-551.188
G18 G3 X-551.788 Z7.6 K0.6
G0 Z41
G17

(dog_hole_025_widen 2)
G0 X-626.788 Y49
Z41
Z31
G1 Z27 F283.3
Z7.6
G18 G2 X-626.188 Z7 I0.6
G1 X-625.588 F850
G17 G3 X-624.988 Y49.6 J0.6
X-634.888 I-4.95
X-624.988 I4.95
X-625.588 Y50.2 I-0.6
G1 X-626.188
G18 G3 X-626.788 Z7.6 K0.6
G0 Z41
G17

(dog_hole_025_widen 2)
G0 X-626.788 Y-26
Z41
Z31
G1 Z27 F283.3
Z7.6
G18 G2 X-626.188 Z7 I0.6
G1 X-625.588 F850
G17 G3 X-624.988 Y-25.4 J0.6
X-634.888 I-4.95
X-624.988 I4.95
X-625.588 Y-24.8 I-0.6
G1 X-626.188
G18 G3 X-626.788 Z7.6 K0.6
G0 Z41
G17

(dog_hole_025_widen 2)
G0 X-626.788 Y-101
Z41
Z31
G1 Z27 F283.3
Z7.6
G18 G2 X-626.188 Z7 I0.6
G1 X-625.588 F850
G17 G3 X-624.988 Y-100.4 J0.6
X-634.888 I-4.95
X-624.988 I4.95
X-625.588 Y-99.8 I-0.6
G1 X-626.188
G18 G3 X-626.788 Z7.6 K0.6
G0 Z41
G17

(dog_hole_025_widen 2)
G0 X-626.788 Y-176
Z41
Z31
G1 Z27 F283.3
Z7.6
G18 G2 X-626.188 Z7 I0.6
G1 X-625.588 F850
G17 G3 X-624.988 Y-175.4 J0.6
X-634.888 I-4.95
X-624.988 I4.95
X-625.588 Y-174.8 I-0.6
G1 X-626.188
G18 G3 X-626.788 Z7.6 K0.6
G0 Z41
G17

(dog_hole_025_widen 2)
G0 X-626.788 Y-251
Z41
Z31
G1 Z27 F283.3
Z7.6
G18 G2 X-626.188 Z7 I0.6
G1 X-625.588 F850
G17 G3 X-624.988 Y-250.4 J0.6
X-634.888 I-4.95
X-624.988 I4.95
X-625.588 Y-249.8 I-0.6
G1 X-626.188
G18 G3 X-626.788 Z7.6 K0.6
G0 Z41
G17

(dog_hole_025_widen 2)
G0 X-626.788 Y-326
Z41
Z31
G1 Z27 F283.3
Z7.6
G18 G2 X-626.188 Z7 I0.6
G1 X-625.588 F850
G17 G3 X-624.988 Y-325.4 J0.6
X-634.888 I-4.95
X-624.988 I4.95
X-625.588 Y-324.8 I-0.6
G1 X-626.188
G18 G3 X-626.788 Z7.6 K0.6
G0 Z41
G17

(dog_hole_025_widen 2)
G0 X-626.788 Y-401
Z41
Z31
G1 Z27 F283.3
Z7.6
G18 G2 X-626.188 Z7 I0.6
G1 X-625.588 F850
G17 G3 X-624.988 Y-400.4 J0.6
X-634.888 I-4.95
X-624.988 I4.95
X-625.588 Y-399.8 I-0.6
G1 X-626.188
G18 G3 X-626.788 Z7.6 K0.6
G0 Z41
G17

(dog_hole_025_widen 2)
G0 X-626.788 Y-476
Z41
Z31
G1 Z27 F283.3
Z7.6
G18 G2 X-626.188 Z7 I0.6
G1 X-625.588 F850
G17 G3 X-624.988 Y-475.4 J0.6
X-634.888 I-4.95
X-624.988 I4.95
X-625.588 Y-474.8 I-0.6
G1 X-626.188
G18 G3 X-626.788 Z7.6 K0.6
G0 Z41
G17

(dog_hole_025_widen 2)
G0 X-626.788 Y-551
Z41
Z31
G1 Z27 F283.3
Z7.6
G18 G2 X-626.188 Z7 I0.6
G1 X-625.588 F850
G17 G3 X-624.988 Y-550.4 J0.6
X-634.888 I-4.95
X-624.988 I4.95
X-625.588 Y-549.8 I-0.6
G1 X-626.188
G18 G3 X-626.788 Z7.6 K0.6
G0 Z41
G17

(dog_hole_025_widen 2)
G0 X-626.788 Y-626
Z41
Z31
G1 Z27 F283.3
Z7.6
G18 G2 X-626.188 Z7 I0.6
G1 X-625.588 F850
G17 G3 X-624.988 Y-625.4 J0.6
X-634.888 I-4.95
X-624.988 I4.95
X-625.588 Y-624.8 I-0.6
G1 X-626.188
G18 G3 X-626.788 Z7.6 K0.6
G0 Z41
G17

(dog_hole_025_widen 2)
G0 X-701.788 Y49
Z41
Z31
G1 Z27 F283.3
Z7.6
G18 G2 X-701.188 Z7 I0.6
G1 X-700.588 F850
G17 G3 X-699.988 Y49.6 J0.6
X-709.888 I-4.95
X-699.988 I4.95
X-700.588 Y50.2 I-0.6
G1 X-701.188
G18 G3 X-701.788 Z7.6 K0.6
G0 Z41
G17

(dog_hole_025_widen 2)
G0 X-701.788 Y-26
Z41
Z31
G1 Z27 F283.3
Z7.6
G18 G2 X-701.188 Z7 I0.6
G1 X-700.588 F850
G17 G3 X-699.988 Y-25.4 J0.6
X-709.888 I-4.95
X-699.988 I4.95
X-700.588 Y-24.8 I-0.6
G1 X-701.188
G18 G3 X-701.788 Z7.6 K0.6
G0 Z41
G17

(dog_hole_025_widen 2)
G0 X-701.788 Y-101
Z41
Z31
G1 Z27 F283.3
Z7.6
G18 G2 X-701.188 Z7 I0.6
G1 X-700.588 F850
G17 G3 X-699.988 Y-100.4 J0.6
X-709.888 I-4.95
X-699.988 I4.95
X-700.588 Y-99.8 I-0.6
G1 X-701.188
G18 G3 X-701.788 Z7.6 K0.6
G0 Z41
G17

(dog_hole_025_widen 2)
G0 X-701.788 Y-176
Z41
Z31
G1 Z27 F283.3
Z7.6
G18 G2 X-701.188 Z7 I0.6
G1 X-700.588 F850
G17 G3 X-699.988 Y-175.4 J0.6
X-709.888 I-4.95
X-699.988 I4.95
X-700.588 Y-174.8 I-0.6
G1 X-701.188
G18 G3 X-701.788 Z7.6 K0.6
G0 Z41
G17

(dog_hole_025_widen 2)
G0 X-701.788 Y-251
Z41
Z31
G1 Z27 F283.3
Z7.6
G18 G2 X-701.188 Z7 I0.6
G1 X-700.588 F850
G17 G3 X-699.988 Y-250.4 J0.6
X-709.888 I-4.95
X-699.988 I4.95
X-700.588 Y-249.8 I-0.6
G1 X-701.188
G18 G3 X-701.788 Z7.6 K0.6
G0 Z41
G17

(dog_hole_025_widen 2)
G0 X-701.788 Y-326
Z41
Z31
G1 Z27 F283.3
Z7.6
G18 G2 X-701.188 Z7 I0.6
G1 X-700.588 F850
G17 G3 X-699.988 Y-325.4 J0.6
X-709.888 I-4.95
X-699.988 I4.95
X-700.588 Y-324.8 I-0.6
G1 X-701.188
G18 G3 X-701.788 Z7.6 K0.6
G0 Z41
G17

(dog_hole_025_widen 2)
G0 X-701.788 Y-401
Z41
Z31
G1 Z27 F283.3
Z7.6
G18 G2 X-701.188 Z7 I0.6
G1 X-700.588 F850
G17 G3 X-699.988 Y-400.4 J0.6
X-709.888 I-4.95
X-699.988 I4.95
X-700.588 Y-399.8 I-0.6
G1 X-701.188
G18 G3 X-701.788 Z7.6 K0.6
G0 Z41
G17

(dog_hole_025_widen 2)
G0 X-701.788 Y-476
Z41
Z31
G1 Z27 F283.3
Z7.6
G18 G2 X-701.188 Z7 I0.6
G1 X-700.588 F850
G17 G3 X-699.988 Y-475.4 J0.6
X-709.888 I-4.95
X-699.988 I4.95
X-700.588 Y-474.8 I-0.6
G1 X-701.188
G18 G3 X-701.788 Z7.6 K0.6
G0 Z41
G17

(dog_hole_025_widen 2)
G0 X-701.788 Y-551
Z41
Z31
G1 Z27 F283.3
Z7.6
G18 G2 X-701.188 Z7 I0.6
G1 X-700.588 F850
G17 G3 X-699.988 Y-550.4 J0.6
X-709.888 I-4.95
X-699.988 I4.95
X-700.588 Y-549.8 I-0.6
G1 X-701.188
G18 G3 X-701.788 Z7.6 K0.6
G0 Z41
G17

(dog_hole_025_widen 2)
G0 X-701.788 Y-626
Z41
Z31
G1 Z27 F283.3
Z7.6
G18 G2 X-701.188 Z7 I0.6
G1 X-700.588 F850
G17 G3 X-699.988 Y-625.4 J0.6
X-709.888 I-4.95
X-699.988 I4.95
X-700.588 Y-624.8 I-0.6
G1 X-701.188
G18 G3 X-701.788 Z7.6 K0.6
G0 Z41
G17

(dog_hole_025_widen 2)
G0 X-776.788 Y49
Z41
Z31
G1 Z27 F283.3
Z7.6
G18 G2 X-776.188 Z7 I0.6
G1 X-775.588 F850
G17 G3 X-774.988 Y49.6 J0.6
X-784.888 I-4.95
X-774.988 I4.95
X-775.588 Y50.2 I-0.6
G1 X-776.188
G18 G3 X-776.788 Z7.6 K0.6
G0 Z41
G17

(dog_hole_025_widen 2)
G0 X-776.788 Y-26
Z41
Z31
G1 Z27 F283.3
Z7.6
G18 G2 X-776.188 Z7 I0.6
G1 X-775.588 F850
G17 G3 X-774.988 Y-25.4 J0.6
X-784.888 I-4.95
X-774.988 I4.95
X-775.588 Y-24.8 I-0.6
G1 X-776.188
G18 G3 X-776.788 Z7.6 K0.6
G0 Z41
G17

(dog_hole_025_widen 2)
G0 X-776.788 Y-101
Z41
Z31
G1 Z27 F283.3
Z7.6
G18 G2 X-776.188 Z7 I0.6
G1 X-775.588 F850
G17 G3 X-774.988 Y-100.4 J0.6
X-784.888 I-4.95
X-774.988 I4.95
X-775.588 Y-99.8 I-0.6
G1 X-776.188
G18 G3 X-776.788 Z7.6 K0.6
G0 Z41
G17

(dog_hole_025_widen 2)
G0 X-776.788 Y-176
Z41
Z31
G1 Z27 F283.3
Z7.6
G18 G2 X-776.188 Z7 I0.6
G1 X-775.588 F850
G17 G3 X-774.988 Y-175.4 J0.6
X-784.888 I-4.95
X-774.988 I4.95
X-775.588 Y-174.8 I-0.6
G1 X-776.188
G18 G3 X-776.788 Z7.6 K0.6
G0 Z41
G17

(dog_hole_025_widen 2)
G0 X-776.788 Y-251
Z41
Z31
G1 Z27 F283.3
Z7.6
G18 G2 X-776.188 Z7 I0.6
G1 X-775.588 F850
G17 G3 X-774.988 Y-250.4 J0.6
X-784.888 I-4.95
X-774.988 I4.95
X-775.588 Y-249.8 I-0.6
G1 X-776.188
G18 G3 X-776.788 Z7.6 K0.6
G0 Z41
G17

(dog_hole_025_widen 2)
G0 X-776.788 Y-326
Z41
Z31
G1 Z27 F283.3
Z7.6
G18 G2 X-776.188 Z7 I0.6
G1 X-775.588 F850
G17 G3 X-774.988 Y-325.4 J0.6
X-784.888 I-4.95
X-774.988 I4.95
X-775.588 Y-324.8 I-0.6
G1 X-776.188
G18 G3 X-776.788 Z7.6 K0.6
G0 Z41
G17

(dog_hole_025_widen 2)
G0 X-776.788 Y-401
Z41
Z31
G1 Z27 F283.3
Z7.6
G18 G2 X-776.188 Z7 I0.6
G1 X-775.588 F850
G17 G3 X-774.988 Y-400.4 J0.6
X-784.888 I-4.95
X-774.988 I4.95
X-775.588 Y-399.8 I-0.6
G1 X-776.188
G18 G3 X-776.788 Z7.6 K0.6
G0 Z41
G17

(dog_hole_025_widen 2)
G0 X-776.788 Y-476
Z41
Z31
G1 Z27 F283.3
Z7.6
G18 G2 X-776.188 Z7 I0.6
G1 X-775.588 F850
G17 G3 X-774.988 Y-475.4 J0.6
X-784.888 I-4.95
X-774.988 I4.95
X-775.588 Y-474.8 I-0.6
G1 X-776.188
G18 G3 X-776.788 Z7.6 K0.6
G0 Z41
G17

(dog_hole_025_widen 2)
G0 X-776.788 Y-551
Z41
Z31
G1 Z27 F283.3
Z7.6
G18 G2 X-776.188 Z7 I0.6
G1 X-775.588 F850
G17 G3 X-774.988 Y-550.4 J0.6
X-784.888 I-4.95
X-774.988 I4.95
X-775.588 Y-549.8 I-0.6
G1 X-776.188
G18 G3 X-776.788 Z7.6 K0.6
G0 Z41
G17

(dog_hole_025_widen 2)
G0 X-776.788 Y-626
Z41
Z31
G1 Z27 F283.3
Z7.6
G18 G2 X-776.188 Z7 I0.6
G1 X-775.588 F850
G17 G3 X-774.988 Y-625.4 J0.6
X-784.888 I-4.95
X-774.988 I4.95
X-775.588 Y-624.8 I-0.6
G1 X-776.188
G18 G3 X-776.788 Z7.6 K0.6
G0 Z41
G17

(dog_hole_025_widen 2)
G0 X-851.788 Y49
Z41
Z31
G1 Z27 F283.3
Z7.6
G18 G2 X-851.188 Z7 I0.6
G1 X-850.588 F850
G17 G3 X-849.988 Y49.6 J0.6
X-859.888 I-4.95
X-849.988 I4.95
X-850.588 Y50.2 I-0.6
G1 X-851.188
G18 G3 X-851.788 Z7.6 K0.6
G0 Z41
G17

(dog_hole_025_widen 2)
G0 X-851.788 Y-26
Z41
Z31
G1 Z27 F283.3
Z7.6
G18 G2 X-851.188 Z7 I0.6
G1 X-850.588 F850
G17 G3 X-849.988 Y-25.4 J0.6
X-859.888 I-4.95
X-849.988 I4.95
X-850.588 Y-24.8 I-0.6
G1 X-851.188
G18 G3 X-851.788 Z7.6 K0.6
G0 Z41
G17

(dog_hole_025_widen 2)
G0 X-851.788 Y-101
Z41
Z31
G1 Z27 F283.3
Z7.6
G18 G2 X-851.188 Z7 I0.6
G1 X-850.588 F850
G17 G3 X-849.988 Y-100.4 J0.6
X-859.888 I-4.95
X-849.988 I4.95
X-850.588 Y-99.8 I-0.6
G1 X-851.188
G18 G3 X-851.788 Z7.6 K0.6
G0 Z41
G17

(dog_hole_025_widen 2)
G0 X-851.788 Y-176
Z41
Z31
G1 Z27 F283.3
Z7.6
G18 G2 X-851.188 Z7 I0.6
G1 X-850.588 F850
G17 G3 X-849.988 Y-175.4 J0.6
X-859.888 I-4.95
X-849.988 I4.95
X-850.588 Y-174.8 I-0.6
G1 X-851.188
G18 G3 X-851.788 Z7.6 K0.6
G0 Z41
G17

(dog_hole_025_widen 2)
G0 X-851.788 Y-251
Z41
Z31
G1 Z27 F283.3
Z7.6
G18 G2 X-851.188 Z7 I0.6
G1 X-850.588 F850
G17 G3 X-849.988 Y-250.4 J0.6
X-859.888 I-4.95
X-849.988 I4.95
X-850.588 Y-249.8 I-0.6
G1 X-851.188
G18 G3 X-851.788 Z7.6 K0.6
G0 Z41
G17

(dog_hole_025_widen 2)
G0 X-851.788 Y-326
Z41
Z31
G1 Z27 F283.3
Z7.6
G18 G2 X-851.188 Z7 I0.6
G1 X-850.588 F850
G17 G3 X-849.988 Y-325.4 J0.6
X-859.888 I-4.95
X-849.988 I4.95
X-850.588 Y-324.8 I-0.6
G1 X-851.188
G18 G3 X-851.788 Z7.6 K0.6
G0 Z41
G17

(dog_hole_025_widen 2)
G0 X-851.788 Y-401
Z41
Z31
G1 Z27 F283.3
Z7.6
G18 G2 X-851.188 Z7 I0.6
G1 X-850.588 F850
G17 G3 X-849.988 Y-400.4 J0.6
X-859.888 I-4.95
X-849.988 I4.95
X-850.588 Y-399.8 I-0.6
G1 X-851.188
G18 G3 X-851.788 Z7.6 K0.6
G0 Z41
G17

(dog_hole_025_widen 2)
G0 X-851.788 Y-476
Z41
Z31
G1 Z27 F283.3
Z7.6
G18 G2 X-851.188 Z7 I0.6
G1 X-850.588 F850
G17 G3 X-849.988 Y-475.4 J0.6
X-859.888 I-4.95
X-849.988 I4.95
X-850.588 Y-474.8 I-0.6
G1 X-851.188
G18 G3 X-851.788 Z7.6 K0.6
G0 Z41
G17

(dog_hole_025_widen 2)
G0 X-851.788 Y-551
Z41
Z31
G1 Z27 F283.3
Z7.6
G18 G2 X-851.188 Z7 I0.6
G1 X-850.588 F850
G17 G3 X-849.988 Y-550.4 J0.6
X-859.888 I-4.95
X-849.988 I4.95
X-850.588 Y-549.8 I-0.6
G1 X-851.188
G18 G3 X-851.788 Z7.6 K0.6
G0 Z41
G17

(dog_hole_025_widen 2)
G0 X-851.788 Y-626
Z41
Z31
G1 Z27 F283.3
Z7.6
G18 G2 X-851.188 Z7 I0.6
G1 X-850.588 F850
G17 G3 X-849.988 Y-625.4 J0.6
X-859.888 I-4.95
X-849.988 I4.95
X-850.588 Y-624.8 I-0.6
G1 X-851.188
G18 G3 X-851.788 Z7.6 K0.6
G0 Z41
G17

(dog_hole_025_widen 2)
G0 X-926.788 Y49
Z41
Z31
G1 Z27 F283.3
Z7.6
G18 G2 X-926.188 Z7 I0.6
G1 X-925.588 F850
G17 G3 X-924.988 Y49.6 J0.6
X-934.888 I-4.95
X-924.988 I4.95
X-925.588 Y50.2 I-0.6
G1 X-926.188
G18 G3 X-926.788 Z7.6 K0.6
G0 Z41
G17

(dog_hole_025_widen 2)
G0 X-926.788 Y-26
Z41
Z31
G1 Z27 F283.3
Z7.6
G18 G2 X-926.188 Z7 I0.6
G1 X-925.588 F850
G17 G3 X-924.988 Y-25.4 J0.6
X-934.888 I-4.95
X-924.988 I4.95
X-925.588 Y-24.8 I-0.6
G1 X-926.188
G18 G3 X-926.788 Z7.6 K0.6
G0 Z41
G17

(dog_hole_025_widen 2)
G0 X-926.788 Y-101
Z41
Z31
G1 Z27 F283.3
Z7.6
G18 G2 X-926.188 Z7 I0.6
G1 X-925.588 F850
G17 G3 X-924.988 Y-100.4 J0.6
X-934.888 I-4.95
X-924.988 I4.95
X-925.588 Y-99.8 I-0.6
G1 X-926.188
G18 G3 X-926.788 Z7.6 K0.6
G0 Z41
G17

(dog_hole_025_widen 2)
G0 X-926.788 Y-176
Z41
Z31
G1 Z27 F283.3
Z7.6
G18 G2 X-926.188 Z7 I0.6
G1 X-925.588 F850
G17 G3 X-924.988 Y-175.4 J0.6
X-934.888 I-4.95
X-924.988 I4.95
X-925.588 Y-174.8 I-0.6
G1 X-926.188
G18 G3 X-926.788 Z7.6 K0.6
G0 Z41
G17

(dog_hole_025_widen 2)
G0 X-926.788 Y-251
Z41
Z31
G1 Z27 F283.3
Z7.6
G18 G2 X-926.188 Z7 I0.6
G1 X-925.588 F850
G17 G3 X-924.988 Y-250.4 J0.6
X-934.888 I-4.95
X-924.988 I4.95
X-925.588 Y-249.8 I-0.6
G1 X-926.188
G18 G3 X-926.788 Z7.6 K0.6
G0 Z41
G17

(dog_hole_025_widen 2)
G0 X-926.788 Y-326
Z41
Z31
G1 Z27 F283.3
Z7.6
G18 G2 X-926.188 Z7 I0.6
G1 X-925.588 F850
G17 G3 X-924.988 Y-325.4 J0.6
X-934.888 I-4.95
X-924.988 I4.95
X-925.588 Y-324.8 I-0.6
G1 X-926.188
G18 G3 X-926.788 Z7.6 K0.6
G0 Z41
G17

(dog_hole_025_widen 2)
G0 X-926.788 Y-401
Z41
Z31
G1 Z27 F283.3
Z7.6
G18 G2 X-926.188 Z7 I0.6
G1 X-925.588 F850
G17 G3 X-924.988 Y-400.4 J0.6
X-934.888 I-4.95
X-924.988 I4.95
X-925.588 Y-399.8 I-0.6
G1 X-926.188
G18 G3 X-926.788 Z7.6 K0.6
G0 Z41
G17

(dog_hole_025_widen 2)
G0 X-926.788 Y-476
Z41
Z31
G1 Z27 F283.3
Z7.6
G18 G2 X-926.188 Z7 I0.6
G1 X-925.588 F850
G17 G3 X-924.988 Y-475.4 J0.6
X-934.888 I-4.95
X-924.988 I4.95
X-925.588 Y-474.8 I-0.6
G1 X-926.188
G18 G3 X-926.788 Z7.6 K0.6
G0 Z41
G17

(dog_hole_025_widen 2)
G0 X-926.788 Y-551
Z41
Z31
G1 Z27 F283.3
Z7.6
G18 G2 X-926.188 Z7 I0.6
G1 X-925.588 F850
G17 G3 X-924.988 Y-550.4 J0.6
X-934.888 I-4.95
X-924.988 I4.95
X-925.588 Y-549.8 I-0.6
G1 X-926.188
G18 G3 X-926.788 Z7.6 K0.6
G0 Z41
G17

(dog_hole_025_widen 2)
G0 X-926.788 Y-626
Z41
Z31
G1 Z27 F283.3
Z7.6
G18 G2 X-926.188 Z7 I0.6
G1 X-925.588 F850
G17 G3 X-924.988 Y-625.4 J0.6
X-934.888 I-4.95
X-924.988 I4.95
X-925.588 Y-624.8 I-0.6
G1 X-926.188
G18 G3 X-926.788 Z7.6 K0.6
G0 Z41
G17

(dog_hole_025_widen 2)
G0 X-1001.788 Y49
Z41
Z31
G1 Z27 F283.3
Z7.6
G18 G2 X-1001.188 Z7 I0.6
G1 X-1000.588 F850
G17 G3 X-999.988 Y49.6 J0.6
X-1009.888 I-4.95
X-999.988 I4.95
X-1000.588 Y50.2 I-0.6
G1 X-1001.188
G18 G3 X-1001.788 Z7.6 K0.6
G0 Z41
G17

(dog_hole_025_widen 2)
G0 X-1001.788 Y-26
Z41
Z31
G1 Z27 F283.3
Z7.6
G18 G2 X-1001.188 Z7 I0.6
G1 X-1000.588 F850
G17 G3 X-999.988 Y-25.4 J0.6
X-1009.888 I-4.95
X-999.988 I4.95
X-1000.588 Y-24.8 I-0.6
G1 X-1001.188
G18 G3 X-1001.788 Z7.6 K0.6
G0 Z41
G17

(dog_hole_025_widen 2)
G0 X-1001.788 Y-101
Z41
Z31
G1 Z27 F283.3
Z7.6
G18 G2 X-1001.188 Z7 I0.6
G1 X-1000.588 F850
G17 G3 X-999.988 Y-100.4 J0.6
X-1009.888 I-4.95
X-999.988 I4.95
X-1000.588 Y-99.8 I-0.6
G1 X-1001.188
G18 G3 X-1001.788 Z7.6 K0.6
G0 Z41
G17

(dog_hole_025_widen 2)
G0 X-1001.788 Y-176
Z41
Z31
G1 Z27 F283.3
Z7.6
G18 G2 X-1001.188 Z7 I0.6
G1 X-1000.588 F850
G17 G3 X-999.988 Y-175.4 J0.6
X-1009.888 I-4.95
X-999.988 I4.95
X-1000.588 Y-174.8 I-0.6
G1 X-1001.188
G18 G3 X-1001.788 Z7.6 K0.6
G0 Z41
G17

(dog_hole_025_widen 2)
G0 X-1001.788 Y-251
Z41
Z31
G1 Z27 F283.3
Z7.6
G18 G2 X-1001.188 Z7 I0.6
G1 X-1000.588 F850
G17 G3 X-999.988 Y-250.4 J0.6
X-1009.888 I-4.95
X-999.988 I4.95
X-1000.588 Y-249.8 I-0.6
G1 X-1001.188
G18 G3 X-1001.788 Z7.6 K0.6
G0 Z41
G17

(dog_hole_025_widen 2)
G0 X-1001.788 Y-326
Z41
Z31
G1 Z27 F283.3
Z7.6
G18 G2 X-1001.188 Z7 I0.6
G1 X-1000.588 F850
G17 G3 X-999.988 Y-325.4 J0.6
X-1009.888 I-4.95
X-999.988 I4.95
X-1000.588 Y-324.8 I-0.6
G1 X-1001.188
G18 G3 X-1001.788 Z7.6 K0.6
G0 Z41
G17

(dog_hole_025_widen 2)
G0 X-1001.788 Y-401
Z41
Z31
G1 Z27 F283.3
Z7.6
G18 G2 X-1001.188 Z7 I0.6
G1 X-1000.588 F850
G17 G3 X-999.988 Y-400.4 J0.6
X-1009.888 I-4.95
X-999.988 I4.95
X-1000.588 Y-399.8 I-0.6
G1 X-1001.188
G18 G3 X-1001.788 Z7.6 K0.6
G0 Z41
G17

(dog_hole_025_widen 2)
G0 X-1001.788 Y-476
Z41
Z31
G1 Z27 F283.3
Z7.6
G18 G2 X-1001.188 Z7 I0.6
G1 X-1000.588 F850
G17 G3 X-999.988 Y-475.4 J0.6
X-1009.888 I-4.95
X-999.988 I4.95
X-1000.588 Y-474.8 I-0.6
G1 X-1001.188
G18 G3 X-1001.788 Z7.6 K0.6
G0 Z41
G17

(dog_hole_025_widen 2)
G0 X-1001.788 Y-551
Z41
Z31
G1 Z27 F283.3
Z7.6
G18 G2 X-1001.188 Z7 I0.6
G1 X-1000.588 F850
G17 G3 X-999.988 Y-550.4 J0.6
X-1009.888 I-4.95
X-999.988 I4.95
X-1000.588 Y-549.8 I-0.6
G1 X-1001.188
G18 G3 X-1001.788 Z7.6 K0.6
G0 Z41
G17

(dog_hole_025_widen 2)
G0 X-1001.788 Y-626
Z41
Z31
G1 Z27 F283.3
Z7.6
G18 G2 X-1001.188 Z7 I0.6
G1 X-1000.588 F850
G17 G3 X-999.988 Y-625.4 J0.6
X-1009.888 I-4.95
X-999.988 I4.95
X-1000.588 Y-624.8 I-0.6
G1 X-1001.188
G18 G3 X-1001.788 Z7.6 K0.6
G0 Z41
G17

(dog_hole_025_widen 2)
G0 X-1076.788 Y49
Z41
Z31
G1 Z27 F283.3
Z7.6
G18 G2 X-1076.188 Z7 I0.6
G1 X-1075.588 F850
G17 G3 X-1074.988 Y49.6 J0.6
X-1084.888 I-4.95
X-1074.988 I4.95
X-1075.588 Y50.2 I-0.6
G1 X-1076.188
G18 G3 X-1076.788 Z7.6 K0.6
G0 Z41
G17

(dog_hole_025_widen 2)
G0 X-1076.788 Y-26
Z41
Z31
G1 Z27 F283.3
Z7.6
G18 G2 X-1076.188 Z7 I0.6
G1 X-1075.588 F850
G17 G3 X-1074.988 Y-25.4 J0.6
X-1084.888 I-4.95
X-1074.988 I4.95
X-1075.588 Y-24.8 I-0.6
G1 X-1076.188
G18 G3 X-1076.788 Z7.6 K0.6
G0 Z41
G17

(dog_hole_025_widen 2)
G0 X-1076.788 Y-101
Z41
Z31
G1 Z27 F283.3
Z7.6
G18 G2 X-1076.188 Z7 I0.6
G1 X-1075.588 F850
G17 G3 X-1074.988 Y-100.4 J0.6
X-1084.888 I-4.95
X-1074.988 I4.95
X-1075.588 Y-99.8 I-0.6
G1 X-1076.188
G18 G3 X-1076.788 Z7.6 K0.6
G0 Z41
G17

(dog_hole_025_widen 2)
G0 X-1076.788 Y-176
Z41
Z31
G1 Z27 F283.3
Z7.6
G18 G2 X-1076.188 Z7 I0.6
G1 X-1075.588 F850
G17 G3 X-1074.988 Y-175.4 J0.6
X-1084.888 I-4.95
X-1074.988 I4.95
X-1075.588 Y-174.8 I-0.6
G1 X-1076.188
G18 G3 X-1076.788 Z7.6 K0.6
G0 Z41
G17

(dog_hole_025_widen 2)
G0 X-1076.788 Y-251
Z41
Z31
G1 Z27 F283.3
Z7.6
G18 G2 X-1076.188 Z7 I0.6
G1 X-1075.588 F850
G17 G3 X-1074.988 Y-250.4 J0.6
X-1084.888 I-4.95
X-1074.988 I4.95
X-1075.588 Y-249.8 I-0.6
G1 X-1076.188
G18 G3 X-1076.788 Z7.6 K0.6
G0 Z41
G17

(dog_hole_025_widen 2)
G0 X-1076.788 Y-326
Z41
Z31
G1 Z27 F283.3
Z7.6
G18 G2 X-1076.188 Z7 I0.6
G1 X-1075.588 F850
G17 G3 X-1074.988 Y-325.4 J0.6
X-1084.888 I-4.95
X-1074.988 I4.95
X-1075.588 Y-324.8 I-0.6
G1 X-1076.188
G18 G3 X-1076.788 Z7.6 K0.6
G0 Z41
G17

(dog_hole_025_widen 2)
G0 X-1076.788 Y-401
Z41
Z31
G1 Z27 F283.3
Z7.6
G18 G2 X-1076.188 Z7 I0.6
G1 X-1075.588 F850
G17 G3 X-1074.988 Y-400.4 J0.6
X-1084.888 I-4.95
X-1074.988 I4.95
X-1075.588 Y-399.8 I-0.6
G1 X-1076.188
G18 G3 X-1076.788 Z7.6 K0.6
G0 Z41
G17

(dog_hole_025_widen 2)
G0 X-1076.788 Y-476
Z41
Z31
G1 Z27 F283.3
Z7.6
G18 G2 X-1076.188 Z7 I0.6
G1 X-1075.588 F850
G17 G3 X-1074.988 Y-475.4 J0.6
X-1084.888 I-4.95
X-1074.988 I4.95
X-1075.588 Y-474.8 I-0.6
G1 X-1076.188
G18 G3 X-1076.788 Z7.6 K0.6
G0 Z41
G17

(dog_hole_025_widen 2)
G0 X-1076.788 Y-551
Z41
Z31
G1 Z27 F283.3
Z7.6
G18 G2 X-1076.188 Z7 I0.6
G1 X-1075.588 F850
G17 G3 X-1074.988 Y-550.4 J0.6
X-1084.888 I-4.95
X-1074.988 I4.95
X-1075.588 Y-549.8 I-0.6
G1 X-1076.188
G18 G3 X-1076.788 Z7.6 K0.6
G0 Z41
G17

(dog_hole_025_widen 2)
G0 X-1076.788 Y-626
Z41
Z31
G1 Z27 F283.3
Z7.6
G18 G2 X-1076.188 Z7 I0.6
G1 X-1075.588 F850
G17 G3 X-1074.988 Y-625.4 J0.6
X-1084.888 I-4.95
X-1074.988 I4.95
X-1075.588 Y-624.8 I-0.6
G1 X-1076.188
G18 G3 X-1076.788 Z7.6 K0.6
G0 Z41
G17

(dog_hole_025_widen 2)
G0 X-1151.788 Y49
Z41
Z31
G1 Z27 F283.3
Z7.6
G18 G2 X-1151.188 Z7 I0.6
G1 X-1150.588 F850
G17 G3 X-1149.988 Y49.6 J0.6
X-1159.888 I-4.95
X-1149.988 I4.95
X-1150.588 Y50.2 I-0.6
G1 X-1151.188
G18 G3 X-1151.788 Z7.6 K0.6
G0 Z41
G17

(dog_hole_025_widen 2)
G0 X-1151.788 Y-26
Z41
Z31
G1 Z27 F283.3
Z7.6
G18 G2 X-1151.188 Z7 I0.6
G1 X-1150.588 F850
G17 G3 X-1149.988 Y-25.4 J0.6
X-1159.888 I-4.95
X-1149.988 I4.95
X-1150.588 Y-24.8 I-0.6
G1 X-1151.188
G18 G3 X-1151.788 Z7.6 K0.6
G0 Z41
G17

(dog_hole_025_widen 2)
G0 X-1151.788 Y-101
Z41
Z31
G1 Z27 F283.3
Z7.6
G18 G2 X-1151.188 Z7 I0.6
G1 X-1150.588 F850
G17 G3 X-1149.988 Y-100.4 J0.6
X-1159.888 I-4.95
X-1149.988 I4.95
X-1150.588 Y-99.8 I-0.6
G1 X-1151.188
G18 G3 X-1151.788 Z7.6 K0.6
G0 Z41
G17

(dog_hole_025_widen 2)
G0 X-1151.788 Y-176
Z41
Z31
G1 Z27 F283.3
Z7.6
G18 G2 X-1151.188 Z7 I0.6
G1 X-1150.588 F850
G17 G3 X-1149.988 Y-175.4 J0.6
X-1159.888 I-4.95
X-1149.988 I4.95
X-1150.588 Y-174.8 I-0.6
G1 X-1151.188
G18 G3 X-1151.788 Z7.6 K0.6
G0 Z41
G17

(dog_hole_025_widen 2)
G0 X-1151.788 Y-251
Z41
Z31
G1 Z27 F283.3
Z7.6
G18 G2 X-1151.188 Z7 I0.6
G1 X-1150.588 F850
G17 G3 X-1149.988 Y-250.4 J0.6
X-1159.888 I-4.95
X-1149.988 I4.95
X-1150.588 Y-249.8 I-0.6
G1 X-1151.188
G18 G3 X-1151.788 Z7.6 K0.6
G0 Z41
G17

(dog_hole_025_widen 2)
G0 X-1151.788 Y-326
Z41
Z31
G1 Z27 F283.3
Z7.6
G18 G2 X-1151.188 Z7 I0.6
G1 X-1150.588 F850
G17 G3 X-1149.988 Y-325.4 J0.6
X-1159.888 I-4.95
X-1149.988 I4.95
X-1150.588 Y-324.8 I-0.6
G1 X-1151.188
G18 G3 X-1151.788 Z7.6 K0.6
G0 Z41
G17

(dog_hole_025_widen 2)
G0 X-1151.788 Y-401
Z41
Z31
G1 Z27 F283.3
Z7.6
G18 G2 X-1151.188 Z7 I0.6
G1 X-1150.588 F850
G17 G3 X-1149.988 Y-400.4 J0.6
X-1159.888 I-4.95
X-1149.988 I4.95
X-1150.588 Y-399.8 I-0.6
G1 X-1151.188
G18 G3 X-1151.788 Z7.6 K0.6
G0 Z41
G17

(dog_hole_025_widen 2)
G0 X-1151.788 Y-476
Z41
Z31
G1 Z27 F283.3
Z7.6
G18 G2 X-1151.188 Z7 I0.6
G1 X-1150.588 F850
G17 G3 X-1149.988 Y-475.4 J0.6
X-1159.888 I-4.95
X-1149.988 I4.95
X-1150.588 Y-474.8 I-0.6
G1 X-1151.188
G18 G3 X-1151.788 Z7.6 K0.6
G0 Z41
G17

(dog_hole_025_widen 2)
G0 X-1151.788 Y-551
Z41
Z31
G1 Z27 F283.3
Z7.6
G18 G2 X-1151.188 Z7 I0.6
G1 X-1150.588 F850
G17 G3 X-1149.988 Y-550.4 J0.6
X-1159.888 I-4.95
X-1149.988 I4.95
X-1150.588 Y-549.8 I-0.6
G1 X-1151.188
G18 G3 X-1151.788 Z7.6 K0.6
G0 Z41
G17

(dog_hole_025_widen 2)
G0 X-1151.788 Y-626
Z41
Z31
G1 Z27 F283.3
Z7.6
G18 G2 X-1151.188 Z7 I0.6
G1 X-1150.588 F850
G17 G3 X-1149.988 Y-625.4 J0.6
X-1159.888 I-4.95
X-1149.988 I4.95
X-1150.588 Y-624.8 I-0.6
G1 X-1151.188
G18 G3 X-1151.788 Z7.6 K0.6
G0 Z41
G17

(dog_hole_025_widen 2)
G0 X-1226.788 Y49
Z41
Z31
G1 Z27 F283.3
Z7.6
G18 G2 X-1226.188 Z7 I0.6
G1 X-1225.588 F850
G17 G3 X-1224.988 Y49.6 J0.6
X-1234.888 I-4.95
X-1224.988 I4.95
X-1225.588 Y50.2 I-0.6
G1 X-1226.188
G18 G3 X-1226.788 Z7.6 K0.6
G0 Z41
G17

(dog_hole_025_widen 2)
G0 X-1226.788 Y-26
Z41
Z31
G1 Z27 F283.3
Z7.6
G18 G2 X-1226.188 Z7 I0.6
G1 X-1225.588 F850
G17 G3 X-1224.988 Y-25.4 J0.6
X-1234.888 I-4.95
X-1224.988 I4.95
X-1225.588 Y-24.8 I-0.6
G1 X-1226.188
G18 G3 X-1226.788 Z7.6 K0.6
G0 Z41
G17

(dog_hole_025_widen 2)
G0 X-1226.788 Y-101
Z41
Z31
G1 Z27 F283.3
Z7.6
G18 G2 X-1226.188 Z7 I0.6
G1 X-1225.588 F850
G17 G3 X-1224.988 Y-100.4 J0.6
X-1234.888 I-4.95
X-1224.988 I4.95
X-1225.588 Y-99.8 I-0.6
G1 X-1226.188
G18 G3 X-1226.788 Z7.6 K0.6
G0 Z41
G17

(dog_hole_025_widen 2)
G0 X-1226.788 Y-176
Z41
Z31
G1 Z27 F283.3
Z7.6
G18 G2 X-1226.188 Z7 I0.6
G1 X-1225.588 F850
G17 G3 X-1224.988 Y-175.4 J0.6
X-1234.888 I-4.95
X-1224.988 I4.95
X-1225.588 Y-174.8 I-0.6
G1 X-1226.188
G18 G3 X-1226.788 Z7.6 K0.6
G0 Z41
G17

(dog_hole_025_widen 2)
G0 X-1226.788 Y-251
Z41
Z31
G1 Z27 F283.3
Z7.6
G18 G2 X-1226.188 Z7 I0.6
G1 X-1225.588 F850
G17 G3 X-1224.988 Y-250.4 J0.6
X-1234.888 I-4.95
X-1224.988 I4.95
X-1225.588 Y-249.8 I-0.6
G1 X-1226.188
G18 G3 X-1226.788 Z7.6 K0.6
G0 Z41
G17

(dog_hole_025_widen 2)
G0 X-1226.788 Y-326
Z41
Z31
G1 Z27 F283.3
Z7.6
G18 G2 X-1226.188 Z7 I0.6
G1 X-1225.588 F850
G17 G3 X-1224.988 Y-325.4 J0.6
X-1234.888 I-4.95
X-1224.988 I4.95
X-1225.588 Y-324.8 I-0.6
G1 X-1226.188
G18 G3 X-1226.788 Z7.6 K0.6
G0 Z41
G17

(dog_hole_025_widen 2)
G0 X-1226.788 Y-401
Z41
Z31
G1 Z27 F283.3
Z7.6
G18 G2 X-1226.188 Z7 I0.6
G1 X-1225.588 F850
G17 G3 X-1224.988 Y-400.4 J0.6
X-1234.888 I-4.95
X-1224.988 I4.95
X-1225.588 Y-399.8 I-0.6
G1 X-1226.188
G18 G3 X-1226.788 Z7.6 K0.6
G0 Z41
G17

(dog_hole_025_widen 2)
G0 X-1226.788 Y-476
Z41
Z31
G1 Z27 F283.3
Z7.6
G18 G2 X-1226.188 Z7 I0.6
G1 X-1225.588 F850
G17 G3 X-1224.988 Y-475.4 J0.6
X-1234.888 I-4.95
X-1224.988 I4.95
X-1225.588 Y-474.8 I-0.6
G1 X-1226.188
G18 G3 X-1226.788 Z7.6 K0.6
G0 Z41
G17

(dog_hole_025_widen 2)
G0 X-1226.788 Y-551
Z41
Z31
G1 Z27 F283.3
Z7.6
G18 G2 X-1226.188 Z7 I0.6
G1 X-1225.588 F850
G17 G3 X-1224.988 Y-550.4 J0.6
X-1234.888 I-4.95
X-1224.988 I4.95
X-1225.588 Y-549.8 I-0.6
G1 X-1226.188
G18 G3 X-1226.788 Z7.6 K0.6
G0 Z41
G17

(dog_hole_025_widen 2)
G0 X-1226.788 Y-626
Z41
Z31
G1 Z27 F283.3
Z7.6
G18 G2 X-1226.188 Z7 I0.6
G1 X-1225.588 F850
G17 G3 X-1224.988 Y-625.4 J0.6
X-1234.888 I-4.95
X-1224.988 I4.95
X-1225.588 Y-624.8 I-0.6
G1 X-1226.188
G18 G3 X-1226.788 Z7.6 K0.6
G0 Z41
G17
M30
%
