%
(1001)
(origin bottom left anchor hole stock bottom)
(T1  D=4 CR=0 TAPER=118deg - ZMIN=22.798 - drill)
G90 G94
G17
G21

(anchor_holes)
M9
T1 M6
(2.5mm tip overhang)
S5000 M3
G54
G0 X250.762 Y-1293.5
Z72
Z62
Z54
G1 Z46 F400
G0 Z49
G1 Z40 F400
G0 Z43
G1 Z34 F400
G0 Z37
G1 Z28 F400
G0 Z62
Z30
G1 Z22.798 F400
G0 Z62
Y-717.5
Z54
G1 Z46 F400
G0 Z49
G1 Z40 F400
G0 Z43
G1 Z34 F400
G0 Z37
G1 Z28 F400
G0 Z62
Z30
G1 Z22.798 F400
G0 Z62
X1444.762
Z54
G1 Z46 F400
G0 Z49
G1 Z40 F400
G0 Z43
G1 Z34 F400
G0 Z37
G1 Z28 F400
G0 Z62
Z30
G1 Z22.798 F400
G0 Z62
X1046.762 Y-909.5
Z54
G1 Z46 F400
G0 Z49
G1 Z40 F400
G0 Z43
G1 Z34 F400
G0 Z37
G1 Z28 F400
G0 Z62
Z30
G1 Z22.798 F400
G0 Z62
X1444.762 Y-1293.5
Z54
G1 Z46 F400
G0 Z49
G1 Z40 F400
G0 Z43
G1 Z34 F400
G0 Z37
G1 Z28 F400
G0 Z62
Z30
G1 Z22.798 F400
G0 Z62
Z72
M30
%
