%
(1001)
(origin bottom left anchor hole stock bottom)
(T1  D=6 CR=0 - ZMIN=19 - flat end mill)
G90 G94
G17
G21

(2D Adaptive15)
M9
T1 M6
S10000 M3
G54
G0 X45.062 Y49.4
Z46
Z38.05
Z36.65
G1 Z36.05 F850
Z24 F283.3
X45.024 Y49.396 F850
X45.014 Y49.36
X45.038 Y49.332
X45.075 Y49.324
X45.11 Y49.335
X45.137 Y49.362
X45.148 Y49.397
X45.142 Y49.434
X45.121 Y49.466
X45.089 Y49.485
X45.052 Y49.489
X45.016 Y49.48
X44.983 Y49.461
X44.958 Y49.433
X44.944 Y49.399
X44.941 Y49.361
X44.951 Y49.325
X44.97 Y49.293
X44.997 Y49.267
X45.063 Y49.232
X45.138 Y49.235
X45.204 Y49.27
X45.25 Y49.33
X45.269 Y49.402
X45.26 Y49.477
X45.224 Y49.542
X45.168 Y49.592
X45.099 Y49.621
X45.024 Y49.627
X44.951 Y49.61
X44.886 Y49.572
X44.835 Y49.517
X44.801 Y49.451
X44.787 Y49.377
X44.799 Y49.227
X44.882 Y49.102
X45.012 Y49.027
X45.161 Y49.013
X45.304 Y49.058
X45.421 Y49.153
X45.496 Y49.282
X45.522 Y49.43
X45.498 Y49.578
X45.428 Y49.711
X45.321 Y49.816
X45.187 Y49.884
X45.04 Y49.909
X44.891 Y49.892
X44.752 Y49.834
X44.635 Y49.74
X44.545 Y49.621
X44.487 Y49.482
X44.464 Y49.334
X44.479 Y49.185
X44.528 Y49.043
X44.609 Y48.917
X44.715 Y48.811
X44.844 Y48.733
X44.985 Y48.684
X45.134 Y48.666
X45.284 Y48.679
X45.427 Y48.722
X45.559 Y48.793
X45.675 Y48.889
X45.769 Y49.005
X45.841 Y49.137
X45.886 Y49.28
X45.905 Y49.429
X45.897 Y49.579
X45.862 Y49.724
X45.802 Y49.862
X45.719 Y49.987
X45.617 Y50.096
X45.497 Y50.187
X45.364 Y50.256
X45.222 Y50.303
X45.073 Y50.326
X44.923 Y50.325
X44.775 Y50.301
X44.633 Y50.254
X44.499 Y50.186
X44.377 Y50.099
X44.269 Y49.995
X44.178 Y49.876
X44.105 Y49.745
X44.051 Y49.605
X44.018 Y49.458
X44.005 Y49.309
X44.014 Y49.159
X44.043 Y49.012
X44.091 Y48.87
X44.159 Y48.736
X44.244 Y48.613
X44.344 Y48.501
X44.458 Y48.404
X44.584 Y48.321
X44.719 Y48.257
X44.861 Y48.209
X45.008 Y48.179
X45.158 Y48.169
X45.308 Y48.176
X45.455 Y48.202
X45.599 Y48.246
X45.736 Y48.306
X45.865 Y48.382
X45.985 Y48.473
X46.093 Y48.577
X46.188 Y48.693
X46.269 Y48.819
X46.335 Y48.954
X46.386 Y49.095
X46.421 Y49.241
X46.439 Y49.39
X46.441 Y49.54
X46.426 Y49.689
X46.395 Y49.836
X46.349 Y49.979
X46.288 Y50.116
X46.212 Y50.245
X46.124 Y50.366
X46.023 Y50.477
X45.911 Y50.577
X45.79 Y50.665
X45.66 Y50.74
X45.523 Y50.801
X45.38 Y50.848
X45.234 Y50.881
X45.085 Y50.899
X44.935 Y50.902
X44.786 Y50.89
X44.638 Y50.865
X44.493 Y50.824
X44.353 Y50.77
X44.219 Y50.703
X44.092 Y50.624
X43.973 Y50.533
X43.863 Y50.431
X43.762 Y50.319
X43.673 Y50.199
X43.595 Y50.071
X43.529 Y49.936
X43.476 Y49.796
X43.435 Y49.651
X43.408 Y49.504
X43.394 Y49.354
Y49.204
X43.406 Y49.055
X43.432 Y48.907
X43.47 Y48.762
X43.522 Y48.621
X43.585 Y48.485
X43.659 Y48.355
X43.744 Y48.231
X43.84 Y48.116
X43.945 Y48.009
X44.058 Y47.911
X44.18 Y47.823
X44.308 Y47.745
X44.443 Y47.678
X44.582 Y47.623
X44.725 Y47.579
X44.872 Y47.547
X45.021 Y47.527
X45.17 Y47.519
X45.32 Y47.523
X45.469 Y47.539
X45.617 Y47.567
X45.761 Y47.606
X45.903 Y47.657
X46.039 Y47.719
X46.171 Y47.791
X46.296 Y47.873
X46.415 Y47.965
X46.527 Y48.065
X46.63 Y48.174
X46.725 Y48.29
X46.811 Y48.413
X46.887 Y48.542
X46.953 Y48.677
X47.009 Y48.816
X47.054 Y48.959
X47.089 Y49.105
X47.113 Y49.253
X47.126 Y49.402
X47.128 Y49.552
X47.119 Y49.702
X47.099 Y49.851
X47.068 Y49.998
X47.027 Y50.142
X46.976 Y50.283
X46.915 Y50.42
X46.844 Y50.552
X46.764 Y50.679
X46.675 Y50.8
X46.578 Y50.914
X46.473 Y51.021
X46.361 Y51.121
X46.242 Y51.213
X46.117 Y51.296
X45.987 Y51.37
X45.852 Y51.435
X45.713 Y51.491
X45.57 Y51.537
X45.424 Y51.574
X45.277 Y51.6
X45.128 Y51.617
X44.978 Y51.623
X44.828 Y51.62
X44.678 Y51.607
X44.53 Y51.583
X44.384 Y51.55
X44.24 Y51.507
X44.099 Y51.455
X43.962 Y51.394
X43.83 Y51.325
X43.702 Y51.246
X43.579 Y51.16
X43.462 Y51.066
X43.352 Y50.964
X43.248 Y50.856
X43.152 Y50.741
X43.062 Y50.621
X42.981 Y50.494
X42.908 Y50.364
X42.843 Y50.228
X42.787 Y50.089
X42.739 Y49.947
X42.701 Y49.802
X42.671 Y49.655
X42.651 Y49.506
X42.64 Y49.357
X42.638 Y49.207
X42.645 Y49.057
X42.662 Y48.908
X42.687 Y48.76
X42.722 Y48.614
X42.765 Y48.47
X42.817 Y48.33
X42.877 Y48.192
X42.945 Y48.059
X43.022 Y47.929
X43.105 Y47.805
X43.196 Y47.686
X43.294 Y47.572
X43.398 Y47.464
X43.509 Y47.363
X43.625 Y47.268
X43.747 Y47.18
X43.873 Y47.1
X44.004 Y47.027
X44.139 Y46.961
X44.278 Y46.904
X44.42 Y46.854
X44.564 Y46.813
X44.71 Y46.781
X44.858 Y46.756
X45.007 Y46.74
X45.159 Y46.733
X45.309 Y46.734
X45.458 Y46.743
X45.609 Y46.761
X45.759 Y46.788
X45.905 Y46.823
X46.049 Y46.866
X46.194 Y46.918
X46.335 Y46.978
X46.471 Y47.045
X46.604 Y47.12
X46.735 Y47.205
X46.861 Y47.296
X46.979 Y47.392
X47.094 Y47.497
X47.204 Y47.609
X47.307 Y47.727
X47.402 Y47.849
X47.491 Y47.978
X47.574 Y48.114
X47.649 Y48.254
X47.715 Y48.396
X47.774 Y48.542
X47.825 Y48.694
X47.867 Y48.85
X47.901 Y49.005
X47.925 Y49.162
X47.941 Y49.323
X47.948 Y49.486
X47.946 Y49.648
X47.934 Y49.808
X47.914 Y49.968
X47.884 Y50.13
X47.845 Y50.29
X47.797 Y50.446
X47.741 Y50.599
X47.675 Y50.75
X47.601 Y50.899
X47.518 Y51.044
X47.427 Y51.183
X47.329 Y51.316
X47.223 Y51.445
X47.109 Y51.568
X46.987 Y51.686
X46.859 Y51.796
X46.726 Y51.899
X46.587 Y51.993
X46.442 Y52.081
X46.29 Y52.161
X46.134 Y52.233
X45.974 Y52.295
X45.811 Y52.349
X45.646 Y52.393
X45.477 Y52.428
X45.306 Y52.454
X45.132 Y52.47
X44.957 Y52.476
X44.782 Y52.472
X44.609 Y52.459
X44.436 Y52.436
X44.263 Y52.402
X44.092 Y52.359
X43.922 Y52.306
X43.755 Y52.244
X43.592 Y52.172
X43.434 Y52.091
X43.28 Y52.002
X43.131 Y51.903
X42.987 Y51.796
X42.849 Y51.68
X42.717 Y51.556
X42.591 Y51.425
X42.473 Y51.286
X42.363 Y51.141
X42.261 Y50.99
X42.168 Y50.833
X42.084 Y50.671
X42.008 Y50.504
X41.942 Y50.332
X41.886 Y50.156
X41.839 Y49.976
X41.802 Y49.793
X41.776 Y49.608
X41.76 Y49.422
X41.754 Y49.235
X41.759 Y49.048
X41.775 Y48.86
X41.801 Y48.674
X41.838 Y48.489
X41.885 Y48.306
X41.943 Y48.125
X42.011 Y47.947
X42.089 Y47.773
X42.177 Y47.603
X42.275 Y47.438
X42.382 Y47.278
X42.498 Y47.124
X42.623 Y46.976
X42.757 Y46.836
X42.899 Y46.702
X43.048 Y46.577
X43.204 Y46.46
X43.368 Y46.351
X43.537 Y46.252
X43.712 Y46.162
X43.893 Y46.083
X44.077 Y46.013
X44.267 Y45.953
X44.459 Y45.905
X44.655 Y45.867
X44.853 Y45.84
X45.052 Y45.824
X45.253 Y45.819
X45.454 Y45.826
X45.655 Y45.844
X45.855 Y45.874
X46.053 Y45.914
X46.25 Y45.966
X46.443 Y46.029
X46.634 Y46.104
X46.82 Y46.189
X47.001 Y46.284
X47.177 Y46.39
X47.348 Y46.506
X47.512 Y46.631
X47.669 Y46.766
X47.819 Y46.91
X47.96 Y47.062
X48.094 Y47.223
X48.218 Y47.391
X48.332 Y47.566
X48.437 Y47.748
X48.532 Y47.936
X48.617 Y48.13
X48.69 Y48.328
X48.752 Y48.531
X48.803 Y48.737
X48.842 Y48.946
X48.87 Y49.158
X48.885 Y49.371
X48.889 Y49.586
X48.88 Y49.801
X48.859 Y50.015
X48.826 Y50.229
X48.782 Y50.44
X48.725 Y50.65
X48.656 Y50.856
X48.576 Y51.058
X48.484 Y51.257
X48.38 Y51.45
X48.266 Y51.637
X48.142 Y51.818
X48.006 Y51.993
X47.861 Y52.16
X47.707 Y52.318
X47.543 Y52.468
X47.371 Y52.609
X47.191 Y52.741
X47.003 Y52.862
X46.808 Y52.973
X46.607 Y53.072
X46.399 Y53.161
X46.187 Y53.238
X45.971 Y53.303
X45.75 Y53.356
X45.527 Y53.396
X45.301 Y53.424
X45.073 Y53.439
X44.844 Y53.441
X44.615 Y53.431
X44.387 Y53.407
X44.159 Y53.371
X43.934 Y53.321
X43.711 Y53.259
X43.492 Y53.185
X43.276 Y53.097
X43.065 Y52.998
X42.86 Y52.887
X42.661 Y52.764
X42.469 Y52.629
X42.284 Y52.484
X42.108 Y52.329
X41.94 Y52.163
X41.781 Y51.988
X41.632 Y51.804
X41.494 Y51.611
X41.366 Y51.41
X41.249 Y51.202
X41.144 Y50.987
X41.052 Y50.766
X40.971 Y50.539
X40.903 Y50.308
X40.849 Y50.074
X40.807 Y49.836
X40.779 Y49.595
X40.765 Y49.353
X40.764 Y49.11
X40.777 Y48.867
X40.803 Y48.624
X40.844 Y48.383
X40.898 Y48.144
X40.965 Y47.907
X41.046 Y47.675
X41.14 Y47.446
X41.247 Y47.223
X41.367 Y47.006
X41.499 Y46.796
X41.642 Y46.592
X41.798 Y46.397
X41.964 Y46.211
X42.142 Y46.033
X42.329 Y45.866
X42.526 Y45.709
X42.731 Y45.563
X42.945 Y45.429
X43.167 Y45.307
X43.396 Y45.197
X43.631 Y45.1
X43.872 Y45.016
X44.117 Y44.946
X44.367 Y44.89
X44.62 Y44.847
X44.875 Y44.819
X45.132 Y44.805
X45.39 Y44.806
X45.648 Y44.821
X45.906 Y44.851
X46.161 Y44.896
X46.415 Y44.955
X46.665 Y45.028
X46.911 Y45.115
X47.153 Y45.216
X47.388 Y45.331
X47.618 Y45.46
X47.84 Y45.601
X48.055 Y45.755
X48.26 Y45.921
X48.457 Y46.099
X48.644 Y46.288
X48.82 Y46.487
X48.985 Y46.697
X49.138 Y46.916
X49.278 Y47.143
X49.407 Y47.379
X49.521 Y47.622
X49.622 Y47.872
X49.709 Y48.127
X49.782 Y48.387
X49.84 Y48.652
X49.883 Y48.92
X49.911 Y49.191
X49.924 Y49.463
X49.922 Y49.736
X49.904 Y50.009
X49.87 Y50.281
X49.822 Y50.551
X49.758 Y50.819
X49.678 Y51.083
X49.584 Y51.343
X49.476 Y51.598
X49.352 Y51.846
X49.215 Y52.088
X49.064 Y52.322
X48.9 Y52.548
X48.723 Y52.764
X48.534 Y52.971
X48.333 Y53.167
X48.121 Y53.352
X47.898 Y53.525
X47.666 Y53.685
X47.424 Y53.832
X47.174 Y53.966
X46.916 Y54.086
X46.652 Y54.191
X46.381 Y54.281
X46.106 Y54.356
X45.826 Y54.416
X45.542 Y54.459
X45.256 Y54.487
X44.968 Y54.499
X44.68 Y54.494
X44.391 Y54.473
X44.104 Y54.436
X43.819 Y54.383
X43.536 Y54.314
X43.258 Y54.228
X42.984 Y54.127
X42.716 Y54.01
X42.454 Y53.879
X42.2 Y53.732
X41.954 Y53.571
X41.717 Y53.396
X41.489 Y53.208
X41.272 Y53.007
X41.067 Y52.793
X40.873 Y52.568
X40.693 Y52.332
X40.525 Y52.086
X40.371 Y51.83
X40.232 Y51.565
X40.107 Y51.293
X39.998 Y51.013
X39.905 Y50.727
X39.828 Y50.436
X39.767 Y50.141
X39.722 Y49.841
X39.695 Y49.54
X39.685 Y49.236
X39.692 Y48.933
X39.715 Y48.629
X39.756 Y48.326
X39.815 Y48.026
X39.89 Y47.729
X39.981 Y47.436
X40.09 Y47.149
X40.214 Y46.867
X40.355 Y46.592
X40.511 Y46.325
X40.682 Y46.067
X40.868 Y45.819
X41.068 Y45.581
X41.281 Y45.354
X41.507 Y45.139
X41.746 Y44.937
X41.995 Y44.748
X42.256 Y44.573
X42.526 Y44.413
X42.806 Y44.268
X43.094 Y44.139
X43.389 Y44.026
X43.69 Y43.929
X43.997 Y43.85
X44.309 Y43.788
X44.624 Y43.743
X44.942 Y43.717
X45.261 Y43.708
X45.581 Y43.717
X45.9 Y43.744
X46.218 Y43.79
X46.533 Y43.853
X46.845 Y43.934
X47.153 Y44.032
X47.455 Y44.148
X47.75 Y44.281
X48.038 Y44.431
X48.318 Y44.597
X48.588 Y44.779
X48.848 Y44.976
X49.097 Y45.187
X49.334 Y45.413
X49.559 Y45.652
X49.77 Y45.904
X49.967 Y46.168
X50.148 Y46.443
X50.315 Y46.728
X50.465 Y47.023
X50.599 Y47.326
X50.716 Y47.637
X50.815 Y47.954
X50.896 Y48.277
X50.959 Y48.605
X51.004 Y48.936
X51.03 Y49.27
X51.037 Y49.605
X51.025 Y49.941
X50.995 Y50.276
X50.945 Y50.61
X50.876 Y50.941
X50.789 Y51.267
X50.684 Y51.589
X50.56 Y51.906
X50.419 Y52.215
X50.26 Y52.516
X50.083 Y52.808
X49.891 Y53.091
X49.682 Y53.362
X49.459 Y53.622
X49.22 Y53.869
X48.968 Y54.103
X48.702 Y54.323
X48.424 Y54.527
X48.134 Y54.716
X47.834 Y54.889
X47.524 Y55.045
X47.205 Y55.183
X46.878 Y55.304
X46.544 Y55.405
X46.205 Y55.489
X45.861 Y55.553
X45.513 Y55.597
X45.163 Y55.622
X44.811 Y55.627
X44.459 Y55.613
X44.107 Y55.578
X43.758 Y55.524
X43.412 Y55.45
X43.07 Y55.356
X42.733 Y55.243
X42.402 Y55.112
X42.079 Y54.961
X41.764 Y54.792
X41.459 Y54.606
X41.164 Y54.402
X40.881 Y54.182
X40.61 Y53.945
X40.353 Y53.694
X40.109 Y53.428
X39.881 Y53.148
X39.668 Y52.855
X39.472 Y52.55
X39.293 Y52.235
X39.132 Y51.909
X38.99 Y51.574
X38.866 Y51.231
X38.761 Y50.881
X38.677 Y50.525
X38.612 Y50.164
X38.568 Y49.8
X38.544 Y49.433
X38.541 Y49.065
X38.559 Y48.696
X38.597 Y48.329
X38.656 Y47.964
X38.736 Y47.602
X38.836 Y47.244
X38.956 Y46.892
X39.097 Y46.547
X39.256 Y46.21
X39.435 Y45.882
X39.632 Y45.564
X39.847 Y45.257
X40.079 Y44.962
X40.328 Y44.681
X40.593 Y44.413
X40.873 Y44.16
X41.168 Y43.924
X41.475 Y43.703
X41.795 Y43.5
X42.127 Y43.315
X42.469 Y43.149
X42.82 Y43.002
X43.179 Y42.875
X43.546 Y42.768
X43.919 Y42.682
X44.296 Y42.617
X44.678 Y42.573
X45.061 Y42.55
X45.446
X45.831 Y42.571
X46.215 Y42.613
X46.596 Y42.678
X46.974 Y42.763
X47.347 Y42.871
X47.714 Y42.999
X48.074 Y43.147
X48.425 Y43.317
X48.766 Y43.505
X48.964 Y43.63
X49.034 Y43.676
X49.102 Y43.725
X49.168 Y43.777
X49.605 Y44.135
X49.85 Y44.336
X50.03 Y44.496
X50.065 Y44.538
X50.835 Y45.477
X50.882 Y45.544
X51.037 Y45.831
X51.439 Y46.584
X51.522 Y46.753
X51.585 Y46.954
X51.89 Y47.961
X51.914 Y48.061
X51.926 Y48.162
X52.025 Y49.169
X52.044 Y49.371
Y49.427
X52.03 Y49.572
X51.931 Y50.578
X51.906 Y50.78
X51.842 Y50.997
X51.542 Y51.988
X51.505 Y52.089
X51.439 Y52.216
X50.915 Y53.196
X50.88 Y53.26
X50.835 Y53.323
X50.114 Y54.203
X50.03 Y54.304
X49.923 Y54.404
X49.023 Y55.143
X48.935 Y55.21
X48.821 Y55.273
X47.81 Y55.814
X47.712 Y55.86
X47.613 Y55.891
X46.54 Y56.216
X46.405 Y56.251
X46.204 Y56.273
X45.096 Y56.382
X44.995 Y56.379
X43.787 Y56.26
X43.686 Y56.245
X43.584 Y56.216
X42.579 Y55.911
X42.377 Y55.846
X42.314 Y55.814
X41.37 Y55.309
X41.189 Y55.21
X41.169 Y55.196
X40.937 Y55.008
X40.162 Y54.372
X40.01 Y54.203
X39.349 Y53.397
X39.268 Y53.297
X39.208 Y53.196
X38.67 Y52.189
X38.618 Y52.089
X38.582 Y51.988
X38.277 Y50.981
X38.218 Y50.78
X38.193 Y50.578
X38.093 Y49.572
X38.08 Y49.37
X38.119 Y48.968
X38.198 Y48.162
X38.21 Y48.061
X38.234 Y47.961
X38.551 Y46.915
X38.602 Y46.753
X38.702 Y46.551
X39.155 Y45.703
X39.242 Y45.544
X39.357 Y45.394
X40.059 Y44.538
X40.162 Y44.428
X41.01 Y43.732
X41.169 Y43.604
X41.295 Y43.531
X42.176 Y43.06
X42.377 Y42.954
X42.453 Y42.927
X43.586 Y42.583
X43.686 Y42.555
X43.787 Y42.54
X44.995 Y42.421
X45.096 Y42.418
X46.204 Y42.527
X46.405 Y42.549
X46.606 Y42.604
X47.671 Y42.927
X47.743 Y42.953
X47.815 Y42.989
X48.829 Y43.531
X48.926 Y43.585
X49.023 Y43.657
X49.168 Y43.777
G3 X49.309 Y44.494 I-0.397 J0.45
G1 X49.268 Y44.578 Z24.007
X49.227 Y44.66 Z24.029
X49.188 Y44.738 Z24.065
X49.153 Y44.81 Z24.115
X49.121 Y44.874 Z24.176
X49.094 Y44.929 Z24.247
X49.072 Y44.973 Z24.328
X49.056 Y45.005 Z24.415
X49.046 Y45.025 Z24.506
X49.043 Y45.031 Z24.6
G0 Z46
X45.063 Y49.4
Z38.05
Z36.65
G1 Z36.05 F850
Z19 F283.3
X45.057 Y49.437 F850
X45.02 Y49.447
X44.993 Y49.421
X44.986 Y49.384
X44.999 Y49.349
X45.026 Y49.324
X45.063 Y49.314
X45.099 Y49.321
X45.13 Y49.343
X45.148 Y49.376
X45.151 Y49.413
X45.14 Y49.449
X45.12 Y49.481
X45.091 Y49.505
X45.056 Y49.518
X45.018 Y49.519
X44.982 Y49.508
X44.951 Y49.488
X44.927 Y49.459
X44.894 Y49.392
X44.9 Y49.317
X44.938 Y49.252
X44.999 Y49.209
X45.072 Y49.193
X45.146 Y49.205
X45.211 Y49.244
X45.258 Y49.302
X45.284 Y49.372
X45.287 Y49.447
X45.267 Y49.519
X45.227 Y49.583
X45.17 Y49.632
X45.102 Y49.663
X45.028 Y49.674
X44.879 Y49.656
X44.757 Y49.568
X44.688 Y49.435
X44.679 Y49.285
X44.73 Y49.144
X44.829 Y49.032
X44.962 Y48.961
X45.111 Y48.941
X45.258 Y48.971
X45.387 Y49.046
X45.488 Y49.158
X45.55 Y49.294
X45.57 Y49.443
X45.547 Y49.591
X45.483 Y49.727
X45.385 Y49.84
X45.261 Y49.926
X45.121 Y49.978
X44.972 Y49.994
X44.823 Y49.974
X44.683 Y49.919
X44.561 Y49.833
X44.459 Y49.722
X44.387 Y49.591
X44.343 Y49.448
X44.331 Y49.298
X44.35 Y49.149
X44.399 Y49.007
X44.476 Y48.879
X44.576 Y48.767
X44.696 Y48.677
X44.831 Y48.611
X44.975 Y48.571
X45.125 Y48.558
X45.274 Y48.573
X45.418 Y48.614
X45.554 Y48.679
X45.675 Y48.767
X45.78 Y48.874
X45.866 Y48.997
X45.93 Y49.133
X45.971 Y49.277
X45.987 Y49.426
X45.981 Y49.576
X45.95 Y49.723
X45.94 Y49.752
X45.915 Y49.813
X45.887 Y49.873
X45.855 Y49.931
X45.819 Y49.981
X45.801 Y50.002
X45.705 Y50.102
X45.657 Y50.145
X45.609 Y50.182
X45.599 Y50.189
X45.499 Y50.244
X45.398 Y50.293
X45.348 Y50.311
X45.297 Y50.324
X45.197 Y50.341
X45.096 Y50.354
X44.995 Y50.351
X44.794 Y50.316
X44.744 Y50.3
X44.693 Y50.279
X44.593 Y50.228
X44.515 Y50.182
X44.453 Y50.133
X44.391 Y50.074
X44.305 Y49.981
X44.269 Y49.931
X44.24 Y49.882
X44.188 Y49.78
X44.149 Y49.679
X44.128 Y49.578
X44.112 Y49.478
X44.108 Y49.377
X44.136 Y49.175
X44.158 Y49.097
X44.19 Y49.018
X44.212 Y48.974
X44.267 Y48.873
X44.345 Y48.773
X44.391 Y48.726
X44.492 Y48.635
X44.542 Y48.6
X44.594 Y48.571
X44.694 Y48.521
X44.794 Y48.484
X44.995 Y48.449
X45.096 Y48.446
X45.197 Y48.459
X45.297 Y48.476
X45.348 Y48.489
X45.398 Y48.507
X45.53 Y48.571
X45.599 Y48.612
X45.689 Y48.683
X45.779 Y48.773
X45.801 Y48.798
X45.865 Y48.886
X45.912 Y48.974
X45.958 Y49.075
X45.988 Y49.175
X46.002 Y49.259
X46.016 Y49.377
X46.014 Y49.459
X46.002 Y49.541
X45.996 Y49.578
X45.975 Y49.679
X45.935 Y49.78
X45.884 Y49.88
X45.855 Y49.931
G3 X45.148 Y50.115 I-0.473 J-0.369
G1 X45.062 Y50.078 Z19.007
X44.977 Y50.043 Z19.029
X44.897 Y50.009 Z19.065
X44.823 Y49.978 Z19.115
X44.757 Y49.95 Z19.176
X44.701 Y49.926 Z19.247
X44.656 Y49.907 Z19.328
X44.622 Y49.893 Z19.415
X44.602 Y49.884 Z19.506
X44.595 Y49.881 Z19.6
G0 Z46

(2D Adaptive15)
X45.062 Y-25.6
Z46
Z38.05
Z36.65
G1 Z36.05 F850
Z24 F283.3
X45.024 Y-25.604 F850
X45.014 Y-25.64
X45.038 Y-25.668
X45.075 Y-25.676
X45.11 Y-25.665
X45.137 Y-25.638
X45.148 Y-25.603
X45.142 Y-25.566
X45.121 Y-25.534
X45.089 Y-25.515
X45.052 Y-25.511
X45.016 Y-25.52
X44.983 Y-25.539
X44.958 Y-25.567
X44.944 Y-25.601
X44.941 Y-25.639
X44.951 Y-25.675
X44.97 Y-25.707
X44.997 Y-25.733
X45.063 Y-25.768
X45.138 Y-25.765
X45.204 Y-25.73
X45.25 Y-25.67
X45.269 Y-25.598
X45.26 Y-25.523
X45.224 Y-25.458
X45.168 Y-25.408
X45.099 Y-25.379
X45.024 Y-25.373
X44.951 Y-25.39
X44.886 Y-25.428
X44.835 Y-25.483
X44.801 Y-25.549
X44.787 Y-25.623
X44.799 Y-25.773
X44.882 Y-25.898
X45.012 Y-25.973
X45.161 Y-25.987
X45.304 Y-25.942
X45.421 Y-25.847
X45.496 Y-25.718
X45.522 Y-25.57
X45.498 Y-25.422
X45.428 Y-25.289
X45.321 Y-25.184
X45.187 Y-25.116
X45.04 Y-25.091
X44.891 Y-25.108
X44.752 Y-25.166
X44.635 Y-25.26
X44.545 Y-25.379
X44.487 Y-25.518
X44.464 Y-25.666
X44.479 Y-25.815
X44.528 Y-25.957
X44.609 Y-26.083
X44.715 Y-26.189
X44.844 Y-26.267
X44.985 Y-26.316
X45.134 Y-26.334
X45.284 Y-26.321
X45.427 Y-26.278
X45.559 Y-26.207
X45.675 Y-26.111
X45.769 Y-25.995
X45.841 Y-25.863
X45.886 Y-25.72
X45.905 Y-25.571
X45.897 Y-25.421
X45.862 Y-25.276
X45.802 Y-25.138
X45.719 Y-25.013
X45.617 Y-24.904
X45.497 Y-24.813
X45.364 Y-24.744
X45.222 Y-24.697
X45.073 Y-24.674
X44.923 Y-24.675
X44.775 Y-24.699
X44.633 Y-24.746
X44.499 Y-24.814
X44.377 Y-24.901
X44.269 Y-25.005
X44.178 Y-25.124
X44.105 Y-25.255
X44.051 Y-25.395
X44.018 Y-25.542
X44.005 Y-25.691
X44.014 Y-25.841
X44.043 Y-25.988
X44.091 Y-26.13
X44.159 Y-26.264
X44.244 Y-26.387
X44.344 Y-26.499
X44.458 Y-26.596
X44.584 Y-26.679
X44.719 Y-26.743
X44.861 Y-26.791
X45.008 Y-26.821
X45.158 Y-26.831
X45.308 Y-26.824
X45.455 Y-26.798
X45.599 Y-26.754
X45.736 Y-26.694
X45.865 Y-26.618
X45.985 Y-26.527
X46.093 Y-26.423
X46.188 Y-26.307
X46.269 Y-26.181
X46.335 Y-26.046
X46.386 Y-25.905
X46.421 Y-25.759
X46.439 Y-25.61
X46.441 Y-25.46
X46.426 Y-25.311
X46.395 Y-25.164
X46.349 Y-25.021
X46.288 Y-24.884
X46.212 Y-24.755
X46.124 Y-24.634
X46.023 Y-24.523
X45.911 Y-24.423
X45.79 Y-24.335
X45.66 Y-24.26
X45.523 Y-24.199
X45.38 Y-24.152
X45.234 Y-24.119
X45.085 Y-24.101
X44.935 Y-24.098
X44.786 Y-24.11
X44.638 Y-24.135
X44.493 Y-24.176
X44.353 Y-24.23
X44.219 Y-24.297
X44.092 Y-24.376
X43.973 Y-24.467
X43.863 Y-24.569
X43.762 Y-24.681
X43.673 Y-24.801
X43.595 Y-24.929
X43.529 Y-25.064
X43.476 Y-25.204
X43.435 Y-25.349
X43.408 Y-25.496
X43.394 Y-25.646
Y-25.796
X43.406 Y-25.945
X43.432 Y-26.093
X43.47 Y-26.238
X43.522 Y-26.379
X43.585 Y-26.515
X43.659 Y-26.645
X43.744 Y-26.769
X43.84 Y-26.884
X43.945 Y-26.991
X44.058 Y-27.089
X44.18 Y-27.177
X44.308 Y-27.255
X44.443 Y-27.322
X44.582 Y-27.377
X44.725 Y-27.421
X44.872 Y-27.453
X45.021 Y-27.473
X45.17 Y-27.481
X45.32 Y-27.477
X45.469 Y-27.461
X45.617 Y-27.433
X45.761 Y-27.394
X45.903 Y-27.343
X46.039 Y-27.281
X46.171 Y-27.209
X46.296 Y-27.127
X46.415 Y-27.035
X46.527 Y-26.935
X46.63 Y-26.826
X46.725 Y-26.71
X46.811 Y-26.587
X46.887 Y-26.458
X46.953 Y-26.323
X47.009 Y-26.184
X47.054 Y-26.041
X47.089 Y-25.895
X47.113 Y-25.747
X47.126 Y-25.598
X47.128 Y-25.448
X47.119 Y-25.298
X47.099 Y-25.149
X47.068 Y-25.002
X47.027 Y-24.858
X46.976 Y-24.717
X46.915 Y-24.58
X46.844 Y-24.448
X46.764 Y-24.321
X46.675 Y-24.2
X46.578 Y-24.086
X46.473 Y-23.979
X46.361 Y-23.879
X46.242 Y-23.787
X46.117 Y-23.704
X45.987 Y-23.63
X45.852 Y-23.565
X45.713 Y-23.509
X45.57 Y-23.463
X45.424 Y-23.426
X45.277 Y-23.4
X45.128 Y-23.383
X44.978 Y-23.377
X44.828 Y-23.38
X44.678 Y-23.393
X44.53 Y-23.417
X44.384 Y-23.45
X44.24 Y-23.493
X44.099 Y-23.545
X43.962 Y-23.606
X43.83 Y-23.675
X43.702 Y-23.754
X43.579 Y-23.84
X43.462 Y-23.934
X43.352 Y-24.036
X43.248 Y-24.144
X43.152 Y-24.259
X43.062 Y-24.379
X42.981 Y-24.506
X42.908 Y-24.636
X42.843 Y-24.772
X42.787 Y-24.911
X42.739 Y-25.053
X42.701 Y-25.198
X42.671 Y-25.345
X42.651 Y-25.494
X42.64 Y-25.643
X42.638 Y-25.793
X42.645 Y-25.943
X42.662 Y-26.092
X42.687 Y-26.24
X42.722 Y-26.386
X42.765 Y-26.53
X42.817 Y-26.67
X42.877 Y-26.808
X42.945 Y-26.941
X43.022 Y-27.071
X43.105 Y-27.195
X43.196 Y-27.314
X43.294 Y-27.428
X43.398 Y-27.536
X43.509 Y-27.637
X43.625 Y-27.732
X43.747 Y-27.82
X43.873 Y-27.9
X44.004 Y-27.973
X44.139 Y-28.039
X44.278 Y-28.096
X44.42 Y-28.146
X44.564 Y-28.187
X44.71 Y-28.219
X44.858 Y-28.244
X45.007 Y-28.26
X45.159 Y-28.267
X45.309 Y-28.266
X45.458 Y-28.257
X45.609 Y-28.239
X45.759 Y-28.212
X45.905 Y-28.177
X46.049 Y-28.134
X46.194 Y-28.082
X46.335 Y-28.022
X46.471 Y-27.955
X46.604 Y-27.88
X46.735 Y-27.795
X46.861 Y-27.704
X46.979 Y-27.608
X47.094 Y-27.503
X47.204 Y-27.391
X47.307 Y-27.273
X47.402 Y-27.151
X47.491 Y-27.022
X47.574 Y-26.886
X47.649 Y-26.746
X47.715 Y-26.604
X47.774 Y-26.458
X47.825 Y-26.306
X47.867 Y-26.15
X47.901 Y-25.995
X47.925 Y-25.838
X47.941 Y-25.677
X47.948 Y-25.514
X47.946 Y-25.352
X47.934 Y-25.192
X47.914 Y-25.032
X47.884 Y-24.87
X47.845 Y-24.71
X47.797 Y-24.554
X47.741 Y-24.401
X47.675 Y-24.25
X47.601 Y-24.101
X47.518 Y-23.956
X47.427 Y-23.817
X47.329 Y-23.684
X47.223 Y-23.555
X47.109 Y-23.432
X46.987 Y-23.314
X46.859 Y-23.204
X46.726 Y-23.101
X46.587 Y-23.007
X46.442 Y-22.919
X46.29 Y-22.839
X46.134 Y-22.767
X45.974 Y-22.705
X45.811 Y-22.651
X45.646 Y-22.607
X45.477 Y-22.572
X45.306 Y-22.546
X45.132 Y-22.53
X44.957 Y-22.524
X44.782 Y-22.528
X44.609 Y-22.541
X44.436 Y-22.564
X44.263 Y-22.598
X44.092 Y-22.641
X43.922 Y-22.694
X43.755 Y-22.756
X43.592 Y-22.828
X43.434 Y-22.909
X43.28 Y-22.998
X43.131 Y-23.097
X42.987 Y-23.204
X42.849 Y-23.32
X42.717 Y-23.444
X42.591 Y-23.575
X42.473 Y-23.714
X42.363 Y-23.859
X42.261 Y-24.01
X42.168 Y-24.167
X42.084 Y-24.329
X42.008 Y-24.496
X41.942 Y-24.668
X41.886 Y-24.844
X41.839 Y-25.024
X41.802 Y-25.207
X41.776 Y-25.392
X41.76 Y-25.578
X41.754 Y-25.765
X41.759 Y-25.952
X41.775 Y-26.14
X41.801 Y-26.326
X41.838 Y-26.511
X41.885 Y-26.694
X41.943 Y-26.875
X42.011 Y-27.053
X42.089 Y-27.227
X42.177 Y-27.397
X42.275 Y-27.562
X42.382 Y-27.722
X42.498 Y-27.876
X42.623 Y-28.024
X42.757 Y-28.164
X42.899 Y-28.298
X43.048 Y-28.423
X43.204 Y-28.54
X43.368 Y-28.649
X43.537 Y-28.748
X43.712 Y-28.838
X43.893 Y-28.917
X44.077 Y-28.987
X44.267 Y-29.047
X44.459 Y-29.095
X44.655 Y-29.133
X44.853 Y-29.16
X45.052 Y-29.176
X45.253 Y-29.181
X45.454 Y-29.174
X45.655 Y-29.156
X45.855 Y-29.126
X46.053 Y-29.086
X46.25 Y-29.034
X46.443 Y-28.971
X46.634 Y-28.896
X46.82 Y-28.811
X47.001 Y-28.716
X47.177 Y-28.61
X47.348 Y-28.494
X47.512 Y-28.369
X47.669 Y-28.234
X47.819 Y-28.09
X47.96 Y-27.938
X48.094 Y-27.777
X48.218 Y-27.609
X48.332 Y-27.434
X48.437 Y-27.252
X48.532 Y-27.064
X48.617 Y-26.87
X48.69 Y-26.672
X48.752 Y-26.469
X48.803 Y-26.263
X48.842 Y-26.054
X48.87 Y-25.842
X48.885 Y-25.629
X48.889 Y-25.414
X48.88 Y-25.199
X48.859 Y-24.985
X48.826 Y-24.771
X48.782 Y-24.56
X48.725 Y-24.35
X48.656 Y-24.144
X48.576 Y-23.942
X48.484 Y-23.743
X48.38 Y-23.55
X48.266 Y-23.363
X48.142 Y-23.182
X48.006 Y-23.007
X47.861 Y-22.84
X47.707 Y-22.682
X47.543 Y-22.532
X47.371 Y-22.391
X47.191 Y-22.259
X47.003 Y-22.138
X46.808 Y-22.027
X46.607 Y-21.928
X46.399 Y-21.839
X46.187 Y-21.762
X45.971 Y-21.697
X45.75 Y-21.644
X45.527 Y-21.604
X45.301 Y-21.576
X45.073 Y-21.561
X44.844 Y-21.559
X44.615 Y-21.569
X44.387 Y-21.593
X44.159 Y-21.629
X43.934 Y-21.679
X43.711 Y-21.741
X43.492 Y-21.815
X43.276 Y-21.903
X43.065 Y-22.002
X42.86 Y-22.113
X42.661 Y-22.236
X42.469 Y-22.371
X42.284 Y-22.516
X42.108 Y-22.671
X41.94 Y-22.837
X41.781 Y-23.012
X41.632 Y-23.196
X41.494 Y-23.389
X41.366 Y-23.59
X41.249 Y-23.798
X41.144 Y-24.013
X41.052 Y-24.234
X40.971 Y-24.461
X40.903 Y-24.692
X40.849 Y-24.926
X40.807 Y-25.164
X40.779 Y-25.405
X40.765 Y-25.647
X40.764 Y-25.89
X40.777 Y-26.133
X40.803 Y-26.376
X40.844 Y-26.617
X40.898 Y-26.856
X40.965 Y-27.093
X41.046 Y-27.325
X41.14 Y-27.554
X41.247 Y-27.777
X41.367 Y-27.994
X41.499 Y-28.204
X41.642 Y-28.408
X41.798 Y-28.603
X41.964 Y-28.789
X42.142 Y-28.967
X42.329 Y-29.134
X42.526 Y-29.291
X42.731 Y-29.437
X42.945 Y-29.571
X43.167 Y-29.693
X43.396 Y-29.803
X43.631 Y-29.9
X43.872 Y-29.984
X44.117 Y-30.054
X44.367 Y-30.11
X44.62 Y-30.153
X44.875 Y-30.181
X45.132 Y-30.195
X45.39 Y-30.194
X45.648 Y-30.179
X45.906 Y-30.149
X46.161 Y-30.104
X46.415 Y-30.045
X46.665 Y-29.972
X46.911 Y-29.885
X47.153 Y-29.784
X47.388 Y-29.669
X47.618 Y-29.54
X47.84 Y-29.399
X48.055 Y-29.245
X48.26 Y-29.079
X48.457 Y-28.901
X48.644 Y-28.712
X48.82 Y-28.513
X48.985 Y-28.303
X49.138 Y-28.084
X49.278 Y-27.857
X49.407 Y-27.621
X49.521 Y-27.378
X49.622 Y-27.128
X49.709 Y-26.873
X49.782 Y-26.613
X49.84 Y-26.348
X49.883 Y-26.08
X49.911 Y-25.809
X49.924 Y-25.537
X49.922 Y-25.264
X49.904 Y-24.991
X49.87 Y-24.719
X49.822 Y-24.449
X49.758 Y-24.181
X49.678 Y-23.917
X49.584 Y-23.657
X49.476 Y-23.402
X49.352 Y-23.154
X49.215 Y-22.912
X49.064 Y-22.678
X48.9 Y-22.452
X48.723 Y-22.236
X48.534 Y-22.029
X48.333 Y-21.833
X48.121 Y-21.648
X47.898 Y-21.475
X47.666 Y-21.315
X47.424 Y-21.168
X47.174 Y-21.034
X46.916 Y-20.914
X46.652 Y-20.809
X46.381 Y-20.719
X46.106 Y-20.644
X45.826 Y-20.584
X45.542 Y-20.541
X45.256 Y-20.513
X44.968 Y-20.501
X44.68 Y-20.506
X44.391 Y-20.527
X44.104 Y-20.564
X43.819 Y-20.617
X43.536 Y-20.686
X43.258 Y-20.772
X42.984 Y-20.873
X42.716 Y-20.99
X42.454 Y-21.121
X42.2 Y-21.268
X41.954 Y-21.429
X41.717 Y-21.604
X41.489 Y-21.792
X41.272 Y-21.993
X41.067 Y-22.207
X40.873 Y-22.432
X40.693 Y-22.668
X40.525 Y-22.914
X40.371 Y-23.17
X40.232 Y-23.435
X40.107 Y-23.707
X39.998 Y-23.987
X39.905 Y-24.273
X39.828 Y-24.564
X39.767 Y-24.859
X39.722 Y-25.159
X39.695 Y-25.46
X39.685 Y-25.764
X39.692 Y-26.067
X39.715 Y-26.371
X39.756 Y-26.674
X39.815 Y-26.974
X39.89 Y-27.271
X39.981 Y-27.564
X40.09 Y-27.851
X40.214 Y-28.133
X40.355 Y-28.408
X40.511 Y-28.675
X40.682 Y-28.933
X40.868 Y-29.181
X41.068 Y-29.419
X41.281 Y-29.646
X41.507 Y-29.861
X41.746 Y-30.063
X41.995 Y-30.252
X42.256 Y-30.427
X42.526 Y-30.587
X42.806 Y-30.732
X43.094 Y-30.861
X43.389 Y-30.974
X43.69 Y-31.071
X43.997 Y-31.15
X44.309 Y-31.212
X44.624 Y-31.257
X44.942 Y-31.283
X45.261 Y-31.292
X45.581 Y-31.283
X45.9 Y-31.256
X46.218 Y-31.21
X46.533 Y-31.147
X46.845 Y-31.066
X47.153 Y-30.968
X47.455 Y-30.852
X47.75 Y-30.719
X48.038 Y-30.569
X48.318 Y-30.403
X48.588 Y-30.221
X48.848 Y-30.024
X49.097 Y-29.813
X49.334 Y-29.587
X49.559 Y-29.348
X49.77 Y-29.096
X49.967 Y-28.832
X50.148 Y-28.557
X50.315 Y-28.272
X50.465 Y-27.977
X50.599 Y-27.674
X50.716 Y-27.363
X50.815 Y-27.046
X50.896 Y-26.723
X50.959 Y-26.395
X51.004 Y-26.064
X51.03 Y-25.73
X51.037 Y-25.395
X51.025 Y-25.059
X50.995 Y-24.724
X50.945 Y-24.39
X50.876 Y-24.059
X50.789 Y-23.733
X50.684 Y-23.411
X50.56 Y-23.094
X50.419 Y-22.785
X50.26 Y-22.484
X50.083 Y-22.192
X49.891 Y-21.909
X49.682 Y-21.638
X49.459 Y-21.378
X49.22 Y-21.131
X48.968 Y-20.897
X48.702 Y-20.677
X48.424 Y-20.473
X48.134 Y-20.284
X47.834 Y-20.111
X47.524 Y-19.955
X47.205 Y-19.817
X46.878 Y-19.696
X46.544 Y-19.595
X46.205 Y-19.511
X45.861 Y-19.447
X45.513 Y-19.403
X45.163 Y-19.378
X44.811 Y-19.373
X44.459 Y-19.387
X44.107 Y-19.422
X43.758 Y-19.476
X43.412 Y-19.55
X43.07 Y-19.644
X42.733 Y-19.757
X42.402 Y-19.888
X42.079 Y-20.039
X41.764 Y-20.208
X41.459 Y-20.394
X41.164 Y-20.598
X40.881 Y-20.818
X40.61 Y-21.055
X40.353 Y-21.306
X40.109 Y-21.572
X39.881 Y-21.852
X39.668 Y-22.145
X39.472 Y-22.45
X39.293 Y-22.765
X39.132 Y-23.091
X38.99 Y-23.426
X38.866 Y-23.769
X38.761 Y-24.119
X38.677 Y-24.475
X38.612 Y-24.836
X38.568 Y-25.2
X38.544 Y-25.567
X38.541 Y-25.935
X38.559 Y-26.304
X38.597 Y-26.671
X38.656 Y-27.036
X38.736 Y-27.398
X38.836 Y-27.756
X38.956 Y-28.108
X39.097 Y-28.453
X39.256 Y-28.79
X39.435 Y-29.118
X39.632 Y-29.436
X39.847 Y-29.743
X40.079 Y-30.038
X40.328 Y-30.319
X40.593 Y-30.587
X40.873 Y-30.84
X41.168 Y-31.076
X41.475 Y-31.297
X41.795 Y-31.5
X42.127 Y-31.685
X42.469 Y-31.851
X42.82 Y-31.998
X43.179 Y-32.125
X43.546 Y-32.232
X43.919 Y-32.318
X44.296 Y-32.383
X44.678 Y-32.427
X45.061 Y-32.45
X45.446
X45.831 Y-32.429
X46.215 Y-32.387
X46.596 Y-32.322
X46.974 Y-32.237
X47.347 Y-32.129
X47.714 Y-32.001
X48.074 Y-31.853
X48.425 Y-31.683
X48.766 Y-31.495
X48.964 Y-31.37
X49.034 Y-31.324
X49.102 Y-31.275
X49.168 Y-31.223
X49.605 Y-30.865
X49.85 Y-30.664
X50.03 Y-30.504
X50.065 Y-30.462
X50.835 Y-29.523
X50.882 Y-29.456
X51.037 Y-29.169
X51.439 Y-28.416
X51.522 Y-28.247
X51.585 Y-28.046
X51.89 Y-27.039
X51.914 Y-26.939
X51.926 Y-26.838
X52.025 Y-25.831
X52.044 Y-25.629
Y-25.573
X52.03 Y-25.428
X51.931 Y-24.422
X51.906 Y-24.22
X51.842 Y-24.003
X51.542 Y-23.012
X51.505 Y-22.911
X51.439 Y-22.784
X50.915 Y-21.804
X50.88 Y-21.74
X50.835 Y-21.677
X50.114 Y-20.797
X50.03 Y-20.696
X49.923 Y-20.596
X49.023 Y-19.857
X48.935 Y-19.79
X48.821 Y-19.727
X47.81 Y-19.186
X47.712 Y-19.14
X47.613 Y-19.109
X46.54 Y-18.784
X46.405 Y-18.749
X46.204 Y-18.727
X45.096 Y-18.618
X44.995 Y-18.621
X43.787 Y-18.74
X43.686 Y-18.755
X43.584 Y-18.784
X42.579 Y-19.089
X42.377 Y-19.154
X42.314 Y-19.186
X41.37 Y-19.691
X41.189 Y-19.79
X41.169 Y-19.804
X40.937 Y-19.992
X40.162 Y-20.628
X40.01 Y-20.797
X39.349 Y-21.603
X39.268 Y-21.703
X39.208 Y-21.804
X38.67 Y-22.811
X38.618 Y-22.911
X38.582 Y-23.012
X38.277 Y-24.019
X38.218 Y-24.22
X38.193 Y-24.422
X38.093 Y-25.428
X38.08 Y-25.63
X38.119 Y-26.032
X38.198 Y-26.838
X38.21 Y-26.939
X38.234 Y-27.039
X38.551 Y-28.085
X38.602 Y-28.247
X38.702 Y-28.449
X39.155 Y-29.297
X39.242 Y-29.456
X39.357 Y-29.606
X40.059 Y-30.462
X40.162 Y-30.572
X41.01 Y-31.268
X41.169 Y-31.396
X41.295 Y-31.469
X42.176 Y-31.94
X42.377 Y-32.046
X42.453 Y-32.073
X43.586 Y-32.417
X43.686 Y-32.445
X43.787 Y-32.46
X44.995 Y-32.579
X45.096 Y-32.582
X46.204 Y-32.473
X46.405 Y-32.451
X46.606 Y-32.396
X47.671 Y-32.073
X47.743 Y-32.047
X47.815 Y-32.011
X48.829 Y-31.469
X48.926 Y-31.415
X49.023 Y-31.343
X49.168 Y-31.223
G3 X49.309 Y-30.506 I-0.397 J0.45
G1 X49.268 Y-30.422 Z24.007
X49.227 Y-30.34 Z24.029
X49.188 Y-30.262 Z24.065
X49.153 Y-30.19 Z24.115
X49.121 Y-30.126 Z24.176
X49.094 Y-30.071 Z24.247
X49.072 Y-30.027 Z24.328
X49.056 Y-29.995 Z24.415
X49.046 Y-29.975 Z24.506
X49.043 Y-29.969 Z24.6
G0 Z46
X45.063 Y-25.6
Z38.05
Z36.65
G1 Z36.05 F850
Z19 F283.3
X45.057 Y-25.563 F850
X45.02 Y-25.553
X44.993 Y-25.579
X44.986 Y-25.616
X44.999 Y-25.651
X45.026 Y-25.676
X45.063 Y-25.686
X45.099 Y-25.679
X45.13 Y-25.657
X45.148 Y-25.624
X45.151 Y-25.587
X45.14 Y-25.551
X45.12 Y-25.519
X45.091 Y-25.495
X45.056 Y-25.482
X45.018 Y-25.481
X44.982 Y-25.492
X44.951 Y-25.512
X44.927 Y-25.541
X44.894 Y-25.608
X44.9 Y-25.683
X44.938 Y-25.748
X44.999 Y-25.791
X45.072 Y-25.807
X45.146 Y-25.795
X45.211 Y-25.756
X45.258 Y-25.698
X45.284 Y-25.628
X45.287 Y-25.553
X45.267 Y-25.481
X45.227 Y-25.417
X45.17 Y-25.368
X45.102 Y-25.337
X45.028 Y-25.326
X44.879 Y-25.344
X44.757 Y-25.432
X44.688 Y-25.565
X44.679 Y-25.715
X44.73 Y-25.856
X44.829 Y-25.968
X44.962 Y-26.039
X45.111 Y-26.059
X45.258 Y-26.029
X45.387 Y-25.954
X45.488 Y-25.842
X45.55 Y-25.706
X45.57 Y-25.557
X45.547 Y-25.409
X45.483 Y-25.273
X45.385 Y-25.16
X45.261 Y-25.074
X45.121 Y-25.022
X44.972 Y-25.006
X44.823 Y-25.026
X44.683 Y-25.081
X44.561 Y-25.167
X44.459 Y-25.278
X44.387 Y-25.409
X44.343 Y-25.552
X44.331 Y-25.702
X44.35 Y-25.851
X44.399 Y-25.993
X44.476 Y-26.121
X44.576 Y-26.233
X44.696 Y-26.323
X44.831 Y-26.389
X44.975 Y-26.429
X45.125 Y-26.442
X45.274 Y-26.427
X45.418 Y-26.386
X45.554 Y-26.321
X45.675 Y-26.233
X45.78 Y-26.126
X45.866 Y-26.003
X45.93 Y-25.867
X45.971 Y-25.723
X45.987 Y-25.574
X45.981 Y-25.424
X45.95 Y-25.277
X45.94 Y-25.248
X45.915 Y-25.187
X45.887 Y-25.127
X45.855 Y-25.069
X45.819 Y-25.019
X45.801 Y-24.998
X45.705 Y-24.898
X45.657 Y-24.855
X45.609 Y-24.818
X45.599 Y-24.811
X45.499 Y-24.756
X45.398 Y-24.707
X45.348 Y-24.689
X45.297 Y-24.676
X45.197 Y-24.659
X45.096 Y-24.646
X44.995 Y-24.649
X44.794 Y-24.684
X44.744 Y-24.7
X44.693 Y-24.721
X44.593 Y-24.772
X44.515 Y-24.818
X44.453 Y-24.867
X44.391 Y-24.926
X44.305 Y-25.019
X44.269 Y-25.069
X44.24 Y-25.118
X44.188 Y-25.22
X44.149 Y-25.321
X44.128 Y-25.422
X44.112 Y-25.522
X44.108 Y-25.623
X44.136 Y-25.825
X44.158 Y-25.903
X44.19 Y-25.982
X44.212 Y-26.026
X44.267 Y-26.127
X44.345 Y-26.227
X44.391 Y-26.274
X44.492 Y-26.365
X44.542 Y-26.4
X44.594 Y-26.429
X44.694 Y-26.479
X44.794 Y-26.516
X44.995 Y-26.551
X45.096 Y-26.554
X45.197 Y-26.541
X45.297 Y-26.524
X45.348 Y-26.511
X45.398 Y-26.493
X45.53 Y-26.429
X45.599 Y-26.388
X45.689 Y-26.317
X45.779 Y-26.227
X45.801 Y-26.202
X45.865 Y-26.114
X45.912 Y-26.026
X45.958 Y-25.925
X45.988 Y-25.825
X46.002 Y-25.741
X46.016 Y-25.623
X46.014 Y-25.541
X46.002 Y-25.459
X45.996 Y-25.422
X45.975 Y-25.321
X45.935 Y-25.22
X45.884 Y-25.12
X45.855 Y-25.069
G3 X45.148 Y-24.885 I-0.473 J-0.369
G1 X45.062 Y-24.922 Z19.007
X44.977 Y-24.957 Z19.029
X44.897 Y-24.991 Z19.065
X44.823 Y-25.022 Z19.115
X44.757 Y-25.05 Z19.176
X44.701 Y-25.074 Z19.247
X44.656 Y-25.093 Z19.328
X44.622 Y-25.107 Z19.415
X44.602 Y-25.116 Z19.506
X44.595 Y-25.119 Z19.6
G0 Z46

(2D Adaptive15)
X45.062 Y-100.6
Z46
Z38.05
Z36.65
G1 Z36.05 F850
Z24 F283.3
X45.024 Y-100.604 F850
X45.014 Y-100.64
X45.038 Y-100.668
X45.075 Y-100.676
X45.11 Y-100.665
X45.137 Y-100.638
X45.148 Y-100.603
X45.142 Y-100.566
X45.121 Y-100.534
X45.089 Y-100.515
X45.052 Y-100.511
X45.016 Y-100.52
X44.983 Y-100.539
X44.958 Y-100.567
X44.944 Y-100.601
X44.941 Y-100.639
X44.951 Y-100.675
X44.97 Y-100.707
X44.997 Y-100.733
X45.063 Y-100.768
X45.138 Y-100.765
X45.204 Y-100.73
X45.25 Y-100.67
X45.269 Y-100.598
X45.26 Y-100.523
X45.224 Y-100.458
X45.168 Y-100.408
X45.099 Y-100.379
X45.024 Y-100.373
X44.951 Y-100.39
X44.886 Y-100.428
X44.835 Y-100.483
X44.801 Y-100.549
X44.787 Y-100.623
X44.799 Y-100.773
X44.882 Y-100.898
X45.012 Y-100.973
X45.161 Y-100.987
X45.304 Y-100.942
X45.421 Y-100.847
X45.496 Y-100.718
X45.522 Y-100.57
X45.498 Y-100.422
X45.428 Y-100.289
X45.321 Y-100.184
X45.187 Y-100.116
X45.04 Y-100.091
X44.891 Y-100.108
X44.752 Y-100.166
X44.635 Y-100.26
X44.545 Y-100.379
X44.487 Y-100.518
X44.464 Y-100.666
X44.479 Y-100.815
X44.528 Y-100.957
X44.609 Y-101.083
X44.715 Y-101.189
X44.844 Y-101.267
X44.985 Y-101.316
X45.134 Y-101.334
X45.284 Y-101.321
X45.427 Y-101.278
X45.559 Y-101.207
X45.675 Y-101.111
X45.769 Y-100.995
X45.841 Y-100.863
X45.886 Y-100.72
X45.905 Y-100.571
X45.897 Y-100.421
X45.862 Y-100.276
X45.802 Y-100.138
X45.719 Y-100.013
X45.617 Y-99.904
X45.497 Y-99.813
X45.364 Y-99.744
X45.222 Y-99.697
X45.073 Y-99.674
X44.923 Y-99.675
X44.775 Y-99.699
X44.633 Y-99.746
X44.499 Y-99.814
X44.377 Y-99.901
X44.269 Y-100.005
X44.178 Y-100.124
X44.105 Y-100.255
X44.051 Y-100.395
X44.018 Y-100.542
X44.005 Y-100.691
X44.014 Y-100.841
X44.043 Y-100.988
X44.091 Y-101.13
X44.159 Y-101.264
X44.244 Y-101.387
X44.344 Y-101.499
X44.458 Y-101.596
X44.584 Y-101.679
X44.719 Y-101.743
X44.861 Y-101.791
X45.008 Y-101.821
X45.158 Y-101.831
X45.308 Y-101.824
X45.455 Y-101.798
X45.599 Y-101.754
X45.736 Y-101.694
X45.865 Y-101.618
X45.985 Y-101.527
X46.093 Y-101.423
X46.188 Y-101.307
X46.269 Y-101.181
X46.335 Y-101.046
X46.386 Y-100.905
X46.421 Y-100.759
X46.439 Y-100.61
X46.441 Y-100.46
X46.426 Y-100.311
X46.395 Y-100.164
X46.349 Y-100.021
X46.288 Y-99.884
X46.212 Y-99.755
X46.124 Y-99.634
X46.023 Y-99.523
X45.911 Y-99.423
X45.79 Y-99.335
X45.66 Y-99.26
X45.523 Y-99.199
X45.38 Y-99.152
X45.234 Y-99.119
X45.085 Y-99.101
X44.935 Y-99.098
X44.786 Y-99.11
X44.638 Y-99.135
X44.493 Y-99.176
X44.353 Y-99.23
X44.219 Y-99.297
X44.092 Y-99.376
X43.973 Y-99.467
X43.863 Y-99.569
X43.762 Y-99.681
X43.673 Y-99.801
X43.595 Y-99.929
X43.529 Y-100.064
X43.476 Y-100.204
X43.435 Y-100.349
X43.408 Y-100.496
X43.394 Y-100.646
Y-100.796
X43.406 Y-100.945
X43.432 Y-101.093
X43.47 Y-101.238
X43.522 Y-101.379
X43.585 Y-101.515
X43.659 Y-101.645
X43.744 Y-101.769
X43.84 Y-101.884
X43.945 Y-101.991
X44.058 Y-102.089
X44.18 Y-102.177
X44.308 Y-102.255
X44.443 Y-102.322
X44.582 Y-102.377
X44.725 Y-102.421
X44.872 Y-102.453
X45.021 Y-102.473
X45.17 Y-102.481
X45.32 Y-102.477
X45.469 Y-102.461
X45.617 Y-102.433
X45.761 Y-102.394
X45.903 Y-102.343
X46.039 Y-102.281
X46.171 Y-102.209
X46.296 Y-102.127
X46.415 Y-102.035
X46.527 Y-101.935
X46.63 Y-101.826
X46.725 Y-101.71
X46.811 Y-101.587
X46.887 Y-101.458
X46.953 Y-101.323
X47.009 Y-101.184
X47.054 Y-101.041
X47.089 Y-100.895
X47.113 Y-100.747
X47.126 Y-100.598
X47.128 Y-100.448
X47.119 Y-100.298
X47.099 Y-100.149
X47.068 Y-100.002
X47.027 Y-99.858
X46.976 Y-99.717
X46.915 Y-99.58
X46.844 Y-99.448
X46.764 Y-99.321
X46.675 Y-99.2
X46.578 Y-99.086
X46.473 Y-98.979
X46.361 Y-98.879
X46.242 Y-98.787
X46.117 Y-98.704
X45.987 Y-98.63
X45.852 Y-98.565
X45.713 Y-98.509
X45.57 Y-98.463
X45.424 Y-98.426
X45.277 Y-98.4
X45.128 Y-98.383
X44.978 Y-98.377
X44.828 Y-98.38
X44.678 Y-98.393
X44.53 Y-98.417
X44.384 Y-98.45
X44.24 Y-98.493
X44.099 Y-98.545
X43.962 Y-98.606
X43.83 Y-98.675
X43.702 Y-98.754
X43.579 Y-98.84
X43.462 Y-98.934
X43.352 Y-99.036
X43.248 Y-99.144
X43.152 Y-99.259
X43.062 Y-99.379
X42.981 Y-99.506
X42.908 Y-99.636
X42.843 Y-99.772
X42.787 Y-99.911
X42.739 Y-100.053
X42.701 Y-100.198
X42.671 Y-100.345
X42.651 Y-100.494
X42.64 Y-100.643
X42.638 Y-100.793
X42.645 Y-100.943
X42.662 Y-101.092
X42.687 Y-101.24
X42.722 Y-101.386
X42.765 Y-101.53
X42.817 Y-101.67
X42.877 Y-101.808
X42.945 Y-101.941
X43.022 Y-102.071
X43.105 Y-102.195
X43.196 Y-102.314
X43.294 Y-102.428
X43.398 Y-102.536
X43.509 Y-102.637
X43.625 Y-102.732
X43.747 Y-102.82
X43.873 Y-102.9
X44.004 Y-102.973
X44.139 Y-103.039
X44.278 Y-103.096
X44.42 Y-103.146
X44.564 Y-103.187
X44.71 Y-103.219
X44.858 Y-103.244
X45.007 Y-103.26
X45.159 Y-103.267
X45.309 Y-103.266
X45.458 Y-103.257
X45.609 Y-103.239
X45.759 Y-103.212
X45.905 Y-103.177
X46.049 Y-103.134
X46.194 Y-103.082
X46.335 Y-103.022
X46.471 Y-102.955
X46.604 Y-102.88
X46.735 Y-102.795
X46.861 Y-102.704
X46.979 Y-102.608
X47.094 Y-102.503
X47.204 Y-102.391
X47.307 Y-102.273
X47.402 Y-102.151
X47.491 Y-102.022
X47.574 Y-101.886
X47.649 Y-101.746
X47.715 Y-101.604
X47.774 Y-101.458
X47.825 Y-101.306
X47.867 Y-101.15
X47.901 Y-100.995
X47.925 Y-100.838
X47.941 Y-100.677
X47.948 Y-100.514
X47.946 Y-100.352
X47.934 Y-100.192
X47.914 Y-100.032
X47.884 Y-99.87
X47.845 Y-99.71
X47.797 Y-99.554
X47.741 Y-99.401
X47.675 Y-99.25
X47.601 Y-99.101
X47.518 Y-98.956
X47.427 Y-98.817
X47.329 Y-98.684
X47.223 Y-98.555
X47.109 Y-98.432
X46.987 Y-98.314
X46.859 Y-98.204
X46.726 Y-98.101
X46.587 Y-98.007
X46.442 Y-97.919
X46.29 Y-97.839
X46.134 Y-97.767
X45.974 Y-97.705
X45.811 Y-97.651
X45.646 Y-97.607
X45.477 Y-97.572
X45.306 Y-97.546
X45.132 Y-97.53
X44.957 Y-97.524
X44.782 Y-97.528
X44.609 Y-97.541
X44.436 Y-97.564
X44.263 Y-97.598
X44.092 Y-97.641
X43.922 Y-97.694
X43.755 Y-97.756
X43.592 Y-97.828
X43.434 Y-97.909
X43.28 Y-97.998
X43.131 Y-98.097
X42.987 Y-98.204
X42.849 Y-98.32
X42.717 Y-98.444
X42.591 Y-98.575
X42.473 Y-98.714
X42.363 Y-98.859
X42.261 Y-99.01
X42.168 Y-99.167
X42.084 Y-99.329
X42.008 Y-99.496
X41.942 Y-99.668
X41.886 Y-99.844
X41.839 Y-100.024
X41.802 Y-100.207
X41.776 Y-100.392
X41.76 Y-100.578
X41.754 Y-100.765
X41.759 Y-100.952
X41.775 Y-101.14
X41.801 Y-101.326
X41.838 Y-101.511
X41.885 Y-101.694
X41.943 Y-101.875
X42.011 Y-102.053
X42.089 Y-102.227
X42.177 Y-102.397
X42.275 Y-102.562
X42.382 Y-102.722
X42.498 Y-102.876
X42.623 Y-103.024
X42.757 Y-103.164
X42.899 Y-103.298
X43.048 Y-103.423
X43.204 Y-103.54
X43.368 Y-103.649
X43.537 Y-103.748
X43.712 Y-103.838
X43.893 Y-103.917
X44.077 Y-103.987
X44.267 Y-104.047
X44.459 Y-104.095
X44.655 Y-104.133
X44.853 Y-104.16
X45.052 Y-104.176
X45.253 Y-104.181
X45.454 Y-104.174
X45.655 Y-104.156
X45.855 Y-104.126
X46.053 Y-104.086
X46.25 Y-104.034
X46.443 Y-103.971
X46.634 Y-103.896
X46.82 Y-103.811
X47.001 Y-103.716
X47.177 Y-103.61
X47.348 Y-103.494
X47.512 Y-103.369
X47.669 Y-103.234
X47.819 Y-103.09
X47.96 Y-102.938
X48.094 Y-102.777
X48.218 Y-102.609
X48.332 Y-102.434
X48.437 Y-102.252
X48.532 Y-102.064
X48.617 Y-101.87
X48.69 Y-101.672
X48.752 Y-101.469
X48.803 Y-101.263
X48.842 Y-101.054
X48.87 Y-100.842
X48.885 Y-100.629
X48.889 Y-100.414
X48.88 Y-100.199
X48.859 Y-99.985
X48.826 Y-99.771
X48.782 Y-99.56
X48.725 Y-99.35
X48.656 Y-99.144
X48.576 Y-98.942
X48.484 Y-98.743
X48.38 Y-98.55
X48.266 Y-98.363
X48.142 Y-98.182
X48.006 Y-98.007
X47.861 Y-97.84
X47.707 Y-97.682
X47.543 Y-97.532
X47.371 Y-97.391
X47.191 Y-97.259
X47.003 Y-97.138
X46.808 Y-97.027
X46.607 Y-96.928
X46.399 Y-96.839
X46.187 Y-96.762
X45.971 Y-96.697
X45.75 Y-96.644
X45.527 Y-96.604
X45.301 Y-96.576
X45.073 Y-96.561
X44.844 Y-96.559
X44.615 Y-96.569
X44.387 Y-96.593
X44.159 Y-96.629
X43.934 Y-96.679
X43.711 Y-96.741
X43.492 Y-96.815
X43.276 Y-96.903
X43.065 Y-97.002
X42.86 Y-97.113
X42.661 Y-97.236
X42.469 Y-97.371
X42.284 Y-97.516
X42.108 Y-97.671
X41.94 Y-97.837
X41.781 Y-98.012
X41.632 Y-98.196
X41.494 Y-98.389
X41.366 Y-98.59
X41.249 Y-98.798
X41.144 Y-99.013
X41.052 Y-99.234
X40.971 Y-99.461
X40.903 Y-99.692
X40.849 Y-99.926
X40.807 Y-100.164
X40.779 Y-100.405
X40.765 Y-100.647
X40.764 Y-100.89
X40.777 Y-101.133
X40.803 Y-101.376
X40.844 Y-101.617
X40.898 Y-101.856
X40.965 Y-102.093
X41.046 Y-102.325
X41.14 Y-102.554
X41.247 Y-102.777
X41.367 Y-102.994
X41.499 Y-103.204
X41.642 Y-103.408
X41.798 Y-103.603
X41.964 Y-103.789
X42.142 Y-103.967
X42.329 Y-104.134
X42.526 Y-104.291
X42.731 Y-104.437
X42.945 Y-104.571
X43.167 Y-104.693
X43.396 Y-104.803
X43.631 Y-104.9
X43.872 Y-104.984
X44.117 Y-105.054
X44.367 Y-105.11
X44.62 Y-105.153
X44.875 Y-105.181
X45.132 Y-105.195
X45.39 Y-105.194
X45.648 Y-105.179
X45.906 Y-105.149
X46.161 Y-105.104
X46.415 Y-105.045
X46.665 Y-104.972
X46.911 Y-104.885
X47.153 Y-104.784
X47.388 Y-104.669
X47.618 Y-104.54
X47.84 Y-104.399
X48.055 Y-104.245
X48.26 Y-104.079
X48.457 Y-103.901
X48.644 Y-103.712
X48.82 Y-103.513
X48.985 Y-103.303
X49.138 Y-103.084
X49.278 Y-102.857
X49.407 Y-102.621
X49.521 Y-102.378
X49.622 Y-102.128
X49.709 Y-101.873
X49.782 Y-101.613
X49.84 Y-101.348
X49.883 Y-101.08
X49.911 Y-100.809
X49.924 Y-100.537
X49.922 Y-100.264
X49.904 Y-99.991
X49.87 Y-99.719
X49.822 Y-99.449
X49.758 Y-99.181
X49.678 Y-98.917
X49.584 Y-98.657
X49.476 Y-98.402
X49.352 Y-98.154
X49.215 Y-97.912
X49.064 Y-97.678
X48.9 Y-97.452
X48.723 Y-97.236
X48.534 Y-97.029
X48.333 Y-96.833
X48.121 Y-96.648
X47.898 Y-96.475
X47.666 Y-96.315
X47.424 Y-96.168
X47.174 Y-96.034
X46.916 Y-95.914
X46.652 Y-95.809
X46.381 Y-95.719
X46.106 Y-95.644
X45.826 Y-95.584
X45.542 Y-95.541
X45.256 Y-95.513
X44.968 Y-95.501
X44.68 Y-95.506
X44.391 Y-95.527
X44.104 Y-95.564
X43.819 Y-95.617
X43.536 Y-95.686
X43.258 Y-95.772
X42.984 Y-95.873
X42.716 Y-95.99
X42.454 Y-96.121
X42.2 Y-96.268
X41.954 Y-96.429
X41.717 Y-96.604
X41.489 Y-96.792
X41.272 Y-96.993
X41.067 Y-97.207
X40.873 Y-97.432
X40.693 Y-97.668
X40.525 Y-97.914
X40.371 Y-98.17
X40.232 Y-98.435
X40.107 Y-98.707
X39.998 Y-98.987
X39.905 Y-99.273
X39.828 Y-99.564
X39.767 Y-99.859
X39.722 Y-100.159
X39.695 Y-100.46
X39.685 Y-100.764
X39.692 Y-101.067
X39.715 Y-101.371
X39.756 Y-101.674
X39.815 Y-101.974
X39.89 Y-102.271
X39.981 Y-102.564
X40.09 Y-102.851
X40.214 Y-103.133
X40.355 Y-103.408
X40.511 Y-103.675
X40.682 Y-103.933
X40.868 Y-104.181
X41.068 Y-104.419
X41.281 Y-104.646
X41.507 Y-104.861
X41.746 Y-105.063
X41.995 Y-105.252
X42.256 Y-105.427
X42.526 Y-105.587
X42.806 Y-105.732
X43.094 Y-105.861
X43.389 Y-105.974
X43.69 Y-106.071
X43.997 Y-106.15
X44.309 Y-106.212
X44.624 Y-106.257
X44.942 Y-106.283
X45.261 Y-106.292
X45.581 Y-106.283
X45.9 Y-106.256
X46.218 Y-106.21
X46.533 Y-106.147
X46.845 Y-106.066
X47.153 Y-105.968
X47.455 Y-105.852
X47.75 Y-105.719
X48.038 Y-105.569
X48.318 Y-105.403
X48.588 Y-105.221
X48.848 Y-105.024
X49.097 Y-104.813
X49.334 Y-104.587
X49.559 Y-104.348
X49.77 Y-104.096
X49.967 Y-103.832
X50.148 Y-103.557
X50.315 Y-103.272
X50.465 Y-102.977
X50.599 Y-102.674
X50.716 Y-102.363
X50.815 Y-102.046
X50.896 Y-101.723
X50.959 Y-101.395
X51.004 Y-101.064
X51.03 Y-100.73
X51.037 Y-100.395
X51.025 Y-100.059
X50.995 Y-99.724
X50.945 Y-99.39
X50.876 Y-99.059
X50.789 Y-98.733
X50.684 Y-98.411
X50.56 Y-98.094
X50.419 Y-97.785
X50.26 Y-97.484
X50.083 Y-97.192
X49.891 Y-96.909
X49.682 Y-96.638
X49.459 Y-96.378
X49.22 Y-96.131
X48.968 Y-95.897
X48.702 Y-95.677
X48.424 Y-95.473
X48.134 Y-95.284
X47.834 Y-95.111
X47.524 Y-94.955
X47.205 Y-94.817
X46.878 Y-94.696
X46.544 Y-94.595
X46.205 Y-94.511
X45.861 Y-94.447
X45.513 Y-94.403
X45.163 Y-94.378
X44.811 Y-94.373
X44.459 Y-94.387
X44.107 Y-94.422
X43.758 Y-94.476
X43.412 Y-94.55
X43.07 Y-94.644
X42.733 Y-94.757
X42.402 Y-94.888
X42.079 Y-95.039
X41.764 Y-95.208
X41.459 Y-95.394
X41.164 Y-95.598
X40.881 Y-95.818
X40.61 Y-96.055
X40.353 Y-96.306
X40.109 Y-96.572
X39.881 Y-96.852
X39.668 Y-97.145
X39.472 Y-97.45
X39.293 Y-97.765
X39.132 Y-98.091
X38.99 Y-98.426
X38.866 Y-98.769
X38.761 Y-99.119
X38.677 Y-99.475
X38.612 Y-99.836
X38.568 Y-100.2
X38.544 Y-100.567
X38.541 Y-100.935
X38.559 Y-101.304
X38.597 Y-101.671
X38.656 Y-102.036
X38.736 Y-102.398
X38.836 Y-102.756
X38.956 Y-103.108
X39.097 Y-103.453
X39.256 Y-103.79
X39.435 Y-104.118
X39.632 Y-104.436
X39.847 Y-104.743
X40.079 Y-105.038
X40.328 Y-105.319
X40.593 Y-105.587
X40.873 Y-105.84
X41.168 Y-106.076
X41.475 Y-106.297
X41.795 Y-106.5
X42.127 Y-106.685
X42.469 Y-106.851
X42.82 Y-106.998
X43.179 Y-107.125
X43.546 Y-107.232
X43.919 Y-107.318
X44.296 Y-107.383
X44.678 Y-107.427
X45.061 Y-107.45
X45.446
X45.831 Y-107.429
X46.215 Y-107.387
X46.596 Y-107.322
X46.974 Y-107.237
X47.347 Y-107.129
X47.714 Y-107.001
X48.074 Y-106.853
X48.425 Y-106.683
X48.766 Y-106.495
X48.964 Y-106.37
X49.034 Y-106.324
X49.102 Y-106.275
X49.168 Y-106.223
X49.605 Y-105.865
X49.85 Y-105.664
X50.03 Y-105.504
X50.065 Y-105.462
X50.835 Y-104.523
X50.882 Y-104.456
X51.037 Y-104.169
X51.439 Y-103.416
X51.522 Y-103.247
X51.585 Y-103.046
X51.89 Y-102.039
X51.914 Y-101.939
X51.926 Y-101.838
X52.025 Y-100.831
X52.044 Y-100.629
Y-100.573
X52.03 Y-100.428
X51.931 Y-99.422
X51.906 Y-99.22
X51.842 Y-99.003
X51.542 Y-98.012
X51.505 Y-97.911
X51.439 Y-97.784
X50.915 Y-96.804
X50.88 Y-96.74
X50.835 Y-96.677
X50.114 Y-95.797
X50.03 Y-95.696
X49.923 Y-95.596
X49.023 Y-94.857
X48.935 Y-94.79
X48.821 Y-94.727
X47.81 Y-94.186
X47.712 Y-94.14
X47.613 Y-94.109
X46.54 Y-93.784
X46.405 Y-93.749
X46.204 Y-93.727
X45.096 Y-93.618
X44.995 Y-93.621
X43.787 Y-93.74
X43.686 Y-93.755
X43.584 Y-93.784
X42.579 Y-94.089
X42.377 Y-94.154
X42.314 Y-94.186
X41.37 Y-94.691
X41.189 Y-94.79
X41.169 Y-94.804
X40.937 Y-94.992
X40.162 Y-95.628
X40.01 Y-95.797
X39.349 Y-96.603
X39.268 Y-96.703
X39.208 Y-96.804
X38.67 Y-97.811
X38.618 Y-97.911
X38.582 Y-98.012
X38.277 Y-99.019
X38.218 Y-99.22
X38.193 Y-99.422
X38.093 Y-100.428
X38.08 Y-100.63
X38.119 Y-101.032
X38.198 Y-101.838
X38.21 Y-101.939
X38.234 Y-102.039
X38.551 Y-103.085
X38.602 Y-103.247
X38.702 Y-103.449
X39.155 Y-104.297
X39.242 Y-104.456
X39.357 Y-104.606
X40.059 Y-105.462
X40.162 Y-105.572
X41.01 Y-106.268
X41.169 Y-106.396
X41.295 Y-106.469
X42.176 Y-106.94
X42.377 Y-107.046
X42.453 Y-107.073
X43.586 Y-107.417
X43.686 Y-107.445
X43.787 Y-107.46
X44.995 Y-107.579
X45.096 Y-107.582
X46.204 Y-107.473
X46.405 Y-107.451
X46.606 Y-107.396
X47.671 Y-107.073
X47.743 Y-107.047
X47.815 Y-107.011
X48.829 Y-106.469
X48.926 Y-106.415
X49.023 Y-106.343
X49.168 Y-106.223
G3 X49.309 Y-105.506 I-0.397 J0.45
G1 X49.268 Y-105.422 Z24.007
X49.227 Y-105.34 Z24.029
X49.188 Y-105.262 Z24.065
X49.153 Y-105.19 Z24.115
X49.121 Y-105.126 Z24.176
X49.094 Y-105.071 Z24.247
X49.072 Y-105.027 Z24.328
X49.056 Y-104.995 Z24.415
X49.046 Y-104.975 Z24.506
X49.043 Y-104.969 Z24.6
G0 Z46
X45.063 Y-100.6
Z38.05
Z36.65
G1 Z36.05 F850
Z19 F283.3
X45.057 Y-100.563 F850
X45.02 Y-100.553
X44.993 Y-100.579
X44.986 Y-100.616
X44.999 Y-100.651
X45.026 Y-100.676
X45.063 Y-100.686
X45.099 Y-100.679
X45.13 Y-100.657
X45.148 Y-100.624
X45.151 Y-100.587
X45.14 Y-100.551
X45.12 Y-100.519
X45.091 Y-100.495
X45.056 Y-100.482
X45.018 Y-100.481
X44.982 Y-100.492
X44.951 Y-100.512
X44.927 Y-100.541
X44.894 Y-100.608
X44.9 Y-100.683
X44.938 Y-100.748
X44.999 Y-100.791
X45.072 Y-100.807
X45.146 Y-100.795
X45.211 Y-100.756
X45.258 Y-100.698
X45.284 Y-100.628
X45.287 Y-100.553
X45.267 Y-100.481
X45.227 Y-100.417
X45.17 Y-100.368
X45.102 Y-100.337
X45.028 Y-100.326
X44.879 Y-100.344
X44.757 Y-100.432
X44.688 Y-100.565
X44.679 Y-100.715
X44.73 Y-100.856
X44.829 Y-100.968
X44.962 Y-101.039
X45.111 Y-101.059
X45.258 Y-101.029
X45.387 Y-100.954
X45.488 Y-100.842
X45.55 Y-100.706
X45.57 Y-100.557
X45.547 Y-100.409
X45.483 Y-100.273
X45.385 Y-100.16
X45.261 Y-100.074
X45.121 Y-100.022
X44.972 Y-100.006
X44.823 Y-100.026
X44.683 Y-100.081
X44.561 Y-100.167
X44.459 Y-100.278
X44.387 Y-100.409
X44.343 Y-100.552
X44.331 Y-100.702
X44.35 Y-100.851
X44.399 Y-100.993
X44.476 Y-101.121
X44.576 Y-101.233
X44.696 Y-101.323
X44.831 Y-101.389
X44.975 Y-101.429
X45.125 Y-101.442
X45.274 Y-101.427
X45.418 Y-101.386
X45.554 Y-101.321
X45.675 Y-101.233
X45.78 Y-101.126
X45.866 Y-101.003
X45.93 Y-100.867
X45.971 Y-100.723
X45.987 Y-100.574
X45.981 Y-100.424
X45.95 Y-100.277
X45.94 Y-100.248
X45.915 Y-100.187
X45.887 Y-100.127
X45.855 Y-100.069
X45.819 Y-100.019
X45.801 Y-99.998
X45.705 Y-99.898
X45.657 Y-99.855
X45.609 Y-99.818
X45.599 Y-99.811
X45.499 Y-99.756
X45.398 Y-99.707
X45.348 Y-99.689
X45.297 Y-99.676
X45.197 Y-99.659
X45.096 Y-99.646
X44.995 Y-99.649
X44.794 Y-99.684
X44.744 Y-99.7
X44.693 Y-99.721
X44.593 Y-99.772
X44.515 Y-99.818
X44.453 Y-99.867
X44.391 Y-99.926
X44.305 Y-100.019
X44.269 Y-100.069
X44.24 Y-100.118
X44.188 Y-100.22
X44.149 Y-100.321
X44.128 Y-100.422
X44.112 Y-100.522
X44.108 Y-100.623
X44.136 Y-100.825
X44.158 Y-100.903
X44.19 Y-100.982
X44.212 Y-101.026
X44.267 Y-101.127
X44.345 Y-101.227
X44.391 Y-101.274
X44.492 Y-101.365
X44.542 Y-101.4
X44.594 Y-101.429
X44.694 Y-101.479
X44.794 Y-101.516
X44.995 Y-101.551
X45.096 Y-101.554
X45.197 Y-101.541
X45.297 Y-101.524
X45.348 Y-101.511
X45.398 Y-101.493
X45.53 Y-101.429
X45.599 Y-101.388
X45.689 Y-101.317
X45.779 Y-101.227
X45.801 Y-101.202
X45.865 Y-101.114
X45.912 Y-101.026
X45.958 Y-100.925
X45.988 Y-100.825
X46.002 Y-100.741
X46.016 Y-100.623
X46.014 Y-100.541
X46.002 Y-100.459
X45.996 Y-100.422
X45.975 Y-100.321
X45.935 Y-100.22
X45.884 Y-100.12
X45.855 Y-100.069
G3 X45.148 Y-99.885 I-0.473 J-0.369
G1 X45.062 Y-99.922 Z19.007
X44.977 Y-99.957 Z19.029
X44.897 Y-99.991 Z19.065
X44.823 Y-100.022 Z19.115
X44.757 Y-100.05 Z19.176
X44.701 Y-100.074 Z19.247
X44.656 Y-100.093 Z19.328
X44.622 Y-100.107 Z19.415
X44.602 Y-100.116 Z19.506
X44.595 Y-100.119 Z19.6
G0 Z46

(2D Adaptive15)
X45.062 Y-175.6
Z46
Z38.05
Z36.65
G1 Z36.05 F850
Z24 F283.3
X45.024 Y-175.604 F850
X45.014 Y-175.64
X45.038 Y-175.668
X45.075 Y-175.676
X45.11 Y-175.665
X45.137 Y-175.638
X45.148 Y-175.603
X45.142 Y-175.566
X45.121 Y-175.534
X45.089 Y-175.515
X45.052 Y-175.511
X45.016 Y-175.52
X44.983 Y-175.539
X44.958 Y-175.567
X44.944 Y-175.601
X44.941 Y-175.639
X44.951 Y-175.675
X44.97 Y-175.707
X44.997 Y-175.733
X45.063 Y-175.768
X45.138 Y-175.765
X45.204 Y-175.73
X45.25 Y-175.67
X45.269 Y-175.598
X45.26 Y-175.523
X45.224 Y-175.458
X45.168 Y-175.408
X45.099 Y-175.379
X45.024 Y-175.373
X44.951 Y-175.39
X44.886 Y-175.428
X44.835 Y-175.483
X44.801 Y-175.549
X44.787 Y-175.623
X44.799 Y-175.773
X44.882 Y-175.898
X45.012 Y-175.973
X45.161 Y-175.987
X45.304 Y-175.942
X45.421 Y-175.847
X45.496 Y-175.718
X45.522 Y-175.57
X45.498 Y-175.422
X45.428 Y-175.289
X45.321 Y-175.184
X45.187 Y-175.116
X45.04 Y-175.091
X44.891 Y-175.108
X44.752 Y-175.166
X44.635 Y-175.26
X44.545 Y-175.379
X44.487 Y-175.518
X44.464 Y-175.666
X44.479 Y-175.815
X44.528 Y-175.957
X44.609 Y-176.083
X44.715 Y-176.189
X44.844 Y-176.267
X44.985 Y-176.316
X45.134 Y-176.334
X45.284 Y-176.321
X45.427 Y-176.278
X45.559 Y-176.207
X45.675 Y-176.111
X45.769 Y-175.995
X45.841 Y-175.863
X45.886 Y-175.72
X45.905 Y-175.571
X45.897 Y-175.421
X45.862 Y-175.276
X45.802 Y-175.138
X45.719 Y-175.013
X45.617 Y-174.904
X45.497 Y-174.813
X45.364 Y-174.744
X45.222 Y-174.697
X45.073 Y-174.674
X44.923 Y-174.675
X44.775 Y-174.699
X44.633 Y-174.746
X44.499 Y-174.814
X44.377 Y-174.901
X44.269 Y-175.005
X44.178 Y-175.124
X44.105 Y-175.255
X44.051 Y-175.395
X44.018 Y-175.542
X44.005 Y-175.691
X44.014 Y-175.841
X44.043 Y-175.988
X44.091 Y-176.13
X44.159 Y-176.264
X44.244 Y-176.387
X44.344 Y-176.499
X44.458 Y-176.596
X44.584 Y-176.679
X44.719 Y-176.743
X44.861 Y-176.791
X45.008 Y-176.821
X45.158 Y-176.831
X45.308 Y-176.824
X45.455 Y-176.798
X45.599 Y-176.754
X45.736 Y-176.694
X45.865 Y-176.618
X45.985 Y-176.527
X46.093 Y-176.423
X46.188 Y-176.307
X46.269 Y-176.181
X46.335 Y-176.046
X46.386 Y-175.905
X46.421 Y-175.759
X46.439 Y-175.61
X46.441 Y-175.46
X46.426 Y-175.311
X46.395 Y-175.164
X46.349 Y-175.021
X46.288 Y-174.884
X46.212 Y-174.755
X46.124 Y-174.634
X46.023 Y-174.523
X45.911 Y-174.423
X45.79 Y-174.335
X45.66 Y-174.26
X45.523 Y-174.199
X45.38 Y-174.152
X45.234 Y-174.119
X45.085 Y-174.101
X44.935 Y-174.098
X44.786 Y-174.11
X44.638 Y-174.135
X44.493 Y-174.176
X44.353 Y-174.23
X44.219 Y-174.297
X44.092 Y-174.376
X43.973 Y-174.467
X43.863 Y-174.569
X43.762 Y-174.681
X43.673 Y-174.801
X43.595 Y-174.929
X43.529 Y-175.064
X43.476 Y-175.204
X43.435 Y-175.349
X43.408 Y-175.496
X43.394 Y-175.646
Y-175.796
X43.406 Y-175.945
X43.432 Y-176.093
X43.47 Y-176.238
X43.522 Y-176.379
X43.585 Y-176.515
X43.659 Y-176.645
X43.744 Y-176.769
X43.84 Y-176.884
X43.945 Y-176.991
X44.058 Y-177.089
X44.18 Y-177.177
X44.308 Y-177.255
X44.443 Y-177.322
X44.582 Y-177.377
X44.725 Y-177.421
X44.872 Y-177.453
X45.021 Y-177.473
X45.17 Y-177.481
X45.32 Y-177.477
X45.469 Y-177.461
X45.617 Y-177.433
X45.761 Y-177.394
X45.903 Y-177.343
X46.039 Y-177.281
X46.171 Y-177.209
X46.296 Y-177.127
X46.415 Y-177.035
X46.527 Y-176.935
X46.63 Y-176.826
X46.725 Y-176.71
X46.811 Y-176.587
X46.887 Y-176.458
X46.953 Y-176.323
X47.009 Y-176.184
X47.054 Y-176.041
X47.089 Y-175.895
X47.113 Y-175.747
X47.126 Y-175.598
X47.128 Y-175.448
X47.119 Y-175.298
X47.099 Y-175.149
X47.068 Y-175.002
X47.027 Y-174.858
X46.976 Y-174.717
X46.915 Y-174.58
X46.844 Y-174.448
X46.764 Y-174.321
X46.675 Y-174.2
X46.578 Y-174.086
X46.473 Y-173.979
X46.361 Y-173.879
X46.242 Y-173.787
X46.117 Y-173.704
X45.987 Y-173.63
X45.852 Y-173.565
X45.713 Y-173.509
X45.57 Y-173.463
X45.424 Y-173.426
X45.277 Y-173.4
X45.128 Y-173.383
X44.978 Y-173.377
X44.828 Y-173.38
X44.678 Y-173.393
X44.53 Y-173.417
X44.384 Y-173.45
X44.24 Y-173.493
X44.099 Y-173.545
X43.962 Y-173.606
X43.83 Y-173.675
X43.702 Y-173.754
X43.579 Y-173.84
X43.462 Y-173.934
X43.352 Y-174.036
X43.248 Y-174.144
X43.152 Y-174.259
X43.062 Y-174.379
X42.981 Y-174.506
X42.908 Y-174.636
X42.843 Y-174.772
X42.787 Y-174.911
X42.739 Y-175.053
X42.701 Y-175.198
X42.671 Y-175.345
X42.651 Y-175.494
X42.64 Y-175.643
X42.638 Y-175.793
X42.645 Y-175.943
X42.662 Y-176.092
X42.687 Y-176.24
X42.722 Y-176.386
X42.765 Y-176.53
X42.817 Y-176.67
X42.877 Y-176.808
X42.945 Y-176.941
X43.022 Y-177.071
X43.105 Y-177.195
X43.196 Y-177.314
X43.294 Y-177.428
X43.398 Y-177.536
X43.509 Y-177.637
X43.625 Y-177.732
X43.747 Y-177.82
X43.873 Y-177.9
X44.004 Y-177.973
X44.139 Y-178.039
X44.278 Y-178.096
X44.42 Y-178.146
X44.564 Y-178.187
X44.71 Y-178.219
X44.858 Y-178.244
X45.007 Y-178.26
X45.159 Y-178.267
X45.309 Y-178.266
X45.458 Y-178.257
X45.609 Y-178.239
X45.759 Y-178.212
X45.905 Y-178.177
X46.049 Y-178.134
X46.194 Y-178.082
X46.335 Y-178.022
X46.471 Y-177.955
X46.604 Y-177.88
X46.735 Y-177.795
X46.861 Y-177.704
X46.979 Y-177.608
X47.094 Y-177.503
X47.204 Y-177.391
X47.307 Y-177.273
X47.402 Y-177.151
X47.491 Y-177.022
X47.574 Y-176.886
X47.649 Y-176.746
X47.715 Y-176.604
X47.774 Y-176.458
X47.825 Y-176.306
X47.867 Y-176.15
X47.901 Y-175.995
X47.925 Y-175.838
X47.941 Y-175.677
X47.948 Y-175.514
X47.946 Y-175.352
X47.934 Y-175.192
X47.914 Y-175.032
X47.884 Y-174.87
X47.845 Y-174.71
X47.797 Y-174.554
X47.741 Y-174.401
X47.675 Y-174.25
X47.601 Y-174.101
X47.518 Y-173.956
X47.427 Y-173.817
X47.329 Y-173.684
X47.223 Y-173.555
X47.109 Y-173.432
X46.987 Y-173.314
X46.859 Y-173.204
X46.726 Y-173.101
X46.587 Y-173.007
X46.442 Y-172.919
X46.29 Y-172.839
X46.134 Y-172.767
X45.974 Y-172.705
X45.811 Y-172.651
X45.646 Y-172.607
X45.477 Y-172.572
X45.306 Y-172.546
X45.132 Y-172.53
X44.957 Y-172.524
X44.782 Y-172.528
X44.609 Y-172.541
X44.436 Y-172.564
X44.263 Y-172.598
X44.092 Y-172.641
X43.922 Y-172.694
X43.755 Y-172.756
X43.592 Y-172.828
X43.434 Y-172.909
X43.28 Y-172.998
X43.131 Y-173.097
X42.987 Y-173.204
X42.849 Y-173.32
X42.717 Y-173.444
X42.591 Y-173.575
X42.473 Y-173.714
X42.363 Y-173.859
X42.261 Y-174.01
X42.168 Y-174.167
X42.084 Y-174.329
X42.008 Y-174.496
X41.942 Y-174.668
X41.886 Y-174.844
X41.839 Y-175.024
X41.802 Y-175.207
X41.776 Y-175.392
X41.76 Y-175.578
X41.754 Y-175.765
X41.759 Y-175.952
X41.775 Y-176.14
X41.801 Y-176.326
X41.838 Y-176.511
X41.885 Y-176.694
X41.943 Y-176.875
X42.011 Y-177.053
X42.089 Y-177.227
X42.177 Y-177.397
X42.275 Y-177.562
X42.382 Y-177.722
X42.498 Y-177.876
X42.623 Y-178.024
X42.757 Y-178.164
X42.899 Y-178.298
X43.048 Y-178.423
X43.204 Y-178.54
X43.368 Y-178.649
X43.537 Y-178.748
X43.712 Y-178.838
X43.893 Y-178.917
X44.077 Y-178.987
X44.267 Y-179.047
X44.459 Y-179.095
X44.655 Y-179.133
X44.853 Y-179.16
X45.052 Y-179.176
X45.253 Y-179.181
X45.454 Y-179.174
X45.655 Y-179.156
X45.855 Y-179.126
X46.053 Y-179.086
X46.25 Y-179.034
X46.443 Y-178.971
X46.634 Y-178.896
X46.82 Y-178.811
X47.001 Y-178.716
X47.177 Y-178.61
X47.348 Y-178.494
X47.512 Y-178.369
X47.669 Y-178.234
X47.819 Y-178.09
X47.96 Y-177.938
X48.094 Y-177.777
X48.218 Y-177.609
X48.332 Y-177.434
X48.437 Y-177.252
X48.532 Y-177.064
X48.617 Y-176.87
X48.69 Y-176.672
X48.752 Y-176.469
X48.803 Y-176.263
X48.842 Y-176.054
X48.87 Y-175.842
X48.885 Y-175.629
X48.889 Y-175.414
X48.88 Y-175.199
X48.859 Y-174.985
X48.826 Y-174.771
X48.782 Y-174.56
X48.725 Y-174.35
X48.656 Y-174.144
X48.576 Y-173.942
X48.484 Y-173.743
X48.38 Y-173.55
X48.266 Y-173.363
X48.142 Y-173.182
X48.006 Y-173.007
X47.861 Y-172.84
X47.707 Y-172.682
X47.543 Y-172.532
X47.371 Y-172.391
X47.191 Y-172.259
X47.003 Y-172.138
X46.808 Y-172.027
X46.607 Y-171.928
X46.399 Y-171.839
X46.187 Y-171.762
X45.971 Y-171.697
X45.75 Y-171.644
X45.527 Y-171.604
X45.301 Y-171.576
X45.073 Y-171.561
X44.844 Y-171.559
X44.615 Y-171.569
X44.387 Y-171.593
X44.159 Y-171.629
X43.934 Y-171.679
X43.711 Y-171.741
X43.492 Y-171.815
X43.276 Y-171.903
X43.065 Y-172.002
X42.86 Y-172.113
X42.661 Y-172.236
X42.469 Y-172.371
X42.284 Y-172.516
X42.108 Y-172.671
X41.94 Y-172.837
X41.781 Y-173.012
X41.632 Y-173.196
X41.494 Y-173.389
X41.366 Y-173.59
X41.249 Y-173.798
X41.144 Y-174.013
X41.052 Y-174.234
X40.971 Y-174.461
X40.903 Y-174.692
X40.849 Y-174.926
X40.807 Y-175.164
X40.779 Y-175.405
X40.765 Y-175.647
X40.764 Y-175.89
X40.777 Y-176.133
X40.803 Y-176.376
X40.844 Y-176.617
X40.898 Y-176.856
X40.965 Y-177.093
X41.046 Y-177.325
X41.14 Y-177.554
X41.247 Y-177.777
X41.367 Y-177.994
X41.499 Y-178.204
X41.642 Y-178.408
X41.798 Y-178.603
X41.964 Y-178.789
X42.142 Y-178.967
X42.329 Y-179.134
X42.526 Y-179.291
X42.731 Y-179.437
X42.945 Y-179.571
X43.167 Y-179.693
X43.396 Y-179.803
X43.631 Y-179.9
X43.872 Y-179.984
X44.117 Y-180.054
X44.367 Y-180.11
X44.62 Y-180.153
X44.875 Y-180.181
X45.132 Y-180.195
X45.39 Y-180.194
X45.648 Y-180.179
X45.906 Y-180.149
X46.161 Y-180.104
X46.415 Y-180.045
X46.665 Y-179.972
X46.911 Y-179.885
X47.153 Y-179.784
X47.388 Y-179.669
X47.618 Y-179.54
X47.84 Y-179.399
X48.055 Y-179.245
X48.26 Y-179.079
X48.457 Y-178.901
X48.644 Y-178.712
X48.82 Y-178.513
X48.985 Y-178.303
X49.138 Y-178.084
X49.278 Y-177.857
X49.407 Y-177.621
X49.521 Y-177.378
X49.622 Y-177.128
X49.709 Y-176.873
X49.782 Y-176.613
X49.84 Y-176.348
X49.883 Y-176.08
X49.911 Y-175.809
X49.924 Y-175.537
X49.922 Y-175.264
X49.904 Y-174.991
X49.87 Y-174.719
X49.822 Y-174.449
X49.758 Y-174.181
X49.678 Y-173.917
X49.584 Y-173.657
X49.476 Y-173.402
X49.352 Y-173.154
X49.215 Y-172.912
X49.064 Y-172.678
X48.9 Y-172.452
X48.723 Y-172.236
X48.534 Y-172.029
X48.333 Y-171.833
X48.121 Y-171.648
X47.898 Y-171.475
X47.666 Y-171.315
X47.424 Y-171.168
X47.174 Y-171.034
X46.916 Y-170.914
X46.652 Y-170.809
X46.381 Y-170.719
X46.106 Y-170.644
X45.826 Y-170.584
X45.542 Y-170.541
X45.256 Y-170.513
X44.968 Y-170.501
X44.68 Y-170.506
X44.391 Y-170.527
X44.104 Y-170.564
X43.819 Y-170.617
X43.536 Y-170.686
X43.258 Y-170.772
X42.984 Y-170.873
X42.716 Y-170.99
X42.454 Y-171.121
X42.2 Y-171.268
X41.954 Y-171.429
X41.717 Y-171.604
X41.489 Y-171.792
X41.272 Y-171.993
X41.067 Y-172.207
X40.873 Y-172.432
X40.693 Y-172.668
X40.525 Y-172.914
X40.371 Y-173.17
X40.232 Y-173.435
X40.107 Y-173.707
X39.998 Y-173.987
X39.905 Y-174.273
X39.828 Y-174.564
X39.767 Y-174.859
X39.722 Y-175.159
X39.695 Y-175.46
X39.685 Y-175.764
X39.692 Y-176.067
X39.715 Y-176.371
X39.756 Y-176.674
X39.815 Y-176.974
X39.89 Y-177.271
X39.981 Y-177.564
X40.09 Y-177.851
X40.214 Y-178.133
X40.355 Y-178.408
X40.511 Y-178.675
X40.682 Y-178.933
X40.868 Y-179.181
X41.068 Y-179.419
X41.281 Y-179.646
X41.507 Y-179.861
X41.746 Y-180.063
X41.995 Y-180.252
X42.256 Y-180.427
X42.526 Y-180.587
X42.806 Y-180.732
X43.094 Y-180.861
X43.389 Y-180.974
X43.69 Y-181.071
X43.997 Y-181.15
X44.309 Y-181.212
X44.624 Y-181.257
X44.942 Y-181.283
X45.261 Y-181.292
X45.581 Y-181.283
X45.9 Y-181.256
X46.218 Y-181.21
X46.533 Y-181.147
X46.845 Y-181.066
X47.153 Y-180.968
X47.455 Y-180.852
X47.75 Y-180.719
X48.038 Y-180.569
X48.318 Y-180.403
X48.588 Y-180.221
X48.848 Y-180.024
X49.097 Y-179.813
X49.334 Y-179.587
X49.559 Y-179.348
X49.77 Y-179.096
X49.967 Y-178.832
X50.148 Y-178.557
X50.315 Y-178.272
X50.465 Y-177.977
X50.599 Y-177.674
X50.716 Y-177.363
X50.815 Y-177.046
X50.896 Y-176.723
X50.959 Y-176.395
X51.004 Y-176.064
X51.03 Y-175.73
X51.037 Y-175.395
X51.025 Y-175.059
X50.995 Y-174.724
X50.945 Y-174.39
X50.876 Y-174.059
X50.789 Y-173.733
X50.684 Y-173.411
X50.56 Y-173.094
X50.419 Y-172.785
X50.26 Y-172.484
X50.083 Y-172.192
X49.891 Y-171.909
X49.682 Y-171.638
X49.459 Y-171.378
X49.22 Y-171.131
X48.968 Y-170.897
X48.702 Y-170.677
X48.424 Y-170.473
X48.134 Y-170.284
X47.834 Y-170.111
X47.524 Y-169.955
X47.205 Y-169.817
X46.878 Y-169.696
X46.544 Y-169.595
X46.205 Y-169.511
X45.861 Y-169.447
X45.513 Y-169.403
X45.163 Y-169.378
X44.811 Y-169.373
X44.459 Y-169.387
X44.107 Y-169.422
X43.758 Y-169.476
X43.412 Y-169.55
X43.07 Y-169.644
X42.733 Y-169.757
X42.402 Y-169.888
X42.079 Y-170.039
X41.764 Y-170.208
X41.459 Y-170.394
X41.164 Y-170.598
X40.881 Y-170.818
X40.61 Y-171.055
X40.353 Y-171.306
X40.109 Y-171.572
X39.881 Y-171.852
X39.668 Y-172.145
X39.472 Y-172.45
X39.293 Y-172.765
X39.132 Y-173.091
X38.99 Y-173.426
X38.866 Y-173.769
X38.761 Y-174.119
X38.677 Y-174.475
X38.612 Y-174.836
X38.568 Y-175.2
X38.544 Y-175.567
X38.541 Y-175.935
X38.559 Y-176.304
X38.597 Y-176.671
X38.656 Y-177.036
X38.736 Y-177.398
X38.836 Y-177.756
X38.956 Y-178.108
X39.097 Y-178.453
X39.256 Y-178.79
X39.435 Y-179.118
X39.632 Y-179.436
X39.847 Y-179.743
X40.079 Y-180.038
X40.328 Y-180.319
X40.593 Y-180.587
X40.873 Y-180.84
X41.168 Y-181.076
X41.475 Y-181.297
X41.795 Y-181.5
X42.127 Y-181.685
X42.469 Y-181.851
X42.82 Y-181.998
X43.179 Y-182.125
X43.546 Y-182.232
X43.919 Y-182.318
X44.296 Y-182.383
X44.678 Y-182.427
X45.061 Y-182.45
X45.446
X45.831 Y-182.429
X46.215 Y-182.387
X46.596 Y-182.322
X46.974 Y-182.237
X47.347 Y-182.129
X47.714 Y-182.001
X48.074 Y-181.853
X48.425 Y-181.683
X48.766 Y-181.495
X48.964 Y-181.37
X49.034 Y-181.324
X49.102 Y-181.275
X49.168 Y-181.223
X49.605 Y-180.865
X49.85 Y-180.664
X50.03 Y-180.504
X50.065 Y-180.462
X50.835 Y-179.523
X50.882 Y-179.456
X51.037 Y-179.169
X51.439 Y-178.416
X51.522 Y-178.247
X51.585 Y-178.046
X51.89 Y-177.039
X51.914 Y-176.939
X51.926 Y-176.838
X52.025 Y-175.831
X52.044 Y-175.629
Y-175.573
X52.03 Y-175.428
X51.931 Y-174.422
X51.906 Y-174.22
X51.842 Y-174.003
X51.542 Y-173.012
X51.505 Y-172.911
X51.439 Y-172.784
X50.915 Y-171.804
X50.88 Y-171.74
X50.835 Y-171.677
X50.114 Y-170.797
X50.03 Y-170.696
X49.923 Y-170.596
X49.023 Y-169.857
X48.935 Y-169.79
X48.821 Y-169.727
X47.81 Y-169.186
X47.712 Y-169.14
X47.613 Y-169.109
X46.54 Y-168.784
X46.405 Y-168.749
X46.204 Y-168.727
X45.096 Y-168.618
X44.995 Y-168.621
X43.787 Y-168.74
X43.686 Y-168.755
X43.584 Y-168.784
X42.579 Y-169.089
X42.377 Y-169.154
X42.314 Y-169.186
X41.37 Y-169.691
X41.189 Y-169.79
X41.169 Y-169.804
X40.937 Y-169.992
X40.162 Y-170.628
X40.01 Y-170.797
X39.349 Y-171.603
X39.268 Y-171.703
X39.208 Y-171.804
X38.67 Y-172.811
X38.618 Y-172.911
X38.582 Y-173.012
X38.277 Y-174.019
X38.218 Y-174.22
X38.193 Y-174.422
X38.093 Y-175.428
X38.08 Y-175.63
X38.119 Y-176.032
X38.198 Y-176.838
X38.21 Y-176.939
X38.234 Y-177.039
X38.551 Y-178.085
X38.602 Y-178.247
X38.702 Y-178.449
X39.155 Y-179.297
X39.242 Y-179.456
X39.357 Y-179.606
X40.059 Y-180.462
X40.162 Y-180.572
X41.01 Y-181.268
X41.169 Y-181.396
X41.295 Y-181.469
X42.176 Y-181.94
X42.377 Y-182.046
X42.453 Y-182.073
X43.586 Y-182.417
X43.686 Y-182.445
X43.787 Y-182.46
X44.995 Y-182.579
X45.096 Y-182.582
X46.204 Y-182.473
X46.405 Y-182.451
X46.606 Y-182.396
X47.671 Y-182.073
X47.743 Y-182.047
X47.815 Y-182.011
X48.829 Y-181.469
X48.926 Y-181.415
X49.023 Y-181.343
X49.168 Y-181.223
G3 X49.309 Y-180.506 I-0.397 J0.45
G1 X49.268 Y-180.422 Z24.007
X49.227 Y-180.34 Z24.029
X49.188 Y-180.262 Z24.065
X49.153 Y-180.19 Z24.115
X49.121 Y-180.126 Z24.176
X49.094 Y-180.071 Z24.247
X49.072 Y-180.027 Z24.328
X49.056 Y-179.995 Z24.415
X49.046 Y-179.975 Z24.506
X49.043 Y-179.969 Z24.6
G0 Z46
X45.063 Y-175.6
Z38.05
Z36.65
G1 Z36.05 F850
Z19 F283.3
X45.057 Y-175.563 F850
X45.02 Y-175.553
X44.993 Y-175.579
X44.986 Y-175.616
X44.999 Y-175.651
X45.026 Y-175.676
X45.063 Y-175.686
X45.099 Y-175.679
X45.13 Y-175.657
X45.148 Y-175.624
X45.151 Y-175.587
X45.14 Y-175.551
X45.12 Y-175.519
X45.091 Y-175.495
X45.056 Y-175.482
X45.018 Y-175.481
X44.982 Y-175.492
X44.951 Y-175.512
X44.927 Y-175.541
X44.894 Y-175.608
X44.9 Y-175.683
X44.938 Y-175.748
X44.999 Y-175.791
X45.072 Y-175.807
X45.146 Y-175.795
X45.211 Y-175.756
X45.258 Y-175.698
X45.284 Y-175.628
X45.287 Y-175.553
X45.267 Y-175.481
X45.227 Y-175.417
X45.17 Y-175.368
X45.102 Y-175.337
X45.028 Y-175.326
X44.879 Y-175.344
X44.757 Y-175.432
X44.688 Y-175.565
X44.679 Y-175.715
X44.73 Y-175.856
X44.829 Y-175.968
X44.962 Y-176.039
X45.111 Y-176.059
X45.258 Y-176.029
X45.387 Y-175.954
X45.488 Y-175.842
X45.55 Y-175.706
X45.57 Y-175.557
X45.547 Y-175.409
X45.483 Y-175.273
X45.385 Y-175.16
X45.261 Y-175.074
X45.121 Y-175.022
X44.972 Y-175.006
X44.823 Y-175.026
X44.683 Y-175.081
X44.561 Y-175.167
X44.459 Y-175.278
X44.387 Y-175.409
X44.343 Y-175.552
X44.331 Y-175.702
X44.35 Y-175.851
X44.399 Y-175.993
X44.476 Y-176.121
X44.576 Y-176.233
X44.696 Y-176.323
X44.831 Y-176.389
X44.975 Y-176.429
X45.125 Y-176.442
X45.274 Y-176.427
X45.418 Y-176.386
X45.554 Y-176.321
X45.675 Y-176.233
X45.78 Y-176.126
X45.866 Y-176.003
X45.93 Y-175.867
X45.971 Y-175.723
X45.987 Y-175.574
X45.981 Y-175.424
X45.95 Y-175.277
X45.94 Y-175.248
X45.915 Y-175.187
X45.887 Y-175.127
X45.855 Y-175.069
X45.819 Y-175.019
X45.801 Y-174.998
X45.705 Y-174.898
X45.657 Y-174.855
X45.609 Y-174.818
X45.599 Y-174.811
X45.499 Y-174.756
X45.398 Y-174.707
X45.348 Y-174.689
X45.297 Y-174.676
X45.197 Y-174.659
X45.096 Y-174.646
X44.995 Y-174.649
X44.794 Y-174.684
X44.744 Y-174.7
X44.693 Y-174.721
X44.593 Y-174.772
X44.515 Y-174.818
X44.453 Y-174.867
X44.391 Y-174.926
X44.305 Y-175.019
X44.269 Y-175.069
X44.24 Y-175.118
X44.188 Y-175.22
X44.149 Y-175.321
X44.128 Y-175.422
X44.112 Y-175.522
X44.108 Y-175.623
X44.136 Y-175.825
X44.158 Y-175.903
X44.19 Y-175.982
X44.212 Y-176.026
X44.267 Y-176.127
X44.345 Y-176.227
X44.391 Y-176.274
X44.492 Y-176.365
X44.542 Y-176.4
X44.594 Y-176.429
X44.694 Y-176.479
X44.794 Y-176.516
X44.995 Y-176.551
X45.096 Y-176.554
X45.197 Y-176.541
X45.297 Y-176.524
X45.348 Y-176.511
X45.398 Y-176.493
X45.53 Y-176.429
X45.599 Y-176.388
X45.689 Y-176.317
X45.779 Y-176.227
X45.801 Y-176.202
X45.865 Y-176.114
X45.912 Y-176.026
X45.958 Y-175.925
X45.988 Y-175.825
X46.002 Y-175.741
X46.016 Y-175.623
X46.014 Y-175.541
X46.002 Y-175.459
X45.996 Y-175.422
X45.975 Y-175.321
X45.935 Y-175.22
X45.884 Y-175.12
X45.855 Y-175.069
G3 X45.148 Y-174.885 I-0.473 J-0.369
G1 X45.062 Y-174.922 Z19.007
X44.977 Y-174.957 Z19.029
X44.897 Y-174.991 Z19.065
X44.823 Y-175.022 Z19.115
X44.757 Y-175.05 Z19.176
X44.701 Y-175.074 Z19.247
X44.656 Y-175.093 Z19.328
X44.622 Y-175.107 Z19.415
X44.602 Y-175.116 Z19.506
X44.595 Y-175.119 Z19.6
G0 Z46

(2D Adaptive15)
X45.062 Y-250.6
Z46
Z38.05
Z36.65
G1 Z36.05 F850
Z24 F283.3
X45.024 Y-250.604 F850
X45.014 Y-250.64
X45.038 Y-250.668
X45.075 Y-250.676
X45.11 Y-250.665
X45.137 Y-250.638
X45.148 Y-250.603
X45.142 Y-250.566
X45.121 Y-250.534
X45.089 Y-250.515
X45.052 Y-250.511
X45.016 Y-250.52
X44.983 Y-250.539
X44.958 Y-250.567
X44.944 Y-250.601
X44.941 Y-250.639
X44.951 Y-250.675
X44.97 Y-250.707
X44.997 Y-250.733
X45.063 Y-250.768
X45.138 Y-250.765
X45.204 Y-250.73
X45.25 Y-250.67
X45.269 Y-250.598
X45.26 Y-250.523
X45.224 Y-250.458
X45.168 Y-250.408
X45.099 Y-250.379
X45.024 Y-250.373
X44.951 Y-250.39
X44.886 Y-250.428
X44.835 Y-250.483
X44.801 Y-250.549
X44.787 Y-250.623
X44.799 Y-250.773
X44.882 Y-250.898
X45.012 Y-250.973
X45.161 Y-250.987
X45.304 Y-250.942
X45.421 Y-250.847
X45.496 Y-250.718
X45.522 Y-250.57
X45.498 Y-250.422
X45.428 Y-250.289
X45.321 Y-250.184
X45.187 Y-250.116
X45.04 Y-250.091
X44.891 Y-250.108
X44.752 Y-250.166
X44.635 Y-250.26
X44.545 Y-250.379
X44.487 Y-250.518
X44.464 Y-250.666
X44.479 Y-250.815
X44.528 Y-250.957
X44.609 Y-251.083
X44.715 Y-251.189
X44.844 Y-251.267
X44.985 Y-251.316
X45.134 Y-251.334
X45.284 Y-251.321
X45.427 Y-251.278
X45.559 Y-251.207
X45.675 Y-251.111
X45.769 Y-250.995
X45.841 Y-250.863
X45.886 Y-250.72
X45.905 Y-250.571
X45.897 Y-250.421
X45.862 Y-250.276
X45.802 Y-250.138
X45.719 Y-250.013
X45.617 Y-249.904
X45.497 Y-249.813
X45.364 Y-249.744
X45.222 Y-249.697
X45.073 Y-249.674
X44.923 Y-249.675
X44.775 Y-249.699
X44.633 Y-249.746
X44.499 Y-249.814
X44.377 Y-249.901
X44.269 Y-250.005
X44.178 Y-250.124
X44.105 Y-250.255
X44.051 Y-250.395
X44.018 Y-250.542
X44.005 Y-250.691
X44.014 Y-250.841
X44.043 Y-250.988
X44.091 Y-251.13
X44.159 Y-251.264
X44.244 Y-251.387
X44.344 Y-251.499
X44.458 Y-251.596
X44.584 Y-251.679
X44.719 Y-251.743
X44.861 Y-251.791
X45.008 Y-251.821
X45.158 Y-251.831
X45.308 Y-251.824
X45.455 Y-251.798
X45.599 Y-251.754
X45.736 Y-251.694
X45.865 Y-251.618
X45.985 Y-251.527
X46.093 Y-251.423
X46.188 Y-251.307
X46.269 Y-251.181
X46.335 Y-251.046
X46.386 Y-250.905
X46.421 Y-250.759
X46.439 Y-250.61
X46.441 Y-250.46
X46.426 Y-250.311
X46.395 Y-250.164
X46.349 Y-250.021
X46.288 Y-249.884
X46.212 Y-249.755
X46.124 Y-249.634
X46.023 Y-249.523
X45.911 Y-249.423
X45.79 Y-249.335
X45.66 Y-249.26
X45.523 Y-249.199
X45.38 Y-249.152
X45.234 Y-249.119
X45.085 Y-249.101
X44.935 Y-249.098
X44.786 Y-249.11
X44.638 Y-249.135
X44.493 Y-249.176
X44.353 Y-249.23
X44.219 Y-249.297
X44.092 Y-249.376
X43.973 Y-249.467
X43.863 Y-249.569
X43.762 Y-249.681
X43.673 Y-249.801
X43.595 Y-249.929
X43.529 Y-250.064
X43.476 Y-250.204
X43.435 Y-250.349
X43.408 Y-250.496
X43.394 Y-250.646
Y-250.796
X43.406 Y-250.945
X43.432 Y-251.093
X43.47 Y-251.238
X43.522 Y-251.379
X43.585 Y-251.515
X43.659 Y-251.645
X43.744 Y-251.769
X43.84 Y-251.884
X43.945 Y-251.991
X44.058 Y-252.089
X44.18 Y-252.177
X44.308 Y-252.255
X44.443 Y-252.322
X44.582 Y-252.377
X44.725 Y-252.421
X44.872 Y-252.453
X45.021 Y-252.473
X45.17 Y-252.481
X45.32 Y-252.477
X45.469 Y-252.461
X45.617 Y-252.433
X45.761 Y-252.394
X45.903 Y-252.343
X46.039 Y-252.281
X46.171 Y-252.209
X46.296 Y-252.127
X46.415 Y-252.035
X46.527 Y-251.935
X46.63 Y-251.826
X46.725 Y-251.71
X46.811 Y-251.587
X46.887 Y-251.458
X46.953 Y-251.323
X47.009 Y-251.184
X47.054 Y-251.041
X47.089 Y-250.895
X47.113 Y-250.747
X47.126 Y-250.598
X47.128 Y-250.448
X47.119 Y-250.298
X47.099 Y-250.149
X47.068 Y-250.002
X47.027 Y-249.858
X46.976 Y-249.717
X46.915 Y-249.58
X46.844 Y-249.448
X46.764 Y-249.321
X46.675 Y-249.2
X46.578 Y-249.086
X46.473 Y-248.979
X46.361 Y-248.879
X46.242 Y-248.787
X46.117 Y-248.704
X45.987 Y-248.63
X45.852 Y-248.565
X45.713 Y-248.509
X45.57 Y-248.463
X45.424 Y-248.426
X45.277 Y-248.4
X45.128 Y-248.383
X44.978 Y-248.377
X44.828 Y-248.38
X44.678 Y-248.393
X44.53 Y-248.417
X44.384 Y-248.45
X44.24 Y-248.493
X44.099 Y-248.545
X43.962 Y-248.606
X43.83 Y-248.675
X43.702 Y-248.754
X43.579 Y-248.84
X43.462 Y-248.934
X43.352 Y-249.036
X43.248 Y-249.144
X43.152 Y-249.259
X43.062 Y-249.379
X42.981 Y-249.506
X42.908 Y-249.636
X42.843 Y-249.772
X42.787 Y-249.911
X42.739 Y-250.053
X42.701 Y-250.198
X42.671 Y-250.345
X42.651 Y-250.494
X42.64 Y-250.643
X42.638 Y-250.793
X42.645 Y-250.943
X42.662 Y-251.092
X42.687 Y-251.24
X42.722 Y-251.386
X42.765 Y-251.53
X42.817 Y-251.67
X42.877 Y-251.808
X42.945 Y-251.941
X43.022 Y-252.071
X43.105 Y-252.195
X43.196 Y-252.314
X43.294 Y-252.428
X43.398 Y-252.536
X43.509 Y-252.637
X43.625 Y-252.732
X43.747 Y-252.82
X43.873 Y-252.9
X44.004 Y-252.973
X44.139 Y-253.039
X44.278 Y-253.096
X44.42 Y-253.146
X44.564 Y-253.187
X44.71 Y-253.219
X44.858 Y-253.244
X45.007 Y-253.26
X45.159 Y-253.267
X45.309 Y-253.266
X45.458 Y-253.257
X45.609 Y-253.239
X45.759 Y-253.212
X45.905 Y-253.177
X46.049 Y-253.134
X46.194 Y-253.082
X46.335 Y-253.022
X46.471 Y-252.955
X46.604 Y-252.88
X46.735 Y-252.795
X46.861 Y-252.704
X46.979 Y-252.608
X47.094 Y-252.503
X47.204 Y-252.391
X47.307 Y-252.273
X47.402 Y-252.151
X47.491 Y-252.022
X47.574 Y-251.886
X47.649 Y-251.746
X47.715 Y-251.604
X47.774 Y-251.458
X47.825 Y-251.306
X47.867 Y-251.15
X47.901 Y-250.995
X47.925 Y-250.838
X47.941 Y-250.677
X47.948 Y-250.514
X47.946 Y-250.352
X47.934 Y-250.192
X47.914 Y-250.032
X47.884 Y-249.87
X47.845 Y-249.71
X47.797 Y-249.554
X47.741 Y-249.401
X47.675 Y-249.25
X47.601 Y-249.101
X47.518 Y-248.956
X47.427 Y-248.817
X47.329 Y-248.684
X47.223 Y-248.555
X47.109 Y-248.432
X46.987 Y-248.314
X46.859 Y-248.204
X46.726 Y-248.101
X46.587 Y-248.007
X46.442 Y-247.919
X46.29 Y-247.839
X46.134 Y-247.767
X45.974 Y-247.705
X45.811 Y-247.651
X45.646 Y-247.607
X45.477 Y-247.572
X45.306 Y-247.546
X45.132 Y-247.53
X44.957 Y-247.524
X44.782 Y-247.528
X44.609 Y-247.541
X44.436 Y-247.564
X44.263 Y-247.598
X44.092 Y-247.641
X43.922 Y-247.694
X43.755 Y-247.756
X43.592 Y-247.828
X43.434 Y-247.909
X43.28 Y-247.998
X43.131 Y-248.097
X42.987 Y-248.204
X42.849 Y-248.32
X42.717 Y-248.444
X42.591 Y-248.575
X42.473 Y-248.714
X42.363 Y-248.859
X42.261 Y-249.01
X42.168 Y-249.167
X42.084 Y-249.329
X42.008 Y-249.496
X41.942 Y-249.668
X41.886 Y-249.844
X41.839 Y-250.024
X41.802 Y-250.207
X41.776 Y-250.392
X41.76 Y-250.578
X41.754 Y-250.765
X41.759 Y-250.952
X41.775 Y-251.14
X41.801 Y-251.326
X41.838 Y-251.511
X41.885 Y-251.694
X41.943 Y-251.875
X42.011 Y-252.053
X42.089 Y-252.227
X42.177 Y-252.397
X42.275 Y-252.562
X42.382 Y-252.722
X42.498 Y-252.876
X42.623 Y-253.024
X42.757 Y-253.164
X42.899 Y-253.298
X43.048 Y-253.423
X43.204 Y-253.54
X43.368 Y-253.649
X43.537 Y-253.748
X43.712 Y-253.838
X43.893 Y-253.917
X44.077 Y-253.987
X44.267 Y-254.047
X44.459 Y-254.095
X44.655 Y-254.133
X44.853 Y-254.16
X45.052 Y-254.176
X45.253 Y-254.181
X45.454 Y-254.174
X45.655 Y-254.156
X45.855 Y-254.126
X46.053 Y-254.086
X46.25 Y-254.034
X46.443 Y-253.971
X46.634 Y-253.896
X46.82 Y-253.811
X47.001 Y-253.716
X47.177 Y-253.61
X47.348 Y-253.494
X47.512 Y-253.369
X47.669 Y-253.234
X47.819 Y-253.09
X47.96 Y-252.938
X48.094 Y-252.777
X48.218 Y-252.609
X48.332 Y-252.434
X48.437 Y-252.252
X48.532 Y-252.064
X48.617 Y-251.87
X48.69 Y-251.672
X48.752 Y-251.469
X48.803 Y-251.263
X48.842 Y-251.054
X48.87 Y-250.842
X48.885 Y-250.629
X48.889 Y-250.414
X48.88 Y-250.199
X48.859 Y-249.985
X48.826 Y-249.771
X48.782 Y-249.56
X48.725 Y-249.35
X48.656 Y-249.144
X48.576 Y-248.942
X48.484 Y-248.743
X48.38 Y-248.55
X48.266 Y-248.363
X48.142 Y-248.182
X48.006 Y-248.007
X47.861 Y-247.84
X47.707 Y-247.682
X47.543 Y-247.532
X47.371 Y-247.391
X47.191 Y-247.259
X47.003 Y-247.138
X46.808 Y-247.027
X46.607 Y-246.928
X46.399 Y-246.839
X46.187 Y-246.762
X45.971 Y-246.697
X45.75 Y-246.644
X45.527 Y-246.604
X45.301 Y-246.576
X45.073 Y-246.561
X44.844 Y-246.559
X44.615 Y-246.569
X44.387 Y-246.593
X44.159 Y-246.629
X43.934 Y-246.679
X43.711 Y-246.741
X43.492 Y-246.815
X43.276 Y-246.903
X43.065 Y-247.002
X42.86 Y-247.113
X42.661 Y-247.236
X42.469 Y-247.371
X42.284 Y-247.516
X42.108 Y-247.671
X41.94 Y-247.837
X41.781 Y-248.012
X41.632 Y-248.196
X41.494 Y-248.389
X41.366 Y-248.59
X41.249 Y-248.798
X41.144 Y-249.013
X41.052 Y-249.234
X40.971 Y-249.461
X40.903 Y-249.692
X40.849 Y-249.926
X40.807 Y-250.164
X40.779 Y-250.405
X40.765 Y-250.647
X40.764 Y-250.89
X40.777 Y-251.133
X40.803 Y-251.376
X40.844 Y-251.617
X40.898 Y-251.856
X40.965 Y-252.093
X41.046 Y-252.325
X41.14 Y-252.554
X41.247 Y-252.777
X41.367 Y-252.994
X41.499 Y-253.204
X41.642 Y-253.408
X41.798 Y-253.603
X41.964 Y-253.789
X42.142 Y-253.967
X42.329 Y-254.134
X42.526 Y-254.291
X42.731 Y-254.437
X42.945 Y-254.571
X43.167 Y-254.693
X43.396 Y-254.803
X43.631 Y-254.9
X43.872 Y-254.984
X44.117 Y-255.054
X44.367 Y-255.11
X44.62 Y-255.153
X44.875 Y-255.181
X45.132 Y-255.195
X45.39 Y-255.194
X45.648 Y-255.179
X45.906 Y-255.149
X46.161 Y-255.104
X46.415 Y-255.045
X46.665 Y-254.972
X46.911 Y-254.885
X47.153 Y-254.784
X47.388 Y-254.669
X47.618 Y-254.54
X47.84 Y-254.399
X48.055 Y-254.245
X48.26 Y-254.079
X48.457 Y-253.901
X48.644 Y-253.712
X48.82 Y-253.513
X48.985 Y-253.303
X49.138 Y-253.084
X49.278 Y-252.857
X49.407 Y-252.621
X49.521 Y-252.378
X49.622 Y-252.128
X49.709 Y-251.873
X49.782 Y-251.613
X49.84 Y-251.348
X49.883 Y-251.08
X49.911 Y-250.809
X49.924 Y-250.537
X49.922 Y-250.264
X49.904 Y-249.991
X49.87 Y-249.719
X49.822 Y-249.449
X49.758 Y-249.181
X49.678 Y-248.917
X49.584 Y-248.657
X49.476 Y-248.402
X49.352 Y-248.154
X49.215 Y-247.912
X49.064 Y-247.678
X48.9 Y-247.452
X48.723 Y-247.236
X48.534 Y-247.029
X48.333 Y-246.833
X48.121 Y-246.648
X47.898 Y-246.475
X47.666 Y-246.315
X47.424 Y-246.168
X47.174 Y-246.034
X46.916 Y-245.914
X46.652 Y-245.809
X46.381 Y-245.719
X46.106 Y-245.644
X45.826 Y-245.584
X45.542 Y-245.541
X45.256 Y-245.513
X44.968 Y-245.501
X44.68 Y-245.506
X44.391 Y-245.527
X44.104 Y-245.564
X43.819 Y-245.617
X43.536 Y-245.686
X43.258 Y-245.772
X42.984 Y-245.873
X42.716 Y-245.99
X42.454 Y-246.121
X42.2 Y-246.268
X41.954 Y-246.429
X41.717 Y-246.604
X41.489 Y-246.792
X41.272 Y-246.993
X41.067 Y-247.207
X40.873 Y-247.432
X40.693 Y-247.668
X40.525 Y-247.914
X40.371 Y-248.17
X40.232 Y-248.435
X40.107 Y-248.707
X39.998 Y-248.987
X39.905 Y-249.273
X39.828 Y-249.564
X39.767 Y-249.859
X39.722 Y-250.159
X39.695 Y-250.46
X39.685 Y-250.764
X39.692 Y-251.067
X39.715 Y-251.371
X39.756 Y-251.674
X39.815 Y-251.974
X39.89 Y-252.271
X39.981 Y-252.564
X40.09 Y-252.851
X40.214 Y-253.133
X40.355 Y-253.408
X40.511 Y-253.675
X40.682 Y-253.933
X40.868 Y-254.181
X41.068 Y-254.419
X41.281 Y-254.646
X41.507 Y-254.861
X41.746 Y-255.063
X41.995 Y-255.252
X42.256 Y-255.427
X42.526 Y-255.587
X42.806 Y-255.732
X43.094 Y-255.861
X43.389 Y-255.974
X43.69 Y-256.071
X43.997 Y-256.15
X44.309 Y-256.212
X44.624 Y-256.257
X44.942 Y-256.283
X45.261 Y-256.292
X45.581 Y-256.283
X45.9 Y-256.256
X46.218 Y-256.21
X46.533 Y-256.147
X46.845 Y-256.066
X47.153 Y-255.968
X47.455 Y-255.852
X47.75 Y-255.719
X48.038 Y-255.569
X48.318 Y-255.403
X48.588 Y-255.221
X48.848 Y-255.024
X49.097 Y-254.813
X49.334 Y-254.587
X49.559 Y-254.348
X49.77 Y-254.096
X49.967 Y-253.832
X50.148 Y-253.557
X50.315 Y-253.272
X50.465 Y-252.977
X50.599 Y-252.674
X50.716 Y-252.363
X50.815 Y-252.046
X50.896 Y-251.723
X50.959 Y-251.395
X51.004 Y-251.064
X51.03 Y-250.73
X51.037 Y-250.395
X51.025 Y-250.059
X50.995 Y-249.724
X50.945 Y-249.39
X50.876 Y-249.059
X50.789 Y-248.733
X50.684 Y-248.411
X50.56 Y-248.094
X50.419 Y-247.785
X50.26 Y-247.484
X50.083 Y-247.192
X49.891 Y-246.909
X49.682 Y-246.638
X49.459 Y-246.378
X49.22 Y-246.131
X48.968 Y-245.897
X48.702 Y-245.677
X48.424 Y-245.473
X48.134 Y-245.284
X47.834 Y-245.111
X47.524 Y-244.955
X47.205 Y-244.817
X46.878 Y-244.696
X46.544 Y-244.595
X46.205 Y-244.511
X45.861 Y-244.447
X45.513 Y-244.403
X45.163 Y-244.378
X44.811 Y-244.373
X44.459 Y-244.387
X44.107 Y-244.422
X43.758 Y-244.476
X43.412 Y-244.55
X43.07 Y-244.644
X42.733 Y-244.757
X42.402 Y-244.888
X42.079 Y-245.039
X41.764 Y-245.208
X41.459 Y-245.394
X41.164 Y-245.598
X40.881 Y-245.818
X40.61 Y-246.055
X40.353 Y-246.306
X40.109 Y-246.572
X39.881 Y-246.852
X39.668 Y-247.145
X39.472 Y-247.45
X39.293 Y-247.765
X39.132 Y-248.091
X38.99 Y-248.426
X38.866 Y-248.769
X38.761 Y-249.119
X38.677 Y-249.475
X38.612 Y-249.836
X38.568 Y-250.2
X38.544 Y-250.567
X38.541 Y-250.935
X38.559 Y-251.304
X38.597 Y-251.671
X38.656 Y-252.036
X38.736 Y-252.398
X38.836 Y-252.756
X38.956 Y-253.108
X39.097 Y-253.453
X39.256 Y-253.79
X39.435 Y-254.118
X39.632 Y-254.436
X39.847 Y-254.743
X40.079 Y-255.038
X40.328 Y-255.319
X40.593 Y-255.587
X40.873 Y-255.84
X41.168 Y-256.076
X41.475 Y-256.297
X41.795 Y-256.5
X42.127 Y-256.685
X42.469 Y-256.851
X42.82 Y-256.998
X43.179 Y-257.125
X43.546 Y-257.232
X43.919 Y-257.318
X44.296 Y-257.383
X44.678 Y-257.427
X45.061 Y-257.45
X45.446
X45.831 Y-257.429
X46.215 Y-257.387
X46.596 Y-257.322
X46.974 Y-257.237
X47.347 Y-257.129
X47.714 Y-257.001
X48.074 Y-256.853
X48.425 Y-256.683
X48.766 Y-256.495
X48.964 Y-256.37
X49.034 Y-256.324
X49.102 Y-256.275
X49.168 Y-256.223
X49.605 Y-255.865
X49.85 Y-255.664
X50.03 Y-255.504
X50.065 Y-255.462
X50.835 Y-254.523
X50.882 Y-254.456
X51.037 Y-254.169
X51.439 Y-253.416
X51.522 Y-253.247
X51.585 Y-253.046
X51.89 Y-252.039
X51.914 Y-251.939
X51.926 Y-251.838
X52.025 Y-250.831
X52.044 Y-250.629
Y-250.573
X52.03 Y-250.428
X51.931 Y-249.422
X51.906 Y-249.22
X51.842 Y-249.003
X51.542 Y-248.012
X51.505 Y-247.911
X51.439 Y-247.784
X50.915 Y-246.804
X50.88 Y-246.74
X50.835 Y-246.677
X50.114 Y-245.797
X50.03 Y-245.696
X49.923 Y-245.596
X49.023 Y-244.857
X48.935 Y-244.79
X48.821 Y-244.727
X47.81 Y-244.186
X47.712 Y-244.14
X47.613 Y-244.109
X46.54 Y-243.784
X46.405 Y-243.749
X46.204 Y-243.727
X45.096 Y-243.618
X44.995 Y-243.621
X43.787 Y-243.74
X43.686 Y-243.755
X43.584 Y-243.784
X42.579 Y-244.089
X42.377 Y-244.154
X42.314 Y-244.186
X41.37 Y-244.691
X41.189 Y-244.79
X41.169 Y-244.804
X40.937 Y-244.992
X40.162 Y-245.628
X40.01 Y-245.797
X39.349 Y-246.603
X39.268 Y-246.703
X39.208 Y-246.804
X38.67 Y-247.811
X38.618 Y-247.911
X38.582 Y-248.012
X38.277 Y-249.019
X38.218 Y-249.22
X38.193 Y-249.422
X38.093 Y-250.428
X38.08 Y-250.63
X38.119 Y-251.032
X38.198 Y-251.838
X38.21 Y-251.939
X38.234 Y-252.039
X38.551 Y-253.085
X38.602 Y-253.247
X38.702 Y-253.449
X39.155 Y-254.297
X39.242 Y-254.456
X39.357 Y-254.606
X40.059 Y-255.462
X40.162 Y-255.572
X41.01 Y-256.268
X41.169 Y-256.396
X41.295 Y-256.469
X42.176 Y-256.94
X42.377 Y-257.046
X42.453 Y-257.073
X43.586 Y-257.417
X43.686 Y-257.445
X43.787 Y-257.46
X44.995 Y-257.579
X45.096 Y-257.582
X46.204 Y-257.473
X46.405 Y-257.451
X46.606 Y-257.396
X47.671 Y-257.073
X47.743 Y-257.047
X47.815 Y-257.011
X48.829 Y-256.469
X48.926 Y-256.415
X49.023 Y-256.343
X49.168 Y-256.223
G3 X49.309 Y-255.506 I-0.397 J0.45
G1 X49.268 Y-255.422 Z24.007
X49.227 Y-255.34 Z24.029
X49.188 Y-255.262 Z24.065
X49.153 Y-255.19 Z24.115
X49.121 Y-255.126 Z24.176
X49.094 Y-255.071 Z24.247
X49.072 Y-255.027 Z24.328
X49.056 Y-254.995 Z24.415
X49.046 Y-254.975 Z24.506
X49.043 Y-254.969 Z24.6
G0 Z46
X45.063 Y-250.6
Z38.05
Z36.65
G1 Z36.05 F850
Z19 F283.3
X45.057 Y-250.563 F850
X45.02 Y-250.553
X44.993 Y-250.579
X44.986 Y-250.616
X44.999 Y-250.651
X45.026 Y-250.676
X45.063 Y-250.686
X45.099 Y-250.679
X45.13 Y-250.657
X45.148 Y-250.624
X45.151 Y-250.587
X45.14 Y-250.551
X45.12 Y-250.519
X45.091 Y-250.495
X45.056 Y-250.482
X45.018 Y-250.481
X44.982 Y-250.492
X44.951 Y-250.512
X44.927 Y-250.541
X44.894 Y-250.608
X44.9 Y-250.683
X44.938 Y-250.748
X44.999 Y-250.791
X45.072 Y-250.807
X45.146 Y-250.795
X45.211 Y-250.756
X45.258 Y-250.698
X45.284 Y-250.628
X45.287 Y-250.553
X45.267 Y-250.481
X45.227 Y-250.417
X45.17 Y-250.368
X45.102 Y-250.337
X45.028 Y-250.326
X44.879 Y-250.344
X44.757 Y-250.432
X44.688 Y-250.565
X44.679 Y-250.715
X44.73 Y-250.856
X44.829 Y-250.968
X44.962 Y-251.039
X45.111 Y-251.059
X45.258 Y-251.029
X45.387 Y-250.954
X45.488 Y-250.842
X45.55 Y-250.706
X45.57 Y-250.557
X45.547 Y-250.409
X45.483 Y-250.273
X45.385 Y-250.16
X45.261 Y-250.074
X45.121 Y-250.022
X44.972 Y-250.006
X44.823 Y-250.026
X44.683 Y-250.081
X44.561 Y-250.167
X44.459 Y-250.278
X44.387 Y-250.409
X44.343 Y-250.552
X44.331 Y-250.702
X44.35 Y-250.851
X44.399 Y-250.993
X44.476 Y-251.121
X44.576 Y-251.233
X44.696 Y-251.323
X44.831 Y-251.389
X44.975 Y-251.429
X45.125 Y-251.442
X45.274 Y-251.427
X45.418 Y-251.386
X45.554 Y-251.321
X45.675 Y-251.233
X45.78 Y-251.126
X45.866 Y-251.003
X45.93 Y-250.867
X45.971 Y-250.723
X45.987 Y-250.574
X45.981 Y-250.424
X45.95 Y-250.277
X45.94 Y-250.248
X45.915 Y-250.187
X45.887 Y-250.127
X45.855 Y-250.069
X45.819 Y-250.019
X45.801 Y-249.998
X45.705 Y-249.898
X45.657 Y-249.855
X45.609 Y-249.818
X45.599 Y-249.811
X45.499 Y-249.756
X45.398 Y-249.707
X45.348 Y-249.689
X45.297 Y-249.676
X45.197 Y-249.659
X45.096 Y-249.646
X44.995 Y-249.649
X44.794 Y-249.684
X44.744 Y-249.7
X44.693 Y-249.721
X44.593 Y-249.772
X44.515 Y-249.818
X44.453 Y-249.867
X44.391 Y-249.926
X44.305 Y-250.019
X44.269 Y-250.069
X44.24 Y-250.118
X44.188 Y-250.22
X44.149 Y-250.321
X44.128 Y-250.422
X44.112 Y-250.522
X44.108 Y-250.623
X44.136 Y-250.825
X44.158 Y-250.903
X44.19 Y-250.982
X44.212 Y-251.026
X44.267 Y-251.127
X44.345 Y-251.227
X44.391 Y-251.274
X44.492 Y-251.365
X44.542 Y-251.4
X44.594 Y-251.429
X44.694 Y-251.479
X44.794 Y-251.516
X44.995 Y-251.551
X45.096 Y-251.554
X45.197 Y-251.541
X45.297 Y-251.524
X45.348 Y-251.511
X45.398 Y-251.493
X45.53 Y-251.429
X45.599 Y-251.388
X45.689 Y-251.317
X45.779 Y-251.227
X45.801 Y-251.202
X45.865 Y-251.114
X45.912 Y-251.026
X45.958 Y-250.925
X45.988 Y-250.825
X46.002 Y-250.741
X46.016 Y-250.623
X46.014 Y-250.541
X46.002 Y-250.459
X45.996 Y-250.422
X45.975 Y-250.321
X45.935 Y-250.22
X45.884 Y-250.12
X45.855 Y-250.069
G3 X45.148 Y-249.885 I-0.473 J-0.369
G1 X45.062 Y-249.922 Z19.007
X44.977 Y-249.957 Z19.029
X44.897 Y-249.991 Z19.065
X44.823 Y-250.022 Z19.115
X44.757 Y-250.05 Z19.176
X44.701 Y-250.074 Z19.247
X44.656 Y-250.093 Z19.328
X44.622 Y-250.107 Z19.415
X44.602 Y-250.116 Z19.506
X44.595 Y-250.119 Z19.6
G0 Z46

(2D Adaptive15)
X45.062 Y-325.6
Z46
Z38.05
Z36.65
G1 Z36.05 F850
Z24 F283.3
X45.024 Y-325.604 F850
X45.014 Y-325.64
X45.038 Y-325.668
X45.075 Y-325.676
X45.11 Y-325.665
X45.137 Y-325.638
X45.148 Y-325.603
X45.142 Y-325.566
X45.121 Y-325.534
X45.089 Y-325.515
X45.052 Y-325.511
X45.016 Y-325.52
X44.983 Y-325.539
X44.958 Y-325.567
X44.944 Y-325.601
X44.941 Y-325.639
X44.951 Y-325.675
X44.97 Y-325.707
X44.997 Y-325.733
X45.063 Y-325.768
X45.138 Y-325.765
X45.204 Y-325.73
X45.25 Y-325.67
X45.269 Y-325.598
X45.26 Y-325.523
X45.224 Y-325.458
X45.168 Y-325.408
X45.099 Y-325.379
X45.024 Y-325.373
X44.951 Y-325.39
X44.886 Y-325.428
X44.835 Y-325.483
X44.801 Y-325.549
X44.787 Y-325.623
X44.799 Y-325.773
X44.882 Y-325.898
X45.012 Y-325.973
X45.161 Y-325.987
X45.304 Y-325.942
X45.421 Y-325.847
X45.496 Y-325.718
X45.522 Y-325.57
X45.498 Y-325.422
X45.428 Y-325.289
X45.321 Y-325.184
X45.187 Y-325.116
X45.04 Y-325.091
X44.891 Y-325.108
X44.752 Y-325.166
X44.635 Y-325.26
X44.545 Y-325.379
X44.487 Y-325.518
X44.464 Y-325.666
X44.479 Y-325.815
X44.528 Y-325.957
X44.609 Y-326.083
X44.715 Y-326.189
X44.844 Y-326.267
X44.985 Y-326.316
X45.134 Y-326.334
X45.284 Y-326.321
X45.427 Y-326.278
X45.559 Y-326.207
X45.675 Y-326.111
X45.769 Y-325.995
X45.841 Y-325.863
X45.886 Y-325.72
X45.905 Y-325.571
X45.897 Y-325.421
X45.862 Y-325.276
X45.802 Y-325.138
X45.719 Y-325.013
X45.617 Y-324.904
X45.497 Y-324.813
X45.364 Y-324.744
X45.222 Y-324.697
X45.073 Y-324.674
X44.923 Y-324.675
X44.775 Y-324.699
X44.633 Y-324.746
X44.499 Y-324.814
X44.377 Y-324.901
X44.269 Y-325.005
X44.178 Y-325.124
X44.105 Y-325.255
X44.051 Y-325.395
X44.018 Y-325.542
X44.005 Y-325.691
X44.014 Y-325.841
X44.043 Y-325.988
X44.091 Y-326.13
X44.159 Y-326.264
X44.244 Y-326.387
X44.344 Y-326.499
X44.458 Y-326.596
X44.584 Y-326.679
X44.719 Y-326.743
X44.861 Y-326.791
X45.008 Y-326.821
X45.158 Y-326.831
X45.308 Y-326.824
X45.455 Y-326.798
X45.599 Y-326.754
X45.736 Y-326.694
X45.865 Y-326.618
X45.985 Y-326.527
X46.093 Y-326.423
X46.188 Y-326.307
X46.269 Y-326.181
X46.335 Y-326.046
X46.386 Y-325.905
X46.421 Y-325.759
X46.439 Y-325.61
X46.441 Y-325.46
X46.426 Y-325.311
X46.395 Y-325.164
X46.349 Y-325.021
X46.288 Y-324.884
X46.212 Y-324.755
X46.124 Y-324.634
X46.023 Y-324.523
X45.911 Y-324.423
X45.79 Y-324.335
X45.66 Y-324.26
X45.523 Y-324.199
X45.38 Y-324.152
X45.234 Y-324.119
X45.085 Y-324.101
X44.935 Y-324.098
X44.786 Y-324.11
X44.638 Y-324.135
X44.493 Y-324.176
X44.353 Y-324.23
X44.219 Y-324.297
X44.092 Y-324.376
X43.973 Y-324.467
X43.863 Y-324.569
X43.762 Y-324.681
X43.673 Y-324.801
X43.595 Y-324.929
X43.529 Y-325.064
X43.476 Y-325.204
X43.435 Y-325.349
X43.408 Y-325.496
X43.394 Y-325.646
Y-325.796
X43.406 Y-325.945
X43.432 Y-326.093
X43.47 Y-326.238
X43.522 Y-326.379
X43.585 Y-326.515
X43.659 Y-326.645
X43.744 Y-326.769
X43.84 Y-326.884
X43.945 Y-326.991
X44.058 Y-327.089
X44.18 Y-327.177
X44.308 Y-327.255
X44.443 Y-327.322
X44.582 Y-327.377
X44.725 Y-327.421
X44.872 Y-327.453
X45.021 Y-327.473
X45.17 Y-327.481
X45.32 Y-327.477
X45.469 Y-327.461
X45.617 Y-327.433
X45.761 Y-327.394
X45.903 Y-327.343
X46.039 Y-327.281
X46.171 Y-327.209
X46.296 Y-327.127
X46.415 Y-327.035
X46.527 Y-326.935
X46.63 Y-326.826
X46.725 Y-326.71
X46.811 Y-326.587
X46.887 Y-326.458
X46.953 Y-326.323
X47.009 Y-326.184
X47.054 Y-326.041
X47.089 Y-325.895
X47.113 Y-325.747
X47.126 Y-325.598
X47.128 Y-325.448
X47.119 Y-325.298
X47.099 Y-325.149
X47.068 Y-325.002
X47.027 Y-324.858
X46.976 Y-324.717
X46.915 Y-324.58
X46.844 Y-324.448
X46.764 Y-324.321
X46.675 Y-324.2
X46.578 Y-324.086
X46.473 Y-323.979
X46.361 Y-323.879
X46.242 Y-323.787
X46.117 Y-323.704
X45.987 Y-323.63
X45.852 Y-323.565
X45.713 Y-323.509
X45.57 Y-323.463
X45.424 Y-323.426
X45.277 Y-323.4
X45.128 Y-323.383
X44.978 Y-323.377
X44.828 Y-323.38
X44.678 Y-323.393
X44.53 Y-323.417
X44.384 Y-323.45
X44.24 Y-323.493
X44.099 Y-323.545
X43.962 Y-323.606
X43.83 Y-323.675
X43.702 Y-323.754
X43.579 Y-323.84
X43.462 Y-323.934
X43.352 Y-324.036
X43.248 Y-324.144
X43.152 Y-324.259
X43.062 Y-324.379
X42.981 Y-324.506
X42.908 Y-324.636
X42.843 Y-324.772
X42.787 Y-324.911
X42.739 Y-325.053
X42.701 Y-325.198
X42.671 Y-325.345
X42.651 Y-325.494
X42.64 Y-325.643
X42.638 Y-325.793
X42.645 Y-325.943
X42.662 Y-326.092
X42.687 Y-326.24
X42.722 Y-326.386
X42.765 Y-326.53
X42.817 Y-326.67
X42.877 Y-326.808
X42.945 Y-326.941
X43.022 Y-327.071
X43.105 Y-327.195
X43.196 Y-327.314
X43.294 Y-327.428
X43.398 Y-327.536
X43.509 Y-327.637
X43.625 Y-327.732
X43.747 Y-327.82
X43.873 Y-327.9
X44.004 Y-327.973
X44.139 Y-328.039
X44.278 Y-328.096
X44.42 Y-328.146
X44.564 Y-328.187
X44.71 Y-328.219
X44.858 Y-328.244
X45.007 Y-328.26
X45.159 Y-328.267
X45.309 Y-328.266
X45.458 Y-328.257
X45.609 Y-328.239
X45.759 Y-328.212
X45.905 Y-328.177
X46.049 Y-328.134
X46.194 Y-328.082
X46.335 Y-328.022
X46.471 Y-327.955
X46.604 Y-327.88
X46.735 Y-327.795
X46.861 Y-327.704
X46.979 Y-327.608
X47.094 Y-327.503
X47.204 Y-327.391
X47.307 Y-327.273
X47.402 Y-327.151
X47.491 Y-327.022
X47.574 Y-326.886
X47.649 Y-326.746
X47.715 Y-326.604
X47.774 Y-326.458
X47.825 Y-326.306
X47.867 Y-326.15
X47.901 Y-325.995
X47.925 Y-325.838
X47.941 Y-325.677
X47.948 Y-325.514
X47.946 Y-325.352
X47.934 Y-325.192
X47.914 Y-325.032
X47.884 Y-324.87
X47.845 Y-324.71
X47.797 Y-324.554
X47.741 Y-324.401
X47.675 Y-324.25
X47.601 Y-324.101
X47.518 Y-323.956
X47.427 Y-323.817
X47.329 Y-323.684
X47.223 Y-323.555
X47.109 Y-323.432
X46.987 Y-323.314
X46.859 Y-323.204
X46.726 Y-323.101
X46.587 Y-323.007
X46.442 Y-322.919
X46.29 Y-322.839
X46.134 Y-322.767
X45.974 Y-322.705
X45.811 Y-322.651
X45.646 Y-322.607
X45.477 Y-322.572
X45.306 Y-322.546
X45.132 Y-322.53
X44.957 Y-322.524
X44.782 Y-322.528
X44.609 Y-322.541
X44.436 Y-322.564
X44.263 Y-322.598
X44.092 Y-322.641
X43.922 Y-322.694
X43.755 Y-322.756
X43.592 Y-322.828
X43.434 Y-322.909
X43.28 Y-322.998
X43.131 Y-323.097
X42.987 Y-323.204
X42.849 Y-323.32
X42.717 Y-323.444
X42.591 Y-323.575
X42.473 Y-323.714
X42.363 Y-323.859
X42.261 Y-324.01
X42.168 Y-324.167
X42.084 Y-324.329
X42.008 Y-324.496
X41.942 Y-324.668
X41.886 Y-324.844
X41.839 Y-325.024
X41.802 Y-325.207
X41.776 Y-325.392
X41.76 Y-325.578
X41.754 Y-325.765
X41.759 Y-325.952
X41.775 Y-326.14
X41.801 Y-326.326
X41.838 Y-326.511
X41.885 Y-326.694
X41.943 Y-326.875
X42.011 Y-327.053
X42.089 Y-327.227
X42.177 Y-327.397
X42.275 Y-327.562
X42.382 Y-327.722
X42.498 Y-327.876
X42.623 Y-328.024
X42.757 Y-328.164
X42.899 Y-328.298
X43.048 Y-328.423
X43.204 Y-328.54
X43.368 Y-328.649
X43.537 Y-328.748
X43.712 Y-328.838
X43.893 Y-328.917
X44.077 Y-328.987
X44.267 Y-329.047
X44.459 Y-329.095
X44.655 Y-329.133
X44.853 Y-329.16
X45.052 Y-329.176
X45.253 Y-329.181
X45.454 Y-329.174
X45.655 Y-329.156
X45.855 Y-329.126
X46.053 Y-329.086
X46.25 Y-329.034
X46.443 Y-328.971
X46.634 Y-328.896
X46.82 Y-328.811
X47.001 Y-328.716
X47.177 Y-328.61
X47.348 Y-328.494
X47.512 Y-328.369
X47.669 Y-328.234
X47.819 Y-328.09
X47.96 Y-327.938
X48.094 Y-327.777
X48.218 Y-327.609
X48.332 Y-327.434
X48.437 Y-327.252
X48.532 Y-327.064
X48.617 Y-326.87
X48.69 Y-326.672
X48.752 Y-326.469
X48.803 Y-326.263
X48.842 Y-326.054
X48.87 Y-325.842
X48.885 Y-325.629
X48.889 Y-325.414
X48.88 Y-325.199
X48.859 Y-324.985
X48.826 Y-324.771
X48.782 Y-324.56
X48.725 Y-324.35
X48.656 Y-324.144
X48.576 Y-323.942
X48.484 Y-323.743
X48.38 Y-323.55
X48.266 Y-323.363
X48.142 Y-323.182
X48.006 Y-323.007
X47.861 Y-322.84
X47.707 Y-322.682
X47.543 Y-322.532
X47.371 Y-322.391
X47.191 Y-322.259
X47.003 Y-322.138
X46.808 Y-322.027
X46.607 Y-321.928
X46.399 Y-321.839
X46.187 Y-321.762
X45.971 Y-321.697
X45.75 Y-321.644
X45.527 Y-321.604
X45.301 Y-321.576
X45.073 Y-321.561
X44.844 Y-321.559
X44.615 Y-321.569
X44.387 Y-321.593
X44.159 Y-321.629
X43.934 Y-321.679
X43.711 Y-321.741
X43.492 Y-321.815
X43.276 Y-321.903
X43.065 Y-322.002
X42.86 Y-322.113
X42.661 Y-322.236
X42.469 Y-322.371
X42.284 Y-322.516
X42.108 Y-322.671
X41.94 Y-322.837
X41.781 Y-323.012
X41.632 Y-323.196
X41.494 Y-323.389
X41.366 Y-323.59
X41.249 Y-323.798
X41.144 Y-324.013
X41.052 Y-324.234
X40.971 Y-324.461
X40.903 Y-324.692
X40.849 Y-324.926
X40.807 Y-325.164
X40.779 Y-325.405
X40.765 Y-325.647
X40.764 Y-325.89
X40.777 Y-326.133
X40.803 Y-326.376
X40.844 Y-326.617
X40.898 Y-326.856
X40.965 Y-327.093
X41.046 Y-327.325
X41.14 Y-327.554
X41.247 Y-327.777
X41.367 Y-327.994
X41.499 Y-328.204
X41.642 Y-328.408
X41.798 Y-328.603
X41.964 Y-328.789
X42.142 Y-328.967
X42.329 Y-329.134
X42.526 Y-329.291
X42.731 Y-329.437
X42.945 Y-329.571
X43.167 Y-329.693
X43.396 Y-329.803
X43.631 Y-329.9
X43.872 Y-329.984
X44.117 Y-330.054
X44.367 Y-330.11
X44.62 Y-330.153
X44.875 Y-330.181
X45.132 Y-330.195
X45.39 Y-330.194
X45.648 Y-330.179
X45.906 Y-330.149
X46.161 Y-330.104
X46.415 Y-330.045
X46.665 Y-329.972
X46.911 Y-329.885
X47.153 Y-329.784
X47.388 Y-329.669
X47.618 Y-329.54
X47.84 Y-329.399
X48.055 Y-329.245
X48.26 Y-329.079
X48.457 Y-328.901
X48.644 Y-328.712
X48.82 Y-328.513
X48.985 Y-328.303
X49.138 Y-328.084
X49.278 Y-327.857
X49.407 Y-327.621
X49.521 Y-327.378
X49.622 Y-327.128
X49.709 Y-326.873
X49.782 Y-326.613
X49.84 Y-326.348
X49.883 Y-326.08
X49.911 Y-325.809
X49.924 Y-325.537
X49.922 Y-325.264
X49.904 Y-324.991
X49.87 Y-324.719
X49.822 Y-324.449
X49.758 Y-324.181
X49.678 Y-323.917
X49.584 Y-323.657
X49.476 Y-323.402
X49.352 Y-323.154
X49.215 Y-322.912
X49.064 Y-322.678
X48.9 Y-322.452
X48.723 Y-322.236
X48.534 Y-322.029
X48.333 Y-321.833
X48.121 Y-321.648
X47.898 Y-321.475
X47.666 Y-321.315
X47.424 Y-321.168
X47.174 Y-321.034
X46.916 Y-320.914
X46.652 Y-320.809
X46.381 Y-320.719
X46.106 Y-320.644
X45.826 Y-320.584
X45.542 Y-320.541
X45.256 Y-320.513
X44.968 Y-320.501
X44.68 Y-320.506
X44.391 Y-320.527
X44.104 Y-320.564
X43.819 Y-320.617
X43.536 Y-320.686
X43.258 Y-320.772
X42.984 Y-320.873
X42.716 Y-320.99
X42.454 Y-321.121
X42.2 Y-321.268
X41.954 Y-321.429
X41.717 Y-321.604
X41.489 Y-321.792
X41.272 Y-321.993
X41.067 Y-322.207
X40.873 Y-322.432
X40.693 Y-322.668
X40.525 Y-322.914
X40.371 Y-323.17
X40.232 Y-323.435
X40.107 Y-323.707
X39.998 Y-323.987
X39.905 Y-324.273
X39.828 Y-324.564
X39.767 Y-324.859
X39.722 Y-325.159
X39.695 Y-325.46
X39.685 Y-325.764
X39.692 Y-326.067
X39.715 Y-326.371
X39.756 Y-326.674
X39.815 Y-326.974
X39.89 Y-327.271
X39.981 Y-327.564
X40.09 Y-327.851
X40.214 Y-328.133
X40.355 Y-328.408
X40.511 Y-328.675
X40.682 Y-328.933
X40.868 Y-329.181
X41.068 Y-329.419
X41.281 Y-329.646
X41.507 Y-329.861
X41.746 Y-330.063
X41.995 Y-330.252
X42.256 Y-330.427
X42.526 Y-330.587
X42.806 Y-330.732
X43.094 Y-330.861
X43.389 Y-330.974
X43.69 Y-331.071
X43.997 Y-331.15
X44.309 Y-331.212
X44.624 Y-331.257
X44.942 Y-331.283
X45.261 Y-331.292
X45.581 Y-331.283
X45.9 Y-331.256
X46.218 Y-331.21
X46.533 Y-331.147
X46.845 Y-331.066
X47.153 Y-330.968
X47.455 Y-330.852
X47.75 Y-330.719
X48.038 Y-330.569
X48.318 Y-330.403
X48.588 Y-330.221
X48.848 Y-330.024
X49.097 Y-329.813
X49.334 Y-329.587
X49.559 Y-329.348
X49.77 Y-329.096
X49.967 Y-328.832
X50.148 Y-328.557
X50.315 Y-328.272
X50.465 Y-327.977
X50.599 Y-327.674
X50.716 Y-327.363
X50.815 Y-327.046
X50.896 Y-326.723
X50.959 Y-326.395
X51.004 Y-326.064
X51.03 Y-325.73
X51.037 Y-325.395
X51.025 Y-325.059
X50.995 Y-324.724
X50.945 Y-324.39
X50.876 Y-324.059
X50.789 Y-323.733
X50.684 Y-323.411
X50.56 Y-323.094
X50.419 Y-322.785
X50.26 Y-322.484
X50.083 Y-322.192
X49.891 Y-321.909
X49.682 Y-321.638
X49.459 Y-321.378
X49.22 Y-321.131
X48.968 Y-320.897
X48.702 Y-320.677
X48.424 Y-320.473
X48.134 Y-320.284
X47.834 Y-320.111
X47.524 Y-319.955
X47.205 Y-319.817
X46.878 Y-319.696
X46.544 Y-319.595
X46.205 Y-319.511
X45.861 Y-319.447
X45.513 Y-319.403
X45.163 Y-319.378
X44.811 Y-319.373
X44.459 Y-319.387
X44.107 Y-319.422
X43.758 Y-319.476
X43.412 Y-319.55
X43.07 Y-319.644
X42.733 Y-319.757
X42.402 Y-319.888
X42.079 Y-320.039
X41.764 Y-320.208
X41.459 Y-320.394
X41.164 Y-320.598
X40.881 Y-320.818
X40.61 Y-321.055
X40.353 Y-321.306
X40.109 Y-321.572
X39.881 Y-321.852
X39.668 Y-322.145
X39.472 Y-322.45
X39.293 Y-322.765
X39.132 Y-323.091
X38.99 Y-323.426
X38.866 Y-323.769
X38.761 Y-324.119
X38.677 Y-324.475
X38.612 Y-324.836
X38.568 Y-325.2
X38.544 Y-325.567
X38.541 Y-325.935
X38.559 Y-326.304
X38.597 Y-326.671
X38.656 Y-327.036
X38.736 Y-327.398
X38.836 Y-327.756
X38.956 Y-328.108
X39.097 Y-328.453
X39.256 Y-328.79
X39.435 Y-329.118
X39.632 Y-329.436
X39.847 Y-329.743
X40.079 Y-330.038
X40.328 Y-330.319
X40.593 Y-330.587
X40.873 Y-330.84
X41.168 Y-331.076
X41.475 Y-331.297
X41.795 Y-331.5
X42.127 Y-331.685
X42.469 Y-331.851
X42.82 Y-331.998
X43.179 Y-332.125
X43.546 Y-332.232
X43.919 Y-332.318
X44.296 Y-332.383
X44.678 Y-332.427
X45.061 Y-332.45
X45.446
X45.831 Y-332.429
X46.215 Y-332.387
X46.596 Y-332.322
X46.974 Y-332.237
X47.347 Y-332.129
X47.714 Y-332.001
X48.074 Y-331.853
X48.425 Y-331.683
X48.766 Y-331.495
X48.964 Y-331.37
X49.034 Y-331.324
X49.102 Y-331.275
X49.168 Y-331.223
X49.605 Y-330.865
X49.85 Y-330.664
X50.03 Y-330.504
X50.065 Y-330.462
X50.835 Y-329.523
X50.882 Y-329.456
X51.037 Y-329.169
X51.439 Y-328.416
X51.522 Y-328.247
X51.585 Y-328.046
X51.89 Y-327.039
X51.914 Y-326.939
X51.926 Y-326.838
X52.025 Y-325.831
X52.044 Y-325.629
Y-325.573
X52.03 Y-325.428
X51.931 Y-324.422
X51.906 Y-324.22
X51.842 Y-324.003
X51.542 Y-323.012
X51.505 Y-322.911
X51.439 Y-322.784
X50.915 Y-321.804
X50.88 Y-321.74
X50.835 Y-321.677
X50.114 Y-320.797
X50.03 Y-320.696
X49.923 Y-320.596
X49.023 Y-319.857
X48.935 Y-319.79
X48.821 Y-319.727
X47.81 Y-319.186
X47.712 Y-319.14
X47.613 Y-319.109
X46.54 Y-318.784
X46.405 Y-318.749
X46.204 Y-318.727
X45.096 Y-318.618
X44.995 Y-318.621
X43.787 Y-318.74
X43.686 Y-318.755
X43.584 Y-318.784
X42.579 Y-319.089
X42.377 Y-319.154
X42.314 Y-319.186
X41.37 Y-319.691
X41.189 Y-319.79
X41.169 Y-319.804
X40.937 Y-319.992
X40.162 Y-320.628
X40.01 Y-320.797
X39.349 Y-321.603
X39.268 Y-321.703
X39.208 Y-321.804
X38.67 Y-322.811
X38.618 Y-322.911
X38.582 Y-323.012
X38.277 Y-324.019
X38.218 Y-324.22
X38.193 Y-324.422
X38.093 Y-325.428
X38.08 Y-325.63
X38.119 Y-326.032
