%
(1001)
(origin bottom left anchor hole stock bottom)
(T1  D=6 CR=0 - ZMIN=45 - flat end mill)
G90 G94
G17
G21

(2D Adaptive15)
M9
T1 M6
S10000 M3
G54
G0 X1489.825 Y-668.099
Z72
Z64.05
Z62.65
G1 Z62.05 F850
Z50 F283.3
X1489.862 Y-668.095 F850
X1489.868 Y-668.058
X1489.842 Y-668.031
X1489.805 Y-668.024
X1489.769 Y-668.036
X1489.744 Y-668.064
X1489.734 Y-668.1
X1489.74 Y-668.137
X1489.762 Y-668.167
X1489.795 Y-668.186
X1489.832 Y-668.189
X1489.869 Y-668.181
X1489.901 Y-668.161
X1489.925 Y-668.133
X1489.939 Y-668.098
X1489.941 Y-668.06
X1489.932 Y-668.024
X1489.913 Y-667.992
X1489.885 Y-667.967
X1489.819 Y-667.932
X1489.744 Y-667.934
X1489.677 Y-667.97
X1489.632 Y-668.029
X1489.613 Y-668.102
X1489.622 Y-668.176
X1489.658 Y-668.242
X1489.714 Y-668.292
X1489.783 Y-668.321
X1489.858 Y-668.327
X1489.931 Y-668.311
X1489.996 Y-668.274
X1490.047 Y-668.219
X1490.082 Y-668.152
X1490.096 Y-668.079
X1490.085 Y-667.929
X1490.003 Y-667.804
X1489.874 Y-667.727
X1489.725 Y-667.712
X1489.581 Y-667.755
X1489.464 Y-667.849
X1489.387 Y-667.978
X1489.359 Y-668.125
X1489.381 Y-668.273
X1489.45 Y-668.407
X1489.556 Y-668.513
X1489.689 Y-668.582
X1489.836 Y-668.61
X1489.985 Y-668.595
X1490.124 Y-668.539
X1490.243 Y-668.447
X1490.335 Y-668.328
X1490.394 Y-668.191
X1490.419 Y-668.043
X1490.407 Y-667.893
X1490.36 Y-667.751
X1490.281 Y-667.623
X1490.176 Y-667.516
X1490.049 Y-667.437
X1489.908 Y-667.385
X1489.759 Y-667.365
X1489.61 Y-667.375
X1489.465 Y-667.416
X1489.332 Y-667.485
X1489.215 Y-667.579
X1489.119 Y-667.694
X1489.045 Y-667.824
X1488.998 Y-667.967
X1488.976 Y-668.115
X1488.982 Y-668.265
X1489.015 Y-668.411
X1489.072 Y-668.55
X1489.153 Y-668.676
X1489.254 Y-668.788
X1489.372 Y-668.88
X1489.504 Y-668.952
X1489.645 Y-669.001
X1489.793 Y-669.026
X1489.943 Y-669.028
X1490.092 Y-669.006
X1490.235 Y-668.962
X1490.37 Y-668.896
X1490.493 Y-668.811
X1490.603 Y-668.709
X1490.696 Y-668.591
X1490.772 Y-668.462
X1490.828 Y-668.323
X1490.864 Y-668.177
X1490.879 Y-668.028
X1490.873 Y-667.878
X1490.847 Y-667.73
X1490.8 Y-667.588
X1490.735 Y-667.453
X1490.653 Y-667.327
X1490.554 Y-667.214
X1490.442 Y-667.114
X1490.318 Y-667.03
X1490.184 Y-666.963
X1490.043 Y-666.912
X1489.896 Y-666.88
X1489.747 Y-666.867
X1489.597 Y-666.872
X1489.448 Y-666.895
X1489.304 Y-666.936
X1489.166 Y-666.994
X1489.035 Y-667.068
X1488.914 Y-667.156
X1488.804 Y-667.259
X1488.708 Y-667.373
X1488.624 Y-667.497
X1488.555 Y-667.631
X1488.502 Y-667.771
X1488.464 Y-667.916
X1488.443 Y-668.065
X1488.439 Y-668.215
X1488.45 Y-668.364
X1488.479 Y-668.511
X1488.522 Y-668.655
X1488.581 Y-668.793
X1488.654 Y-668.924
X1488.74 Y-669.047
X1488.839 Y-669.16
X1488.949 Y-669.261
X1489.069 Y-669.352
X1489.198 Y-669.429
X1489.333 Y-669.493
X1489.475 Y-669.543
X1489.62 Y-669.578
X1489.769 Y-669.599
X1489.919 Y-669.605
X1490.069 Y-669.596
X1490.217 Y-669.573
X1490.362 Y-669.535
X1490.503 Y-669.484
X1490.638 Y-669.419
X1490.767 Y-669.343
X1490.888 Y-669.254
X1491 Y-669.154
X1491.102 Y-669.044
X1491.194 Y-668.925
X1491.274 Y-668.799
X1491.343 Y-668.665
X1491.399 Y-668.526
X1491.442 Y-668.382
X1491.472 Y-668.235
X1491.489 Y-668.086
X1491.492 Y-667.936
X1491.482 Y-667.787
X1491.459 Y-667.639
X1491.424 Y-667.493
X1491.375 Y-667.351
X1491.315 Y-667.214
X1491.243 Y-667.082
X1491.16 Y-666.957
X1491.067 Y-666.84
X1490.964 Y-666.73
X1490.852 Y-666.63
X1490.733 Y-666.54
X1490.606 Y-666.46
X1490.473 Y-666.39
X1490.334 Y-666.332
X1490.192 Y-666.286
X1490.046 Y-666.251
X1489.898 Y-666.228
X1489.748 Y-666.217
X1489.598 Y-666.218
X1489.449 Y-666.232
X1489.301 Y-666.256
X1489.155 Y-666.293
X1489.013 Y-666.341
X1488.875 Y-666.4
X1488.742 Y-666.47
X1488.615 Y-666.549
X1488.495 Y-666.639
X1488.381 Y-666.737
X1488.276 Y-666.844
X1488.179 Y-666.958
X1488.091 Y-667.079
X1488.012 Y-667.207
X1487.943 Y-667.34
X1487.885 Y-667.478
X1487.837 Y-667.62
X1487.799 Y-667.766
X1487.772 Y-667.913
X1487.756 Y-668.062
X1487.751 Y-668.212
X1487.757 Y-668.362
X1487.775 Y-668.511
X1487.802 Y-668.659
X1487.84 Y-668.804
X1487.889 Y-668.946
X1487.948 Y-669.084
X1488.016 Y-669.217
X1488.094 Y-669.346
X1488.18 Y-669.468
X1488.275 Y-669.584
X1488.378 Y-669.694
X1488.488 Y-669.795
X1488.605 Y-669.889
X1488.728 Y-669.975
X1488.857 Y-670.052
X1488.99 Y-670.12
X1489.128 Y-670.179
X1489.27 Y-670.228
X1489.415 Y-670.267
X1489.562 Y-670.296
X1489.711 Y-670.316
X1489.86 Y-670.325
X1490.01
X1490.16 Y-670.314
X1490.309 Y-670.294
X1490.456 Y-670.263
X1490.6 Y-670.224
X1490.742 Y-670.174
X1490.88 Y-670.116
X1491.014 Y-670.049
X1491.144 Y-669.973
X1491.268 Y-669.889
X1491.387 Y-669.797
X1491.499 Y-669.698
X1491.605 Y-669.592
X1491.704 Y-669.479
X1491.795 Y-669.36
X1491.879 Y-669.236
X1491.955 Y-669.106
X1492.023 Y-668.973
X1492.082 Y-668.835
X1492.132 Y-668.693
X1492.173 Y-668.549
X1492.206 Y-668.403
X1492.229 Y-668.254
X1492.243 Y-668.105
X1492.248 Y-667.955
X1492.243 Y-667.805
X1492.23 Y-667.656
X1492.207 Y-667.508
X1492.176 Y-667.361
X1492.135 Y-667.216
X1492.086 Y-667.075
X1492.029 Y-666.936
X1491.963 Y-666.801
X1491.89 Y-666.67
X1491.808 Y-666.544
X1491.72 Y-666.423
X1491.624 Y-666.308
X1491.522 Y-666.198
X1491.414 Y-666.094
X1491.299 Y-665.997
X1491.179 Y-665.907
X1491.055 Y-665.824
X1490.925 Y-665.748
X1490.791 Y-665.68
X1490.654 Y-665.62
X1490.513 Y-665.568
X1490.37 Y-665.524
X1490.224 Y-665.488
X1490.077 Y-665.461
X1489.928 Y-665.442
X1489.777 Y-665.431
X1489.627 Y-665.429
X1489.477 Y-665.436
X1489.326 Y-665.451
X1489.176 Y-665.475
X1489.029 Y-665.507
X1488.884 Y-665.547
X1488.738 Y-665.596
X1488.595 Y-665.653
X1488.458 Y-665.717
X1488.324 Y-665.79
X1488.191 Y-665.872
X1488.064 Y-665.96
X1487.943 Y-666.054
X1487.827 Y-666.156
X1487.714 Y-666.267
X1487.609 Y-666.383
X1487.512 Y-666.503
X1487.42 Y-666.63
X1487.334 Y-666.764
X1487.256 Y-666.902
X1487.187 Y-667.043
X1487.126 Y-667.188
X1487.072 Y-667.339
X1487.026 Y-667.494
X1486.99 Y-667.649
X1486.962 Y-667.805
X1486.943 Y-667.965
X1486.933 Y-668.128
X1486.932 Y-668.29
X1486.94 Y-668.45
X1486.957 Y-668.611
X1486.984 Y-668.774
X1487.02 Y-668.935
X1487.065 Y-669.092
X1487.118 Y-669.246
X1487.18 Y-669.398
X1487.252 Y-669.549
X1487.332 Y-669.695
X1487.42 Y-669.836
X1487.515 Y-669.971
X1487.618 Y-670.101
X1487.73 Y-670.227
X1487.85 Y-670.347
X1487.975 Y-670.46
X1488.107 Y-670.565
X1488.244 Y-670.663
X1488.387 Y-670.753
X1488.537 Y-670.836
X1488.692 Y-670.911
X1488.85 Y-670.977
X1489.012 Y-671.034
X1489.176 Y-671.081
X1489.344 Y-671.119
X1489.515 Y-671.149
X1489.689 Y-671.168
X1489.864 Y-671.178
X1490.038
X1490.212 Y-671.168
X1490.385 Y-671.148
X1490.559 Y-671.118
X1490.731 Y-671.079
X1490.902 Y-671.029
X1491.07 Y-670.97
X1491.234 Y-670.901
X1491.394 Y-670.824
X1491.55 Y-670.737
X1491.701 Y-670.642
X1491.847 Y-670.538
X1491.987 Y-670.425
X1492.122 Y-670.303
X1492.25 Y-670.174
X1492.371 Y-670.038
X1492.484 Y-669.895
X1492.589 Y-669.746
X1492.685 Y-669.591
X1492.772 Y-669.431
X1492.851 Y-669.265
X1492.921 Y-669.095
X1492.981 Y-668.919
X1493.031 Y-668.741
X1493.072 Y-668.559
X1493.102 Y-668.374
X1493.121 Y-668.188
X1493.131 Y-668.001
X1493.129 Y-667.814
X1493.117 Y-667.626
X1493.095 Y-667.439
X1493.062 Y-667.254
X1493.018 Y-667.07
X1492.964 Y-666.888
X1492.9 Y-666.709
X1492.825 Y-666.533
X1492.741 Y-666.361
X1492.646 Y-666.194
X1492.542 Y-666.032
X1492.429 Y-665.876
X1492.307 Y-665.726
X1492.176 Y-665.582
X1492.037 Y-665.446
X1491.891 Y-665.318
X1491.736 Y-665.198
X1491.575 Y-665.086
X1491.408 Y-664.983
X1491.235 Y-664.89
X1491.056 Y-664.807
X1490.872 Y-664.733
X1490.684 Y-664.67
X1490.493 Y-664.617
X1490.298 Y-664.575
X1490.101 Y-664.545
X1489.901 Y-664.525
X1489.701 Y-664.516
X1489.5 Y-664.519
X1489.299 Y-664.533
X1489.098 Y-664.558
X1488.899 Y-664.595
X1488.701 Y-664.643
X1488.506 Y-664.702
X1488.315 Y-664.773
X1488.127 Y-664.854
X1487.943 Y-664.946
X1487.765 Y-665.048
X1487.592 Y-665.16
X1487.426 Y-665.283
X1487.266 Y-665.414
X1487.114 Y-665.555
X1486.969 Y-665.705
X1486.833 Y-665.863
X1486.705 Y-666.029
X1486.587 Y-666.201
X1486.478 Y-666.381
X1486.38 Y-666.567
X1486.292 Y-666.759
X1486.214 Y-666.956
X1486.148 Y-667.157
X1486.093 Y-667.362
X1486.05 Y-667.571
X1486.018 Y-667.782
X1485.998 Y-667.995
X1485.99 Y-668.209
X1485.995 Y-668.424
X1486.011 Y-668.639
X1486.04 Y-668.853
X1486.08 Y-669.066
X1486.133 Y-669.276
X1486.197 Y-669.484
X1486.274 Y-669.688
X1486.362 Y-669.888
X1486.461 Y-670.084
X1486.572 Y-670.273
X1486.693 Y-670.457
X1486.824 Y-670.634
X1486.966 Y-670.803
X1487.117 Y-670.965
X1487.278 Y-671.119
X1487.447 Y-671.263
X1487.625 Y-671.398
X1487.81 Y-671.523
X1488.003 Y-671.637
X1488.202 Y-671.741
X1488.408 Y-671.834
X1488.618 Y-671.915
X1488.833 Y-671.984
X1489.052 Y-672.042
X1489.275 Y-672.087
X1489.501 Y-672.119
X1489.728 Y-672.139
X1489.957 Y-672.145
X1490.186 Y-672.139
X1490.415 Y-672.12
X1490.643 Y-672.089
X1490.87 Y-672.044
X1491.094 Y-671.986
X1491.314 Y-671.916
X1491.532 Y-671.833
X1491.744 Y-671.738
X1491.952 Y-671.631
X1492.153 Y-671.512
X1492.348 Y-671.381
X1492.536 Y-671.24
X1492.715 Y-671.088
X1492.886 Y-670.926
X1493.049 Y-670.753
X1493.201 Y-670.572
X1493.344 Y-670.382
X1493.475 Y-670.184
X1493.596 Y-669.978
X1493.705 Y-669.765
X1493.803 Y-669.546
X1493.888 Y-669.321
X1493.96 Y-669.092
X1494.019 Y-668.858
X1494.066 Y-668.621
X1494.098 Y-668.381
X1494.118 Y-668.139
X1494.123 Y-667.896
X1494.115 Y-667.653
X1494.094 Y-667.41
X1494.058 Y-667.168
X1494.009 Y-666.927
X1493.946 Y-666.69
X1493.87 Y-666.456
X1493.781 Y-666.225
X1493.678 Y-666
X1493.563 Y-665.781
X1493.435 Y-665.568
X1493.295 Y-665.362
X1493.144 Y-665.163
X1492.981 Y-664.973
X1492.807 Y-664.793
X1492.624 Y-664.622
X1492.43 Y-664.461
X1492.227 Y-664.311
X1492.016 Y-664.172
X1491.797 Y-664.046
X1491.57 Y-663.931
X1491.337 Y-663.829
X1491.098 Y-663.741
X1490.854 Y-663.666
X1490.606 Y-663.604
X1490.354 Y-663.557
X1490.099 Y-663.524
X1489.842 Y-663.505
X1489.584 Y-663.5
X1489.326 Y-663.51
X1489.068 Y-663.535
X1488.811 Y-663.575
X1488.557 Y-663.628
X1488.305 Y-663.696
X1488.057 Y-663.779
X1487.813 Y-663.875
X1487.575 Y-663.986
X1487.343 Y-664.109
X1487.118 Y-664.246
X1486.901 Y-664.396
X1486.692 Y-664.558
X1486.492 Y-664.732
X1486.301 Y-664.917
X1486.121 Y-665.113
X1485.952 Y-665.319
X1485.795 Y-665.535
X1485.649 Y-665.76
X1485.517 Y-665.993
X1485.397 Y-666.233
X1485.291 Y-666.481
X1485.199 Y-666.734
X1485.121 Y-666.993
X1485.057 Y-667.257
X1485.009 Y-667.524
X1484.976 Y-667.794
X1484.957 Y-668.066
X1484.954 Y-668.339
X1484.967 Y-668.612
X1484.995 Y-668.885
X1485.038 Y-669.156
X1485.097 Y-669.425
X1485.171 Y-669.691
X1485.26 Y-669.953
X1485.363 Y-670.209
X1485.481 Y-670.46
X1485.614 Y-670.705
X1485.76 Y-670.942
X1485.92 Y-671.171
X1486.092 Y-671.391
X1486.277 Y-671.601
X1486.474 Y-671.801
X1486.683 Y-671.99
X1486.902 Y-672.167
X1487.131 Y-672.332
X1487.37 Y-672.484
X1487.617 Y-672.623
X1487.872 Y-672.748
X1488.135 Y-672.858
X1488.403 Y-672.954
X1488.677 Y-673.035
X1488.956 Y-673.1
X1489.239 Y-673.149
X1489.524 Y-673.183
X1489.812 Y-673.2
X1490.1 Y-673.201
X1490.389 Y-673.186
X1490.677 Y-673.155
X1490.964 Y-673.107
X1491.247 Y-673.044
X1491.527 Y-672.964
X1491.803 Y-672.868
X1492.074 Y-672.757
X1492.338 Y-672.631
X1492.595 Y-672.489
X1492.844 Y-672.333
X1493.085 Y-672.163
X1493.316 Y-671.979
X1493.537 Y-671.782
X1493.747 Y-671.573
X1493.945 Y-671.352
X1494.13 Y-671.119
X1494.303 Y-670.876
X1494.462 Y-670.624
X1494.606 Y-670.362
X1494.736 Y-670.092
X1494.851 Y-669.814
X1494.95 Y-669.531
X1495.033 Y-669.241
X1495.1 Y-668.947
X1495.15 Y-668.648
X1495.183 Y-668.347
X1495.2 Y-668.044
X1495.199 Y-667.74
X1495.181 Y-667.436
X1495.146 Y-667.133
X1495.094 Y-666.832
X1495.025 Y-666.533
X1494.939 Y-666.239
X1494.837 Y-665.949
X1494.718 Y-665.665
X1494.583 Y-665.387
X1494.432 Y-665.117
X1494.266 Y-664.856
X1494.085 Y-664.603
X1493.89 Y-664.361
X1493.681 Y-664.13
X1493.459 Y-663.911
X1493.225 Y-663.704
X1492.979 Y-663.51
X1492.722 Y-663.33
X1492.455 Y-663.165
X1492.179 Y-663.014
X1491.894 Y-662.879
X1491.601 Y-662.76
X1491.301 Y-662.658
X1490.996 Y-662.572
X1490.686 Y-662.504
X1490.371 Y-662.453
X1490.054 Y-662.42
X1489.735 Y-662.405
X1489.415 Y-662.408
X1489.095 Y-662.429
X1488.777 Y-662.467
X1488.46 Y-662.524
X1488.146 Y-662.599
X1487.837 Y-662.691
X1487.533 Y-662.801
X1487.235 Y-662.928
X1486.944 Y-663.072
X1486.661 Y-663.233
X1486.387 Y-663.409
X1486.123 Y-663.601
X1485.87 Y-663.807
X1485.628 Y-664.028
X1485.399 Y-664.263
X1485.183 Y-664.511
X1484.981 Y-664.771
X1484.794 Y-665.042
X1484.621 Y-665.324
X1484.465 Y-665.615
X1484.325 Y-665.916
X1484.203 Y-666.224
X1484.097 Y-666.54
X1484.009 Y-666.861
X1483.94 Y-667.187
X1483.888 Y-667.518
X1483.856 Y-667.851
X1483.842 Y-668.186
X1483.847 Y-668.522
X1483.871 Y-668.858
X1483.914 Y-669.192
X1483.976 Y-669.524
X1484.056 Y-669.853
X1484.155 Y-670.177
X1484.273 Y-670.495
X1484.408 Y-670.807
X1484.561 Y-671.112
X1484.731 Y-671.407
X1484.918 Y-671.694
X1485.121 Y-671.969
X1485.34 Y-672.234
X1485.573 Y-672.486
X1485.821 Y-672.724
X1486.082 Y-672.949
X1486.356 Y-673.16
X1486.642 Y-673.354
X1486.939 Y-673.533
X1487.246 Y-673.695
X1487.562 Y-673.84
X1487.886 Y-673.967
X1488.218 Y-674.075
X1488.556 Y-674.165
X1488.898 Y-674.236
X1489.245 Y-674.287
X1489.595 Y-674.319
X1489.947 Y-674.332
X1490.299 Y-674.324
X1490.651 Y-674.297
X1491.001 Y-674.249
X1491.349 Y-674.182
X1491.693 Y-674.096
X1492.032 Y-673.989
X1492.365 Y-673.864
X1492.692 Y-673.72
X1493.01 Y-673.558
X1493.318 Y-673.377
X1493.617 Y-673.18
X1493.905 Y-672.965
X1494.18 Y-672.734
X1494.443 Y-672.488
X1494.692 Y-672.227
X1494.925 Y-671.951
X1495.144 Y-671.663
X1495.346 Y-671.362
X1495.531 Y-671.05
X1495.699 Y-670.727
X1495.848 Y-670.395
X1495.979 Y-670.055
X1496.09 Y-669.707
X1496.182 Y-669.353
X1496.254 Y-668.993
X1496.305 Y-668.63
X1496.337 Y-668.263
X1496.347 Y-667.895
X1496.337 Y-667.527
X1496.306 Y-667.159
X1496.254 Y-666.792
X1496.181 Y-666.429
X1496.088 Y-666.069
X1495.975 Y-665.715
X1495.842 Y-665.367
X1495.689 Y-665.027
X1495.517 Y-664.696
X1495.326 Y-664.374
X1495.117 Y-664.063
X1494.891 Y-663.763
X1494.647 Y-663.477
X1494.388 Y-663.204
X1494.113 Y-662.945
X1493.823 Y-662.703
X1493.52 Y-662.476
X1493.204 Y-662.267
X1492.877 Y-662.075
X1492.538 Y-661.902
X1492.19 Y-661.748
X1491.833 Y-661.614
X1491.469 Y-661.5
X1491.098 Y-661.406
X1490.721 Y-661.333
X1490.341 Y-661.282
X1489.958 Y-661.252
X1489.573 Y-661.243
X1489.188 Y-661.257
X1488.803 Y-661.292
X1488.42 Y-661.348
X1488.041 Y-661.426
X1487.666 Y-661.526
X1487.297 Y-661.647
X1486.934 Y-661.788
X1486.626 Y-661.93
X1486.552 Y-661.967
X1486.533 Y-661.977
X1486.131 Y-662.192
X1485.952 Y-662.29
X1485.929 Y-662.306
X1485.699 Y-662.492
X1484.922 Y-663.128
X1484.77 Y-663.297
X1484.111 Y-664.103
X1484.031 Y-664.203
X1483.972 Y-664.304
X1483.436 Y-665.311
X1483.385 Y-665.411
X1483.349 Y-665.512
X1483.043 Y-666.519
X1482.983 Y-666.72
X1482.957 Y-666.922
X1482.853 Y-667.928
X1482.84 Y-668.13
X1482.859 Y-668.331
X1482.963 Y-669.338
X1482.975 Y-669.439
X1483 Y-669.539
X1483.311 Y-670.564
X1483.368 Y-670.747
X1483.468 Y-670.949
X1483.915 Y-671.79
X1484.004 Y-671.956
X1484.117 Y-672.104
X1484.819 Y-672.962
X1484.922 Y-673.072
X1485.772 Y-673.768
X1485.929 Y-673.894
X1486.058 Y-673.969
X1486.936 Y-674.438
X1487.137 Y-674.544
X1487.216 Y-674.573
X1488.346 Y-674.917
X1488.446 Y-674.946
X1488.547 Y-674.96
X1489.755 Y-675.079
X1489.856 Y-675.081
X1490.964 Y-674.973
X1491.165 Y-674.951
X1491.366 Y-674.896
X1492.432 Y-674.573
X1492.504 Y-674.548
X1492.575 Y-674.512
X1493.592 Y-673.969
X1493.687 Y-673.915
X1493.783 Y-673.844
X1494.609 Y-673.164
X1494.79 Y-673.002
X1495.595 Y-672.026
X1495.645 Y-671.956
X1495.797 Y-671.673
X1496.199 Y-670.916
X1496.282 Y-670.747
X1496.344 Y-670.546
X1496.65 Y-669.539
X1496.674 Y-669.439
X1496.685 Y-669.338
X1496.783 Y-668.331
X1496.802 Y-668.13
X1496.789 Y-667.928
X1496.691 Y-666.922
X1496.666 Y-666.72
X1496.602 Y-666.503
X1496.301 Y-665.512
X1496.265 Y-665.411
X1496.199 Y-665.284
X1495.678 Y-664.304
X1495.641 Y-664.239
X1495.595 Y-664.174
X1494.872 Y-663.297
X1494.79 Y-663.198
X1494.681 Y-663.096
X1493.783 Y-662.356
X1493.697 Y-662.29
X1493.582 Y-662.226
X1492.572 Y-661.686
X1492.473 Y-661.64
X1492.373 Y-661.609
X1491.298 Y-661.284
X1491.165 Y-661.249
X1490.964 Y-661.227
X1489.856 Y-661.119
X1489.755 Y-661.121
X1488.547 Y-661.24
X1488.446 Y-661.254
X1488.344 Y-661.284
X1487.339 Y-661.589
X1487.137 Y-661.657
X1487.078 Y-661.686
X1486.552 Y-661.967
G3 X1486.274 Y-662.643 I0.301 J-0.519
G1 X1486.298 Y-662.733 Z50.007
X1486.322 Y-662.822 Z50.029
X1486.345 Y-662.906 Z50.065
X1486.366 Y-662.983 Z50.115
X1486.384 Y-663.052 Z50.176
X1486.4 Y-663.111 Z50.247
X1486.413 Y-663.159 Z50.328
X1486.423 Y-663.194 Z50.415
X1486.428 Y-663.215 Z50.506
X1486.43 Y-663.222 Z50.6
G0 Z72
X1489.823 Y-668.1
Z64.05
Z62.65
G1 Z62.05 F850
Z45 F283.3
X1489.817 Y-668.063 F850
X1489.781 Y-668.051
X1489.753 Y-668.075
X1489.743 Y-668.112
X1489.754 Y-668.148
X1489.78 Y-668.174
X1489.816 Y-668.186
X1489.853 Y-668.181
X1489.885 Y-668.16
X1489.905 Y-668.129
X1489.909 Y-668.091
X1489.901 Y-668.055
X1489.882 Y-668.022
X1489.855 Y-667.997
X1489.82 Y-667.982
X1489.783 Y-667.979
X1489.746 Y-667.988
X1489.714 Y-668.006
X1489.688 Y-668.034
X1489.652 Y-668.099
X1489.654 Y-668.174
X1489.688 Y-668.241
X1489.747 Y-668.287
X1489.819 Y-668.307
X1489.894 Y-668.299
X1489.96 Y-668.264
X1490.01 Y-668.208
X1490.04 Y-668.14
X1490.047 Y-668.065
X1490.031 Y-667.992
X1489.994 Y-667.926
X1489.94 Y-667.874
X1489.874 Y-667.84
X1489.8 Y-667.824
X1489.651 Y-667.835
X1489.525 Y-667.916
X1489.448 Y-668.045
X1489.432 Y-668.194
X1489.475 Y-668.338
X1489.568 Y-668.456
X1489.697 Y-668.533
X1489.844 Y-668.561
X1489.993 Y-668.539
X1490.126 Y-668.47
X1490.232 Y-668.364
X1490.302 Y-668.232
X1490.33 Y-668.084
X1490.314 Y-667.935
X1490.258 Y-667.796
X1490.166 Y-667.678
X1490.047 Y-667.586
X1489.909 Y-667.526
X1489.761 Y-667.502
X1489.612 Y-667.514
X1489.469 Y-667.561
X1489.342 Y-667.641
X1489.235 Y-667.746
X1489.156 Y-667.874
X1489.105 Y-668.015
X1489.085 Y-668.163
X1489.096 Y-668.313
X1489.138 Y-668.457
X1489.207 Y-668.59
X1489.301 Y-668.707
X1489.417 Y-668.803
X1489.547 Y-668.876
X1489.69 Y-668.923
X1489.838 Y-668.944
X1489.988 Y-668.937
X1490.135 Y-668.904
X1490.273 Y-668.846
X1490.399 Y-668.764
X1490.51 Y-668.663
X1490.601 Y-668.545
X1490.673 Y-668.413
X1490.721 Y-668.271
X1490.746 Y-668.123
X1490.747 Y-667.973
X1490.686 Y-667.746
X1490.576 Y-667.539
X1490.423 Y-667.36
X1490.417 Y-667.354
X1490.368 Y-667.318
X1490.359 Y-667.312
X1490.259 Y-667.256
X1490.158 Y-667.207
X1490.108 Y-667.189
X1490.057 Y-667.176
X1489.957 Y-667.159
X1489.856 Y-667.146
X1489.755 Y-667.149
X1489.554 Y-667.184
X1489.504 Y-667.201
X1489.453 Y-667.222
X1489.353 Y-667.273
X1489.276 Y-667.318
X1489.214 Y-667.367
X1489.151 Y-667.428
X1489.069 Y-667.519
X1489.032 Y-667.569
X1489.003 Y-667.62
X1488.95 Y-667.724
X1488.927 Y-667.773
X1488.91 Y-667.823
X1488.888 Y-667.922
X1488.873 Y-668.023
X1488.868 Y-668.123
X1488.896 Y-668.325
X1488.917 Y-668.4
X1488.95 Y-668.476
X1488.975 Y-668.526
X1489.03 Y-668.627
X1489.107 Y-668.727
X1489.151 Y-668.772
X1489.252 Y-668.863
X1489.302 Y-668.899
X1489.356 Y-668.929
X1489.455 Y-668.979
X1489.504 Y-669
X1489.554 Y-669.016
X1489.755 Y-669.051
X1489.856 Y-669.054
X1489.957 Y-669.041
X1490.057 Y-669.024
X1490.108 Y-669.011
X1490.158 Y-668.993
X1490.289 Y-668.929
X1490.359 Y-668.888
X1490.449 Y-668.816
X1490.538 Y-668.727
X1490.561 Y-668.703
X1490.597 Y-668.659
X1490.627 Y-668.615
X1490.675 Y-668.526
X1490.721 Y-668.425
X1490.749 Y-668.325
X1490.762 Y-668.246
X1490.777 Y-668.123
X1490.774 Y-668.038
X1490.757 Y-667.922
X1490.736 Y-667.821
X1490.698 Y-667.72
X1490.647 Y-667.62
X1490.617 Y-667.569
X1490.581 Y-667.519
X1490.561 Y-667.496
X1490.465 Y-667.399
X1490.423 Y-667.36
X1490.396 Y-667.356
X1490.369 Y-667.364
X1490.288 Y-667.413 Z45.007
X1490.21 Y-667.46 Z45.029
X1490.135 Y-667.504 Z45.065
X1490.067 Y-667.546 Z45.115
X1490.005 Y-667.583 Z45.176
X1489.953 Y-667.614 Z45.247
X1489.911 Y-667.64 Z45.328
X1489.88 Y-667.658 Z45.415
X1489.861 Y-667.67 Z45.506
X1489.855 Y-667.673 Z45.6
G0 Z72

(2D Adaptive15)
X1489.825 Y-743.099
Z72
Z64.05
Z62.65
G1 Z62.05 F850
Z50 F283.3
X1489.862 Y-743.095 F850
X1489.868 Y-743.058
X1489.842 Y-743.031
X1489.805 Y-743.024
X1489.769 Y-743.036
X1489.744 Y-743.064
X1489.734 Y-743.1
X1489.74 Y-743.137
X1489.762 Y-743.167
X1489.795 Y-743.186
X1489.832 Y-743.189
X1489.869 Y-743.181
X1489.901 Y-743.161
X1489.925 Y-743.133
X1489.939 Y-743.098
X1489.941 Y-743.06
X1489.932 Y-743.024
X1489.913 Y-742.992
X1489.885 Y-742.967
X1489.819 Y-742.932
X1489.744 Y-742.934
X1489.677 Y-742.97
X1489.632 Y-743.029
X1489.613 Y-743.102
X1489.622 Y-743.176
X1489.658 Y-743.242
X1489.714 Y-743.292
X1489.783 Y-743.321
X1489.858 Y-743.327
X1489.931 Y-743.311
X1489.996 Y-743.274
X1490.047 Y-743.219
X1490.082 Y-743.152
X1490.096 Y-743.079
X1490.085 Y-742.929
X1490.003 Y-742.804
X1489.874 Y-742.727
X1489.725 Y-742.712
X1489.581 Y-742.755
X1489.464 Y-742.849
X1489.387 Y-742.978
X1489.359 Y-743.125
X1489.381 Y-743.273
X1489.45 Y-743.407
X1489.556 Y-743.513
X1489.689 Y-743.582
X1489.836 Y-743.61
X1489.985 Y-743.595
X1490.124 Y-743.539
X1490.243 Y-743.447
X1490.335 Y-743.328
X1490.394 Y-743.191
X1490.419 Y-743.043
X1490.407 Y-742.893
X1490.36 Y-742.751
X1490.281 Y-742.623
X1490.176 Y-742.516
X1490.049 Y-742.437
X1489.908 Y-742.385
X1489.759 Y-742.365
X1489.61 Y-742.375
X1489.465 Y-742.416
X1489.332 Y-742.485
X1489.215 Y-742.579
X1489.119 Y-742.694
X1489.045 Y-742.824
X1488.998 Y-742.967
X1488.976 Y-743.115
X1488.982 Y-743.265
X1489.015 Y-743.411
X1489.072 Y-743.55
X1489.153 Y-743.676
X1489.254 Y-743.788
X1489.372 Y-743.88
X1489.504 Y-743.952
X1489.645 Y-744.001
X1489.793 Y-744.026
X1489.943 Y-744.028
X1490.092 Y-744.006
X1490.235 Y-743.962
X1490.37 Y-743.896
X1490.493 Y-743.811
X1490.603 Y-743.709
X1490.696 Y-743.591
X1490.772 Y-743.462
X1490.828 Y-743.323
X1490.864 Y-743.177
X1490.879 Y-743.028
X1490.873 Y-742.878
X1490.847 Y-742.73
X1490.8 Y-742.588
X1490.735 Y-742.453
X1490.653 Y-742.327
X1490.554 Y-742.214
X1490.442 Y-742.114
X1490.318 Y-742.03
X1490.184 Y-741.963
X1490.043 Y-741.912
X1489.896 Y-741.88
X1489.747 Y-741.867
X1489.597 Y-741.872
X1489.448 Y-741.895
X1489.304 Y-741.936
X1489.166 Y-741.994
X1489.035 Y-742.068
X1488.914 Y-742.156
X1488.804 Y-742.259
X1488.708 Y-742.373
X1488.624 Y-742.497
X1488.555 Y-742.631
X1488.502 Y-742.771
X1488.464 Y-742.916
X1488.443 Y-743.065
X1488.439 Y-743.215
X1488.45 Y-743.364
X1488.479 Y-743.511
X1488.522 Y-743.655
X1488.581 Y-743.793
X1488.654 Y-743.924
X1488.74 Y-744.047
X1488.839 Y-744.16
X1488.949 Y-744.261
X1489.069 Y-744.352
X1489.198 Y-744.429
X1489.333 Y-744.493
X1489.475 Y-744.543
X1489.62 Y-744.578
X1489.769 Y-744.599
X1489.919 Y-744.605
X1490.069 Y-744.596
X1490.217 Y-744.573
X1490.362 Y-744.535
X1490.503 Y-744.484
X1490.638 Y-744.419
X1490.767 Y-744.343
X1490.888 Y-744.254
X1491 Y-744.154
X1491.102 Y-744.044
X1491.194 Y-743.925
X1491.274 Y-743.799
X1491.343 Y-743.665
X1491.399 Y-743.526
X1491.442 Y-743.382
X1491.472 Y-743.235
X1491.489 Y-743.086
X1491.492 Y-742.936
X1491.482 Y-742.787
X1491.459 Y-742.639
X1491.424 Y-742.493
X1491.375 Y-742.351
X1491.315 Y-742.214
X1491.243 Y-742.082
X1491.16 Y-741.957
X1491.067 Y-741.84
X1490.964 Y-741.73
X1490.852 Y-741.63
X1490.733 Y-741.54
X1490.606 Y-741.46
X1490.473 Y-741.39
X1490.334 Y-741.332
X1490.192 Y-741.286
X1490.046 Y-741.251
X1489.898 Y-741.228
X1489.748 Y-741.217
X1489.598 Y-741.218
X1489.449 Y-741.232
X1489.301 Y-741.256
X1489.155 Y-741.293
X1489.013 Y-741.341
X1488.875 Y-741.4
X1488.742 Y-741.47
X1488.615 Y-741.549
X1488.495 Y-741.639
X1488.381 Y-741.737
X1488.276 Y-741.844
X1488.179 Y-741.958
X1488.091 Y-742.079
X1488.012 Y-742.207
X1487.943 Y-742.34
X1487.885 Y-742.478
X1487.837 Y-742.62
X1487.799 Y-742.766
X1487.772 Y-742.913
X1487.756 Y-743.062
X1487.751 Y-743.212
X1487.757 Y-743.362
X1487.775 Y-743.511
X1487.802 Y-743.659
X1487.84 Y-743.804
X1487.889 Y-743.946
X1487.948 Y-744.084
X1488.016 Y-744.217
X1488.094 Y-744.346
X1488.18 Y-744.468
X1488.275 Y-744.584
X1488.378 Y-744.694
X1488.488 Y-744.795
X1488.605 Y-744.889
X1488.728 Y-744.975
X1488.857 Y-745.052
X1488.99 Y-745.12
X1489.128 Y-745.179
X1489.27 Y-745.228
X1489.415 Y-745.267
X1489.562 Y-745.296
X1489.711 Y-745.316
X1489.86 Y-745.325
X1490.01
X1490.16 Y-745.314
X1490.309 Y-745.294
X1490.456 Y-745.263
X1490.6 Y-745.224
X1490.742 Y-745.174
X1490.88 Y-745.116
X1491.014 Y-745.049
X1491.144 Y-744.973
X1491.268 Y-744.889
X1491.387 Y-744.797
X1491.499 Y-744.698
X1491.605 Y-744.592
X1491.704 Y-744.479
X1491.795 Y-744.36
X1491.879 Y-744.236
X1491.955 Y-744.106
X1492.023 Y-743.973
X1492.082 Y-743.835
X1492.132 Y-743.693
X1492.173 Y-743.549
X1492.206 Y-743.403
X1492.229 Y-743.254
X1492.243 Y-743.105
X1492.248 Y-742.955
X1492.243 Y-742.805
X1492.23 Y-742.656
X1492.207 Y-742.508
X1492.176 Y-742.361
X1492.135 Y-742.216
X1492.086 Y-742.075
X1492.029 Y-741.936
X1491.963 Y-741.801
X1491.89 Y-741.67
X1491.808 Y-741.544
X1491.72 Y-741.423
X1491.624 Y-741.308
X1491.522 Y-741.198
X1491.414 Y-741.094
X1491.299 Y-740.997
X1491.179 Y-740.907
X1491.055 Y-740.824
X1490.925 Y-740.748
X1490.791 Y-740.68
X1490.654 Y-740.62
X1490.513 Y-740.568
X1490.37 Y-740.524
X1490.224 Y-740.488
X1490.077 Y-740.461
X1489.928 Y-740.442
X1489.777 Y-740.431
X1489.627 Y-740.429
X1489.477 Y-740.436
X1489.326 Y-740.451
X1489.176 Y-740.475
X1489.029 Y-740.507
X1488.884 Y-740.547
X1488.738 Y-740.596
X1488.595 Y-740.653
X1488.458 Y-740.717
X1488.324 Y-740.79
X1488.191 Y-740.872
X1488.064 Y-740.96
X1487.943 Y-741.054
X1487.827 Y-741.156
X1487.714 Y-741.267
X1487.609 Y-741.383
X1487.512 Y-741.503
X1487.42 Y-741.63
X1487.334 Y-741.764
X1487.256 Y-741.902
X1487.187 Y-742.043
X1487.126 Y-742.188
X1487.072 Y-742.339
X1487.026 Y-742.494
X1486.99 Y-742.649
X1486.962 Y-742.805
X1486.943 Y-742.965
X1486.933 Y-743.128
X1486.932 Y-743.29
X1486.94 Y-743.45
X1486.957 Y-743.611
X1486.984 Y-743.774
X1487.02 Y-743.935
X1487.065 Y-744.092
X1487.118 Y-744.246
X1487.18 Y-744.398
X1487.252 Y-744.549
X1487.332 Y-744.695
X1487.42 Y-744.836
X1487.515 Y-744.971
X1487.618 Y-745.101
X1487.73 Y-745.227
X1487.85 Y-745.347
X1487.975 Y-745.46
X1488.107 Y-745.565
X1488.244 Y-745.663
X1488.387 Y-745.753
X1488.537 Y-745.836
X1488.692 Y-745.911
X1488.85 Y-745.977
X1489.012 Y-746.034
X1489.176 Y-746.081
X1489.344 Y-746.119
X1489.515 Y-746.149
X1489.689 Y-746.168
X1489.864 Y-746.178
X1490.038
X1490.212 Y-746.168
X1490.385 Y-746.148
X1490.559 Y-746.118
X1490.731 Y-746.079
X1490.902 Y-746.029
X1491.07 Y-745.97
X1491.234 Y-745.901
X1491.394 Y-745.824
X1491.55 Y-745.737
X1491.701 Y-745.642
X1491.847 Y-745.538
X1491.987 Y-745.425
X1492.122 Y-745.303
X1492.25 Y-745.174
X1492.371 Y-745.038
X1492.484 Y-744.895
X1492.589 Y-744.746
X1492.685 Y-744.591
X1492.772 Y-744.431
X1492.851 Y-744.265
X1492.921 Y-744.095
X1492.981 Y-743.919
X1493.031 Y-743.741
X1493.072 Y-743.559
X1493.102 Y-743.374
X1493.121 Y-743.188
X1493.131 Y-743.001
X1493.129 Y-742.814
X1493.117 Y-742.626
X1493.095 Y-742.439
X1493.062 Y-742.254
X1493.018 Y-742.07
X1492.964 Y-741.888
X1492.9 Y-741.709
X1492.825 Y-741.533
X1492.741 Y-741.361
X1492.646 Y-741.194
X1492.542 Y-741.032
X1492.429 Y-740.876
X1492.307 Y-740.726
X1492.176 Y-740.582
X1492.037 Y-740.446
X1491.891 Y-740.318
X1491.736 Y-740.198
X1491.575 Y-740.086
X1491.408 Y-739.983
X1491.235 Y-739.89
X1491.056 Y-739.807
X1490.872 Y-739.733
X1490.684 Y-739.67
X1490.493 Y-739.617
X1490.298 Y-739.575
X1490.101 Y-739.545
X1489.901 Y-739.525
X1489.701 Y-739.516
X1489.5 Y-739.519
X1489.299 Y-739.533
X1489.098 Y-739.558
X1488.899 Y-739.595
X1488.701 Y-739.643
X1488.506 Y-739.702
X1488.315 Y-739.773
X1488.127 Y-739.854
X1487.943 Y-739.946
X1487.765 Y-740.048
X1487.592 Y-740.16
X1487.426 Y-740.283
X1487.266 Y-740.414
X1487.114 Y-740.555
X1486.969 Y-740.705
X1486.833 Y-740.863
X1486.705 Y-741.029
X1486.587 Y-741.201
X1486.478 Y-741.381
X1486.38 Y-741.567
X1486.292 Y-741.759
X1486.214 Y-741.956
X1486.148 Y-742.157
X1486.093 Y-742.362
X1486.05 Y-742.571
X1486.018 Y-742.782
X1485.998 Y-742.995
X1485.99 Y-743.209
X1485.995 Y-743.424
X1486.011 Y-743.639
X1486.04 Y-743.853
X1486.08 Y-744.066
X1486.133 Y-744.276
X1486.197 Y-744.484
X1486.274 Y-744.688
X1486.362 Y-744.888
X1486.461 Y-745.084
X1486.572 Y-745.273
X1486.693 Y-745.457
X1486.824 Y-745.634
X1486.966 Y-745.803
X1487.117 Y-745.965
X1487.278 Y-746.119
X1487.447 Y-746.263
X1487.625 Y-746.398
X1487.81 Y-746.523
X1488.003 Y-746.637
X1488.202 Y-746.741
X1488.408 Y-746.834
X1488.618 Y-746.915
X1488.833 Y-746.984
X1489.052 Y-747.042
X1489.275 Y-747.087
X1489.501 Y-747.119
X1489.728 Y-747.139
X1489.957 Y-747.145
X1490.186 Y-747.139
X1490.415 Y-747.12
X1490.643 Y-747.089
X1490.87 Y-747.044
X1491.094 Y-746.986
X1491.314 Y-746.916
X1491.532 Y-746.833
X1491.744 Y-746.738
X1491.952 Y-746.631
X1492.153 Y-746.512
X1492.348 Y-746.381
X1492.536 Y-746.24
X1492.715 Y-746.088
X1492.886 Y-745.926
X1493.049 Y-745.753
X1493.201 Y-745.572
X1493.344 Y-745.382
X1493.475 Y-745.184
X1493.596 Y-744.978
X1493.705 Y-744.765
X1493.803 Y-744.546
X1493.888 Y-744.321
X1493.96 Y-744.092
X1494.019 Y-743.858
X1494.066 Y-743.621
X1494.098 Y-743.381
X1494.118 Y-743.139
X1494.123 Y-742.896
X1494.115 Y-742.653
X1494.094 Y-742.41
X1494.058 Y-742.168
X1494.009 Y-741.927
X1493.946 Y-741.69
X1493.87 Y-741.456
X1493.781 Y-741.225
X1493.678 Y-741
X1493.563 Y-740.781
X1493.435 Y-740.568
X1493.295 Y-740.362
X1493.144 Y-740.163
X1492.981 Y-739.973
X1492.807 Y-739.793
X1492.624 Y-739.622
X1492.43 Y-739.461
X1492.227 Y-739.311
X1492.016 Y-739.172
X1491.797 Y-739.046
X1491.57 Y-738.931
X1491.337 Y-738.829
X1491.098 Y-738.741
X1490.854 Y-738.666
X1490.606 Y-738.604
X1490.354 Y-738.557
X1490.099 Y-738.524
X1489.842 Y-738.505
X1489.584 Y-738.5
X1489.326 Y-738.51
X1489.068 Y-738.535
X1488.811 Y-738.575
X1488.557 Y-738.628
X1488.305 Y-738.696
X1488.057 Y-738.779
X1487.813 Y-738.875
X1487.575 Y-738.986
X1487.343 Y-739.109
X1487.118 Y-739.246
X1486.901 Y-739.396
X1486.692 Y-739.558
X1486.492 Y-739.732
X1486.301 Y-739.917
X1486.121 Y-740.113
X1485.952 Y-740.319
X1485.795 Y-740.535
X1485.649 Y-740.76
X1485.517 Y-740.993
X1485.397 Y-741.233
X1485.291 Y-741.481
X1485.199 Y-741.734
X1485.121 Y-741.993
X1485.057 Y-742.257
X1485.009 Y-742.524
X1484.976 Y-742.794
X1484.957 Y-743.066
X1484.954 Y-743.339
X1484.967 Y-743.612
X1484.995 Y-743.885
X1485.038 Y-744.156
X1485.097 Y-744.425
X1485.171 Y-744.691
X1485.26 Y-744.953
X1485.363 Y-745.209
X1485.481 Y-745.46
X1485.614 Y-745.705
X1485.76 Y-745.942
X1485.92 Y-746.171
X1486.092 Y-746.391
X1486.277 Y-746.601
X1486.474 Y-746.801
X1486.683 Y-746.99
X1486.902 Y-747.167
X1487.131 Y-747.332
X1487.37 Y-747.484
X1487.617 Y-747.623
X1487.872 Y-747.748
X1488.135 Y-747.858
X1488.403 Y-747.954
X1488.677 Y-748.035
X1488.956 Y-748.1
X1489.239 Y-748.149
X1489.524 Y-748.183
X1489.812 Y-748.2
X1490.1 Y-748.201
X1490.389 Y-748.186
X1490.677 Y-748.155
X1490.964 Y-748.107
X1491.247 Y-748.044
X1491.527 Y-747.964
X1491.803 Y-747.868
X1492.074 Y-747.757
X1492.338 Y-747.631
X1492.595 Y-747.489
X1492.844 Y-747.333
X1493.085 Y-747.163
X1493.316 Y-746.979
X1493.537 Y-746.782
X1493.747 Y-746.573
X1493.945 Y-746.352
X1494.13 Y-746.119
X1494.303 Y-745.876
X1494.462 Y-745.624
X1494.606 Y-745.362
X1494.736 Y-745.092
X1494.851 Y-744.814
X1494.95 Y-744.531
X1495.033 Y-744.241
X1495.1 Y-743.947
X1495.15 Y-743.648
X1495.183 Y-743.347
X1495.2 Y-743.044
X1495.199 Y-742.74
X1495.181 Y-742.436
X1495.146 Y-742.133
X1495.094 Y-741.832
X1495.025 Y-741.533
X1494.939 Y-741.239
X1494.837 Y-740.949
X1494.718 Y-740.665
X1494.583 Y-740.387
X1494.432 Y-740.117
X1494.266 Y-739.856
X1494.085 Y-739.603
X1493.89 Y-739.361
X1493.681 Y-739.13
X1493.459 Y-738.911
X1493.225 Y-738.704
X1492.979 Y-738.51
X1492.722 Y-738.33
X1492.455 Y-738.165
X1492.179 Y-738.014
X1491.894 Y-737.879
X1491.601 Y-737.76
X1491.301 Y-737.658
X1490.996 Y-737.572
X1490.686 Y-737.504
X1490.371 Y-737.453
X1490.054 Y-737.42
X1489.735 Y-737.405
X1489.415 Y-737.408
X1489.095 Y-737.429
X1488.777 Y-737.467
X1488.46 Y-737.524
X1488.146 Y-737.599
X1487.837 Y-737.691
X1487.533 Y-737.801
X1487.235 Y-737.928
X1486.944 Y-738.072
X1486.661 Y-738.233
X1486.387 Y-738.409
X1486.123 Y-738.601
X1485.87 Y-738.807
X1485.628 Y-739.028
X1485.399 Y-739.263
X1485.183 Y-739.511
X1484.981 Y-739.771
X1484.794 Y-740.042
X1484.621 Y-740.324
X1484.465 Y-740.615
X1484.325 Y-740.916
X1484.203 Y-741.224
X1484.097 Y-741.54
X1484.009 Y-741.861
X1483.94 Y-742.187
X1483.888 Y-742.518
X1483.856 Y-742.851
X1483.842 Y-743.186
X1483.847 Y-743.522
X1483.871 Y-743.858
X1483.914 Y-744.192
X1483.976 Y-744.524
X1484.056 Y-744.853
X1484.155 Y-745.177
X1484.273 Y-745.495
X1484.408 Y-745.807
X1484.561 Y-746.112
X1484.731 Y-746.407
X1484.918 Y-746.694
X1485.121 Y-746.969
X1485.34 Y-747.234
X1485.573 Y-747.486
X1485.821 Y-747.724
X1486.082 Y-747.949
X1486.356 Y-748.16
X1486.642 Y-748.354
X1486.939 Y-748.533
X1487.246 Y-748.695
X1487.562 Y-748.84
X1487.886 Y-748.967
X1488.218 Y-749.075
X1488.556 Y-749.165
X1488.898 Y-749.236
X1489.245 Y-749.287
X1489.595 Y-749.319
X1489.947 Y-749.332
X1490.299 Y-749.324
X1490.651 Y-749.297
X1491.001 Y-749.249
X1491.349 Y-749.182
X1491.693 Y-749.096
X1492.032 Y-748.989
X1492.365 Y-748.864
X1492.692 Y-748.72
X1493.01 Y-748.558
X1493.318 Y-748.377
X1493.617 Y-748.18
X1493.905 Y-747.965
X1494.18 Y-747.734
X1494.443 Y-747.488
X1494.692 Y-747.227
X1494.925 Y-746.951
X1495.144 Y-746.663
X1495.346 Y-746.362
X1495.531 Y-746.05
X1495.699 Y-745.727
X1495.848 Y-745.395
X1495.979 Y-745.055
X1496.09 Y-744.707
X1496.182 Y-744.353
X1496.254 Y-743.993
X1496.305 Y-743.63
X1496.337 Y-743.263
X1496.347 Y-742.895
X1496.337 Y-742.527
X1496.306 Y-742.159
X1496.254 Y-741.792
X1496.181 Y-741.429
X1496.088 Y-741.069
X1495.975 Y-740.715
X1495.842 Y-740.367
X1495.689 Y-740.027
X1495.517 Y-739.696
X1495.326 Y-739.374
X1495.117 Y-739.063
X1494.891 Y-738.763
X1494.647 Y-738.477
X1494.388 Y-738.204
X1494.113 Y-737.945
X1493.823 Y-737.703
X1493.52 Y-737.476
X1493.204 Y-737.267
X1492.877 Y-737.075
X1492.538 Y-736.902
X1492.19 Y-736.748
X1491.833 Y-736.614
X1491.469 Y-736.5
X1491.098 Y-736.406
X1490.721 Y-736.333
X1490.341 Y-736.282
X1489.958 Y-736.252
X1489.573 Y-736.243
X1489.188 Y-736.257
X1488.803 Y-736.292
X1488.42 Y-736.348
X1488.041 Y-736.426
X1487.666 Y-736.526
X1487.297 Y-736.647
X1486.934 Y-736.788
X1486.626 Y-736.93
X1486.552 Y-736.967
X1486.533 Y-736.977
X1486.131 Y-737.192
X1485.952 Y-737.29
X1485.929 Y-737.306
X1485.699 Y-737.492
X1484.922 Y-738.128
X1484.77 Y-738.297
X1484.111 Y-739.103
X1484.031 Y-739.203
X1483.972 Y-739.304
X1483.436 Y-740.311
X1483.385 Y-740.411
X1483.349 Y-740.512
X1483.043 Y-741.519
X1482.983 Y-741.72
X1482.957 Y-741.922
X1482.853 Y-742.928
X1482.84 Y-743.13
X1482.859 Y-743.331
X1482.963 Y-744.338
X1482.975 Y-744.439
X1483 Y-744.539
X1483.311 Y-745.564
X1483.368 Y-745.747
X1483.468 Y-745.949
X1483.915 Y-746.79
X1484.004 Y-746.956
X1484.117 Y-747.104
X1484.819 Y-747.962
X1484.922 Y-748.072
X1485.772 Y-748.768
X1485.929 Y-748.894
X1486.058 Y-748.969
X1486.936 Y-749.438
X1487.137 Y-749.544
X1487.216 Y-749.573
X1488.346 Y-749.917
X1488.446 Y-749.946
X1488.547 Y-749.96
X1489.755 Y-750.079
X1489.856 Y-750.081
X1490.964 Y-749.973
X1491.165 Y-749.951
X1491.366 Y-749.896
X1492.432 Y-749.573
X1492.504 Y-749.548
X1492.575 Y-749.512
X1493.592 Y-748.969
X1493.687 Y-748.915
X1493.783 Y-748.844
X1494.609 Y-748.164
X1494.79 Y-748.002
X1495.595 Y-747.026
X1495.645 Y-746.956
X1495.797 Y-746.673
X1496.199 Y-745.916
X1496.282 Y-745.747
X1496.344 Y-745.546
X1496.65 Y-744.539
X1496.674 Y-744.439
X1496.685 Y-744.338
X1496.783 Y-743.331
X1496.802 Y-743.13
X1496.789 Y-742.928
X1496.691 Y-741.922
X1496.666 Y-741.72
X1496.602 Y-741.503
X1496.301 Y-740.512
X1496.265 Y-740.411
X1496.199 Y-740.284
X1495.678 Y-739.304
X1495.641 Y-739.239
X1495.595 Y-739.174
X1494.872 Y-738.297
X1494.79 Y-738.198
X1494.681 Y-738.096
X1493.783 Y-737.356
X1493.697 Y-737.29
X1493.582 Y-737.226
X1492.572 Y-736.686
X1492.473 Y-736.64
X1492.373 Y-736.609
X1491.298 Y-736.284
X1491.165 Y-736.249
X1490.964 Y-736.227
X1489.856 Y-736.119
X1489.755 Y-736.121
X1488.547 Y-736.24
X1488.446 Y-736.254
X1488.344 Y-736.284
X1487.339 Y-736.589
X1487.137 Y-736.657
X1487.078 Y-736.686
X1486.552 Y-736.967
G3 X1486.274 Y-737.643 I0.301 J-0.519
G1 X1486.298 Y-737.733 Z50.007
X1486.322 Y-737.822 Z50.029
X1486.345 Y-737.906 Z50.065
X1486.366 Y-737.983 Z50.115
X1486.384 Y-738.052 Z50.176
X1486.4 Y-738.111 Z50.247
X1486.413 Y-738.159 Z50.328
X1486.423 Y-738.194 Z50.415
X1486.428 Y-738.215 Z50.506
X1486.43 Y-738.222 Z50.6
G0 Z72
X1489.823 Y-743.1
Z64.05
Z62.65
G1 Z62.05 F850
Z45 F283.3
X1489.817 Y-743.063 F850
X1489.781 Y-743.051
X1489.753 Y-743.075
X1489.743 Y-743.112
X1489.754 Y-743.148
X1489.78 Y-743.174
X1489.816 Y-743.186
X1489.853 Y-743.181
X1489.885 Y-743.16
X1489.905 Y-743.129
X1489.909 Y-743.091
X1489.901 Y-743.055
X1489.882 Y-743.022
X1489.855 Y-742.997
X1489.82 Y-742.982
X1489.783 Y-742.979
X1489.746 Y-742.988
X1489.714 Y-743.006
X1489.688 Y-743.034
X1489.652 Y-743.099
X1489.654 Y-743.174
X1489.688 Y-743.241
X1489.747 Y-743.287
X1489.819 Y-743.307
X1489.894 Y-743.299
X1489.96 Y-743.264
X1490.01 Y-743.208
X1490.04 Y-743.14
X1490.047 Y-743.065
X1490.031 Y-742.992
X1489.994 Y-742.926
X1489.94 Y-742.874
X1489.874 Y-742.84
X1489.8 Y-742.824
X1489.651 Y-742.835
X1489.525 Y-742.916
X1489.448 Y-743.045
X1489.432 Y-743.194
X1489.475 Y-743.338
X1489.568 Y-743.456
X1489.697 Y-743.533
X1489.844 Y-743.561
X1489.993 Y-743.539
X1490.126 Y-743.47
X1490.232 Y-743.364
X1490.302 Y-743.232
X1490.33 Y-743.084
X1490.314 Y-742.935
X1490.258 Y-742.796
X1490.166 Y-742.678
X1490.047 Y-742.586
X1489.909 Y-742.526
X1489.761 Y-742.502
X1489.612 Y-742.514
X1489.469 Y-742.561
X1489.342 Y-742.641
X1489.235 Y-742.746
X1489.156 Y-742.874
X1489.105 Y-743.015
X1489.085 Y-743.163
X1489.096 Y-743.313
X1489.138 Y-743.457
X1489.207 Y-743.59
X1489.301 Y-743.707
X1489.417 Y-743.803
X1489.547 Y-743.876
X1489.69 Y-743.923
X1489.838 Y-743.944
X1489.988 Y-743.937
X1490.135 Y-743.904
X1490.273 Y-743.846
X1490.399 Y-743.764
X1490.51 Y-743.663
X1490.601 Y-743.545
X1490.673 Y-743.413
X1490.721 Y-743.271
X1490.746 Y-743.123
X1490.747 Y-742.973
X1490.686 Y-742.746
X1490.576 Y-742.539
X1490.423 Y-742.36
X1490.417 Y-742.354
X1490.368 Y-742.318
X1490.359 Y-742.312
X1490.259 Y-742.256
X1490.158 Y-742.207
X1490.108 Y-742.189
X1490.057 Y-742.176
X1489.957 Y-742.159
X1489.856 Y-742.146
X1489.755 Y-742.149
X1489.554 Y-742.184
X1489.504 Y-742.201
X1489.453 Y-742.222
X1489.353 Y-742.273
X1489.276 Y-742.318
X1489.214 Y-742.367
X1489.151 Y-742.428
X1489.069 Y-742.519
X1489.032 Y-742.569
X1489.003 Y-742.62
X1488.95 Y-742.724
X1488.927 Y-742.773
X1488.91 Y-742.823
X1488.888 Y-742.922
X1488.873 Y-743.023
X1488.868 Y-743.123
X1488.896 Y-743.325
X1488.917 Y-743.4
X1488.95 Y-743.476
X1488.975 Y-743.526
X1489.03 Y-743.627
X1489.107 Y-743.727
X1489.151 Y-743.772
X1489.252 Y-743.863
X1489.302 Y-743.899
X1489.356 Y-743.929
X1489.455 Y-743.979
X1489.504 Y-744
X1489.554 Y-744.016
X1489.755 Y-744.051
X1489.856 Y-744.054
X1489.957 Y-744.041
X1490.057 Y-744.024
X1490.108 Y-744.011
X1490.158 Y-743.993
X1490.289 Y-743.929
X1490.359 Y-743.888
X1490.449 Y-743.816
X1490.538 Y-743.727
X1490.561 Y-743.703
X1490.597 Y-743.659
X1490.627 Y-743.615
X1490.675 Y-743.526
X1490.721 Y-743.425
X1490.749 Y-743.325
X1490.762 Y-743.246
X1490.777 Y-743.123
X1490.774 Y-743.038
X1490.757 Y-742.922
X1490.736 Y-742.821
X1490.698 Y-742.72
X1490.647 Y-742.62
X1490.617 Y-742.569
X1490.581 Y-742.519
X1490.561 Y-742.496
X1490.465 Y-742.399
X1490.423 Y-742.36
X1490.396 Y-742.356
X1490.369 Y-742.364
X1490.288 Y-742.413 Z45.007
X1490.21 Y-742.46 Z45.029
X1490.135 Y-742.504 Z45.065
X1490.067 Y-742.546 Z45.115
X1490.005 Y-742.583 Z45.176
X1489.953 Y-742.614 Z45.247
X1489.911 Y-742.64 Z45.328
X1489.88 Y-742.658 Z45.415
X1489.861 Y-742.67 Z45.506
X1489.855 Y-742.673 Z45.6
G0 Z72

(2D Adaptive15)
X1489.825 Y-818.099
Z72
Z64.05
Z62.65
G1 Z62.05 F850
Z50 F283.3
X1489.862 Y-818.095 F850
X1489.868 Y-818.058
X1489.842 Y-818.031
X1489.805 Y-818.024
X1489.769 Y-818.036
X1489.744 Y-818.064
X1489.734 Y-818.1
X1489.74 Y-818.137
X1489.762 Y-818.167
X1489.795 Y-818.186
X1489.832 Y-818.189
X1489.869 Y-818.181
X1489.901 Y-818.161
X1489.925 Y-818.133
X1489.939 Y-818.098
X1489.941 Y-818.06
X1489.932 Y-818.024
X1489.913 Y-817.992
X1489.885 Y-817.967
X1489.819 Y-817.932
X1489.744 Y-817.934
X1489.677 Y-817.97
X1489.632 Y-818.029
X1489.613 Y-818.102
X1489.622 Y-818.176
X1489.658 Y-818.242
X1489.714 Y-818.292
X1489.783 Y-818.321
X1489.858 Y-818.327
X1489.931 Y-818.311
X1489.996 Y-818.274
X1490.047 Y-818.219
X1490.082 Y-818.152
X1490.096 Y-818.079
X1490.085 Y-817.929
X1490.003 Y-817.804
X1489.874 Y-817.727
X1489.725 Y-817.712
X1489.581 Y-817.755
X1489.464 Y-817.849
X1489.387 Y-817.978
X1489.359 Y-818.125
X1489.381 Y-818.273
X1489.45 Y-818.407
X1489.556 Y-818.513
X1489.689 Y-818.582
X1489.836 Y-818.61
X1489.985 Y-818.595
X1490.124 Y-818.539
X1490.243 Y-818.447
X1490.335 Y-818.328
X1490.394 Y-818.191
X1490.419 Y-818.043
X1490.407 Y-817.893
X1490.36 Y-817.751
X1490.281 Y-817.623
X1490.176 Y-817.516
X1490.049 Y-817.437
X1489.908 Y-817.385
X1489.759 Y-817.365
X1489.61 Y-817.375
X1489.465 Y-817.416
X1489.332 Y-817.485
X1489.215 Y-817.579
X1489.119 Y-817.694
X1489.045 Y-817.824
X1488.998 Y-817.967
X1488.976 Y-818.115
X1488.982 Y-818.265
X1489.015 Y-818.411
X1489.072 Y-818.55
X1489.153 Y-818.676
X1489.254 Y-818.788
X1489.372 Y-818.88
X1489.504 Y-818.952
X1489.645 Y-819.001
X1489.793 Y-819.026
X1489.943 Y-819.028
X1490.092 Y-819.006
X1490.235 Y-818.962
X1490.37 Y-818.896
X1490.493 Y-818.811
X1490.603 Y-818.709
X1490.696 Y-818.591
X1490.772 Y-818.462
X1490.828 Y-818.323
X1490.864 Y-818.177
X1490.879 Y-818.028
X1490.873 Y-817.878
X1490.847 Y-817.73
X1490.8 Y-817.588
X1490.735 Y-817.453
X1490.653 Y-817.327
X1490.554 Y-817.214
X1490.442 Y-817.114
X1490.318 Y-817.03
X1490.184 Y-816.963
X1490.043 Y-816.912
X1489.896 Y-816.88
X1489.747 Y-816.867
X1489.597 Y-816.872
X1489.448 Y-816.895
X1489.304 Y-816.936
X1489.166 Y-816.994
X1489.035 Y-817.068
X1488.914 Y-817.156
X1488.804 Y-817.259
X1488.708 Y-817.373
X1488.624 Y-817.497
X1488.555 Y-817.631
X1488.502 Y-817.771
X1488.464 Y-817.916
X1488.443 Y-818.065
X1488.439 Y-818.215
X1488.45 Y-818.364
X1488.479 Y-818.511
X1488.522 Y-818.655
X1488.581 Y-818.793
X1488.654 Y-818.924
X1488.74 Y-819.047
X1488.839 Y-819.16
X1488.949 Y-819.261
X1489.069 Y-819.352
X1489.198 Y-819.429
X1489.333 Y-819.493
X1489.475 Y-819.543
X1489.62 Y-819.578
X1489.769 Y-819.599
X1489.919 Y-819.605
X1490.069 Y-819.596
X1490.217 Y-819.573
X1490.362 Y-819.535
X1490.503 Y-819.484
X1490.638 Y-819.419
X1490.767 Y-819.343
X1490.888 Y-819.254
X1491 Y-819.154
X1491.102 Y-819.044
X1491.194 Y-818.925
X1491.274 Y-818.799
X1491.343 Y-818.665
X1491.399 Y-818.526
X1491.442 Y-818.382
X1491.472 Y-818.235
X1491.489 Y-818.086
X1491.492 Y-817.936
X1491.482 Y-817.787
X1491.459 Y-817.639
X1491.424 Y-817.493
X1491.375 Y-817.351
X1491.315 Y-817.214
X1491.243 Y-817.082
X1491.16 Y-816.957
X1491.067 Y-816.84
X1490.964 Y-816.73
X1490.852 Y-816.63
X1490.733 Y-816.54
X1490.606 Y-816.46
X1490.473 Y-816.39
X1490.334 Y-816.332
X1490.192 Y-816.286
X1490.046 Y-816.251
X1489.898 Y-816.228
X1489.748 Y-816.217
X1489.598 Y-816.218
X1489.449 Y-816.232
X1489.301 Y-816.256
X1489.155 Y-816.293
X1489.013 Y-816.341
X1488.875 Y-816.4
X1488.742 Y-816.47
X1488.615 Y-816.549
X1488.495 Y-816.639
X1488.381 Y-816.737
X1488.276 Y-816.844
X1488.179 Y-816.958
X1488.091 Y-817.079
X1488.012 Y-817.207
X1487.943 Y-817.34
X1487.885 Y-817.478
X1487.837 Y-817.62
X1487.799 Y-817.766
X1487.772 Y-817.913
X1487.756 Y-818.062
X1487.751 Y-818.212
X1487.757 Y-818.362
X1487.775 Y-818.511
X1487.802 Y-818.659
X1487.84 Y-818.804
X1487.889 Y-818.946
X1487.948 Y-819.084
X1488.016 Y-819.217
X1488.094 Y-819.346
X1488.18 Y-819.468
X1488.275 Y-819.584
X1488.378 Y-819.694
X1488.488 Y-819.795
X1488.605 Y-819.889
X1488.728 Y-819.975
X1488.857 Y-820.052
X1488.99 Y-820.12
X1489.128 Y-820.179
X1489.27 Y-820.228
X1489.415 Y-820.267
X1489.562 Y-820.296
X1489.711 Y-820.316
X1489.86 Y-820.325
X1490.01
X1490.16 Y-820.314
X1490.309 Y-820.294
X1490.456 Y-820.263
X1490.6 Y-820.224
X1490.742 Y-820.174
X1490.88 Y-820.116
X1491.014 Y-820.049
X1491.144 Y-819.973
X1491.268 Y-819.889
X1491.387 Y-819.797
X1491.499 Y-819.698
X1491.605 Y-819.592
X1491.704 Y-819.479
X1491.795 Y-819.36
X1491.879 Y-819.236
X1491.955 Y-819.106
X1492.023 Y-818.973
X1492.082 Y-818.835
X1492.132 Y-818.693
X1492.173 Y-818.549
X1492.206 Y-818.403
X1492.229 Y-818.254
X1492.243 Y-818.105
X1492.248 Y-817.955
X1492.243 Y-817.805
X1492.23 Y-817.656
X1492.207 Y-817.508
X1492.176 Y-817.361
X1492.135 Y-817.216
X1492.086 Y-817.075
X1492.029 Y-816.936
X1491.963 Y-816.801
X1491.89 Y-816.67
X1491.808 Y-816.544
X1491.72 Y-816.423
X1491.624 Y-816.308
X1491.522 Y-816.198
X1491.414 Y-816.094
X1491.299 Y-815.997
X1491.179 Y-815.907
X1491.055 Y-815.824
X1490.925 Y-815.748
X1490.791 Y-815.68
X1490.654 Y-815.62
X1490.513 Y-815.568
X1490.37 Y-815.524
X1490.224 Y-815.488
X1490.077 Y-815.461
X1489.928 Y-815.442
X1489.777 Y-815.431
X1489.627 Y-815.429
X1489.477 Y-815.436
X1489.326 Y-815.451
X1489.176 Y-815.475
X1489.029 Y-815.507
X1488.884 Y-815.547
X1488.738 Y-815.596
X1488.595 Y-815.653
X1488.458 Y-815.717
X1488.324 Y-815.79
X1488.191 Y-815.872
X1488.064 Y-815.96
X1487.943 Y-816.054
X1487.827 Y-816.156
X1487.714 Y-816.267
X1487.609 Y-816.383
X1487.512 Y-816.503
X1487.42 Y-816.63
X1487.334 Y-816.764
X1487.256 Y-816.902
X1487.187 Y-817.043
X1487.126 Y-817.188
X1487.072 Y-817.339
X1487.026 Y-817.494
X1486.99 Y-817.649
X1486.962 Y-817.805
X1486.943 Y-817.965
X1486.933 Y-818.128
X1486.932 Y-818.29
X1486.94 Y-818.45
X1486.957 Y-818.611
X1486.984 Y-818.774
X1487.02 Y-818.935
X1487.065 Y-819.092
X1487.118 Y-819.246
X1487.18 Y-819.398
X1487.252 Y-819.549
X1487.332 Y-819.695
X1487.42 Y-819.836
X1487.515 Y-819.971
X1487.618 Y-820.101
X1487.73 Y-820.227
X1487.85 Y-820.347
X1487.975 Y-820.46
X1488.107 Y-820.565
X1488.244 Y-820.663
X1488.387 Y-820.753
X1488.537 Y-820.836
X1488.692 Y-820.911
X1488.85 Y-820.977
X1489.012 Y-821.034
X1489.176 Y-821.081
X1489.344 Y-821.119
X1489.515 Y-821.149
X1489.689 Y-821.168
X1489.864 Y-821.178
X1490.038
X1490.212 Y-821.168
X1490.385 Y-821.148
X1490.559 Y-821.118
X1490.731 Y-821.079
X1490.902 Y-821.029
X1491.07 Y-820.97
X1491.234 Y-820.901
X1491.394 Y-820.824
X1491.55 Y-820.737
X1491.701 Y-820.642
X1491.847 Y-820.538
X1491.987 Y-820.425
X1492.122 Y-820.303
X1492.25 Y-820.174
X1492.371 Y-820.038
X1492.484 Y-819.895
X1492.589 Y-819.746
X1492.685 Y-819.591
X1492.772 Y-819.431
X1492.851 Y-819.265
X1492.921 Y-819.095
X1492.981 Y-818.919
X1493.031 Y-818.741
X1493.072 Y-818.559
X1493.102 Y-818.374
X1493.121 Y-818.188
X1493.131 Y-818.001
X1493.129 Y-817.814
X1493.117 Y-817.626
X1493.095 Y-817.439
X1493.062 Y-817.254
X1493.018 Y-817.07
X1492.964 Y-816.888
X1492.9 Y-816.709
X1492.825 Y-816.533
X1492.741 Y-816.361
X1492.646 Y-816.194
X1492.542 Y-816.032
X1492.429 Y-815.876
X1492.307 Y-815.726
X1492.176 Y-815.582
X1492.037 Y-815.446
X1491.891 Y-815.318
X1491.736 Y-815.198
X1491.575 Y-815.086
X1491.408 Y-814.983
X1491.235 Y-814.89
X1491.056 Y-814.807
X1490.872 Y-814.733
X1490.684 Y-814.67
X1490.493 Y-814.617
X1490.298 Y-814.575
X1490.101 Y-814.545
X1489.901 Y-814.525
X1489.701 Y-814.516
X1489.5 Y-814.519
X1489.299 Y-814.533
X1489.098 Y-814.558
X1488.899 Y-814.595
X1488.701 Y-814.643
X1488.506 Y-814.702
X1488.315 Y-814.773
X1488.127 Y-814.854
X1487.943 Y-814.946
X1487.765 Y-815.048
X1487.592 Y-815.16
X1487.426 Y-815.283
X1487.266 Y-815.414
X1487.114 Y-815.555
X1486.969 Y-815.705
X1486.833 Y-815.863
X1486.705 Y-816.029
X1486.587 Y-816.201
X1486.478 Y-816.381
X1486.38 Y-816.567
X1486.292 Y-816.759
X1486.214 Y-816.956
X1486.148 Y-817.157
X1486.093 Y-817.362
X1486.05 Y-817.571
X1486.018 Y-817.782
X1485.998 Y-817.995
X1485.99 Y-818.209
X1485.995 Y-818.424
X1486.011 Y-818.639
X1486.04 Y-818.853
X1486.08 Y-819.066
X1486.133 Y-819.276
X1486.197 Y-819.484
X1486.274 Y-819.688
X1486.362 Y-819.888
X1486.461 Y-820.084
X1486.572 Y-820.273
X1486.693 Y-820.457
X1486.824 Y-820.634
X1486.966 Y-820.803
X1487.117 Y-820.965
X1487.278 Y-821.119
X1487.447 Y-821.263
X1487.625 Y-821.398
X1487.81 Y-821.523
X1488.003 Y-821.637
X1488.202 Y-821.741
X1488.408 Y-821.834
X1488.618 Y-821.915
X1488.833 Y-821.984
X1489.052 Y-822.042
X1489.275 Y-822.087
X1489.501 Y-822.119
X1489.728 Y-822.139
X1489.957 Y-822.145
X1490.186 Y-822.139
X1490.415 Y-822.12
X1490.643 Y-822.089
X1490.87 Y-822.044
X1491.094 Y-821.986
X1491.314 Y-821.916
X1491.532 Y-821.833
X1491.744 Y-821.738
X1491.952 Y-821.631
X1492.153 Y-821.512
X1492.348 Y-821.381
X1492.536 Y-821.24
X1492.715 Y-821.088
X1492.886 Y-820.926
X1493.049 Y-820.753
X1493.201 Y-820.572
X1493.344 Y-820.382
X1493.475 Y-820.184
X1493.596 Y-819.978
X1493.705 Y-819.765
X1493.803 Y-819.546
X1493.888 Y-819.321
X1493.96 Y-819.092
X1494.019 Y-818.858
X1494.066 Y-818.621
X1494.098 Y-818.381
X1494.118 Y-818.139
X1494.123 Y-817.896
X1494.115 Y-817.653
X1494.094 Y-817.41
X1494.058 Y-817.168
X1494.009 Y-816.927
X1493.946 Y-816.69
X1493.87 Y-816.456
X1493.781 Y-816.225
X1493.678 Y-816
X1493.563 Y-815.781
X1493.435 Y-815.568
X1493.295 Y-815.362
X1493.144 Y-815.163
X1492.981 Y-814.973
X1492.807 Y-814.793
X1492.624 Y-814.622
X1492.43 Y-814.461
X1492.227 Y-814.311
X1492.016 Y-814.172
X1491.797 Y-814.046
X1491.57 Y-813.931
X1491.337 Y-813.829
X1491.098 Y-813.741
X1490.854 Y-813.666
X1490.606 Y-813.604
X1490.354 Y-813.557
X1490.099 Y-813.524
X1489.842 Y-813.505
X1489.584 Y-813.5
X1489.326 Y-813.51
X1489.068 Y-813.535
X1488.811 Y-813.575
X1488.557 Y-813.628
X1488.305 Y-813.696
X1488.057 Y-813.779
X1487.813 Y-813.875
X1487.575 Y-813.986
X1487.343 Y-814.109
X1487.118 Y-814.246
X1486.901 Y-814.396
X1486.692 Y-814.558
X1486.492 Y-814.732
X1486.301 Y-814.917
X1486.121 Y-815.113
X1485.952 Y-815.319
X1485.795 Y-815.535
X1485.649 Y-815.76
X1485.517 Y-815.993
X1485.397 Y-816.233
X1485.291 Y-816.481
X1485.199 Y-816.734
X1485.121 Y-816.993
X1485.057 Y-817.257
X1485.009 Y-817.524
X1484.976 Y-817.794
X1484.957 Y-818.066
X1484.954 Y-818.339
X1484.967 Y-818.612
X1484.995 Y-818.885
X1485.038 Y-819.156
X1485.097 Y-819.425
X1485.171 Y-819.691
X1485.26 Y-819.953
X1485.363 Y-820.209
X1485.481 Y-820.46
X1485.614 Y-820.705
X1485.76 Y-820.942
X1485.92 Y-821.171
X1486.092 Y-821.391
X1486.277 Y-821.601
X1486.474 Y-821.801
X1486.683 Y-821.99
X1486.902 Y-822.167
X1487.131 Y-822.332
X1487.37 Y-822.484
X1487.617 Y-822.623
X1487.872 Y-822.748
X1488.135 Y-822.858
X1488.403 Y-822.954
X1488.677 Y-823.035
X1488.956 Y-823.1
X1489.239 Y-823.149
X1489.524 Y-823.183
X1489.812 Y-823.2
X1490.1 Y-823.201
X1490.389 Y-823.186
X1490.677 Y-823.155
X1490.964 Y-823.107
X1491.247 Y-823.044
X1491.527 Y-822.964
X1491.803 Y-822.868
X1492.074 Y-822.757
X1492.338 Y-822.631
X1492.595 Y-822.489
X1492.844 Y-822.333
X1493.085 Y-822.163
X1493.316 Y-821.979
X1493.537 Y-821.782
X1493.747 Y-821.573
X1493.945 Y-821.352
X1494.13 Y-821.119
X1494.303 Y-820.876
X1494.462 Y-820.624
X1494.606 Y-820.362
X1494.736 Y-820.092
X1494.851 Y-819.814
X1494.95 Y-819.531
X1495.033 Y-819.241
X1495.1 Y-818.947
X1495.15 Y-818.648
X1495.183 Y-818.347
X1495.2 Y-818.044
X1495.199 Y-817.74
X1495.181 Y-817.436
X1495.146 Y-817.133
X1495.094 Y-816.832
X1495.025 Y-816.533
X1494.939 Y-816.239
X1494.837 Y-815.949
X1494.718 Y-815.665
X1494.583 Y-815.387
X1494.432 Y-815.117
X1494.266 Y-814.856
X1494.085 Y-814.603
X1493.89 Y-814.361
X1493.681 Y-814.13
X1493.459 Y-813.911
X1493.225 Y-813.704
X1492.979 Y-813.51
X1492.722 Y-813.33
X1492.455 Y-813.165
X1492.179 Y-813.014
X1491.894 Y-812.879
X1491.601 Y-812.76
X1491.301 Y-812.658
X1490.996 Y-812.572
X1490.686 Y-812.504
X1490.371 Y-812.453
X1490.054 Y-812.42
X1489.735 Y-812.405
X1489.415 Y-812.408
X1489.095 Y-812.429
X1488.777 Y-812.467
X1488.46 Y-812.524
X1488.146 Y-812.599
X1487.837 Y-812.691
X1487.533 Y-812.801
X1487.235 Y-812.928
X1486.944 Y-813.072
X1486.661 Y-813.233
X1486.387 Y-813.409
X1486.123 Y-813.601
X1485.87 Y-813.807
X1485.628 Y-814.028
X1485.399 Y-814.263
X1485.183 Y-814.511
X1484.981 Y-814.771
X1484.794 Y-815.042
X1484.621 Y-815.324
X1484.465 Y-815.615
X1484.325 Y-815.916
X1484.203 Y-816.224
X1484.097 Y-816.54
X1484.009 Y-816.861
X1483.94 Y-817.187
X1483.888 Y-817.518
X1483.856 Y-817.851
X1483.842 Y-818.186
X1483.847 Y-818.522
X1483.871 Y-818.858
X1483.914 Y-819.192
X1483.976 Y-819.524
X1484.056 Y-819.853
X1484.155 Y-820.177
X1484.273 Y-820.495
X1484.408 Y-820.807
X1484.561 Y-821.112
X1484.731 Y-821.407
X1484.918 Y-821.694
X1485.121 Y-821.969
X1485.34 Y-822.234
X1485.573 Y-822.486
X1485.821 Y-822.724
X1486.082 Y-822.949
X1486.356 Y-823.16
X1486.642 Y-823.354
X1486.939 Y-823.533
X1487.246 Y-823.695
X1487.562 Y-823.84
X1487.886 Y-823.967
X1488.218 Y-824.075
X1488.556 Y-824.165
X1488.898 Y-824.236
X1489.245 Y-824.287
X1489.595 Y-824.319
X1489.947 Y-824.332
X1490.299 Y-824.324
X1490.651 Y-824.297
X1491.001 Y-824.249
X1491.349 Y-824.182
X1491.693 Y-824.096
X1492.032 Y-823.989
X1492.365 Y-823.864
X1492.692 Y-823.72
X1493.01 Y-823.558
X1493.318 Y-823.377
X1493.617 Y-823.18
X1493.905 Y-822.965
X1494.18 Y-822.734
X1494.443 Y-822.488
X1494.692 Y-822.227
X1494.925 Y-821.951
X1495.144 Y-821.663
X1495.346 Y-821.362
X1495.531 Y-821.05
X1495.699 Y-820.727
X1495.848 Y-820.395
X1495.979 Y-820.055
X1496.09 Y-819.707
X1496.182 Y-819.353
X1496.254 Y-818.993
X1496.305 Y-818.63
X1496.337 Y-818.263
X1496.347 Y-817.895
X1496.337 Y-817.527
X1496.306 Y-817.159
X1496.254 Y-816.792
X1496.181 Y-816.429
X1496.088 Y-816.069
X1495.975 Y-815.715
X1495.842 Y-815.367
X1495.689 Y-815.027
X1495.517 Y-814.696
X1495.326 Y-814.374
X1495.117 Y-814.063
X1494.891 Y-813.763
X1494.647 Y-813.477
X1494.388 Y-813.204
X1494.113 Y-812.945
X1493.823 Y-812.703
X1493.52 Y-812.476
X1493.204 Y-812.267
X1492.877 Y-812.075
X1492.538 Y-811.902
X1492.19 Y-811.748
X1491.833 Y-811.614
X1491.469 Y-811.5
X1491.098 Y-811.406
X1490.721 Y-811.333
X1490.341 Y-811.282
X1489.958 Y-811.252
X1489.573 Y-811.243
X1489.188 Y-811.257
X1488.803 Y-811.292
X1488.42 Y-811.348
X1488.041 Y-811.426
X1487.666 Y-811.526
X1487.297 Y-811.647
X1486.934 Y-811.788
X1486.626 Y-811.93
X1486.552 Y-811.967
X1486.533 Y-811.977
X1486.131 Y-812.192
X1485.952 Y-812.29
X1485.929 Y-812.306
X1485.699 Y-812.492
X1484.922 Y-813.128
X1484.77 Y-813.297
X1484.111 Y-814.103
X1484.031 Y-814.203
X1483.972 Y-814.304
X1483.436 Y-815.311
X1483.385 Y-815.411
X1483.349 Y-815.512
X1483.043 Y-816.519
X1482.983 Y-816.72
X1482.957 Y-816.922
X1482.853 Y-817.928
X1482.84 Y-818.13
X1482.859 Y-818.331
X1482.963 Y-819.338
X1482.975 Y-819.439
X1483 Y-819.539
X1483.311 Y-820.564
X1483.368 Y-820.747
X1483.468 Y-820.949
X1483.915 Y-821.79
X1484.004 Y-821.956
X1484.117 Y-822.104
X1484.819 Y-822.962
X1484.922 Y-823.072
X1485.772 Y-823.768
X1485.929 Y-823.894
X1486.058 Y-823.969
X1486.936 Y-824.438
X1487.137 Y-824.544
X1487.216 Y-824.573
X1488.346 Y-824.917
X1488.446 Y-824.946
X1488.547 Y-824.96
X1489.755 Y-825.079
X1489.856 Y-825.081
X1490.964 Y-824.973
X1491.165 Y-824.951
X1491.366 Y-824.896
X1492.432 Y-824.573
X1492.504 Y-824.548
X1492.575 Y-824.512
X1493.592 Y-823.969
X1493.687 Y-823.915
X1493.783 Y-823.844
X1494.609 Y-823.164
X1494.79 Y-823.002
X1495.595 Y-822.026
X1495.645 Y-821.956
X1495.797 Y-821.673
X1496.199 Y-820.916
X1496.282 Y-820.747
X1496.344 Y-820.546
X1496.65 Y-819.539
X1496.674 Y-819.439
X1496.685 Y-819.338
X1496.783 Y-818.331
X1496.802 Y-818.13
X1496.789 Y-817.928
X1496.691 Y-816.922
X1496.666 Y-816.72
X1496.602 Y-816.503
X1496.301 Y-815.512
X1496.265 Y-815.411
X1496.199 Y-815.284
X1495.678 Y-814.304
X1495.641 Y-814.239
X1495.595 Y-814.174
X1494.872 Y-813.297
X1494.79 Y-813.198
X1494.681 Y-813.096
X1493.783 Y-812.356
X1493.697 Y-812.29
X1493.582 Y-812.226
X1492.572 Y-811.686
X1492.473 Y-811.64
X1492.373 Y-811.609
X1491.298 Y-811.284
X1491.165 Y-811.249
X1490.964 Y-811.227
X1489.856 Y-811.119
X1489.755 Y-811.121
X1488.547 Y-811.24
X1488.446 Y-811.254
X1488.344 Y-811.284
X1487.339 Y-811.589
X1487.137 Y-811.657
X1487.078 Y-811.686
X1486.552 Y-811.967
G3 X1486.274 Y-812.643 I0.301 J-0.519
G1 X1486.298 Y-812.733 Z50.007
X1486.322 Y-812.822 Z50.029
X1486.345 Y-812.906 Z50.065
X1486.366 Y-812.983 Z50.115
X1486.384 Y-813.052 Z50.176
X1486.4 Y-813.111 Z50.247
X1486.413 Y-813.159 Z50.328
X1486.423 Y-813.194 Z50.415
X1486.428 Y-813.215 Z50.506
X1486.43 Y-813.222 Z50.6
G0 Z72
X1489.823 Y-818.1
Z64.05
Z62.65
G1 Z62.05 F850
Z45 F283.3
X1489.817 Y-818.063 F850
X1489.781 Y-818.051
X1489.753 Y-818.075
X1489.743 Y-818.112
X1489.754 Y-818.148
X1489.78 Y-818.174
X1489.816 Y-818.186
X1489.853 Y-818.181
X1489.885 Y-818.16
X1489.905 Y-818.129
X1489.909 Y-818.091
X1489.901 Y-818.055
X1489.882 Y-818.022
X1489.855 Y-817.997
X1489.82 Y-817.982
X1489.783 Y-817.979
X1489.746 Y-817.988
X1489.714 Y-818.006
X1489.688 Y-818.034
X1489.652 Y-818.099
X1489.654 Y-818.174
X1489.688 Y-818.241
X1489.747 Y-818.287
X1489.819 Y-818.307
X1489.894 Y-818.299
X1489.96 Y-818.264
X1490.01 Y-818.208
X1490.04 Y-818.14
X1490.047 Y-818.065
X1490.031 Y-817.992
X1489.994 Y-817.926
X1489.94 Y-817.874
X1489.874 Y-817.84
X1489.8 Y-817.824
X1489.651 Y-817.835
X1489.525 Y-817.916
X1489.448 Y-818.045
X1489.432 Y-818.194
X1489.475 Y-818.338
X1489.568 Y-818.456
X1489.697 Y-818.533
X1489.844 Y-818.561
X1489.993 Y-818.539
X1490.126 Y-818.47
X1490.232 Y-818.364
X1490.302 Y-818.232
X1490.33 Y-818.084
X1490.314 Y-817.935
X1490.258 Y-817.796
X1490.166 Y-817.678
X1490.047 Y-817.586
X1489.909 Y-817.526
X1489.761 Y-817.502
X1489.612 Y-817.514
X1489.469 Y-817.561
X1489.342 Y-817.641
X1489.235 Y-817.746
X1489.156 Y-817.874
X1489.105 Y-818.015
X1489.085 Y-818.163
X1489.096 Y-818.313
X1489.138 Y-818.457
X1489.207 Y-818.59
X1489.301 Y-818.707
X1489.417 Y-818.803
X1489.547 Y-818.876
X1489.69 Y-818.923
X1489.838 Y-818.944
X1489.988 Y-818.937
X1490.135 Y-818.904
X1490.273 Y-818.846
X1490.399 Y-818.764
X1490.51 Y-818.663
X1490.601 Y-818.545
X1490.673 Y-818.413
X1490.721 Y-818.271
X1490.746 Y-818.123
X1490.747 Y-817.973
X1490.686 Y-817.746
X1490.576 Y-817.539
X1490.423 Y-817.36
X1490.417 Y-817.354
X1490.368 Y-817.318
X1490.359 Y-817.312
X1490.259 Y-817.256
X1490.158 Y-817.207
X1490.108 Y-817.189
X1490.057 Y-817.176
X1489.957 Y-817.159
X1489.856 Y-817.146
X1489.755 Y-817.149
X1489.554 Y-817.184
X1489.504 Y-817.201
X1489.453 Y-817.222
X1489.353 Y-817.273
X1489.276 Y-817.318
X1489.214 Y-817.367
X1489.151 Y-817.428
X1489.069 Y-817.519
X1489.032 Y-817.569
X1489.003 Y-817.62
X1488.95 Y-817.724
X1488.927 Y-817.773
X1488.91 Y-817.823
X1488.888 Y-817.922
X1488.873 Y-818.023
X1488.868 Y-818.123
X1488.896 Y-818.325
X1488.917 Y-818.4
X1488.95 Y-818.476
X1488.975 Y-818.526
X1489.03 Y-818.627
X1489.107 Y-818.727
X1489.151 Y-818.772
X1489.252 Y-818.863
X1489.302 Y-818.899
X1489.356 Y-818.929
X1489.455 Y-818.979
X1489.504 Y-819
X1489.554 Y-819.016
X1489.755 Y-819.051
X1489.856 Y-819.054
X1489.957 Y-819.041
X1490.057 Y-819.024
X1490.108 Y-819.011
X1490.158 Y-818.993
X1490.289 Y-818.929
X1490.359 Y-818.888
X1490.449 Y-818.816
X1490.538 Y-818.727
X1490.561 Y-818.703
X1490.597 Y-818.659
X1490.627 Y-818.615
X1490.675 Y-818.526
X1490.721 Y-818.425
X1490.749 Y-818.325
X1490.762 Y-818.246
X1490.777 Y-818.123
X1490.774 Y-818.038
X1490.757 Y-817.922
X1490.736 Y-817.821
X1490.698 Y-817.72
X1490.647 Y-817.62
X1490.617 Y-817.569
X1490.581 Y-817.519
X1490.561 Y-817.496
X1490.465 Y-817.399
X1490.423 Y-817.36
X1490.396 Y-817.356
X1490.369 Y-817.364
X1490.288 Y-817.413 Z45.007
X1490.21 Y-817.46 Z45.029
X1490.135 Y-817.504 Z45.065
X1490.067 Y-817.546 Z45.115
X1490.005 Y-817.583 Z45.176
X1489.953 Y-817.614 Z45.247
X1489.911 Y-817.64 Z45.328
X1489.88 Y-817.658 Z45.415
X1489.861 Y-817.67 Z45.506
X1489.855 Y-817.673 Z45.6
G0 Z72

(2D Adaptive15)
X1489.825 Y-893.099
Z72
Z64.05
Z62.65
G1 Z62.05 F850
Z50 F283.3
X1489.862 Y-893.095 F850
X1489.868 Y-893.058
X1489.842 Y-893.031
X1489.805 Y-893.024
X1489.769 Y-893.036
X1489.744 Y-893.064
X1489.734 Y-893.1
X1489.74 Y-893.137
X1489.762 Y-893.167
X1489.795 Y-893.186
X1489.832 Y-893.189
X1489.869 Y-893.181
X1489.901 Y-893.161
X1489.925 Y-893.133
X1489.939 Y-893.098
X1489.941 Y-893.06
X1489.932 Y-893.024
X1489.913 Y-892.992
X1489.885 Y-892.967
X1489.819 Y-892.932
X1489.744 Y-892.934
X1489.677 Y-892.97
X1489.632 Y-893.029
X1489.613 Y-893.102
X1489.622 Y-893.176
X1489.658 Y-893.242
X1489.714 Y-893.292
X1489.783 Y-893.321
X1489.858 Y-893.327
X1489.931 Y-893.311
X1489.996 Y-893.274
X1490.047 Y-893.219
X1490.082 Y-893.152
X1490.096 Y-893.079
X1490.085 Y-892.929
X1490.003 Y-892.804
X1489.874 Y-892.727
X1489.725 Y-892.712
X1489.581 Y-892.755
X1489.464 Y-892.849
X1489.387 Y-892.978
X1489.359 Y-893.125
X1489.381 Y-893.273
X1489.45 Y-893.407
X1489.556 Y-893.513
X1489.689 Y-893.582
X1489.836 Y-893.61
X1489.985 Y-893.595
X1490.124 Y-893.539
X1490.243 Y-893.447
X1490.335 Y-893.328
X1490.394 Y-893.191
X1490.419 Y-893.043
X1490.407 Y-892.893
X1490.36 Y-892.751
X1490.281 Y-892.623
X1490.176 Y-892.516
X1490.049 Y-892.437
X1489.908 Y-892.385
X1489.759 Y-892.365
X1489.61 Y-892.375
X1489.465 Y-892.416
X1489.332 Y-892.485
X1489.215 Y-892.579
X1489.119 Y-892.694
X1489.045 Y-892.824
X1488.998 Y-892.967
X1488.976 Y-893.115
X1488.982 Y-893.265
X1489.015 Y-893.411
X1489.072 Y-893.55
X1489.153 Y-893.676
X1489.254 Y-893.788
X1489.372 Y-893.88
X1489.504 Y-893.952
X1489.645 Y-894.001
X1489.793 Y-894.026
X1489.943 Y-894.028
X1490.092 Y-894.006
X1490.235 Y-893.962
X1490.37 Y-893.896
X1490.493 Y-893.811
X1490.603 Y-893.709
X1490.696 Y-893.591
X1490.772 Y-893.462
X1490.828 Y-893.323
X1490.864 Y-893.177
X1490.879 Y-893.028
X1490.873 Y-892.878
X1490.847 Y-892.73
X1490.8 Y-892.588
X1490.735 Y-892.453
X1490.653 Y-892.327
X1490.554 Y-892.214
X1490.442 Y-892.114
X1490.318 Y-892.03
X1490.184 Y-891.963
X1490.043 Y-891.912
X1489.896 Y-891.88
X1489.747 Y-891.867
X1489.597 Y-891.872
X1489.448 Y-891.895
X1489.304 Y-891.936
X1489.166 Y-891.994
X1489.035 Y-892.068
X1488.914 Y-892.156
X1488.804 Y-892.259
X1488.708 Y-892.373
X1488.624 Y-892.497
X1488.555 Y-892.631
X1488.502 Y-892.771
X1488.464 Y-892.916
X1488.443 Y-893.065
X1488.439 Y-893.215
X1488.45 Y-893.364
X1488.479 Y-893.511
X1488.522 Y-893.655
X1488.581 Y-893.793
X1488.654 Y-893.924
X1488.74 Y-894.047
X1488.839 Y-894.16
X1488.949 Y-894.261
X1489.069 Y-894.352
X1489.198 Y-894.429
X1489.333 Y-894.493
X1489.475 Y-894.543
X1489.62 Y-894.578
X1489.769 Y-894.599
X1489.919 Y-894.605
X1490.069 Y-894.596
X1490.217 Y-894.573
X1490.362 Y-894.535
X1490.503 Y-894.484
X1490.638 Y-894.419
X1490.767 Y-894.343
X1490.888 Y-894.254
X1491 Y-894.154
X1491.102 Y-894.044
X1491.194 Y-893.925
X1491.274 Y-893.799
X1491.343 Y-893.665
X1491.399 Y-893.526
X1491.442 Y-893.382
X1491.472 Y-893.235
X1491.489 Y-893.086
X1491.492 Y-892.936
X1491.482 Y-892.787
X1491.459 Y-892.639
X1491.424 Y-892.493
X1491.375 Y-892.351
X1491.315 Y-892.214
X1491.243 Y-892.082
X1491.16 Y-891.957
X1491.067 Y-891.84
X1490.964 Y-891.73
X1490.852 Y-891.63
X1490.733 Y-891.54
X1490.606 Y-891.46
X1490.473 Y-891.39
X1490.334 Y-891.332
X1490.192 Y-891.286
X1490.046 Y-891.251
X1489.898 Y-891.228
X1489.748 Y-891.217
X1489.598 Y-891.218
X1489.449 Y-891.232
X1489.301 Y-891.256
X1489.155 Y-891.293
X1489.013 Y-891.341
X1488.875 Y-891.4
X1488.742 Y-891.47
X1488.615 Y-891.549
X1488.495 Y-891.639
X1488.381 Y-891.737
X1488.276 Y-891.844
X1488.179 Y-891.958
X1488.091 Y-892.079
X1488.012 Y-892.207
X1487.943 Y-892.34
X1487.885 Y-892.478
X1487.837 Y-892.62
X1487.799 Y-892.766
X1487.772 Y-892.913
X1487.756 Y-893.062
X1487.751 Y-893.212
X1487.757 Y-893.362
X1487.775 Y-893.511
X1487.802 Y-893.659
X1487.84 Y-893.804
X1487.889 Y-893.946
X1487.948 Y-894.084
X1488.016 Y-894.217
X1488.094 Y-894.346
X1488.18 Y-894.468
X1488.275 Y-894.584
X1488.378 Y-894.694
X1488.488 Y-894.795
X1488.605 Y-894.889
X1488.728 Y-894.975
X1488.857 Y-895.052
X1488.99 Y-895.12
X1489.128 Y-895.179
X1489.27 Y-895.228
X1489.415 Y-895.267
X1489.562 Y-895.296
X1489.711 Y-895.316
X1489.86 Y-895.325
X1490.01
X1490.16 Y-895.314
X1490.309 Y-895.294
X1490.456 Y-895.263
X1490.6 Y-895.224
X1490.742 Y-895.174
X1490.88 Y-895.116
X1491.014 Y-895.049
X1491.144 Y-894.973
X1491.268 Y-894.889
X1491.387 Y-894.797
X1491.499 Y-894.698
X1491.605 Y-894.592
X1491.704 Y-894.479
X1491.795 Y-894.36
X1491.879 Y-894.236
X1491.955 Y-894.106
X1492.023 Y-893.973
X1492.082 Y-893.835
X1492.132 Y-893.693
X1492.173 Y-893.549
X1492.206 Y-893.403
X1492.229 Y-893.254
X1492.243 Y-893.105
X1492.248 Y-892.955
X1492.243 Y-892.805
X1492.23 Y-892.656
X1492.207 Y-892.508
X1492.176 Y-892.361
X1492.135 Y-892.216
X1492.086 Y-892.075
X1492.029 Y-891.936
X1491.963 Y-891.801
X1491.89 Y-891.67
X1491.808 Y-891.544
X1491.72 Y-891.423
X1491.624 Y-891.308
X1491.522 Y-891.198
X1491.414 Y-891.094
X1491.299 Y-890.997
X1491.179 Y-890.907
X1491.055 Y-890.824
X1490.925 Y-890.748
X1490.791 Y-890.68
X1490.654 Y-890.62
X1490.513 Y-890.568
X1490.37 Y-890.524
X1490.224 Y-890.488
X1490.077 Y-890.461
X1489.928 Y-890.442
X1489.777 Y-890.431
X1489.627 Y-890.429
X1489.477 Y-890.436
X1489.326 Y-890.451
X1489.176 Y-890.475
X1489.029 Y-890.507
X1488.884 Y-890.547
X1488.738 Y-890.596
X1488.595 Y-890.653
X1488.458 Y-890.717
X1488.324 Y-890.79
X1488.191 Y-890.872
X1488.064 Y-890.96
X1487.943 Y-891.054
X1487.827 Y-891.156
X1487.714 Y-891.267
X1487.609 Y-891.383
X1487.512 Y-891.503
X1487.42 Y-891.63
X1487.334 Y-891.764
X1487.256 Y-891.902
X1487.187 Y-892.043
X1487.126 Y-892.188
X1487.072 Y-892.339
X1487.026 Y-892.494
X1486.99 Y-892.649
X1486.962 Y-892.805
X1486.943 Y-892.965
X1486.933 Y-893.128
X1486.932 Y-893.29
X1486.94 Y-893.45
X1486.957 Y-893.611
X1486.984 Y-893.774
X1487.02 Y-893.935
X1487.065 Y-894.092
X1487.118 Y-894.246
X1487.18 Y-894.398
X1487.252 Y-894.549
X1487.332 Y-894.695
X1487.42 Y-894.836
X1487.515 Y-894.971
X1487.618 Y-895.101
X1487.73 Y-895.227
X1487.85 Y-895.347
X1487.975 Y-895.46
X1488.107 Y-895.565
X1488.244 Y-895.663
X1488.387 Y-895.753
X1488.537 Y-895.836
X1488.692 Y-895.911
X1488.85 Y-895.977
X1489.012 Y-896.034
X1489.176 Y-896.081
X1489.344 Y-896.119
X1489.515 Y-896.149
X1489.689 Y-896.168
X1489.864 Y-896.178
X1490.038
X1490.212 Y-896.168
X1490.385 Y-896.148
X1490.559 Y-896.118
X1490.731 Y-896.079
X1490.902 Y-896.029
X1491.07 Y-895.97
X1491.234 Y-895.901
X1491.394 Y-895.824
X1491.55 Y-895.737
X1491.701 Y-895.642
X1491.847 Y-895.538
X1491.987 Y-895.425
X1492.122 Y-895.303
X1492.25 Y-895.174
X1492.371 Y-895.038
X1492.484 Y-894.895
X1492.589 Y-894.746
X1492.685 Y-894.591
X1492.772 Y-894.431
X1492.851 Y-894.265
X1492.921 Y-894.095
X1492.981 Y-893.919
X1493.031 Y-893.741
X1493.072 Y-893.559
X1493.102 Y-893.374
X1493.121 Y-893.188
X1493.131 Y-893.001
X1493.129 Y-892.814
X1493.117 Y-892.626
X1493.095 Y-892.439
X1493.062 Y-892.254
X1493.018 Y-892.07
X1492.964 Y-891.888
X1492.9 Y-891.709
X1492.825 Y-891.533
X1492.741 Y-891.361
X1492.646 Y-891.194
X1492.542 Y-891.032
X1492.429 Y-890.876
X1492.307 Y-890.726
X1492.176 Y-890.582
X1492.037 Y-890.446
X1491.891 Y-890.318
X1491.736 Y-890.198
X1491.575 Y-890.086
X1491.408 Y-889.983
X1491.235 Y-889.89
X1491.056 Y-889.807
X1490.872 Y-889.733
X1490.684 Y-889.67
X1490.493 Y-889.617
X1490.298 Y-889.575
X1490.101 Y-889.545
X1489.901 Y-889.525
X1489.701 Y-889.516
X1489.5 Y-889.519
X1489.299 Y-889.533
X1489.098 Y-889.558
X1488.899 Y-889.595
X1488.701 Y-889.643
X1488.506 Y-889.702
X1488.315 Y-889.773
X1488.127 Y-889.854
X1487.943 Y-889.946
X1487.765 Y-890.048
X1487.592 Y-890.16
X1487.426 Y-890.283
X1487.266 Y-890.414
X1487.114 Y-890.555
X1486.969 Y-890.705
X1486.833 Y-890.863
X1486.705 Y-891.029
X1486.587 Y-891.201
X1486.478 Y-891.381
X1486.38 Y-891.567
X1486.292 Y-891.759
X1486.214 Y-891.956
X1486.148 Y-892.157
X1486.093 Y-892.362
X1486.05 Y-892.571
X1486.018 Y-892.782
X1485.998 Y-892.995
X1485.99 Y-893.209
X1485.995 Y-893.424
X1486.011 Y-893.639
X1486.04 Y-893.853
X1486.08 Y-894.066
X1486.133 Y-894.276
X1486.197 Y-894.484
X1486.274 Y-894.688
X1486.362 Y-894.888
X1486.461 Y-895.084
X1486.572 Y-895.273
X1486.693 Y-895.457
X1486.824 Y-895.634
X1486.966 Y-895.803
X1487.117 Y-895.965
X1487.278 Y-896.119
X1487.447 Y-896.263
X1487.625 Y-896.398
X1487.81 Y-896.523
X1488.003 Y-896.637
X1488.202 Y-896.741
X1488.408 Y-896.834
X1488.618 Y-896.915
X1488.833 Y-896.984
X1489.052 Y-897.042
X1489.275 Y-897.087
X1489.501 Y-897.119
X1489.728 Y-897.139
X1489.957 Y-897.145
X1490.186 Y-897.139
X1490.415 Y-897.12
X1490.643 Y-897.089
X1490.87 Y-897.044
X1491.094 Y-896.986
X1491.314 Y-896.916
X1491.532 Y-896.833
X1491.744 Y-896.738
X1491.952 Y-896.631
X1492.153 Y-896.512
X1492.348 Y-896.381
X1492.536 Y-896.24
X1492.715 Y-896.088
X1492.886 Y-895.926
X1493.049 Y-895.753
X1493.201 Y-895.572
X1493.344 Y-895.382
X1493.475 Y-895.184
X1493.596 Y-894.978
X1493.705 Y-894.765
X1493.803 Y-894.546
X1493.888 Y-894.321
X1493.96 Y-894.092
X1494.019 Y-893.858
X1494.066 Y-893.621
X1494.098 Y-893.381
X1494.118 Y-893.139
X1494.123 Y-892.896
X1494.115 Y-892.653
X1494.094 Y-892.41
X1494.058 Y-892.168
X1494.009 Y-891.927
X1493.946 Y-891.69
X1493.87 Y-891.456
X1493.781 Y-891.225
X1493.678 Y-891
X1493.563 Y-890.781
X1493.435 Y-890.568
X1493.295 Y-890.362
X1493.144 Y-890.163
X1492.981 Y-889.973
X1492.807 Y-889.793
X1492.624 Y-889.622
X1492.43 Y-889.461
X1492.227 Y-889.311
X1492.016 Y-889.172
X1491.797 Y-889.046
X1491.57 Y-888.931
X1491.337 Y-888.829
X1491.098 Y-888.741
X1490.854 Y-888.666
X1490.606 Y-888.604
X1490.354 Y-888.557
X1490.099 Y-888.524
X1489.842 Y-888.505
X1489.584 Y-888.5
X1489.326 Y-888.51
X1489.068 Y-888.535
X1488.811 Y-888.575
X1488.557 Y-888.628
X1488.305 Y-888.696
X1488.057 Y-888.779
X1487.813 Y-888.875
X1487.575 Y-888.986
X1487.343 Y-889.109
X1487.118 Y-889.246
X1486.901 Y-889.396
X1486.692 Y-889.558
X1486.492 Y-889.732
X1486.301 Y-889.917
X1486.121 Y-890.113
X1485.952 Y-890.319
X1485.795 Y-890.535
X1485.649 Y-890.76
X1485.517 Y-890.993
X1485.397 Y-891.233
X1485.291 Y-891.481
X1485.199 Y-891.734
X1485.121 Y-891.993
X1485.057 Y-892.257
X1485.009 Y-892.524
X1484.976 Y-892.794
X1484.957 Y-893.066
X1484.954 Y-893.339
X1484.967 Y-893.612
X1484.995 Y-893.885
X1485.038 Y-894.156
X1485.097 Y-894.425
X1485.171 Y-894.691
X1485.26 Y-894.953
X1485.363 Y-895.209
X1485.481 Y-895.46
X1485.614 Y-895.705
X1485.76 Y-895.942
X1485.92 Y-896.171
X1486.092 Y-896.391
X1486.277 Y-896.601
X1486.474 Y-896.801
X1486.683 Y-896.99
X1486.902 Y-897.167
X1487.131 Y-897.332
X1487.37 Y-897.484
X1487.617 Y-897.623
X1487.872 Y-897.748
X1488.135 Y-897.858
X1488.403 Y-897.954
X1488.677 Y-898.035
X1488.956 Y-898.1
X1489.239 Y-898.149
X1489.524 Y-898.183
X1489.812 Y-898.2
X1490.1 Y-898.201
X1490.389 Y-898.186
X1490.677 Y-898.155
X1490.964 Y-898.107
X1491.247 Y-898.044
X1491.527 Y-897.964
X1491.803 Y-897.868
X1492.074 Y-897.757
X1492.338 Y-897.631
X1492.595 Y-897.489
X1492.844 Y-897.333
X1493.085 Y-897.163
X1493.316 Y-896.979
X1493.537 Y-896.782
X1493.747 Y-896.573
X1493.945 Y-896.352
X1494.13 Y-896.119
X1494.303 Y-895.876
X1494.462 Y-895.624
X1494.606 Y-895.362
X1494.736 Y-895.092
X1494.851 Y-894.814
X1494.95 Y-894.531
X1495.033 Y-894.241
X1495.1 Y-893.947
X1495.15 Y-893.648
X1495.183 Y-893.347
X1495.2 Y-893.044
X1495.199 Y-892.74
X1495.181 Y-892.436
X1495.146 Y-892.133
X1495.094 Y-891.832
X1495.025 Y-891.533
X1494.939 Y-891.239
X1494.837 Y-890.949
X1494.718 Y-890.665
X1494.583 Y-890.387
X1494.432 Y-890.117
X1494.266 Y-889.856
X1494.085 Y-889.603
X1493.89 Y-889.361
X1493.681 Y-889.13
X1493.459 Y-888.911
X1493.225 Y-888.704
X1492.979 Y-888.51
X1492.722 Y-888.33
X1492.455 Y-888.165
X1492.179 Y-888.014
X1491.894 Y-887.879
X1491.601 Y-887.76
X1491.301 Y-887.658
X1490.996 Y-887.572
X1490.686 Y-887.504
X1490.371 Y-887.453
X1490.054 Y-887.42
X1489.735 Y-887.405
X1489.415 Y-887.408
X1489.095 Y-887.429
X1488.777 Y-887.467
X1488.46 Y-887.524
X1488.146 Y-887.599
X1487.837 Y-887.691
X1487.533 Y-887.801
X1487.235 Y-887.928
X1486.944 Y-888.072
X1486.661 Y-888.233
X1486.387 Y-888.409
X1486.123 Y-888.601
X1485.87 Y-888.807
X1485.628 Y-889.028
X1485.399 Y-889.263
X1485.183 Y-889.511
X1484.981 Y-889.771
X1484.794 Y-890.042
X1484.621 Y-890.324
X1484.465 Y-890.615
X1484.325 Y-890.916
X1484.203 Y-891.224
X1484.097 Y-891.54
X1484.009 Y-891.861
X1483.94 Y-892.187
X1483.888 Y-892.518
X1483.856 Y-892.851
X1483.842 Y-893.186
X1483.847 Y-893.522
X1483.871 Y-893.858
X1483.914 Y-894.192
X1483.976 Y-894.524
X1484.056 Y-894.853
X1484.155 Y-895.177
X1484.273 Y-895.495
X1484.408 Y-895.807
X1484.561 Y-896.112
X1484.731 Y-896.407
X1484.918 Y-896.694
X1485.121 Y-896.969
X1485.34 Y-897.234
X1485.573 Y-897.486
X1485.821 Y-897.724
X1486.082 Y-897.949
X1486.356 Y-898.16
X1486.642 Y-898.354
X1486.939 Y-898.533
X1487.246 Y-898.695
X1487.562 Y-898.84
X1487.886 Y-898.967
X1488.218 Y-899.075
X1488.556 Y-899.165
X1488.898 Y-899.236
X1489.245 Y-899.287
X1489.595 Y-899.319
X1489.947 Y-899.332
X1490.299 Y-899.324
X1490.651 Y-899.297
X1491.001 Y-899.249
X1491.349 Y-899.182
X1491.693 Y-899.096
X1492.032 Y-898.989
X1492.365 Y-898.864
X1492.692 Y-898.72
X1493.01 Y-898.558
X1493.318 Y-898.377
X1493.617 Y-898.18
X1493.905 Y-897.965
X1494.18 Y-897.734
X1494.443 Y-897.488
X1494.692 Y-897.227
X1494.925 Y-896.951
X1495.144 Y-896.663
X1495.346 Y-896.362
X1495.531 Y-896.05
X1495.699 Y-895.727
X1495.848 Y-895.395
X1495.979 Y-895.055
X1496.09 Y-894.707
X1496.182 Y-894.353
X1496.254 Y-893.993
X1496.305 Y-893.63
X1496.337 Y-893.263
X1496.347 Y-892.895
X1496.337 Y-892.527
X1496.306 Y-892.159
X1496.254 Y-891.792
X1496.181 Y-891.429
X1496.088 Y-891.069
X1495.975 Y-890.715
X1495.842 Y-890.367
X1495.689 Y-890.027
X1495.517 Y-889.696
X1495.326 Y-889.374
X1495.117 Y-889.063
X1494.891 Y-888.763
X1494.647 Y-888.477
X1494.388 Y-888.204
X1494.113 Y-887.945
X1493.823 Y-887.703
X1493.52 Y-887.476
X1493.204 Y-887.267
X1492.877 Y-887.075
X1492.538 Y-886.902
X1492.19 Y-886.748
X1491.833 Y-886.614
X1491.469 Y-886.5
X1491.098 Y-886.406
X1490.721 Y-886.333
X1490.341 Y-886.282
X1489.958 Y-886.252
X1489.573 Y-886.243
X1489.188 Y-886.257
X1488.803 Y-886.292
X1488.42 Y-886.348
X1488.041 Y-886.426
X1487.666 Y-886.526
X1487.297 Y-886.647
X1486.934 Y-886.788
X1486.626 Y-886.93
X1486.552 Y-886.967
X1486.533 Y-886.977
X1486.131 Y-887.192
X1485.952 Y-887.29
X1485.929 Y-887.306
X1485.699 Y-887.492
X1484.922 Y-888.128
X1484.77 Y-888.297
X1484.111 Y-889.103
X1484.031 Y-889.203
X1483.972 Y-889.304
X1483.436 Y-890.311
X1483.385 Y-890.411
X1483.349 Y-890.512
X1483.043 Y-891.519
X1482.983 Y-891.72
X1482.957 Y-891.922
X1482.853 Y-892.928
X1482.84 Y-893.13
X1482.859 Y-893.331
X1482.963 Y-894.338
X1482.975 Y-894.439
X1483 Y-894.539
X1483.311 Y-895.564
X1483.368 Y-895.747
X1483.468 Y-895.949
X1483.915 Y-896.79
X1484.004 Y-896.956
X1484.117 Y-897.104
X1484.819 Y-897.962
X1484.922 Y-898.072
X1485.772 Y-898.768
X1485.929 Y-898.894
X1486.058 Y-898.969
X1486.936 Y-899.438
X1487.137 Y-899.544
X1487.216 Y-899.573
X1488.346 Y-899.917
X1488.446 Y-899.946
X1488.547 Y-899.96
X1489.755 Y-900.079
X1489.856 Y-900.081
X1490.964 Y-899.973
X1491.165 Y-899.951
X1491.366 Y-899.896
X1492.432 Y-899.573
X1492.504 Y-899.548
X1492.575 Y-899.512
X1493.592 Y-898.969
X1493.687 Y-898.915
X1493.783 Y-898.844
X1494.609 Y-898.164
X1494.79 Y-898.002
X1495.595 Y-897.026
X1495.645 Y-896.956
X1495.797 Y-896.673
X1496.199 Y-895.916
X1496.282 Y-895.747
X1496.344 Y-895.546
X1496.65 Y-894.539
X1496.674 Y-894.439
X1496.685 Y-894.338
X1496.783 Y-893.331
X1496.802 Y-893.13
X1496.789 Y-892.928
X1496.691 Y-891.922
X1496.666 Y-891.72
X1496.602 Y-891.503
X1496.301 Y-890.512
X1496.265 Y-890.411
X1496.199 Y-890.284
X1495.678 Y-889.304
X1495.641 Y-889.239
X1495.595 Y-889.174
X1494.872 Y-888.297
X1494.79 Y-888.198
X1494.681 Y-888.096
X1493.783 Y-887.356
X1493.697 Y-887.29
X1493.582 Y-887.226
X1492.572 Y-886.686
X1492.473 Y-886.64
X1492.373 Y-886.609
X1491.298 Y-886.284
X1491.165 Y-886.249
X1490.964 Y-886.227
X1489.856 Y-886.119
X1489.755 Y-886.121
X1488.547 Y-886.24
X1488.446 Y-886.254
X1488.344 Y-886.284
X1487.339 Y-886.589
X1487.137 Y-886.657
X1487.078 Y-886.686
X1486.552 Y-886.967
G3 X1486.274 Y-887.643 I0.301 J-0.519
G1 X1486.298 Y-887.733 Z50.007
X1486.322 Y-887.822 Z50.029
X1486.345 Y-887.906 Z50.065
X1486.366 Y-887.983 Z50.115
X1486.384 Y-888.052 Z50.176
X1486.4 Y-888.111 Z50.247
X1486.413 Y-888.159 Z50.328
X1486.423 Y-888.194 Z50.415
X1486.428 Y-888.215 Z50.506
X1486.43 Y-888.222 Z50.6
G0 Z72
X1489.823 Y-893.1
Z64.05
Z62.65
G1 Z62.05 F850
Z45 F283.3
X1489.817 Y-893.063 F850
X1489.781 Y-893.051
X1489.753 Y-893.075
X1489.743 Y-893.112
X1489.754 Y-893.148
X1489.78 Y-893.174
X1489.816 Y-893.186
X1489.853 Y-893.181
X1489.885 Y-893.16
X1489.905 Y-893.129
X1489.909 Y-893.091
X1489.901 Y-893.055
X1489.882 Y-893.022
X1489.855 Y-892.997
X1489.82 Y-892.982
X1489.783 Y-892.979
X1489.746 Y-892.988
X1489.714 Y-893.006
X1489.688 Y-893.034
X1489.652 Y-893.099
X1489.654 Y-893.174
X1489.688 Y-893.241
X1489.747 Y-893.287
X1489.819 Y-893.307
X1489.894 Y-893.299
X1489.96 Y-893.264
X1490.01 Y-893.208
X1490.04 Y-893.14
X1490.047 Y-893.065
X1490.031 Y-892.992
X1489.994 Y-892.926
X1489.94 Y-892.874
X1489.874 Y-892.84
X1489.8 Y-892.824
X1489.651 Y-892.835
X1489.525 Y-892.916
X1489.448 Y-893.045
X1489.432 Y-893.194
X1489.475 Y-893.338
X1489.568 Y-893.456
X1489.697 Y-893.533
X1489.844 Y-893.561
X1489.993 Y-893.539
X1490.126 Y-893.47
X1490.232 Y-893.364
X1490.302 Y-893.232
X1490.33 Y-893.084
X1490.314 Y-892.935
X1490.258 Y-892.796
X1490.166 Y-892.678
X1490.047 Y-892.586
X1489.909 Y-892.526
X1489.761 Y-892.502
X1489.612 Y-892.514
X1489.469 Y-892.561
X1489.342 Y-892.641
X1489.235 Y-892.746
X1489.156 Y-892.874
X1489.105 Y-893.015
X1489.085 Y-893.163
X1489.096 Y-893.313
X1489.138 Y-893.457
X1489.207 Y-893.59
X1489.301 Y-893.707
X1489.417 Y-893.803
X1489.547 Y-893.876
X1489.69 Y-893.923
X1489.838 Y-893.944
X1489.988 Y-893.937
X1490.135 Y-893.904
X1490.273 Y-893.846
X1490.399 Y-893.764
X1490.51 Y-893.663
X1490.601 Y-893.545
X1490.673 Y-893.413
X1490.721 Y-893.271
X1490.746 Y-893.123
X1490.747 Y-892.973
X1490.686 Y-892.746
X1490.576 Y-892.539
X1490.423 Y-892.36
X1490.417 Y-892.354
X1490.368 Y-892.318
X1490.359 Y-892.312
X1490.259 Y-892.256
X1490.158 Y-892.207
X1490.108 Y-892.189
X1490.057 Y-892.176
X1489.957 Y-892.159
X1489.856 Y-892.146
X1489.755 Y-892.149
X1489.554 Y-892.184
X1489.504 Y-892.201
X1489.453 Y-892.222
X1489.353 Y-892.273
X1489.276 Y-892.318
X1489.214 Y-892.367
X1489.151 Y-892.428
X1489.069 Y-892.519
X1489.032 Y-892.569
X1489.003 Y-892.62
X1488.95 Y-892.724
X1488.927 Y-892.773
X1488.91 Y-892.823
X1488.888 Y-892.922
X1488.873 Y-893.023
X1488.868 Y-893.123
X1488.896 Y-893.325
X1488.917 Y-893.4
X1488.95 Y-893.476
X1488.975 Y-893.526
X1489.03 Y-893.627
X1489.107 Y-893.727
X1489.151 Y-893.772
X1489.252 Y-893.863
X1489.302 Y-893.899
X1489.356 Y-893.929
X1489.455 Y-893.979
X1489.504 Y-894
X1489.554 Y-894.016
X1489.755 Y-894.051
X1489.856 Y-894.054
X1489.957 Y-894.041
X1490.057 Y-894.024
X1490.108 Y-894.011
X1490.158 Y-893.993
X1490.289 Y-893.929
X1490.359 Y-893.888
X1490.449 Y-893.816
X1490.538 Y-893.727
X1490.561 Y-893.703
X1490.597 Y-893.659
X1490.627 Y-893.615
X1490.675 Y-893.526
X1490.721 Y-893.425
X1490.749 Y-893.325
X1490.762 Y-893.246
X1490.777 Y-893.123
X1490.774 Y-893.038
X1490.757 Y-892.922
X1490.736 Y-892.821
X1490.698 Y-892.72
X1490.647 Y-892.62
X1490.617 Y-892.569
X1490.581 Y-892.519
X1490.561 Y-892.496
X1490.465 Y-892.399
X1490.423 Y-892.36
X1490.396 Y-892.356
X1490.369 Y-892.364
X1490.288 Y-892.413 Z45.007
X1490.21 Y-892.46 Z45.029
X1490.135 Y-892.504 Z45.065
X1490.067 Y-892.546 Z45.115
X1490.005 Y-892.583 Z45.176
X1489.953 Y-892.614 Z45.247
X1489.911 Y-892.64 Z45.328
X1489.88 Y-892.658 Z45.415
X1489.861 Y-892.67 Z45.506
X1489.855 Y-892.673 Z45.6
G0 Z72

(2D Adaptive15)
X1489.825 Y-968.099
Z72
Z64.05
Z62.65
G1 Z62.05 F850
Z50 F283.3
X1489.862 Y-968.095 F850
X1489.868 Y-968.058
X1489.842 Y-968.031
X1489.805 Y-968.024
X1489.769 Y-968.036
X1489.744 Y-968.064
X1489.734 Y-968.1
X1489.74 Y-968.137
X1489.762 Y-968.167
X1489.795 Y-968.186
X1489.832 Y-968.189
X1489.869 Y-968.181
X1489.901 Y-968.161
X1489.925 Y-968.133
X1489.939 Y-968.098
X1489.941 Y-968.06
X1489.932 Y-968.024
X1489.913 Y-967.992
X1489.885 Y-967.967
X1489.819 Y-967.932
X1489.744 Y-967.934
X1489.677 Y-967.97
X1489.632 Y-968.029
X1489.613 Y-968.102
X1489.622 Y-968.176
X1489.658 Y-968.242
X1489.714 Y-968.292
X1489.783 Y-968.321
X1489.858 Y-968.327
X1489.931 Y-968.311
X1489.996 Y-968.274
X1490.047 Y-968.219
X1490.082 Y-968.152
X1490.096 Y-968.079
X1490.085 Y-967.929
X1490.003 Y-967.804
X1489.874 Y-967.727
X1489.725 Y-967.712
X1489.581 Y-967.755
X1489.464 Y-967.849
X1489.387 Y-967.978
X1489.359 Y-968.125
X1489.381 Y-968.273
X1489.45 Y-968.407
X1489.556 Y-968.513
X1489.689 Y-968.582
X1489.836 Y-968.61
X1489.985 Y-968.595
X1490.124 Y-968.539
X1490.243 Y-968.447
X1490.335 Y-968.328
X1490.394 Y-968.191
X1490.419 Y-968.043
X1490.407 Y-967.893
X1490.36 Y-967.751
X1490.281 Y-967.623
X1490.176 Y-967.516
X1490.049 Y-967.437
X1489.908 Y-967.385
X1489.759 Y-967.365
X1489.61 Y-967.375
X1489.465 Y-967.416
X1489.332 Y-967.485
X1489.215 Y-967.579
X1489.119 Y-967.694
X1489.045 Y-967.824
X1488.998 Y-967.967
X1488.976 Y-968.115
X1488.982 Y-968.265
X1489.015 Y-968.411
X1489.072 Y-968.55
X1489.153 Y-968.676
X1489.254 Y-968.788
X1489.372 Y-968.88
X1489.504 Y-968.952
X1489.645 Y-969.001
X1489.793 Y-969.026
X1489.943 Y-969.028
X1490.092 Y-969.006
X1490.235 Y-968.962
X1490.37 Y-968.896
X1490.493 Y-968.811
X1490.603 Y-968.709
X1490.696 Y-968.591
X1490.772 Y-968.462
X1490.828 Y-968.323
X1490.864 Y-968.177
X1490.879 Y-968.028
X1490.873 Y-967.878
X1490.847 Y-967.73
X1490.8 Y-967.588
X1490.735 Y-967.453
X1490.653 Y-967.327
X1490.554 Y-967.214
X1490.442 Y-967.114
X1490.318 Y-967.03
X1490.184 Y-966.963
X1490.043 Y-966.912
X1489.896 Y-966.88
X1489.747 Y-966.867
X1489.597 Y-966.872
X1489.448 Y-966.895
X1489.304 Y-966.936
X1489.166 Y-966.994
X1489.035 Y-967.068
X1488.914 Y-967.156
X1488.804 Y-967.259
X1488.708 Y-967.373
X1488.624 Y-967.497
X1488.555 Y-967.631
X1488.502 Y-967.771
X1488.464 Y-967.916
X1488.443 Y-968.065
X1488.439 Y-968.215
X1488.45 Y-968.364
X1488.479 Y-968.511
X1488.522 Y-968.655
X1488.581 Y-968.793
X1488.654 Y-968.924
X1488.74 Y-969.047
X1488.839 Y-969.16
X1488.949 Y-969.261
X1489.069 Y-969.352
X1489.198 Y-969.429
X1489.333 Y-969.493
X1489.475 Y-969.543
X1489.62 Y-969.578
X1489.769 Y-969.599
X1489.919 Y-969.605
X1490.069 Y-969.596
X1490.217 Y-969.573
X1490.362 Y-969.535
X1490.503 Y-969.484
X1490.638 Y-969.419
X1490.767 Y-969.343
X1490.888 Y-969.254
X1491 Y-969.154
X1491.102 Y-969.044
X1491.194 Y-968.925
X1491.274 Y-968.799
X1491.343 Y-968.665
X1491.399 Y-968.526
X1491.442 Y-968.382
X1491.472 Y-968.235
X1491.489 Y-968.086
X1491.492 Y-967.936
X1491.482 Y-967.787
X1491.459 Y-967.639
X1491.424 Y-967.493
X1491.375 Y-967.351
X1491.315 Y-967.214
X1491.243 Y-967.082
X1491.16 Y-966.957
X1491.067 Y-966.84
X1490.964 Y-966.73
X1490.852 Y-966.63
X1490.733 Y-966.54
X1490.606 Y-966.46
X1490.473 Y-966.39
X1490.334 Y-966.332
X1490.192 Y-966.286
X1490.046 Y-966.251
X1489.898 Y-966.228
X1489.748 Y-966.217
X1489.598 Y-966.218
X1489.449 Y-966.232
X1489.301 Y-966.256
X1489.155 Y-966.293
X1489.013 Y-966.341
X1488.875 Y-966.4
X1488.742 Y-966.47
X1488.615 Y-966.549
X1488.495 Y-966.639
X1488.381 Y-966.737
X1488.276 Y-966.844
X1488.179 Y-966.958
X1488.091 Y-967.079
X1488.012 Y-967.207
X1487.943 Y-967.34
X1487.885 Y-967.478
X1487.837 Y-967.62
X1487.799 Y-967.766
X1487.772 Y-967.913
X1487.756 Y-968.062
X1487.751 Y-968.212
X1487.757 Y-968.362
X1487.775 Y-968.511
X1487.802 Y-968.659
X1487.84 Y-968.804
X1487.889 Y-968.946
X1487.948 Y-969.084
X1488.016 Y-969.217
X1488.094 Y-969.346
X1488.18 Y-969.468
X1488.275 Y-969.584
X1488.378 Y-969.694
X1488.488 Y-969.795
X1488.605 Y-969.889
X1488.728 Y-969.975
X1488.857 Y-970.052
X1488.99 Y-970.12
X1489.128 Y-970.179
X1489.27 Y-970.228
X1489.415 Y-970.267
X1489.562 Y-970.296
X1489.711 Y-970.316
X1489.86 Y-970.325
X1490.01
X1490.16 Y-970.314
X1490.309 Y-970.294
X1490.456 Y-970.263
X1490.6 Y-970.224
X1490.742 Y-970.174
X1490.88 Y-970.116
X1491.014 Y-970.049
X1491.144 Y-969.973
X1491.268 Y-969.889
X1491.387 Y-969.797
X1491.499 Y-969.698
X1491.605 Y-969.592
X1491.704 Y-969.479
X1491.795 Y-969.36
X1491.879 Y-969.236
X1491.955 Y-969.106
X1492.023 Y-968.973
X1492.082 Y-968.835
X1492.132 Y-968.693
X1492.173 Y-968.549
X1492.206 Y-968.403
X1492.229 Y-968.254
X1492.243 Y-968.105
X1492.248 Y-967.955
X1492.243 Y-967.805
X1492.23 Y-967.656
X1492.207 Y-967.508
X1492.176 Y-967.361
X1492.135 Y-967.216
X1492.086 Y-967.075
X1492.029 Y-966.936
X1491.963 Y-966.801
X1491.89 Y-966.67
X1491.808 Y-966.544
X1491.72 Y-966.423
X1491.624 Y-966.308
X1491.522 Y-966.198
X1491.414 Y-966.094
X1491.299 Y-965.997
X1491.179 Y-965.907
X1491.055 Y-965.824
X1490.925 Y-965.748
X1490.791 Y-965.68
X1490.654 Y-965.62
X1490.513 Y-965.568
X1490.37 Y-965.524
X1490.224 Y-965.488
X1490.077 Y-965.461
X1489.928 Y-965.442
X1489.777 Y-965.431
X1489.627 Y-965.429
X1489.477 Y-965.436
X1489.326 Y-965.451
X1489.176 Y-965.475
X1489.029 Y-965.507
X1488.884 Y-965.547
X1488.738 Y-965.596
X1488.595 Y-965.653
X1488.458 Y-965.717
X1488.324 Y-965.79
X1488.191 Y-965.872
X1488.064 Y-965.96
X1487.943 Y-966.054
X1487.827 Y-966.156
X1487.714 Y-966.267
X1487.609 Y-966.383
X1487.512 Y-966.503
X1487.42 Y-966.63
X1487.334 Y-966.764
X1487.256 Y-966.902
X1487.187 Y-967.043
X1487.126 Y-967.188
X1487.072 Y-967.339
X1487.026 Y-967.494
X1486.99 Y-967.649
X1486.962 Y-967.805
X1486.943 Y-967.965
X1486.933 Y-968.128
X1486.932 Y-968.29
X1486.94 Y-968.45
X1486.957 Y-968.611
X1486.984 Y-968.774
X1487.02 Y-968.935
X1487.065 Y-969.092
X1487.118 Y-969.246
X1487.18 Y-969.398
X1487.252 Y-969.549
X1487.332 Y-969.695
X1487.42 Y-969.836
X1487.515 Y-969.971
X1487.618 Y-970.101
X1487.73 Y-970.227
X1487.85 Y-970.347
X1487.975 Y-970.46
X1488.107 Y-970.565
X1488.244 Y-970.663
X1488.387 Y-970.753
X1488.537 Y-970.836
X1488.692 Y-970.911
X1488.85 Y-970.977
X1489.012 Y-971.034
X1489.176 Y-971.081
X1489.344 Y-971.119
X1489.515 Y-971.149
X1489.689 Y-971.168
X1489.864 Y-971.178
X1490.038
X1490.212 Y-971.168
X1490.385 Y-971.148
X1490.559 Y-971.118
X1490.731 Y-971.079
X1490.902 Y-971.029
X1491.07 Y-970.97
X1491.234 Y-970.901
X1491.394 Y-970.824
X1491.55 Y-970.737
X1491.701 Y-970.642
X1491.847 Y-970.538
X1491.987 Y-970.425
X1492.122 Y-970.303
X1492.25 Y-970.174
X1492.371 Y-970.038
X1492.484 Y-969.895
X1492.589 Y-969.746
X1492.685 Y-969.591
X1492.772 Y-969.431
X1492.851 Y-969.265
X1492.921 Y-969.095
X1492.981 Y-968.919
X1493.031 Y-968.741
X1493.072 Y-968.559
X1493.102 Y-968.374
X1493.121 Y-968.188
X1493.131 Y-968.001
X1493.129 Y-967.814
X1493.117 Y-967.626
X1493.095 Y-967.439
X1493.062 Y-967.254
X1493.018 Y-967.07
X1492.964 Y-966.888
X1492.9 Y-966.709
X1492.825 Y-966.533
X1492.741 Y-966.361
X1492.646 Y-966.194
X1492.542 Y-966.032
X1492.429 Y-965.876
X1492.307 Y-965.726
X1492.176 Y-965.582
X1492.037 Y-965.446
X1491.891 Y-965.318
X1491.736 Y-965.198
X1491.575 Y-965.086
X1491.408 Y-964.983
X1491.235 Y-964.89
X1491.056 Y-964.807
X1490.872 Y-964.733
X1490.684 Y-964.67
X1490.493 Y-964.617
X1490.298 Y-964.575
X1490.101 Y-964.545
X1489.901 Y-964.525
X1489.701 Y-964.516
X1489.5 Y-964.519
X1489.299 Y-964.533
X1489.098 Y-964.558
X1488.899 Y-964.595
X1488.701 Y-964.643
X1488.506 Y-964.702
X1488.315 Y-964.773
X1488.127 Y-964.854
X1487.943 Y-964.946
X1487.765 Y-965.048
X1487.592 Y-965.16
X1487.426 Y-965.283
X1487.266 Y-965.414
X1487.114 Y-965.555
X1486.969 Y-965.705
X1486.833 Y-965.863
X1486.705 Y-966.029
X1486.587 Y-966.201
X1486.478 Y-966.381
X1486.38 Y-966.567
X1486.292 Y-966.759
X1486.214 Y-966.956
X1486.148 Y-967.157
X1486.093 Y-967.362
X1486.05 Y-967.571
X1486.018 Y-967.782
X1485.998 Y-967.995
X1485.99 Y-968.209
X1485.995 Y-968.424
X1486.011 Y-968.639
X1486.04 Y-968.853
X1486.08 Y-969.066
X1486.133 Y-969.276
X1486.197 Y-969.484
X1486.274 Y-969.688
X1486.362 Y-969.888
X1486.461 Y-970.084
X1486.572 Y-970.273
X1486.693 Y-970.457
X1486.824 Y-970.634
X1486.966 Y-970.803
X1487.117 Y-970.965
X1487.278 Y-971.119
X1487.447 Y-971.263
X1487.625 Y-971.398
X1487.81 Y-971.523
X1488.003 Y-971.637
X1488.202 Y-971.741
X1488.408 Y-971.834
X1488.618 Y-971.915
X1488.833 Y-971.984
X1489.052 Y-972.042
X1489.275 Y-972.087
X1489.501 Y-972.119
X1489.728 Y-972.139
X1489.957 Y-972.145
X1490.186 Y-972.139
X1490.415 Y-972.12
X1490.643 Y-972.089
X1490.87 Y-972.044
X1491.094 Y-971.986
X1491.314 Y-971.916
X1491.532 Y-971.833
X1491.744 Y-971.738
X1491.952 Y-971.631
X1492.153 Y-971.512
X1492.348 Y-971.381
X1492.536 Y-971.24
X1492.715 Y-971.088
X1492.886 Y-970.926
X1493.049 Y-970.753
X1493.201 Y-970.572
X1493.344 Y-970.382
X1493.475 Y-970.184
X1493.596 Y-969.978
X1493.705 Y-969.765
X1493.803 Y-969.546
X1493.888 Y-969.321
X1493.96 Y-969.092
X1494.019 Y-968.858
X1494.066 Y-968.621
X1494.098 Y-968.381
X1494.118 Y-968.139
X1494.123 Y-967.896
X1494.115 Y-967.653
X1494.094 Y-967.41
X1494.058 Y-967.168
X1494.009 Y-966.927
X1493.946 Y-966.69
X1493.87 Y-966.456
X1493.781 Y-966.225
X1493.678 Y-966
X1493.563 Y-965.781
X1493.435 Y-965.568
X1493.295 Y-965.362
X1493.144 Y-965.163
X1492.981 Y-964.973
X1492.807 Y-964.793
X1492.624 Y-964.622
X1492.43 Y-964.461
X1492.227 Y-964.311
X1492.016 Y-964.172
X1491.797 Y-964.046
X1491.57 Y-963.931
X1491.337 Y-963.829
X1491.098 Y-963.741
X1490.854 Y-963.666
X1490.606 Y-963.604
X1490.354 Y-963.557
X1490.099 Y-963.524
X1489.842 Y-963.505
X1489.584 Y-963.5
X1489.326 Y-963.51
X1489.068 Y-963.535
X1488.811 Y-963.575
X1488.557 Y-963.628
X1488.305 Y-963.696
X1488.057 Y-963.779
X1487.813 Y-963.875
X1487.575 Y-963.986
X1487.343 Y-964.109
X1487.118 Y-964.246
X1486.901 Y-964.396
X1486.692 Y-964.558
X1486.492 Y-964.732
X1486.301 Y-964.917
X1486.121 Y-965.113
X1485.952 Y-965.319
X1485.795 Y-965.535
X1485.649 Y-965.76
X1485.517 Y-965.993
X1485.397 Y-966.233
X1485.291 Y-966.481
X1485.199 Y-966.734
X1485.121 Y-966.993
X1485.057 Y-967.257
X1485.009 Y-967.524
X1484.976 Y-967.794
X1484.957 Y-968.066
X1484.954 Y-968.339
X1484.967 Y-968.612
X1484.995 Y-968.885
X1485.038 Y-969.156
X1485.097 Y-969.425
X1485.171 Y-969.691
X1485.26 Y-969.953
X1485.363 Y-970.209
X1485.481 Y-970.46
X1485.614 Y-970.705
X1485.76 Y-970.942
X1485.92 Y-971.171
X1486.092 Y-971.391
X1486.277 Y-971.601
X1486.474 Y-971.801
X1486.683 Y-971.99
X1486.902 Y-972.167
X1487.131 Y-972.332
X1487.37 Y-972.484
X1487.617 Y-972.623
X1487.872 Y-972.748
X1488.135 Y-972.858
X1488.403 Y-972.954
X1488.677 Y-973.035
X1488.956 Y-973.1
X1489.239 Y-973.149
X1489.524 Y-973.183
X1489.812 Y-973.2
X1490.1 Y-973.201
X1490.389 Y-973.186
X1490.677 Y-973.155
X1490.964 Y-973.107
X1491.247 Y-973.044
X1491.527 Y-972.964
X1491.803 Y-972.868
X1492.074 Y-972.757
X1492.338 Y-972.631
X1492.595 Y-972.489
X1492.844 Y-972.333
X1493.085 Y-972.163
X1493.316 Y-971.979
X1493.537 Y-971.782
X1493.747 Y-971.573
X1493.945 Y-971.352
X1494.13 Y-971.119
X1494.303 Y-970.876
X1494.462 Y-970.624
X1494.606 Y-970.362
X1494.736 Y-970.092
X1494.851 Y-969.814
X1494.95 Y-969.531
X1495.033 Y-969.241
X1495.1 Y-968.947
X1495.15 Y-968.648
X1495.183 Y-968.347
X1495.2 Y-968.044
X1495.199 Y-967.74
X1495.181 Y-967.436
X1495.146 Y-967.133
X1495.094 Y-966.832
X1495.025 Y-966.533
X1494.939 Y-966.239
X1494.837 Y-965.949
X1494.718 Y-965.665
X1494.583 Y-965.387
X1494.432 Y-965.117
X1494.266 Y-964.856
X1494.085 Y-964.603
X1493.89 Y-964.361
X1493.681 Y-964.13
X1493.459 Y-963.911
X1493.225 Y-963.704
X1492.979 Y-963.51
X1492.722 Y-963.33
X1492.455 Y-963.165
X1492.179 Y-963.014
X1491.894 Y-962.879
X1491.601 Y-962.76
X1491.301 Y-962.658
X1490.996 Y-962.572
X1490.686 Y-962.504
X1490.371 Y-962.453
X1490.054 Y-962.42
X1489.735 Y-962.405
X1489.415 Y-962.408
X1489.095 Y-962.429
X1488.777 Y-962.467
X1488.46 Y-962.524
X1488.146 Y-962.599
X1487.837 Y-962.691
X1487.533 Y-962.801
X1487.235 Y-962.928
X1486.944 Y-963.072
X1486.661 Y-963.233
X1486.387 Y-963.409
X1486.123 Y-963.601
X1485.87 Y-963.807
X1485.628 Y-964.028
X1485.399 Y-964.263
X1485.183 Y-964.511
X1484.981 Y-964.771
X1484.794 Y-965.042
X1484.621 Y-965.324
X1484.465 Y-965.615
X1484.325 Y-965.916
X1484.203 Y-966.224
X1484.097 Y-966.54
X1484.009 Y-966.861
X1483.94 Y-967.187
X1483.888 Y-967.518
X1483.856 Y-967.851
X1483.842 Y-968.186
X1483.847 Y-968.522
X1483.871 Y-968.858
X1483.914 Y-969.192
X1483.976 Y-969.524
X1484.056 Y-969.853
X1484.155 Y-970.177
X1484.273 Y-970.495
X1484.408 Y-970.807
X1484.561 Y-971.112
X1484.731 Y-971.407
X1484.918 Y-971.694
X1485.121 Y-971.969
X1485.34 Y-972.234
X1485.573 Y-972.486
X1485.821 Y-972.724
X1486.082 Y-972.949
X1486.356 Y-973.16
X1486.642 Y-973.354
X1486.939 Y-973.533
X1487.246 Y-973.695
X1487.562 Y-973.84
X1487.886 Y-973.967
X1488.218 Y-974.075
X1488.556 Y-974.165
X1488.898 Y-974.236
X1489.245 Y-974.287
X1489.595 Y-974.319
X1489.947 Y-974.332
X1490.299 Y-974.324
X1490.651 Y-974.297
X1491.001 Y-974.249
X1491.349 Y-974.182
X1491.693 Y-974.096
X1492.032 Y-973.989
X1492.365 Y-973.864
X1492.692 Y-973.72
X1493.01 Y-973.558
X1493.318 Y-973.377
X1493.617 Y-973.18
X1493.905 Y-972.965
X1494.18 Y-972.734
X1494.443 Y-972.488
X1494.692 Y-972.227
X1494.925 Y-971.951
X1495.144 Y-971.663
X1495.346 Y-971.362
X1495.531 Y-971.05
X1495.699 Y-970.727
X1495.848 Y-970.395
X1495.979 Y-970.055
X1496.09 Y-969.707
X1496.182 Y-969.353
X1496.254 Y-968.993
X1496.305 Y-968.63
X1496.337 Y-968.263
X1496.347 Y-967.895
X1496.337 Y-967.527
X1496.306 Y-967.159
X1496.254 Y-966.792
X1496.181 Y-966.429
X1496.088 Y-966.069
X1495.975 Y-965.715
X1495.842 Y-965.367
X1495.689 Y-965.027
X1495.517 Y-964.696
X1495.326 Y-964.374
X1495.117 Y-964.063
X1494.891 Y-963.763
X1494.647 Y-963.477
X1494.388 Y-963.204
X1494.113 Y-962.945
X1493.823 Y-962.703
X1493.52 Y-962.476
X1493.204 Y-962.267
X1492.877 Y-962.075
X1492.538 Y-961.902
X1492.19 Y-961.748
X1491.833 Y-961.614
X1491.469 Y-961.5
X1491.098 Y-961.406
X1490.721 Y-961.333
X1490.341 Y-961.282
X1489.958 Y-961.252
X1489.573 Y-961.243
X1489.188 Y-961.257
X1488.803 Y-961.292
X1488.42 Y-961.348
X1488.041 Y-961.426
X1487.666 Y-961.526
X1487.297 Y-961.647
X1486.934 Y-961.788
X1486.626 Y-961.93
X1486.552 Y-961.967
X1486.533 Y-961.977
X1486.131 Y-962.192
X1485.952 Y-962.29
X1485.929 Y-962.306
X1485.699 Y-962.492
X1484.922 Y-963.128
X1484.77 Y-963.297
X1484.111 Y-964.103
X1484.031 Y-964.203
X1483.972 Y-964.304
X1483.436 Y-965.311
X1483.385 Y-965.411
X1483.349 Y-965.512
X1483.043 Y-966.519
X1482.983 Y-966.72
X1482.957 Y-966.922
X1482.853 Y-967.928
X1482.84 Y-968.13
X1482.859 Y-968.331
X1482.963 Y-969.338
X1482.975 Y-969.439
X1483 Y-969.539
X1483.311 Y-970.564
X1483.368 Y-970.747
X1483.468 Y-970.949
X1483.915 Y-971.79
X1484.004 Y-971.956
X1484.117 Y-972.104
X1484.819 Y-972.962
X1484.922 Y-973.072
X1485.772 Y-973.768
X1485.929 Y-973.894
X1486.058 Y-973.969
X1486.936 Y-974.438
X1487.137 Y-974.544
X1487.216 Y-974.573
X1488.346 Y-974.917
X1488.446 Y-974.946
X1488.547 Y-974.96
X1489.755 Y-975.079
X1489.856 Y-975.081
X1490.964 Y-974.973
X1491.165 Y-974.951
X1491.366 Y-974.896
X1492.432 Y-974.573
X1492.504 Y-974.548
X1492.575 Y-974.512
X1493.592 Y-973.969
X1493.687 Y-973.915
X1493.783 Y-973.844
X1494.609 Y-973.164
X1494.79 Y-973.002
X1495.595 Y-972.026
X1495.645 Y-971.956
X1495.797 Y-971.673
X1496.199 Y-970.916
X1496.282 Y-970.747
X1496.344 Y-970.546
X1496.65 Y-969.539
X1496.674 Y-969.439
X1496.685 Y-969.338
X1496.783 Y-968.331
X1496.802 Y-968.13
X1496.789 Y-967.928
X1496.691 Y-966.922
X1496.666 Y-966.72
X1496.602 Y-966.503
X1496.301 Y-965.512
X1496.265 Y-965.411
X1496.199 Y-965.284
X1495.678 Y-964.304
X1495.641 Y-964.239
X1495.595 Y-964.174
X1494.872 Y-963.297
X1494.79 Y-963.198
X1494.681 Y-963.096
X1493.783 Y-962.356
X1493.697 Y-962.29
X1493.582 Y-962.226
X1492.572 Y-961.686
X1492.473 Y-961.64
X1492.373 Y-961.609
X1491.298 Y-961.284
X1491.165 Y-961.249
X1490.964 Y-961.227
X1489.856 Y-961.119
X1489.755 Y-961.121
X1488.547 Y-961.24
X1488.446 Y-961.254
X1488.344 Y-961.284
X1487.339 Y-961.589
X1487.137 Y-961.657
X1487.078 Y-961.686
X1486.552 Y-961.967
G3 X1486.274 Y-962.643 I0.301 J-0.519
G1 X1486.298 Y-962.733 Z50.007
X1486.322 Y-962.822 Z50.029
X1486.345 Y-962.906 Z50.065
X1486.366 Y-962.983 Z50.115
X1486.384 Y-963.052 Z50.176
X1486.4 Y-963.111 Z50.247
X1486.413 Y-963.159 Z50.328
X1486.423 Y-963.194 Z50.415
X1486.428 Y-963.215 Z50.506
X1486.43 Y-963.222 Z50.6
G0 Z72
X1489.823 Y-968.1
Z64.05
Z62.65
G1 Z62.05 F850
Z45 F283.3
X1489.817 Y-968.063 F850
X1489.781 Y-968.051
X1489.753 Y-968.075
X1489.743 Y-968.112
X1489.754 Y-968.148
X1489.78 Y-968.174
X1489.816 Y-968.186
X1489.853 Y-968.181
X1489.885 Y-968.16
X1489.905 Y-968.129
X1489.909 Y-968.091
X1489.901 Y-968.055
X1489.882 Y-968.022
X1489.855 Y-967.997
X1489.82 Y-967.982
X1489.783 Y-967.979
X1489.746 Y-967.988
X1489.714 Y-968.006
X1489.688 Y-968.034
X1489.652 Y-968.099
X1489.654 Y-968.174
X1489.688 Y-968.241
X1489.747 Y-968.287
X1489.819 Y-968.307
X1489.894 Y-968.299
X1489.96 Y-968.264
X1490.01 Y-968.208
X1490.04 Y-968.14
X1490.047 Y-968.065
X1490.031 Y-967.992
X1489.994 Y-967.926
X1489.94 Y-967.874
X1489.874 Y-967.84
X1489.8 Y-967.824
X1489.651 Y-967.835
X1489.525 Y-967.916
X1489.448 Y-968.045
X1489.432 Y-968.194
X1489.475 Y-968.338
X1489.568 Y-968.456
X1489.697 Y-968.533
X1489.844 Y-968.561
X1489.993 Y-968.539
X1490.126 Y-968.47
X1490.232 Y-968.364
X1490.302 Y-968.232
X1490.33 Y-968.084
X1490.314 Y-967.935
X1490.258 Y-967.796
X1490.166 Y-967.678
X1490.047 Y-967.586
X1489.909 Y-967.526
X1489.761 Y-967.502
X1489.612 Y-967.514
X1489.469 Y-967.561
X1489.342 Y-967.641
X1489.235 Y-967.746
X1489.156 Y-967.874
X1489.105 Y-968.015
X1489.085 Y-968.163
X1489.096 Y-968.313
X1489.138 Y-968.457
X1489.207 Y-968.59
X1489.301 Y-968.707
X1489.417 Y-968.803
X1489.547 Y-968.876
X1489.69 Y-968.923
X1489.838 Y-968.944
X1489.988 Y-968.937
X1490.135 Y-968.904
X1490.273 Y-968.846
X1490.399 Y-968.764
X1490.51 Y-968.663
X1490.601 Y-968.545
X1490.673 Y-968.413
X1490.721 Y-968.271
X1490.746 Y-968.123
X1490.747 Y-967.973
X1490.686 Y-967.746
X1490.576 Y-967.539
X1490.423 Y-967.36
X1490.417 Y-967.354
X1490.368 Y-967.318
X1490.359 Y-967.312
X1490.259 Y-967.256
X1490.158 Y-967.207
X1490.108 Y-967.189
X1490.057 Y-967.176
X1489.957 Y-967.159
X1489.856 Y-967.146
X1489.755 Y-967.149
X1489.554 Y-967.184
X1489.504 Y-967.201
X1489.453 Y-967.222
X1489.353 Y-967.273
X1489.276 Y-967.318
X1489.214 Y-967.367
X1489.151 Y-967.428
X1489.069 Y-967.519
X1489.032 Y-967.569
X1489.003 Y-967.62
X1488.95 Y-967.724
X1488.927 Y-967.773
X1488.91 Y-967.823
X1488.888 Y-967.922
X1488.873 Y-968.023
X1488.868 Y-968.123
X1488.896 Y-968.325
X1488.917 Y-968.4
X1488.95 Y-968.476
X1488.975 Y-968.526
X1489.03 Y-968.627
X1489.107 Y-968.727
X1489.151 Y-968.772
X1489.252 Y-968.863
X1489.302 Y-968.899
X1489.356 Y-968.929
X1489.455 Y-968.979
X1489.504 Y-969
X1489.554 Y-969.016
X1489.755 Y-969.051
X1489.856 Y-969.054
X1489.957 Y-969.041
X1490.057 Y-969.024
X1490.108 Y-969.011
X1490.158 Y-968.993
X1490.289 Y-968.929
X1490.359 Y-968.888
X1490.449 Y-968.816
X1490.538 Y-968.727
X1490.561 Y-968.703
X1490.597 Y-968.659
X1490.627 Y-968.615
X1490.675 Y-968.526
X1490.721 Y-968.425
X1490.749 Y-968.325
X1490.762 Y-968.246
X1490.777 Y-968.123
X1490.774 Y-968.038
X1490.757 Y-967.922
X1490.736 Y-967.821
X1490.698 Y-967.72
X1490.647 Y-967.62
X1490.617 Y-967.569
X1490.581 Y-967.519
X1490.561 Y-967.496
X1490.465 Y-967.399
X1490.423 Y-967.36
X1490.396 Y-967.356
X1490.369 Y-967.364
X1490.288 Y-967.413 Z45.007
X1490.21 Y-967.46 Z45.029
X1490.135 Y-967.504 Z45.065
X1490.067 Y-967.546 Z45.115
X1490.005 Y-967.583 Z45.176
X1489.953 Y-967.614 Z45.247
X1489.911 Y-967.64 Z45.328
X1489.88 Y-967.658 Z45.415
X1489.861 Y-967.67 Z45.506
X1489.855 Y-967.673 Z45.6
G0 Z72

(2D Adaptive15)
X1489.825 Y-1043.099
Z72
Z64.05
Z62.65
G1 Z62.05 F850
Z50 F283.3
X1489.862 Y-1043.095 F850
X1489.868 Y-1043.058
X1489.842 Y-1043.031
X1489.805 Y-1043.024
X1489.769 Y-1043.036
X1489.744 Y-1043.064
X1489.734 Y-1043.1
X1489.74 Y-1043.137
X1489.762 Y-1043.167
X1489.795 Y-1043.186
X1489.832 Y-1043.189
X1489.869 Y-1043.181
X1489.901 Y-1043.161
X1489.925 Y-1043.133
X1489.939 Y-1043.098
X1489.941 Y-1043.06
X1489.932 Y-1043.024
X1489.913 Y-1042.992
X1489.885 Y-1042.967
X1489.819 Y-1042.932
X1489.744 Y-1042.934
X1489.677 Y-1042.97
X1489.632 Y-1043.029
X1489.613 Y-1043.102
X1489.622 Y-1043.176
X1489.658 Y-1043.242
X1489.714 Y-1043.292
X1489.783 Y-1043.321
X1489.858 Y-1043.327
X1489.931 Y-1043.311
X1489.996 Y-1043.274
X1490.047 Y-1043.219
X1490.082 Y-1043.152
X1490.096 Y-1043.079
X1490.085 Y-1042.929
X1490.003 Y-1042.804
X1489.874 Y-1042.727
X1489.725 Y-1042.712
X1489.581 Y-1042.755
X1489.464 Y-1042.849
X1489.387 Y-1042.978
X1489.359 Y-1043.125
X1489.381 Y-1043.273
X1489.45 Y-1043.407
X1489.556 Y-1043.513
X1489.689 Y-1043.582
X1489.836 Y-1043.61
X1489.985 Y-1043.595
X1490.124 Y-1043.539
X1490.243 Y-1043.447
X1490.335 Y-1043.328
X1490.394 Y-1043.191
X1490.419 Y-1043.043
X1490.407 Y-1042.893
X1490.36 Y-1042.751
X1490.281 Y-1042.623
X1490.176 Y-1042.516
X1490.049 Y-1042.437
X1489.908 Y-1042.385
X1489.759 Y-1042.365
X1489.61 Y-1042.375
X1489.465 Y-1042.416
X1489.332 Y-1042.485
