%
(1001)
(origin bottom left anchor hole stock bottom)
(T1  D=6 CR=0 - ZMIN=10 - flat end mill)
G90 G94
G17
G21

(anchor_adaptive_inner)
M9
T1 M6
S14000 M3
G54
G0 X-1194 Y-384.001
Z47
Z36
Z26.6
G1 Z26 F850
Z18 F283.3
X-1194.038 Y-384.005 F850
X-1194.047 Y-384.041
X-1194.021 Y-384.069
X-1193.985 Y-384.076
X-1193.949 Y-384.064
X-1193.924 Y-384.036
X-1193.914 Y-384
X-1193.921 Y-383.963
X-1193.943 Y-383.933
X-1193.975 Y-383.914
X-1194.013 Y-383.911
X-1194.049 Y-383.921
X-1194.081 Y-383.941
X-1194.105 Y-383.97
X-1194.118 Y-384.005
X-1194.119 Y-384.043
X-1194.109 Y-384.079
X-1194.089 Y-384.11
X-1194.06 Y-384.135
X-1193.993 Y-384.168
X-1193.918 Y-384.163
X-1193.853 Y-384.125
X-1193.81 Y-384.064
X-1193.793 Y-383.991
X-1193.804 Y-383.917
X-1193.842 Y-383.852
X-1193.9 Y-383.805
X-1193.97 Y-383.778
X-1194.045 Y-383.775
X-1194.118 Y-383.794
X-1194.181 Y-383.833
X-1194.231 Y-383.89
X-1194.263 Y-383.958
X-1194.274 Y-384.032
X-1194.257 Y-384.181
X-1194.171 Y-384.303
X-1194.038 Y-384.374
X-1193.889 Y-384.384
X-1193.747 Y-384.334
X-1193.634 Y-384.236
X-1193.562 Y-384.104
X-1193.541 Y-383.955
X-1193.569 Y-383.808
X-1193.643 Y-383.678
X-1193.754 Y-383.576
X-1193.89 Y-383.513
X-1194.038 Y-383.492
X-1194.187 Y-383.513
X-1194.323 Y-383.576
X-1194.437 Y-383.673
X-1194.524 Y-383.796
X-1194.577 Y-383.936
X-1194.595 Y-384.085
X-1194.576 Y-384.234
X-1194.523 Y-384.374
X-1194.438 Y-384.497
X-1194.328 Y-384.599
X-1194.197 Y-384.673
X-1194.054 Y-384.719
X-1193.905 Y-384.731
X-1193.756 Y-384.714
X-1193.614 Y-384.666
X-1193.484 Y-384.591
X-1193.371 Y-384.492
X-1193.281 Y-384.372
X-1193.213 Y-384.239
X-1193.172 Y-384.094
X-1193.158 Y-383.945
X-1193.171 Y-383.795
X-1193.211 Y-383.651
X-1193.274 Y-383.515
X-1193.362 Y-383.393
X-1193.467 Y-383.287
X-1193.59 Y-383.2
X-1193.725 Y-383.135
X-1193.869 Y-383.092
X-1194.018 Y-383.074
X-1194.168 Y-383.079
X-1194.315 Y-383.109
X-1194.456 Y-383.16
X-1194.587 Y-383.232
X-1194.706 Y-383.323
X-1194.811 Y-383.43
X-1194.899 Y-383.552
X-1194.968 Y-383.685
X-1195.017 Y-383.827
X-1195.046 Y-383.974
X-1195.053 Y-384.124
X-1195.04 Y-384.273
X-1195.007 Y-384.42
X-1194.954 Y-384.56
X-1194.881 Y-384.691
X-1194.793 Y-384.813
X-1194.689 Y-384.921
X-1194.572 Y-385.015
X-1194.444 Y-385.093
X-1194.307 Y-385.154
X-1194.164 Y-385.197
X-1194.016 Y-385.222
X-1193.866 Y-385.228
X-1193.716 Y-385.216
X-1193.569 Y-385.185
X-1193.427 Y-385.137
X-1193.292 Y-385.073
X-1193.165 Y-384.992
X-1193.049 Y-384.898
X-1192.944 Y-384.79
X-1192.853 Y-384.671
X-1192.775 Y-384.543
X-1192.713 Y-384.406
X-1192.667 Y-384.263
X-1192.637 Y-384.117
X-1192.623 Y-383.967
X-1192.626 Y-383.817
X-1192.645 Y-383.668
X-1192.681 Y-383.523
X-1192.731 Y-383.381
X-1192.797 Y-383.246
X-1192.876 Y-383.119
X-1192.969 Y-383.001
X-1193.073 Y-382.893
X-1193.188 Y-382.797
X-1193.312 Y-382.713
X-1193.444 Y-382.642
X-1193.583 Y-382.585
X-1193.727 Y-382.542
X-1193.874 Y-382.514
X-1194.024 Y-382.501
X-1194.174 Y-382.502
X-1194.323 Y-382.519
X-1194.47 Y-382.549
X-1194.613 Y-382.594
X-1194.751 Y-382.653
X-1194.883 Y-382.724
X-1195.008 Y-382.807
X-1195.124 Y-382.902
X-1195.231 Y-383.007
X-1195.328 Y-383.122
X-1195.413 Y-383.245
X-1195.487 Y-383.375
X-1195.549 Y-383.512
X-1195.598 Y-383.654
X-1195.634 Y-383.8
X-1195.656 Y-383.948
X-1195.665 Y-384.098
X-1195.661 Y-384.248
X-1195.644 Y-384.397
X-1195.614 Y-384.543
X-1195.571 Y-384.687
X-1195.515 Y-384.827
X-1195.448 Y-384.961
X-1195.37 Y-385.089
X-1195.28 Y-385.209
X-1195.181 Y-385.322
X-1195.073 Y-385.426
X-1194.956 Y-385.52
X-1194.832 Y-385.604
X-1194.702 Y-385.678
X-1194.565 Y-385.74
X-1194.424 Y-385.791
X-1194.28 Y-385.831
X-1194.132 Y-385.858
X-1193.983 Y-385.874
X-1193.833 Y-385.877
X-1193.683 Y-385.868
X-1193.535 Y-385.847
X-1193.388 Y-385.815
X-1193.245 Y-385.771
X-1193.105 Y-385.716
X-1192.97 Y-385.65
X-1192.841 Y-385.574
X-1192.719 Y-385.488
X-1192.603 Y-385.392
X-1192.494 Y-385.289
X-1192.394 Y-385.177
X-1192.303 Y-385.058
X-1192.221 Y-384.932
X-1192.149 Y-384.8
X-1192.087 Y-384.664
X-1192.036 Y-384.523
X-1191.995 Y-384.379
X-1191.964 Y-384.232
X-1191.945 Y-384.083
X-1191.937 Y-383.933
X-1191.94 Y-383.783
X-1191.953 Y-383.634
X-1191.978 Y-383.486
X-1192.013 Y-383.34
X-1192.059 Y-383.197
X-1192.115 Y-383.058
X-1192.18 Y-382.923
X-1192.255 Y-382.793
X-1192.339 Y-382.669
X-1192.432 Y-382.551
X-1192.532 Y-382.439
X-1192.64 Y-382.335
X-1192.756 Y-382.239
X-1192.877 Y-382.151
X-1193.004 Y-382.072
X-1193.137 Y-382.002
X-1193.274 Y-381.941
X-1193.415 Y-381.889
X-1193.559 Y-381.848
X-1193.706 Y-381.816
X-1193.854 Y-381.794
X-1194.003 Y-381.782
X-1194.153 Y-381.78
X-1194.303 Y-381.788
X-1194.452 Y-381.806
X-1194.599 Y-381.835
X-1194.745 Y-381.872
X-1194.887 Y-381.919
X-1195.026 Y-381.976
X-1195.161 Y-382.041
X-1195.292 Y-382.115
X-1195.417 Y-382.197
X-1195.537 Y-382.287
X-1195.651 Y-382.385
X-1195.758 Y-382.49
X-1195.858 Y-382.602
X-1195.951 Y-382.719
X-1196.037 Y-382.842
X-1196.114 Y-382.971
X-1196.183 Y-383.104
X-1196.244 Y-383.241
X-1196.296 Y-383.382
X-1196.339 Y-383.526
X-1196.373 Y-383.672
X-1196.397 Y-383.82
X-1196.413 Y-383.969
X-1196.419 Y-384.119
X-1196.417 Y-384.269
X-1196.405 Y-384.418
X-1196.383 Y-384.567
X-1196.353 Y-384.714
X-1196.314 Y-384.859
X-1196.267 Y-385.001
X-1196.21 Y-385.14
X-1196.146 Y-385.275
X-1196.074 Y-385.407
X-1195.994 Y-385.534
X-1195.906 Y-385.655
X-1195.811 Y-385.772
X-1195.71 Y-385.882
X-1195.602 Y-385.987
X-1195.489 Y-386.085
X-1195.369 Y-386.176
X-1195.245 Y-386.26
X-1195.116 Y-386.336
X-1194.983 Y-386.405
X-1194.846 Y-386.466
X-1194.706 Y-386.519
X-1194.563 Y-386.564
X-1194.417 Y-386.601
X-1194.27 Y-386.629
X-1194.121 Y-386.649
X-1193.971 Y-386.66
X-1193.82 Y-386.663
X-1193.67 Y-386.657
X-1193.521 Y-386.643
X-1193.371 Y-386.62
X-1193.222 Y-386.589
X-1193.077 Y-386.549
X-1192.934 Y-386.502
X-1192.791 Y-386.445
X-1192.651 Y-386.381
X-1192.518 Y-386.31
X-1192.387 Y-386.23
X-1192.259 Y-386.142
X-1192.136 Y-386.047
X-1192.021 Y-385.947
X-1191.91 Y-385.839
X-1191.803 Y-385.723
X-1191.704 Y-385.602
X-1191.613 Y-385.477
X-1191.528 Y-385.346
X-1191.449 Y-385.207
X-1191.378 Y-385.065
X-1191.317 Y-384.921
X-1191.263 Y-384.773
X-1191.216 Y-384.619
X-1191.179 Y-384.463
X-1191.15 Y-384.306
X-1191.131 Y-384.149
X-1191.12 Y-383.987
X-1191.118 Y-383.824
X-1191.125 Y-383.663
X-1191.142 Y-383.503
X-1191.167 Y-383.343
X-1191.202 Y-383.182
X-1191.246 Y-383.024
X-1191.299 Y-382.869
X-1191.36 Y-382.718
X-1191.43 Y-382.569
X-1191.509 Y-382.422
X-1191.597 Y-382.28
X-1191.692 Y-382.144
X-1191.794 Y-382.014
X-1191.904 Y-381.889
X-1192.022 Y-381.769
X-1192.147 Y-381.655
X-1192.279 Y-381.549
X-1192.415 Y-381.451
X-1192.557 Y-381.36
X-1192.705 Y-381.277
X-1192.859 Y-381.202
X-1193.017 Y-381.135
X-1193.179 Y-381.078
X-1193.343 Y-381.029
X-1193.51 Y-380.99
X-1193.679 Y-380.961
X-1193.852 Y-380.94
X-1194.026 Y-380.93
X-1194.201 Y-380.929
X-1194.375 Y-380.938
X-1194.548 Y-380.957
X-1194.72 Y-380.985
X-1194.892 Y-381.024
X-1195.062 Y-381.072
X-1195.23 Y-381.131
X-1195.395 Y-381.198
X-1195.556 Y-381.275
X-1195.711 Y-381.361
X-1195.862 Y-381.455
X-1196.008 Y-381.558
X-1196.149 Y-381.67
X-1196.283 Y-381.79
X-1196.411 Y-381.918
X-1196.533 Y-382.053
X-1196.647 Y-382.196
X-1196.752 Y-382.344
X-1196.849 Y-382.498
X-1196.937 Y-382.658
X-1197.016 Y-382.822
X-1197.086 Y-382.992
X-1197.147 Y-383.166
X-1197.198 Y-383.344
X-1197.239 Y-383.525
X-1197.27 Y-383.708
X-1197.291 Y-383.894
X-1197.301 Y-384.081
Y-384.268
X-1197.29 Y-384.455
X-1197.268 Y-384.642
X-1197.236 Y-384.828
X-1197.194 Y-385.011
X-1197.141 Y-385.193
X-1197.078 Y-385.372
X-1197.004 Y-385.547
X-1196.921 Y-385.719
X-1196.827 Y-385.886
X-1196.725 Y-386.048
X-1196.613 Y-386.205
X-1196.491 Y-386.355
X-1196.362 Y-386.499
X-1196.224 Y-386.635
X-1196.078 Y-386.764
X-1195.925 Y-386.885
X-1195.765 Y-386.997
X-1195.598 Y-387.1
X-1195.426 Y-387.194
X-1195.248 Y-387.278
X-1195.065 Y-387.352
X-1194.878 Y-387.416
X-1194.687 Y-387.47
X-1194.493 Y-387.513
X-1194.297 Y-387.544
X-1194.098 Y-387.565
X-1193.898 Y-387.575
X-1193.697 Y-387.573
X-1193.497 Y-387.56
X-1193.297 Y-387.536
X-1193.097 Y-387.5
X-1192.9 Y-387.453
X-1192.706 Y-387.395
X-1192.514 Y-387.326
X-1192.326 Y-387.246
X-1192.143 Y-387.155
X-1191.964 Y-387.054
X-1191.792 Y-386.943
X-1191.625 Y-386.822
X-1191.465 Y-386.691
X-1191.312 Y-386.551
X-1191.167 Y-386.403
X-1191.03 Y-386.246
X-1190.902 Y-386.081
X-1190.783 Y-385.909
X-1190.674 Y-385.731
X-1190.575 Y-385.546
X-1190.486 Y-385.355
X-1190.407 Y-385.159
X-1190.34 Y-384.958
X-1190.285 Y-384.754
X-1190.24 Y-384.546
X-1190.207 Y-384.335
X-1190.187 Y-384.123
X-1190.178 Y-383.909
X-1190.181 Y-383.695
X-1190.196 Y-383.481
X-1190.224 Y-383.267
X-1190.263 Y-383.054
X-1190.315 Y-382.844
X-1190.378 Y-382.637
X-1190.453 Y-382.433
X-1190.54 Y-382.233
X-1190.638 Y-382.037
X-1190.747 Y-381.847
X-1190.867 Y-381.664
X-1190.997 Y-381.487
X-1191.138 Y-381.317
X-1191.288 Y-381.154
X-1191.448 Y-381.001
X-1191.616 Y-380.856
X-1191.792 Y-380.72
X-1191.977 Y-380.595
X-1192.168 Y-380.479
X-1192.366 Y-380.375
X-1192.571 Y-380.281
X-1192.781 Y-380.199
X-1192.995 Y-380.129
X-1193.213 Y-380.071
X-1193.435 Y-380.025
X-1193.66 Y-379.991
X-1193.887 Y-379.97
X-1194.115 Y-379.962
X-1194.344 Y-379.967
X-1194.572 Y-379.985
X-1194.8 Y-380.016
X-1195.026 Y-380.059
X-1195.25 Y-380.116
X-1195.47 Y-380.185
X-1195.688 Y-380.266
X-1195.9 Y-380.36
X-1196.108 Y-380.466
X-1196.309 Y-380.584
X-1196.505 Y-380.713
X-1196.692 Y-380.853
X-1196.872 Y-381.004
X-1197.044 Y-381.165
X-1197.207 Y-381.336
X-1197.36 Y-381.516
X-1197.503 Y-381.705
X-1197.635 Y-381.902
X-1197.757 Y-382.106
X-1197.867 Y-382.318
X-1197.965 Y-382.536
X-1198.051 Y-382.76
X-1198.124 Y-382.989
X-1198.185 Y-383.222
X-1198.232 Y-383.458
X-1198.266 Y-383.697
X-1198.287 Y-383.938
X-1198.294 Y-384.181
X-1198.287 Y-384.424
X-1198.266 Y-384.667
X-1198.232 Y-384.908
X-1198.184 Y-385.148
X-1198.123 Y-385.386
X-1198.048 Y-385.62
X-1197.96 Y-385.85
X-1197.859 Y-386.075
X-1197.745 Y-386.295
X-1197.619 Y-386.508
X-1197.48 Y-386.714
X-1197.33 Y-386.913
X-1197.169 Y-387.103
X-1196.996 Y-387.284
X-1196.814 Y-387.456
X-1196.751 Y-387.508
X-1196.679 Y-387.567
X-1196.603 Y-387.622
X-1196.525 Y-387.673
X-1196.102 Y-387.937
X-1195.971 Y-388.018
X-1195.9 Y-388.051
X-1195.095 Y-388.334
X-1195.008 Y-388.362
X-1194.921 Y-388.377
X-1194.088 Y-388.471
X-1193.987 Y-388.477
X-1193.886 Y-388.468
X-1193.079 Y-388.377
X-1192.979 Y-388.358
X-1192.88 Y-388.325
X-1192.275 Y-388.113
X-1192.074 Y-388.039
X-1191.958 Y-387.975
X-1191.269 Y-387.544
X-1191.17 Y-387.469
X-1190.664 Y-386.96
X-1190.484 Y-386.767
X-1190.463 Y-386.737
X-1190.06 Y-386.1
X-1189.974 Y-385.961
X-1189.897 Y-385.76
X-1189.657 Y-385.07
X-1189.64 Y-385.012
X-1189.629 Y-384.954
X-1189.536 Y-384.149
X-1189.525 Y-384.048
X-1189.526 Y-383.948
X-1189.617 Y-383.142
X-1189.629 Y-383.041
X-1189.654 Y-382.941
X-1189.933 Y-382.135
X-1189.977 Y-382.035
X-1190.06 Y-381.9
X-1190.463 Y-381.263
X-1190.513 Y-381.196
X-1190.576 Y-381.128
X-1191.067 Y-380.634
X-1191.177 Y-380.524
X-1191.223 Y-380.487
X-1191.269 Y-380.456
X-1191.873 Y-380.079
X-1192.074 Y-379.96
X-1192.18 Y-379.92
X-1192.88 Y-379.675
X-1192.98 Y-379.641
X-1193.081 Y-379.622
X-1193.886 Y-379.532
X-1193.987 Y-379.523
X-1194.088 Y-379.529
X-1194.893 Y-379.62
X-1194.994 Y-379.635
X-1195.095 Y-379.666
X-1195.82 Y-379.92
X-1195.9 Y-379.949
X-1195.951 Y-379.972
X-1196.001 Y-380
X-1196.706 Y-380.44
X-1196.764 Y-380.478
X-1196.823 Y-380.524
X-1196.907 Y-380.608
X-1197.424 Y-381.128
X-1197.511 Y-381.227
X-1197.579 Y-381.33
X-1197.961 Y-381.934
X-1198.023 Y-382.035
X-1198.067 Y-382.135
X-1198.346 Y-382.941
X-1198.371 Y-383.041
X-1198.383 Y-383.142
X-1198.474 Y-383.948
X-1198.475 Y-384.048
X-1198.395 Y-384.753
X-1198.371 Y-384.954
X-1198.349 Y-385.049
X-1198.103 Y-385.76
X-1198.025 Y-385.961
X-1197.901 Y-386.162
X-1197.646 Y-386.565
X-1197.517 Y-386.767
X-1197.511 Y-386.774
X-1197.328 Y-386.968
X-1196.907 Y-387.392
X-1196.806 Y-387.49
X-1196.706 Y-387.56
X-1196.525 Y-387.673
X-1196.442 Y-387.713
X-1196.353 Y-387.739
X-1196.289 Y-387.746 Z18.004
X-1196.225 Y-387.753 Z18.014
X-1196.15 Y-387.739 Z18.036
X-1196.079 Y-387.726 Z18.069
X-1196.012 Y-387.714 Z18.11
X-1195.952 Y-387.677 Z18.169
X-1195.9 Y-387.646 Z18.237
X-1195.858 Y-387.62 Z18.314
X-1195.826 Y-387.601 Z18.398
X-1195.812 Y-387.588 Z18.464
X-1195.804 Y-387.58 Z18.531
X-1195.801 Y-387.577 Z18.6
G0 Z36
X-1194 Y-192
Z26.6
G1 Z26 F850
Z18 F283.3
X-1193.963 Y-191.996 F850
X-1193.952 Y-191.96
X-1193.978 Y-191.932
X-1194.014 Y-191.924
X-1194.05 Y-191.936
X-1194.075 Y-191.963
X-1194.086 Y-191.999
X-1194.08 Y-192.036
X-1194.058 Y-192.067
X-1194.026 Y-192.085
X-1193.989 Y-192.089
X-1193.952 Y-192.079
X-1193.92 Y-192.06
X-1193.896 Y-192.032
X-1193.882 Y-191.997
X-1193.88 Y-191.959
X-1193.89 Y-191.923
X-1193.91 Y-191.891
X-1193.938 Y-191.866
X-1194.005 Y-191.832
X-1194.079 Y-191.836
X-1194.145 Y-191.873
X-1194.19 Y-191.933
X-1194.207 Y-192.006
X-1194.197 Y-192.08
X-1194.16 Y-192.145
X-1194.102 Y-192.194
X-1194.033 Y-192.221
X-1193.958 Y-192.226
X-1193.885 Y-192.208
X-1193.821 Y-192.169
X-1193.771 Y-192.113
X-1193.738 Y-192.046
X-1193.725 Y-191.972
X-1193.74 Y-191.823
X-1193.825 Y-191.699
X-1193.957 Y-191.627
X-1194.106 Y-191.615
X-1194.249 Y-191.663
X-1194.363 Y-191.759
X-1194.436 Y-191.89
X-1194.46 Y-192.038
X-1194.433 Y-192.186
X-1194.361 Y-192.317
X-1194.252 Y-192.42
X-1194.117 Y-192.486
X-1193.969 Y-192.509
X-1193.82 Y-192.489
X-1193.683 Y-192.428
X-1193.567 Y-192.332
X-1193.479 Y-192.211
X-1193.424 Y-192.072
X-1193.404 Y-191.923
X-1193.421 Y-191.774
X-1193.472 Y-191.633
X-1193.556 Y-191.509
X-1193.664 Y-191.405
X-1193.794 Y-191.33
X-1193.936 Y-191.282
X-1194.086 Y-191.267
X-1194.235 Y-191.283
X-1194.378 Y-191.329
X-1194.508 Y-191.402
X-1194.622 Y-191.5
X-1194.714 Y-191.618
X-1194.784 Y-191.751
X-1194.827 Y-191.895
X-1194.843 Y-192.044
X-1194.832 Y-192.194
X-1194.794 Y-192.339
X-1194.732 Y-192.475
X-1194.646 Y-192.599
X-1194.542 Y-192.706
X-1194.421 Y-192.795
X-1194.286 Y-192.862
X-1194.143 Y-192.906
X-1193.995 Y-192.926
X-1193.845 Y-192.923
X-1193.697 Y-192.895
X-1193.555 Y-192.846
X-1193.423 Y-192.776
X-1193.303 Y-192.686
X-1193.197 Y-192.58
X-1193.107 Y-192.46
X-1193.036 Y-192.327
X-1192.985 Y-192.187
X-1192.955 Y-192.04
X-1192.945 Y-191.89
X-1192.956 Y-191.74
X-1192.988 Y-191.594
X-1193.039 Y-191.453
X-1193.109 Y-191.32
X-1193.196 Y-191.198
X-1193.298 Y-191.088
X-1193.414 Y-190.993
X-1193.541 Y-190.913
X-1193.678 Y-190.851
X-1193.821 Y-190.805
X-1193.968 Y-190.779
X-1194.118 Y-190.771
X-1194.268 Y-190.781
X-1194.415 Y-190.809
X-1194.558 Y-190.856
X-1194.694 Y-190.918
X-1194.822 Y-190.997
X-1194.939 Y-191.09
X-1195.045 Y-191.196
X-1195.138 Y-191.314
X-1195.217 Y-191.441
X-1195.281 Y-191.577
X-1195.329 Y-191.719
X-1195.362 Y-191.866
X-1195.377 Y-192.015
X-1195.376 Y-192.165
X-1195.359 Y-192.314
X-1195.325 Y-192.46
X-1195.277 Y-192.602
X-1195.213 Y-192.738
X-1195.135 Y-192.866
X-1195.044 Y-192.985
X-1194.942 Y-193.094
X-1194.828 Y-193.192
X-1194.705 Y-193.278
X-1194.573 Y-193.35
X-1194.435 Y-193.409
X-1194.292 Y-193.454
X-1194.145 Y-193.484
X-1193.996 Y-193.499
X-1193.846 Y-193.5
X-1193.697 Y-193.485
X-1193.549 Y-193.457
X-1193.406 Y-193.414
X-1193.267 Y-193.357
X-1193.134 Y-193.288
X-1193.008 Y-193.206
X-1192.891 Y-193.113
X-1192.782 Y-193.009
X-1192.684 Y-192.896
X-1192.597 Y-192.774
X-1192.521 Y-192.644
X-1192.458 Y-192.508
X-1192.407 Y-192.367
X-1192.369 Y-192.222
X-1192.345 Y-192.074
X-1192.333 Y-191.924
X-1192.335 Y-191.774
X-1192.351 Y-191.625
X-1192.379 Y-191.478
X-1192.42 Y-191.333
X-1192.474 Y-191.193
X-1192.539 Y-191.058
X-1192.616 Y-190.93
X-1192.704 Y-190.808
X-1192.801 Y-190.694
X-1192.908 Y-190.589
X-1193.024 Y-190.493
X-1193.147 Y-190.407
X-1193.276 Y-190.332
X-1193.412 Y-190.267
X-1193.552 Y-190.214
X-1193.696 Y-190.173
X-1193.844 Y-190.144
X-1193.993 Y-190.126
X-1194.142 Y-190.121
X-1194.292 Y-190.128
X-1194.441 Y-190.147
X-1194.588 Y-190.177
X-1194.732 Y-190.219
X-1194.872 Y-190.273
X-1195.008 Y-190.337
X-1195.138 Y-190.411
X-1195.262 Y-190.496
X-1195.379 Y-190.589
X-1195.489 Y-190.692
X-1195.59 Y-190.802
X-1195.683 Y-190.92
X-1195.766 Y-191.045
X-1195.84 Y-191.176
X-1195.904 Y-191.311
X-1195.957 Y-191.451
X-1196 Y-191.595
X-1196.032 Y-191.742
X-1196.053 Y-191.89
X-1196.064 Y-192.04
X-1196.063 Y-192.19
X-1196.051 Y-192.339
X-1196.029 Y-192.488
X-1195.995 Y-192.634
X-1195.952 Y-192.777
X-1195.898 Y-192.917
X-1195.834 Y-193.053
X-1195.761 Y-193.184
X-1195.678 Y-193.309
X-1195.587 Y-193.429
X-1195.488 Y-193.541
X-1195.381 Y-193.647
X-1195.267 Y-193.744
X-1195.147 Y-193.834
X-1195.021 Y-193.915
X-1194.889 Y-193.986
X-1194.753 Y-194.049
X-1194.613 Y-194.103
X-1194.469 Y-194.146
X-1194.323 Y-194.18
X-1194.175 Y-194.204
X-1194.026 Y-194.218
X-1193.876 Y-194.222
X-1193.726 Y-194.215
X-1193.577 Y-194.199
X-1193.429 Y-194.173
X-1193.283 Y-194.137
X-1193.14 Y-194.092
X-1193.001 Y-194.038
X-1192.865 Y-193.974
X-1192.733 Y-193.902
X-1192.607 Y-193.821
X-1192.486 Y-193.733
X-1192.371 Y-193.636
X-1192.262 Y-193.533
X-1192.16 Y-193.423
X-1192.066 Y-193.306
X-1191.979 Y-193.184
X-1191.9 Y-193.057
X-1191.829 Y-192.924
X-1191.766 Y-192.788
X-1191.713 Y-192.648
X-1191.668 Y-192.505
X-1191.632 Y-192.359
X-1191.605 Y-192.212
X-1191.588 Y-192.063
X-1191.579 Y-191.913
X-1191.58 Y-191.763
X-1191.59 Y-191.613
X-1191.609 Y-191.464
X-1191.637 Y-191.317
X-1191.675 Y-191.172
X-1191.72 Y-191.029
X-1191.775 Y-190.889
X-1191.837 Y-190.753
X-1191.908 Y-190.621
X-1191.987 Y-190.493
X-1192.073 Y-190.37
X-1192.166 Y-190.252
X-1192.266 Y-190.14
X-1192.372 Y-190.034
X-1192.484 Y-189.935
X-1192.602 Y-189.842
X-1192.725 Y-189.757
X-1192.853 Y-189.679
X-1192.986 Y-189.608
X-1193.122 Y-189.545
X-1193.261 Y-189.49
X-1193.404 Y-189.443
X-1193.549 Y-189.405
X-1193.696 Y-189.375
X-1193.844 Y-189.353
X-1193.994 Y-189.34
X-1194.145 Y-189.335
X-1194.295 Y-189.339
X-1194.444 Y-189.351
X-1194.594 Y-189.372
X-1194.744 Y-189.401
X-1194.89 Y-189.439
X-1195.033 Y-189.484
X-1195.177 Y-189.539
X-1195.317 Y-189.602
X-1195.452 Y-189.671
X-1195.583 Y-189.749
X-1195.713 Y-189.835
X-1195.837 Y-189.929
X-1195.953 Y-190.027
X-1196.066 Y-190.134
X-1196.174 Y-190.248
X-1196.275 Y-190.368
X-1196.368 Y-190.492
X-1196.454 Y-190.622
X-1196.535 Y-190.76
X-1196.607 Y-190.901
X-1196.671 Y-191.044
X-1196.727 Y-191.191
X-1196.775 Y-191.345
X-1196.815 Y-191.5
X-1196.845 Y-191.657
X-1196.867 Y-191.814
X-1196.88 Y-191.975
X-1196.884 Y-192.138
X-1196.879 Y-192.3
X-1196.865 Y-192.46
X-1196.841 Y-192.62
X-1196.808 Y-192.781
X-1196.766 Y-192.94
X-1196.716 Y-193.096
X-1196.657 Y-193.248
X-1196.589 Y-193.397
X-1196.511 Y-193.545
X-1196.426 Y-193.688
X-1196.333 Y-193.825
X-1196.232 Y-193.957
X-1196.124 Y-194.083
X-1196.007 Y-194.205
X-1195.883 Y-194.32
X-1195.753 Y-194.428
X-1195.618 Y-194.528
X-1195.478 Y-194.62
X-1195.331 Y-194.705
X-1195.178 Y-194.783
X-1195.02 Y-194.852
X-1194.86 Y-194.911
X-1194.696 Y-194.962
X-1194.53 Y-195.003
X-1194.361 Y-195.035
X-1194.188 Y-195.057
X-1194.014 Y-195.07
X-1193.839 Y-195.073
X-1193.665 Y-195.067
X-1193.492 Y-195.05
X-1193.319 Y-195.024
X-1193.147 Y-194.988
X-1192.976 Y-194.941
X-1192.808 Y-194.885
X-1192.642 Y-194.82
X-1192.48 Y-194.745
X-1192.323 Y-194.661
X-1192.171 Y-194.569
X-1192.024 Y-194.468
X-1191.882 Y-194.358
X-1191.746 Y-194.24
X-1191.616 Y-194.114
X-1191.493 Y-193.98
X-1191.377 Y-193.839
X-1191.27 Y-193.692
X-1191.171 Y-193.539
X-1191.081 Y-193.38
X-1190.999 Y-193.217
X-1190.927 Y-193.049
X-1190.864 Y-192.875
X-1190.811 Y-192.698
X-1190.767 Y-192.518
X-1190.734 Y-192.334
X-1190.711 Y-192.149
X-1190.698 Y-191.962
X-1190.696 Y-191.775
X-1190.704 Y-191.588
X-1190.724 Y-191.401
X-1190.753 Y-191.215
X-1190.793 Y-191.031
X-1190.844 Y-190.848
X-1190.905 Y-190.669
X-1190.976 Y-190.492
X-1191.057 Y-190.32
X-1191.148 Y-190.151
X-1191.249 Y-189.988
X-1191.359 Y-189.83
X-1191.478 Y-189.678
X-1191.606 Y-189.533
X-1191.742 Y-189.394
X-1191.886 Y-189.264
X-1192.037 Y-189.141
X-1192.196 Y-189.027
X-1192.361 Y-188.921
X-1192.532 Y-188.825
X-1192.709 Y-188.739
X-1192.891 Y-188.662
X-1193.077 Y-188.596
X-1193.267 Y-188.54
X-1193.461 Y-188.494
X-1193.657 Y-188.46
X-1193.855 Y-188.436
X-1194.055 Y-188.424
X-1194.256 Y-188.423
X-1194.457 Y-188.434
X-1194.657 Y-188.455
X-1194.857 Y-188.488
X-1195.054 Y-188.533
X-1195.25 Y-188.588
X-1195.442 Y-188.655
X-1195.631 Y-188.733
X-1195.816 Y-188.821
X-1195.995 Y-188.92
X-1196.17 Y-189.028
X-1196.338 Y-189.147
X-1196.5 Y-189.276
X-1196.655 Y-189.414
X-1196.801 Y-189.56
X-1196.94 Y-189.715
X-1197.071 Y-189.878
X-1197.192 Y-190.049
X-1197.303 Y-190.226
X-1197.405 Y-190.41
X-1197.496 Y-190.599
X-1197.577 Y-190.794
X-1197.647 Y-190.994
X-1197.705 Y-191.198
X-1197.752 Y-191.405
X-1197.788 Y-191.615
X-1197.812 Y-191.827
X-1197.823 Y-192.041
Y-192.255
X-1197.81 Y-192.47
X-1197.786 Y-192.684
X-1197.749 Y-192.897
X-1197.7 Y-193.107
X-1197.64 Y-193.316
X-1197.567 Y-193.521
X-1197.483 Y-193.722
X-1197.387 Y-193.918
X-1197.281 Y-194.11
X-1197.163 Y-194.295
X-1197.035 Y-194.474
X-1196.897 Y-194.645
X-1196.749 Y-194.81
X-1196.591 Y-194.966
X-1196.425 Y-195.113
X-1196.25 Y-195.251
X-1196.068 Y-195.378
X-1195.878 Y-195.496
X-1195.681 Y-195.604
X-1195.478 Y-195.7
X-1195.269 Y-195.785
X-1195.056 Y-195.858
X-1194.838 Y-195.919
X-1194.617 Y-195.968
X-1194.393 Y-196.004
X-1194.166 Y-196.028
X-1193.938 Y-196.039
X-1193.709 Y-196.037
X-1193.48 Y-196.022
X-1193.252 Y-195.994
X-1193.026 Y-195.954
X-1192.801 Y-195.9
X-1192.58 Y-195.834
X-1192.362 Y-195.756
X-1192.148 Y-195.665
X-1191.939 Y-195.561
X-1191.736 Y-195.446
X-1191.539 Y-195.32
X-1191.349 Y-195.182
X-1191.167 Y-195.034
X-1190.993 Y-194.875
X-1190.829 Y-194.706
X-1190.673 Y-194.528
X-1190.528 Y-194.341
X-1190.392 Y-194.146
X-1190.268 Y-193.943
X-1190.155 Y-193.732
X-1190.054 Y-193.516
X-1189.966 Y-193.293
X-1189.889 Y-193.065
X-1189.826 Y-192.833
X-1189.775 Y-192.597
X-1189.738 Y-192.359
X-1189.714 Y-192.118
X-1189.704 Y-191.875
X-1189.708 Y-191.632
X-1189.725 Y-191.389
X-1189.756 Y-191.147
X-1189.801 Y-190.907
X-1189.859 Y-190.669
X-1189.931 Y-190.434
X-1190.016 Y-190.202
X-1190.114 Y-189.976
X-1190.225 Y-189.755
X-1190.349 Y-189.54
X-1190.484 Y-189.332
X-1190.632 Y-189.131
X-1190.791 Y-188.939
X-1190.961 Y-188.755
X-1191.141 Y-188.581
X-1191.217 Y-188.516
X-1191.296 Y-188.451
X-1191.378 Y-188.391
X-1191.463 Y-188.335
X-1191.958 Y-188.025
X-1192.074 Y-187.961
X-1192.275 Y-187.887
X-1192.88 Y-187.675
X-1192.979 Y-187.642
X-1193.081 Y-187.622
X-1193.886 Y-187.532
X-1193.987 Y-187.523
X-1194.088 Y-187.529
X-1194.921 Y-187.623
X-1195.008 Y-187.638
X-1195.095 Y-187.666
X-1195.9 Y-187.949
X-1195.971 Y-187.982
X-1196.102 Y-188.063
X-1196.706 Y-188.44
X-1196.806 Y-188.51
X-1196.928 Y-188.629
X-1197.328 Y-189.032
X-1197.511 Y-189.226
X-1197.517 Y-189.233
X-1197.713 Y-189.541
X-1197.914 Y-189.859
X-1198.025 Y-190.039
X-1198.103 Y-190.24
X-1198.349 Y-190.951
X-1198.371 Y-191.046
X-1198.464 Y-191.851
X-1198.475 Y-191.952
X-1198.474 Y-192.052
X-1198.383 Y-192.858
X-1198.371 Y-192.959
X-1198.346 Y-193.059
X-1198.067 Y-193.865
X-1198.023 Y-193.965
X-1197.961 Y-194.066
X-1197.579 Y-194.67
X-1197.511 Y-194.774
X-1197.424 Y-194.872
X-1196.907 Y-195.392
X-1196.823 Y-195.476
X-1196.764 Y-195.522
X-1196.706 Y-195.56
X-1196.001 Y-196
X-1195.951 Y-196.028
X-1195.9 Y-196.051
X-1195.497 Y-196.193
X-1195.095 Y-196.334
X-1194.994 Y-196.365
X-1194.893 Y-196.38
X-1194.088 Y-196.471
X-1193.987 Y-196.477
X-1193.886 Y-196.468
X-1193.081 Y-196.378
X-1192.98 Y-196.359
X-1192.88 Y-196.325
X-1192.18 Y-196.08
X-1192.074 Y-196.04
X-1191.873 Y-195.921
X-1191.269 Y-195.544
X-1191.223 Y-195.513
X-1191.177 Y-195.476
X-1190.976 Y-195.274
X-1190.576 Y-194.872
X-1190.513 Y-194.804
X-1190.463 Y-194.737
X-1190.039 Y-194.066
X-1189.977 Y-193.965
X-1189.933 Y-193.865
X-1189.654 Y-193.059
X-1189.629 Y-192.959
X-1189.617 Y-192.858
X-1189.526 Y-192.052
X-1189.525 Y-191.952
X-1189.605 Y-191.247
X-1189.629 Y-191.046
X-1189.64 Y-190.988
X-1189.657 Y-190.93
X-1189.897 Y-190.24
X-1189.974 Y-190.039
X-1190.06 Y-189.9
X-1190.463 Y-189.263
X-1190.484 Y-189.233
X-1190.672 Y-189.032
X-1191.17 Y-188.531
X-1191.269 Y-188.456
X-1191.463 Y-188.335
X-1191.546 Y-188.295
X-1191.635 Y-188.268
X-1191.699 Y-188.261 Z18.004
X-1191.763 Y-188.254 Z18.014
X-1191.838 Y-188.268 Z18.036
X-1191.909 Y-188.281 Z18.069
X-1191.976 Y-188.294 Z18.11
X-1192.036 Y-188.33 Z18.169
X-1192.088 Y-188.361 Z18.237
X-1192.13 Y-188.387 Z18.314
X-1192.162 Y-188.406 Z18.398
X-1192.176 Y-188.419 Z18.464
X-1192.184 Y-188.428 Z18.531
X-1192.187 Y-188.43 Z18.6
G0 Z36
X-796 Y-576
Z26.6
G1 Z26 F850
Z18 F283.3
X-796.013 Y-575.964 F850
X-796.05 Y-575.963
X-796.072 Y-575.993
X-796.071 Y-576.031
X-796.052 Y-576.063
X-796.019 Y-576.082
X-795.982 Y-576.084
X-795.947 Y-576.07
X-795.922 Y-576.042
X-795.911 Y-576.006
X-795.916 Y-575.969
X-795.933 Y-575.936
X-795.959 Y-575.909
X-795.992 Y-575.891
X-796.03 Y-575.886
X-796.067 Y-575.892
X-796.1 Y-575.91
X-796.126 Y-575.936
X-796.144 Y-575.969
X-796.163 Y-576.042
X-796.142 Y-576.114
X-796.092 Y-576.17
X-796.023 Y-576.2
X-795.948 Y-576.201
X-795.878 Y-576.174
X-795.823 Y-576.123
X-795.788 Y-576.057
X-795.777 Y-575.983
X-795.789 Y-575.909
X-795.823 Y-575.842
X-795.875 Y-575.788
X-795.94 Y-575.751
X-796.014 Y-575.734
X-796.088 Y-575.738
X-796.231 Y-575.786
X-796.332 Y-575.897
X-796.374 Y-576.041
X-796.352 Y-576.189
X-796.274 Y-576.317
X-796.154 Y-576.408
X-796.01 Y-576.45
X-795.86 Y-576.44
X-795.722 Y-576.381
X-795.61 Y-576.281
X-795.534 Y-576.152
X-795.5 Y-576.006
X-795.511 Y-575.856
X-795.563 Y-575.716
X-795.653 Y-575.595
X-795.772 Y-575.504
X-795.91 Y-575.445
X-796.058 Y-575.422
X-796.207 Y-575.436
X-796.349 Y-575.486
X-796.475 Y-575.567
X-796.578 Y-575.676
X-796.655 Y-575.805
X-796.699 Y-575.948
X-796.714 Y-576.097
X-796.695 Y-576.246
X-796.647 Y-576.388
X-796.571 Y-576.517
X-796.47 Y-576.628
X-796.35 Y-576.718
X-796.214 Y-576.781
X-796.069 Y-576.82
X-795.919 Y-576.829
X-795.77 Y-576.812
X-795.627 Y-576.768
X-795.494 Y-576.699
X-795.374 Y-576.608
X-795.273 Y-576.497
X-795.191 Y-576.372
X-795.132 Y-576.234
X-795.096 Y-576.088
X-795.085 Y-575.939
X-795.098 Y-575.789
X-795.135 Y-575.644
X-795.194 Y-575.506
X-795.273 Y-575.379
X-795.371 Y-575.265
X-795.485 Y-575.168
X-795.612 Y-575.088
X-795.75 Y-575.028
X-795.894 Y-574.988
X-796.043 Y-574.969
X-796.193 Y-574.972
X-796.341 Y-574.996
X-796.485 Y-575.04
X-796.621 Y-575.103
X-796.747 Y-575.184
X-796.86 Y-575.282
X-796.96 Y-575.394
X-797.045 Y-575.518
X-797.112 Y-575.652
X-797.162 Y-575.794
X-797.192 Y-575.941
X-797.205 Y-576.09
X-797.198 Y-576.24
X-797.172 Y-576.388
X-797.13 Y-576.531
X-797.069 Y-576.669
X-796.992 Y-576.798
X-796.901 Y-576.917
X-796.796 Y-577.024
X-796.679 Y-577.118
X-796.552 Y-577.198
X-796.417 Y-577.262
X-796.275 Y-577.311
X-796.128 Y-577.343
X-795.979 Y-577.359
X-795.829 Y-577.358
X-795.68 Y-577.34
X-795.534 Y-577.305
X-795.393 Y-577.256
X-795.258 Y-577.19
X-795.13 Y-577.112
X-795.012 Y-577.019
X-794.904 Y-576.915
X-794.808 Y-576.8
X-794.724 Y-576.675
X-794.654 Y-576.543
X-794.598 Y-576.404
X-794.556 Y-576.26
X-794.529 Y-576.112
X-794.517 Y-575.962
X-794.521 Y-575.813
X-794.539 Y-575.664
X-794.572 Y-575.517
X-794.619 Y-575.375
X-794.68 Y-575.238
X-794.753 Y-575.107
X-794.839 Y-574.984
X-794.936 Y-574.87
X-795.044 Y-574.765
X-795.161 Y-574.671
X-795.286 Y-574.589
X-795.418 Y-574.518
X-795.557 Y-574.46
X-795.7 Y-574.415
X-795.846 Y-574.384
X-795.995 Y-574.365
X-796.145 Y-574.361
X-796.295 Y-574.37
X-796.443 Y-574.392
X-796.589 Y-574.427
X-796.731 Y-574.475
X-796.869 Y-574.535
X-797 Y-574.607
X-797.125 Y-574.691
X-797.242 Y-574.785
X-797.351 Y-574.888
X-797.45 Y-575
X-797.539 Y-575.121
X-797.618 Y-575.248
X-797.686 Y-575.382
X-797.743 Y-575.521
X-797.787 Y-575.664
X-797.82 Y-575.811
X-797.84 Y-575.959
X-797.849 Y-576.109
X-797.845 Y-576.259
X-797.829 Y-576.408
X-797.801 Y-576.555
X-797.761 Y-576.7
X-797.709 Y-576.841
X-797.647 Y-576.977
X-797.574 Y-577.109
X-797.491 Y-577.233
X-797.398 Y-577.351
X-797.297 Y-577.462
X-797.187 Y-577.564
X-797.07 Y-577.658
X-796.946 Y-577.742
X-796.815 Y-577.816
X-796.68 Y-577.88
X-796.54 Y-577.934
X-796.396 Y-577.977
X-796.249 Y-578.009
X-796.101 Y-578.03
X-795.951 Y-578.04
X-795.801 Y-578.039
X-795.652 Y-578.027
X-795.504 Y-578.003
X-795.357 Y-577.969
X-795.214 Y-577.925
X-795.075 Y-577.87
X-794.939 Y-577.805
X-794.809 Y-577.731
X-794.685 Y-577.647
X-794.566 Y-577.555
X-794.455 Y-577.454
X-794.351 Y-577.346
X-794.255 Y-577.231
X-794.167 Y-577.109
X-794.088 Y-576.982
X-794.018 Y-576.849
X-793.958 Y-576.712
X-793.907 Y-576.571
X-793.866 Y-576.427
X-793.835 Y-576.28
X-793.814 Y-576.131
X-793.803 Y-575.982
Y-575.832
X-793.812 Y-575.682
X-793.832 Y-575.533
X-793.861 Y-575.386
X-793.901 Y-575.241
X-793.949 Y-575.1
X-794.008 Y-574.961
X-794.075 Y-574.827
X-794.15 Y-574.698
X-794.235 Y-574.574
X-794.327 Y-574.455
X-794.426 Y-574.343
X-794.533 Y-574.238
X-794.646 Y-574.139
X-794.766 Y-574.048
X-794.891 Y-573.965
X-795.021 Y-573.891
X-795.155 Y-573.824
X-795.294 Y-573.766
X-795.435 Y-573.718
X-795.58 Y-573.678
X-795.727 Y-573.647
X-795.875 Y-573.626
X-796.025 Y-573.614
X-796.175 Y-573.611
X-796.325 Y-573.618
X-796.474 Y-573.634
X-796.622 Y-573.659
X-796.768 Y-573.693
X-796.911 Y-573.736
X-797.052 Y-573.788
X-797.19 Y-573.848
X-797.323 Y-573.916
X-797.452 Y-573.992
X-797.577 Y-574.076
X-797.696 Y-574.168
X-797.809 Y-574.266
X-797.916 Y-574.371
X-798.017 Y-574.482
X-798.111 Y-574.599
X-798.198 Y-574.721
X-798.278 Y-574.848
X-798.35 Y-574.98
X-798.414 Y-575.115
X-798.47 Y-575.254
X-798.518 Y-575.397
X-798.557 Y-575.541
X-798.589 Y-575.688
X-798.611 Y-575.836
X-798.625 Y-575.986
X-798.631 Y-576.135
X-798.627 Y-576.285
X-798.616 Y-576.435
X-798.596 Y-576.584
X-798.567 Y-576.732
X-798.53 Y-576.878
X-798.485 Y-577.021
X-798.431 Y-577.162
X-798.369 Y-577.302
X-798.3 Y-577.435
X-798.224 Y-577.565
X-798.139 Y-577.693
X-798.047 Y-577.816
X-797.949 Y-577.932
X-797.844 Y-578.043
X-797.731 Y-578.15
X-797.613 Y-578.25
X-797.491 Y-578.342
X-797.362 Y-578.428
X-797.226 Y-578.508
X-797.087 Y-578.58
X-796.946 Y-578.643
X-796.799 Y-578.699
X-796.648 Y-578.747
X-796.494 Y-578.786
X-796.34 Y-578.817
X-796.184 Y-578.838
X-796.024 Y-578.852
X-795.863 Y-578.856
X-795.704 Y-578.851
X-795.546 Y-578.837
X-795.386 Y-578.814
X-795.226 Y-578.782
X-795.07 Y-578.741
X-794.917 Y-578.691
X-794.766 Y-578.633
X-794.616 Y-578.565
X-794.47 Y-578.489
X-794.329 Y-578.405
X-794.194 Y-578.314
X-794.063 Y-578.214
X-793.937 Y-578.106
X-793.816 Y-577.991
X-793.703 Y-577.87
X-793.597 Y-577.743
X-793.498 Y-577.609
X-793.405 Y-577.469
X-793.32 Y-577.322
X-793.243 Y-577.171
X-793.176 Y-577.017
X-793.117 Y-576.86
X-793.067 Y-576.698
X-793.025 Y-576.532
X-792.993 Y-576.363
X-792.971 Y-576.193
X-792.958 Y-576.022
X-792.954 Y-575.851
X-792.961 Y-575.679
X-792.977 Y-575.506
X-793.003 Y-575.333
X-793.039 Y-575.162
X-793.084 Y-574.993
X-793.138 Y-574.828
X-793.202 Y-574.666
X-793.276 Y-574.506
X-793.359 Y-574.35
X-793.451 Y-574.198
X-793.552 Y-574.05
X-793.66 Y-573.909
X-793.776 Y-573.775
X-793.9 Y-573.647
X-794.031 Y-573.526
X-794.17 Y-573.412
X-794.315 Y-573.305
X-794.468 Y-573.207
X-794.626 Y-573.116
X-794.788 Y-573.035
X-794.955 Y-572.963
X-795.126 Y-572.9
X-795.301 Y-572.847
X-795.479 Y-572.804
X-795.659 Y-572.771
X-795.842 Y-572.748
X-796.026 Y-572.735
X-796.212 Y-572.733
X-796.398 Y-572.741
X-796.584 Y-572.76
X-796.769 Y-572.789
X-796.952 Y-572.828
X-797.133 Y-572.878
X-797.311 Y-572.938
X-797.485 Y-573.008
X-797.656 Y-573.088
X-797.823 Y-573.178
X-797.984 Y-573.277
X-798.141 Y-573.385
X-798.291 Y-573.503
X-798.435 Y-573.629
X-798.572 Y-573.763
X-798.702 Y-573.906
X-798.823 Y-574.055
X-798.937 Y-574.212
X-799.042 Y-574.376
X-799.137 Y-574.545
X-799.223 Y-574.72
X-799.299 Y-574.9
X-799.365 Y-575.084
X-799.421 Y-575.273
X-799.466 Y-575.464
X-799.501 Y-575.659
X-799.524 Y-575.855
X-799.537 Y-576.053
X-799.538 Y-576.251
X-799.528 Y-576.45
X-799.507 Y-576.649
X-799.475 Y-576.846
X-799.431 Y-577.042
X-799.376 Y-577.236
X-799.311 Y-577.427
X-799.234 Y-577.614
X-799.147 Y-577.797
X-799.05 Y-577.975
X-798.942 Y-578.148
X-798.824 Y-578.315
X-798.697 Y-578.475
X-798.561 Y-578.629
X-798.417 Y-578.775
X-798.263 Y-578.912
X-798.102 Y-579.042
X-797.933 Y-579.162
X-797.758 Y-579.273
X-797.576 Y-579.374
X-797.388 Y-579.465
X-797.195 Y-579.545
X-796.998 Y-579.614
X-796.796 Y-579.673
X-796.591 Y-579.72
X-796.383 Y-579.755
X-796.172 Y-579.779
X-795.961 Y-579.791
X-795.748
X-795.536 Y-579.779
X-795.323 Y-579.755
X-795.113 Y-579.719
X-794.904 Y-579.671
X-794.697 Y-579.611
X-794.494 Y-579.54
X-794.294 Y-579.457
X-794.1 Y-579.363
X-793.91 Y-579.257
X-793.726 Y-579.141
X-793.549 Y-579.015
X-793.378 Y-578.878
X-793.215 Y-578.731
X-793.061 Y-578.576
X-792.915 Y-578.411
X-792.778 Y-578.238
X-792.651 Y-578.058
X-792.534 Y-577.869
X-792.427 Y-577.675
X-792.331 Y-577.474
X-792.247 Y-577.267
X-792.174 Y-577.056
X-792.113 Y-576.84
X-792.065 Y-576.621
X-792.028 Y-576.399
X-792.004 Y-576.174
X-791.993 Y-575.948
X-791.994 Y-575.722
X-792.009 Y-575.495
X-792.036 Y-575.269
X-792.076 Y-575.044
X-792.128 Y-574.821
X-792.193 Y-574.602
X-792.271 Y-574.385
X-792.361 Y-574.173
X-792.462 Y-573.966
X-792.576 Y-573.765
X-792.701 Y-573.57
X-792.837 Y-573.381
X-792.984 Y-573.201
X-793.141 Y-573.028
X-793.309 Y-572.864
X-793.485 Y-572.71
X-793.67 Y-572.565
X-793.863 Y-572.431
X-794.064 Y-572.307
X-794.272 Y-572.195
X-794.487 Y-572.095
X-794.707 Y-572.006
X-794.933 Y-571.93
X-795.163 Y-571.867
X-795.397 Y-571.817
X-795.634 Y-571.779
X-795.873 Y-571.755
X-796.113 Y-571.745
X-796.354 Y-571.748
X-796.595 Y-571.765
X-796.835 Y-571.795
X-797.074 Y-571.839
X-797.31 Y-571.896
X-797.543 Y-571.967
X-797.772 Y-572.051
X-797.997 Y-572.148
X-798.216 Y-572.257
X-798.43 Y-572.379
X-798.636 Y-572.514
X-798.835 Y-572.66
X-799.026 Y-572.817
X-799.209 Y-572.985
X-799.381 Y-573.163
X-799.544 Y-573.352
X-799.697 Y-573.549
X-799.838 Y-573.756
X-799.968 Y-573.97
X-800.013 Y-574.056
X-800.058 Y-574.146
X-800.098 Y-574.238
X-800.134 Y-574.332
X-800.31 Y-574.836
X-800.372 Y-575.037
X-800.395 Y-575.238
X-800.474 Y-575.943
X-800.475 Y-576.044
X-800.408 Y-576.648
X-800.373 Y-576.95
X-800.35 Y-577.051
X-800.068 Y-577.856
X-800.036 Y-577.938
X-799.99 Y-578.02
X-799.587 Y-578.662
X-799.522 Y-578.762
X-799.434 Y-578.863
X-798.83 Y-579.467
X-798.781 Y-579.507
X-798.58 Y-579.638
X-798.177 Y-579.891
X-797.976 Y-580.016
X-797.847 Y-580.071
X-797.17 Y-580.308
X-796.969 Y-580.37
X-796.768 Y-580.395
X-796.063 Y-580.474
X-795.962 Y-580.476
X-795.936 Y-580.474
X-795.056 Y-580.375
X-794.955 Y-580.352
X-794.15 Y-580.07
X-794.049 Y-580.029
X-793.948 Y-579.97
X-793.344 Y-579.59
X-793.257 Y-579.535
X-793.17 Y-579.467
X-792.539 Y-578.835
X-792.5 Y-578.792
X-792.468 Y-578.748
X-792.034 Y-578.057
X-791.976 Y-577.96
X-791.932 Y-577.856
X-791.65 Y-577.051
X-791.627 Y-576.95
X-791.532 Y-576.114
X-791.525 Y-576.044
X-791.524 Y-575.965
X-791.537 Y-575.843
X-791.605 Y-575.238
X-791.628 Y-575.037
X-791.69 Y-574.836
X-791.935 Y-574.137
X-791.981 Y-574.03
X-792.136 Y-573.78
X-792.358 Y-573.426
X-792.488 Y-573.225
X-792.539 Y-573.165
X-793.143 Y-572.56
X-793.236 Y-572.479
X-793.344 Y-572.41
X-793.97 Y-572.017
X-794.06 Y-571.965
X-794.15 Y-571.93
X-794.955 Y-571.648
X-795.056 Y-571.625
X-795.761 Y-571.546
X-795.962 Y-571.524
X-796.164 Y-571.537
X-796.844 Y-571.614
X-796.969 Y-571.63
X-797.17 Y-571.692
X-797.775 Y-571.904
X-797.976 Y-571.984
X-798.03 Y-572.017
X-798.671 Y-572.419
X-798.781 Y-572.493
X-798.918 Y-572.621
X-799.386 Y-573.088
X-799.512 Y-573.225
X-799.587 Y-573.339
X-799.99 Y-573.98
X-800.019 Y-574.03
X-800.099 Y-574.232
X-800.134 Y-574.332
X-800.154 Y-574.422
X-800.161 Y-574.515
X-800.147 Y-574.587 Z18.005
X-800.133 Y-574.659 Z18.018
X-800.12 Y-574.728 Z18.041
X-800.079 Y-574.795 Z18.079
X-800.04 Y-574.857 Z18.129
X-800.006 Y-574.912 Z18.188
X-799.963 Y-574.949 Z18.259
X-799.928 Y-574.979 Z18.337
X-799.902 Y-575 Z18.421
X-799.887 Y-575.013 Z18.509
X-799.881 Y-575.018 Z18.6
G0 Z36
X-796 Y-384
Z26.6
G1 Z26 F850
Z18 F283.3
X-795.964 Y-383.987 F850
X-795.963 Y-383.95
X-795.993 Y-383.928
X-796.031 Y-383.929
X-796.063 Y-383.948
X-796.082 Y-383.981
X-796.084 Y-384.018
X-796.07 Y-384.053
X-796.042 Y-384.078
X-796.006 Y-384.089
X-795.969 Y-384.084
X-795.936 Y-384.067
X-795.909 Y-384.041
X-795.891 Y-384.008
X-795.886 Y-383.97
X-795.892 Y-383.934
X-795.91 Y-383.9
X-795.936 Y-383.874
X-795.969 Y-383.856
X-796.042 Y-383.837
X-796.114 Y-383.858
X-796.17 Y-383.908
X-796.2 Y-383.977
X-796.201 Y-384.052
X-796.174 Y-384.122
X-796.123 Y-384.177
X-796.057 Y-384.212
X-795.983 Y-384.223
X-795.909 Y-384.211
X-795.842 Y-384.177
X-795.788 Y-384.125
X-795.751 Y-384.06
X-795.734 Y-383.986
X-795.738 Y-383.912
X-795.786 Y-383.769
X-795.897 Y-383.668
X-796.041 Y-383.626
X-796.189 Y-383.648
X-796.317 Y-383.726
X-796.408 Y-383.846
X-796.45 Y-383.99
X-796.44 Y-384.14
X-796.381 Y-384.278
X-796.281 Y-384.39
X-796.152 Y-384.466
X-796.006 Y-384.5
X-795.856 Y-384.489
X-795.716 Y-384.437
X-795.595 Y-384.347
X-795.504 Y-384.228
X-795.445 Y-384.09
X-795.422 Y-383.942
X-795.436 Y-383.793
X-795.486 Y-383.651
X-795.567 Y-383.525
X-795.676 Y-383.422
X-795.805 Y-383.345
X-795.948 Y-383.301
X-796.097 Y-383.286
X-796.246 Y-383.305
X-796.388 Y-383.353
X-796.517 Y-383.429
X-796.628 Y-383.53
X-796.718 Y-383.65
X-796.781 Y-383.786
X-796.82 Y-383.931
X-796.829 Y-384.081
X-796.812 Y-384.23
X-796.768 Y-384.373
X-796.699 Y-384.507
X-796.608 Y-384.626
X-796.497 Y-384.727
X-796.372 Y-384.809
X-796.234 Y-384.868
X-796.088 Y-384.904
X-795.939 Y-384.915
X-795.789 Y-384.902
X-795.644 Y-384.865
X-795.506 Y-384.806
X-795.379 Y-384.726
X-795.265 Y-384.629
X-795.168 Y-384.514
X-795.088 Y-384.388
X-795.028 Y-384.25
X-794.988 Y-384.105
X-794.969 Y-383.957
X-794.972 Y-383.807
X-794.996 Y-383.659
X-795.04 Y-383.515
X-795.103 Y-383.379
X-795.185 Y-383.253
X-795.283 Y-383.14
X-795.394 Y-383.039
X-795.518 Y-382.955
X-795.652 Y-382.888
X-795.794 Y-382.838
X-795.941 Y-382.808
X-796.09 Y-382.795
X-796.24 Y-382.802
X-796.388 Y-382.828
X-796.532 Y-382.871
X-796.669 Y-382.931
X-796.798 Y-383.008
X-796.917 Y-383.099
X-797.024 Y-383.204
X-797.118 Y-383.321
X-797.198 Y-383.448
X-797.262 Y-383.584
X-797.311 Y-383.725
X-797.343 Y-383.872
X-797.359 Y-384.021
X-797.358 Y-384.171
X-797.339 Y-384.32
X-797.305 Y-384.466
X-797.256 Y-384.608
X-797.19 Y-384.743
X-797.111 Y-384.87
X-797.019 Y-384.988
X-796.915 Y-385.096
X-796.8 Y-385.192
X-796.675 Y-385.276
X-796.543 Y-385.346
X-796.404 Y-385.402
X-796.259 Y-385.444
X-796.112 Y-385.471
X-795.962 Y-385.483
X-795.812 Y-385.479
X-795.663 Y-385.461
X-795.517 Y-385.428
X-795.375 Y-385.381
X-795.237 Y-385.32
X-795.107 Y-385.247
X-794.984 Y-385.161
X-794.87 Y-385.064
X-794.765 Y-384.956
X-794.671 Y-384.839
X-794.589 Y-384.714
X-794.518 Y-384.581
X-794.46 Y-384.443
X-794.415 Y-384.3
X-794.384 Y-384.153
X-794.365 Y-384.004
X-794.361 Y-383.854
X-794.37 Y-383.705
X-794.392 Y-383.556
X-794.427 Y-383.411
X-794.475 Y-383.268
X-794.536 Y-383.131
X-794.608 Y-383
X-794.691 Y-382.875
X-794.785 Y-382.758
X-794.888 Y-382.649
X-795.001 Y-382.55
X-795.121 Y-382.461
X-795.249 Y-382.382
X-795.382 Y-382.314
X-795.521 Y-382.257
X-795.665 Y-382.213
X-795.811 Y-382.18
X-795.96 Y-382.16
X-796.109 Y-382.151
X-796.259 Y-382.155
X-796.408 Y-382.171
X-796.556 Y-382.199
X-796.7 Y-382.239
X-796.841 Y-382.291
X-796.978 Y-382.353
X-797.109 Y-382.426
X-797.234 Y-382.509
X-797.352 Y-382.602
X-797.462 Y-382.703
X-797.564 Y-382.813
X-797.658 Y-382.931
X-797.742 Y-383.055
X-797.816 Y-383.185
X-797.88 Y-383.321
X-797.934 Y-383.461
X-797.977 Y-383.604
X-798.009 Y-383.751
X-798.03 Y-383.899
X-798.04 Y-384.049
X-798.039 Y-384.199
X-798.027 Y-384.349
X-798.003 Y-384.497
X-797.969 Y-384.643
X-797.925 Y-384.786
X-797.87 Y-384.926
X-797.805 Y-385.061
X-797.731 Y-385.191
X-797.647 Y-385.316
X-797.555 Y-385.434
X-797.454 Y-385.545
X-797.346 Y-385.649
X-797.231 Y-385.745
X-797.109 Y-385.833
X-796.982 Y-385.912
X-796.849 Y-385.982
X-796.712 Y-386.042
X-796.571 Y-386.093
X-796.426 Y-386.134
X-796.279 Y-386.165
X-796.131 Y-386.186
X-795.981 Y-386.197
X-795.831
X-795.682 Y-386.188
X-795.533 Y-386.168
X-795.386 Y-386.139
X-795.241 Y-386.099
X-795.099 Y-386.051
X-794.961 Y-385.992
X-794.827 Y-385.925
X-794.698 Y-385.849
X-794.573 Y-385.765
X-794.455 Y-385.673
X-794.343 Y-385.573
X-794.237 Y-385.467
X-794.139 Y-385.353
X-794.048 Y-385.234
X-793.965 Y-385.109
X-793.89 Y-384.979
X-793.824 Y-384.845
X-793.766 Y-384.706
X-793.718 Y-384.564
X-793.678 Y-384.42
X-793.647 Y-384.273
X-793.626 Y-384.124
X-793.614 Y-383.975
X-793.611 Y-383.825
X-793.618 Y-383.675
X-793.634 Y-383.526
X-793.659 Y-383.378
X-793.693 Y-383.232
X-793.736 Y-383.088
X-793.788 Y-382.947
X-793.848 Y-382.81
X-793.916 Y-382.676
X-793.993 Y-382.547
X-794.077 Y-382.423
X-794.168 Y-382.304
X-794.266 Y-382.191
X-794.371 Y-382.084
X-794.482 Y-381.983
X-794.599 Y-381.889
X-794.721 Y-381.802
X-794.848 Y-381.722
X-794.98 Y-381.65
X-795.116 Y-381.586
X-795.255 Y-381.53
X-795.397 Y-381.482
X-795.542 Y-381.442
X-795.688 Y-381.411
X-795.837 Y-381.389
X-795.986 Y-381.375
X-796.136 Y-381.369
X-796.286 Y-381.373
X-796.435 Y-381.384
X-796.584 Y-381.404
X-796.733 Y-381.433
X-796.878 Y-381.47
X-797.021 Y-381.515
X-797.163 Y-381.569
X-797.302 Y-381.631
X-797.436 Y-381.7
X-797.565 Y-381.776
X-797.694 Y-381.861
X-797.816 Y-381.954
X-797.932 Y-382.051
X-798.043 Y-382.156
X-798.15 Y-382.269
X-798.25 Y-382.388
X-798.342 Y-382.51
X-798.428 Y-382.639
X-798.508 Y-382.774
X-798.58 Y-382.914
X-798.643 Y-383.055
X-798.699 Y-383.201
X-798.747 Y-383.353
X-798.786 Y-383.507
X-798.817 Y-383.66
X-798.838 Y-383.816
X-798.852 Y-383.977
X-798.856 Y-384.137
X-798.851 Y-384.296
X-798.837 Y-384.455
X-798.814 Y-384.614
X-798.781 Y-384.774
X-798.74 Y-384.931
X-798.691 Y-385.084
X-798.633 Y-385.235
X-798.565 Y-385.384
X-798.489 Y-385.531
X-798.405 Y-385.671
X-798.314 Y-385.806
X-798.214 Y-385.937
X-798.106 Y-386.064
X-797.991 Y-386.184
X-797.869 Y-386.297
X-797.742 Y-386.404
X-797.609 Y-386.503
X-797.468 Y-386.595
X-797.322 Y-386.68
X-797.171 Y-386.757
X-797.017 Y-386.824
X-796.86 Y-386.883
X-796.698 Y-386.933
X-796.531 Y-386.975
X-796.362 Y-387.007
X-796.192 Y-387.03
X-796.021 Y-387.042
X-795.85 Y-387.046
X-795.678 Y-387.039
X-795.505 Y-387.023
X-795.333 Y-386.997
X-795.161 Y-386.961
X-794.993 Y-386.916
X-794.828 Y-386.861
X-794.665 Y-386.797
X-794.506 Y-386.724
X-794.349 Y-386.641
X-794.197 Y-386.549
X-794.05 Y-386.448
X-793.909 Y-386.339
X-793.775 Y-386.223
X-793.647 Y-386.099
X-793.526 Y-385.968
X-793.412 Y-385.83
X-793.305 Y-385.684
X-793.206 Y-385.532
X-793.116 Y-385.374
X-793.035 Y-385.211
X-792.963 Y-385.044
X-792.9 Y-384.873
X-792.847 Y-384.698
X-792.804 Y-384.521
X-792.771 Y-384.341
X-792.748 Y-384.158
X-792.735 Y-383.973
X-792.733 Y-383.788
X-792.741 Y-383.601
X-792.76 Y-383.416
X-792.789 Y-383.231
X-792.828 Y-383.048
X-792.878 Y-382.867
X-792.938 Y-382.689
X-793.008 Y-382.514
X-793.088 Y-382.343
X-793.178 Y-382.177
X-793.277 Y-382.015
X-793.386 Y-381.859
X-793.503 Y-381.709
X-793.629 Y-381.565
X-793.764 Y-381.427
X-793.906 Y-381.298
X-794.056 Y-381.176
X-794.213 Y-381.063
X-794.376 Y-380.958
X-794.546 Y-380.863
X-794.721 Y-380.777
X-794.901 Y-380.7
X-795.085 Y-380.634
X-795.273 Y-380.579
X-795.465 Y-380.533
X-795.659 Y-380.499
X-795.855 Y-380.476
X-796.053 Y-380.463
X-796.252 Y-380.462
X-796.451 Y-380.472
X-796.649 Y-380.493
X-796.847 Y-380.526
X-797.043 Y-380.569
X-797.236 Y-380.624
X-797.427 Y-380.69
X-797.614 Y-380.766
X-797.797 Y-380.853
X-797.975 Y-380.951
X-798.148 Y-381.058
X-798.315 Y-381.176
X-798.476 Y-381.303
X-798.629 Y-381.439
X-798.775 Y-381.584
X-798.913 Y-381.737
X-799.042 Y-381.899
X-799.162 Y-382.067
X-799.273 Y-382.243
X-799.374 Y-382.424
X-799.465 Y-382.612
X-799.545 Y-382.805
X-799.615 Y-383.003
X-799.673 Y-383.205
X-799.72 Y-383.41
X-799.755 Y-383.618
X-799.779 Y-383.828
X-799.791 Y-384.04
Y-384.252
X-799.779 Y-384.465
X-799.755 Y-384.677
X-799.719 Y-384.888
X-799.671 Y-385.097
X-799.611 Y-385.303
X-799.54 Y-385.507
X-799.457 Y-385.706
X-799.362 Y-385.901
X-799.257 Y-386.09
X-799.141 Y-386.274
X-799.014 Y-386.452
X-798.877 Y-386.622
X-798.731 Y-386.785
X-798.575 Y-386.94
X-798.411 Y-387.086
X-798.238 Y-387.222
X-798.057 Y-387.35
X-797.869 Y-387.467
X-797.674 Y-387.573
X-797.473 Y-387.669
X-797.267 Y-387.753
X-797.055 Y-387.826
X-796.84 Y-387.887
X-796.62 Y-387.935
X-796.398 Y-387.972
X-796.174 Y-387.996
X-795.948 Y-388.007
X-795.721 Y-388.006
X-795.495 Y-387.991
X-795.268 Y-387.964
X-795.044 Y-387.924
X-794.821 Y-387.872
X-794.601 Y-387.806
X-794.385 Y-387.729
X-794.173 Y-387.639
X-793.966 Y-387.537
X-793.764 Y-387.424
X-793.569 Y-387.299
X-793.381 Y-387.162
X-793.2 Y-387.015
X-793.027 Y-386.858
X-792.864 Y-386.691
X-792.709 Y-386.515
X-792.565 Y-386.329
X-792.43 Y-386.136
X-792.307 Y-385.935
X-792.195 Y-385.727
X-792.095 Y-385.512
X-792.006 Y-385.292
X-791.93 Y-385.066
X-791.867 Y-384.836
X-791.817 Y-384.602
X-791.779 Y-384.366
X-791.755 Y-384.127
X-791.745 Y-383.886
X-791.748 Y-383.645
X-791.765 Y-383.404
X-791.795 Y-383.164
X-791.839 Y-382.926
X-791.896 Y-382.689
X-791.967 Y-382.456
X-792.051 Y-382.227
X-792.148 Y-382.002
X-792.258 Y-381.783
X-792.38 Y-381.57
X-792.514 Y-381.363
X-792.66 Y-381.164
X-792.817 Y-380.973
X-792.985 Y-380.791
X-793.164 Y-380.618
X-793.352 Y-380.455
X-793.55 Y-380.303
X-793.756 Y-380.162
X-793.971 Y-380.032
X-794.056 Y-379.987
X-794.146 Y-379.942
X-794.238 Y-379.902
X-794.332 Y-379.866
X-794.753 Y-379.719
X-794.955 Y-379.648
X-795.056 Y-379.626
X-795.358 Y-379.591
X-795.761 Y-379.546
X-795.962 Y-379.524
X-796.164 Y-379.537
X-796.768 Y-379.605
X-796.969 Y-379.63
X-797.17 Y-379.692
X-797.822 Y-379.92
X-797.976 Y-379.984
X-798.379 Y-380.236
X-798.58 Y-380.362
X-798.781 Y-380.492
X-798.821 Y-380.524
X-799.224 Y-380.927
X-799.426 Y-381.128
X-799.516 Y-381.229
X-799.587 Y-381.339
X-799.99 Y-381.98
X-800.033 Y-382.058
X-800.065 Y-382.135
X-800.347 Y-382.941
X-800.372 Y-383.041
X-800.392 Y-383.214
X-800.475 Y-383.948
Y-384.048
X-800.392 Y-384.786
X-800.373 Y-384.954
X-800.348 Y-385.055
X-800.102 Y-385.76
X-800.024 Y-385.961
X-799.99 Y-386.02
X-799.587 Y-386.661
X-799.519 Y-386.767
X-799.386 Y-386.912
X-798.927 Y-387.371
X-798.781 Y-387.507
X-798.685 Y-387.572
X-798.043 Y-387.975
X-797.976 Y-388.016
X-797.775 Y-388.096
X-797.17 Y-388.308
X-796.969 Y-388.37
X-796.92 Y-388.377
X-796.164 Y-388.463
X-795.962 Y-388.476
X-795.559 Y-388.431
X-795.08 Y-388.377
X-795.018 Y-388.368
X-794.955 Y-388.352
X-794.15 Y-388.07
X-794.053 Y-388.031
X-793.948 Y-387.97
X-793.315 Y-387.572
X-793.229 Y-387.516
X-793.143 Y-387.44
X-792.539 Y-386.835
X-792.481 Y-386.767
X-792.337 Y-386.54
X-792.1 Y-386.162
X-791.976 Y-385.961
X-791.935 Y-385.863
X-791.652 Y-385.055
X-791.627 Y-384.954
X-791.558 Y-384.35
X-791.532 Y-384.114
X-791.524 Y-384.031
X-791.525 Y-383.948
X-791.616 Y-383.142
X-791.628 Y-383.041
X-791.653 Y-382.941
X-791.935 Y-382.135
X-791.979 Y-382.035
X-792.039 Y-381.934
X-792.419 Y-381.33
X-792.472 Y-381.247
X-792.539 Y-381.164
X-793.143 Y-380.56
X-793.18 Y-380.524
X-793.262 Y-380.461
X-793.948 Y-380.03
X-794.049 Y-379.971
X-794.15 Y-379.93
X-794.332 Y-379.866
X-794.422 Y-379.846
X-794.515 Y-379.839
X-794.587 Y-379.853 Z18.005
X-794.659 Y-379.867 Z18.018
X-794.728 Y-379.88 Z18.041
X-794.795 Y-379.921 Z18.079
X-794.857 Y-379.96 Z18.129
X-794.913 Y-379.994 Z18.188
X-794.949 Y-380.037 Z18.259
X-794.979 Y-380.072 Z18.337
X-795 Y-380.098 Z18.421
X-795.013 Y-380.113 Z18.509
X-795.018 Y-380.118 Z18.6
G0 Z36
X-796 Y-192
Z26.6
G1 Z26 F850
Z18 F283.3
X-796.012 Y-192.035 F850
X-795.985 Y-192.061
X-795.949 Y-192.05
X-795.925 Y-192.021
X-795.92 Y-191.984
X-795.934 Y-191.948
X-795.961 Y-191.923
X-795.997 Y-191.913
X-796.034 Y-191.918
X-796.065 Y-191.939
X-796.085 Y-191.971
X-796.092 Y-192.008
X-796.089 Y-192.045
X-796.074 Y-192.08
X-796.049 Y-192.107
X-796.016 Y-192.126
X-795.979 Y-192.133
X-795.942 Y-192.129
X-795.907 Y-192.115
X-795.847 Y-192.069
X-795.818 Y-192
X-795.822 Y-191.925
X-795.857 Y-191.859
X-795.914 Y-191.811
X-795.986 Y-191.788
X-796.061 Y-191.793
X-796.129 Y-191.823
X-796.185 Y-191.874
X-796.222 Y-191.939
X-796.237 Y-192.012
X-796.23 Y-192.087
X-796.202 Y-192.157
X-796.156 Y-192.215
X-796.095 Y-192.259
X-795.954 Y-192.311
X-795.806 Y-192.289
X-795.683 Y-192.202
X-795.607 Y-192.073
X-795.588 Y-191.924
X-795.625 Y-191.779
X-795.711 Y-191.656
X-795.833 Y-191.57
X-795.978 Y-191.529
X-796.128 Y-191.537
X-796.268 Y-191.59
X-796.386 Y-191.682
X-796.471 Y-191.806
X-796.518 Y-191.948
X-796.524 Y-192.098
X-796.488 Y-192.244
X-796.418 Y-192.376
X-796.317 Y-192.487
X-796.192 Y-192.57
X-796.05 Y-192.619
X-795.901 Y-192.635
X-795.753 Y-192.615
X-795.612 Y-192.562
X-795.487 Y-192.479
X-795.383 Y-192.371
X-795.304 Y-192.244
X-795.253 Y-192.103
X-795.231 Y-191.954
X-795.24 Y-191.805
X-795.278 Y-191.659
X-795.344 Y-191.525
X-795.433 Y-191.404
X-795.544 Y-191.303
X-795.671 Y-191.223
X-795.81 Y-191.167
X-795.957 Y-191.138
X-796.107 Y-191.134
X-796.255 Y-191.157
X-796.398 Y-191.204
X-796.53 Y-191.274
X-796.649 Y-191.365
X-796.752 Y-191.475
X-796.835 Y-191.6
X-796.898 Y-191.736
X-796.938 Y-191.88
X-796.955 Y-192.029
X-796.95 Y-192.179
X-796.922 Y-192.327
X-796.873 Y-192.469
X-796.804 Y-192.601
X-796.716 Y-192.723
X-796.612 Y-192.831
X-796.493 Y-192.922
X-796.363 Y-192.997
X-796.223 Y-193.052
X-796.078 Y-193.088
X-795.928 Y-193.103
X-795.779 Y-193.098
X-795.63 Y-193.074
X-795.487 Y-193.03
X-795.351 Y-192.967
X-795.223 Y-192.888
X-795.107 Y-192.793
X-795.004 Y-192.684
X-794.916 Y-192.563
X-794.843 Y-192.432
X-794.786 Y-192.293
X-794.748 Y-192.148
X-794.727 Y-191.999
X-794.724 Y-191.849
X-794.739 Y-191.7
X-794.771 Y-191.554
X-794.82 Y-191.412
X-794.885 Y-191.277
X-794.965 Y-191.15
X-795.059 Y-191.033
X-795.166 Y-190.928
X-795.283 Y-190.834
X-795.411 Y-190.755
X-795.546 Y-190.69
X-795.687 Y-190.641
X-795.834 Y-190.607
X-795.982 Y-190.589
X-796.132 Y-190.586
X-796.282 Y-190.6
X-796.429 Y-190.63
X-796.572 Y-190.675
X-796.71 Y-190.734
X-796.841 Y-190.807
X-796.963 Y-190.894
X-797.077 Y-190.992
X-797.18 Y-191.101
X-797.271 Y-191.22
X-797.35 Y-191.348
X-797.416 Y-191.482
X-797.468 Y-191.623
X-797.507 Y-191.768
X-797.531 Y-191.916
X-797.541 Y-192.065
X-797.537 Y-192.215
X-797.519 Y-192.364
X-797.486 Y-192.511
X-797.44 Y-192.653
X-797.381 Y-192.791
X-797.309 Y-192.923
X-797.226 Y-193.048
X-797.132 Y-193.164
X-797.027 Y-193.272
X-796.913 Y-193.369
X-796.791 Y-193.456
X-796.661 Y-193.532
X-796.525 Y-193.595
X-796.384 Y-193.647
X-796.24 Y-193.686
X-796.092 Y-193.712
X-795.943 Y-193.725
X-795.792
X-795.643 Y-193.713
X-795.495 Y-193.687
X-795.35 Y-193.649
X-795.209 Y-193.599
X-795.072 Y-193.537
X-794.941 Y-193.464
X-794.816 Y-193.381
X-794.699 Y-193.287
X-794.59 Y-193.184
X-794.49 Y-193.072
X-794.399 Y-192.953
X-794.319 Y-192.827
X-794.248 Y-192.694
X-794.189 Y-192.556
X-794.141 Y-192.414
X-794.104 Y-192.269
X-794.079 Y-192.121
X-794.065 Y-191.972
X-794.063 Y-191.822
X-794.073 Y-191.672
X-794.095 Y-191.524
X-794.128 Y-191.377
X-794.172 Y-191.234
X-794.227 Y-191.094
X-794.293 Y-190.959
X-794.368 Y-190.83
X-794.453 Y-190.706
X-794.548 Y-190.589
X-794.65 Y-190.48
X-794.761 Y-190.379
X-794.878 Y-190.286
X-795.003 Y-190.202
X-795.133 Y-190.127
X-795.268 Y-190.062
X-795.408 Y-190.007
X-795.551 Y-189.963
X-795.697 Y-189.929
X-795.845 Y-189.905
X-795.995 Y-189.892
X-796.144 Y-189.89
X-796.294 Y-189.899
X-796.443 Y-189.918
X-796.59 Y-189.948
X-796.735 Y-189.987
X-796.876 Y-190.037
X-797.014 Y-190.097
X-797.147 Y-190.166
X-797.275 Y-190.244
X-797.397 Y-190.331
X-797.513 Y-190.426
X-797.623 Y-190.529
X-797.725 Y-190.639
X-797.819 Y-190.756
X-797.905 Y-190.878
X-797.983 Y-191.006
X-798.052 Y-191.14
X-798.112 Y-191.277
X-798.163 Y-191.418
X-798.204 Y-191.563
X-798.236 Y-191.709
X-798.258 Y-191.858
X-798.27 Y-192.007
X-798.272 Y-192.157
X-798.264 Y-192.307
X-798.247 Y-192.456
X-798.22 Y-192.603
X-798.184 Y-192.749
X-798.139 Y-192.892
X-798.084 Y-193.032
X-798.021 Y-193.168
X-797.949 Y-193.299
X-797.869 Y-193.426
X-797.781 Y-193.548
X-797.686 Y-193.664
X-797.584 Y-193.773
X-797.474 Y-193.876
X-797.359 Y-193.972
X-797.238 Y-194.061
X-797.112 Y-194.142
X-796.981 Y-194.215
X-796.846 Y-194.28
X-796.707 Y-194.336
X-796.565 Y-194.384
X-796.42 Y-194.423
X-796.273 Y-194.453
X-796.124 Y-194.475
X-795.975 Y-194.487
X-795.825 Y-194.49
X-795.675 Y-194.485
X-795.526 Y-194.47
X-795.378 Y-194.447
X-795.231 Y-194.414
X-795.087 Y-194.373
X-794.945 Y-194.324
X-794.807 Y-194.267
X-794.672 Y-194.201
X-794.541 Y-194.128
X-794.414 Y-194.047
X-794.293 Y-193.959
X-794.177 Y-193.864
X-794.066 Y-193.762
X-793.962 Y-193.655
X-793.864 Y-193.541
X-793.772 Y-193.422
X-793.688 Y-193.298
X-793.611 Y-193.17
X-793.54 Y-193.036
X-793.478 Y-192.899
X-793.423 Y-192.76
X-793.377 Y-192.616
X-793.338 Y-192.468
X-793.308 Y-192.321
X-793.286 Y-192.172
X-793.272 Y-192.019
X-793.267 Y-191.865
X-793.271 Y-191.714
X-793.283 Y-191.562
X-793.304 Y-191.407
X-793.334 Y-191.255
X-793.371 Y-191.107
X-793.418 Y-190.959
X-793.474 Y-190.812
X-793.537 Y-190.669
X-793.608 Y-190.531
X-793.687 Y-190.396
X-793.775 Y-190.263
X-793.87 Y-190.137
X-793.971 Y-190.017
X-794.08 Y-189.902
X-794.196 Y-189.791
X-794.319 Y-189.688
X-794.446 Y-189.592
X-794.578 Y-189.503
X-794.717 Y-189.421
X-794.862 Y-189.346
X-795.01 Y-189.28
X-795.16 Y-189.223
X-795.314 Y-189.174
X-795.473 Y-189.133
X-795.635 Y-189.101
X-795.797 Y-189.079
X-795.959 Y-189.065
X-796.124 Y-189.061
X-796.29 Y-189.066
X-796.456 Y-189.08
X-796.621 Y-189.104
X-796.783 Y-189.137
X-796.944 Y-189.179
X-797.104 Y-189.23
X-797.262 Y-189.291
X-797.416 Y-189.361
X-797.565 Y-189.439
X-797.71 Y-189.525
X-797.85 Y-189.619
X-797.987 Y-189.723
X-798.118 Y-189.835
X-798.242 Y-189.953
X-798.359 Y-190.078
X-798.468 Y-190.21
X-798.571 Y-190.348
X-798.667 Y-190.493
X-798.755 Y-190.644
X-798.834 Y-190.8
X-798.904 Y-190.959
X-798.965 Y-191.122
X-799.017 Y-191.289
X-799.06 Y-191.46
X-799.093 Y-191.633
X-799.116 Y-191.81
X-799.13 Y-191.987
X-799.133 Y-192.165
X-799.127 Y-192.343
X-799.11 Y-192.52
X-799.084 Y-192.697
X-799.047 Y-192.872
X-799 Y-193.047
X-798.944 Y-193.219
X-798.877 Y-193.388
X-798.801 Y-193.554
X-798.716 Y-193.714
X-798.622 Y-193.87
X-798.519 Y-194.021
X-798.407 Y-194.166
X-798.288 Y-194.304
X-798.159 Y-194.437
X-798.023 Y-194.562
X-797.88 Y-194.68
X-797.73 Y-194.791
X-797.573 Y-194.892
X-797.411 Y-194.985
X-797.244 Y-195.069
X-797.071 Y-195.144
X-796.895 Y-195.208
X-796.715 Y-195.263
X-796.532 Y-195.308
X-796.346 Y-195.342
X-796.157 Y-195.366
X-795.968 Y-195.379
X-795.777 Y-195.382
X-795.586 Y-195.373
X-795.394 Y-195.354
X-795.204 Y-195.324
X-795.016 Y-195.284
X-794.829 Y-195.233
X-794.645 Y-195.171
X-794.465 Y-195.098
X-794.288 Y-195.016
X-794.116 Y-194.923
X-793.949 Y-194.821
X-793.787 Y-194.709
X-793.632 Y-194.588
X-793.484 Y-194.458
X-793.343 Y-194.32
X-793.209 Y-194.173
X-793.084 Y-194.019
X-792.967 Y-193.858
X-792.859 Y-193.69
X-792.761 Y-193.515
X-792.672 Y-193.335
X-792.593 Y-193.15
X-792.525 Y-192.96
X-792.468 Y-192.766
X-792.421 Y-192.569
X-792.385 Y-192.369
X-792.361 Y-192.167
X-792.348 Y-191.963
X-792.347 Y-191.758
X-792.357 Y-191.554
X-792.379 Y-191.349
X-792.412 Y-191.146
X-792.457 Y-190.944
X-792.513 Y-190.745
X-792.58 Y-190.549
X-792.659 Y-190.356
X-792.749 Y-190.167
X-792.849 Y-189.984
X-792.959 Y-189.806
X-793.08 Y-189.634
X-793.211 Y-189.469
X-793.351 Y-189.311
X-793.5 Y-189.161
X-793.657 Y-189.019
X-793.823 Y-188.886
X-793.996 Y-188.763
X-794.177 Y-188.648
X-794.364 Y-188.545
X-794.556 Y-188.451
X-794.755 Y-188.368
X-794.958 Y-188.297
X-795.166 Y-188.237
X-795.377 Y-188.188
X-795.59 Y-188.152
X-795.806 Y-188.127
X-796.024 Y-188.115
X-796.243
X-796.461 Y-188.127
X-796.679 Y-188.151
X-796.896 Y-188.188
X-797.111 Y-188.237
X-797.323 Y-188.299
X-797.533 Y-188.372
X-797.738 Y-188.457
X-797.938 Y-188.554
X-798.133 Y-188.662
X-798.322 Y-188.781
X-798.505 Y-188.912
X-798.68 Y-189.052
X-798.848 Y-189.203
X-799.007 Y-189.363
X-799.157 Y-189.532
X-799.298 Y-189.709
X-799.428 Y-189.895
X-799.549 Y-190.088
X-799.659 Y-190.288
X-799.757 Y-190.495
X-799.844 Y-190.707
X-799.919 Y-190.925
X-799.981 Y-191.146
X-800.032 Y-191.371
X-800.069 Y-191.599
X-800.094 Y-191.83
X-800.106 Y-192.062
X-800.104 Y-192.295
X-800.09 Y-192.528
X-800.062 Y-192.76
X-800.021 Y-192.991
X-799.967 Y-193.22
X-799.901 Y-193.445
X-799.821 Y-193.668
X-799.729 Y-193.885
X-799.625 Y-194.098
X-799.508 Y-194.305
X-799.38 Y-194.505
X-799.24 Y-194.699
X-799.089 Y-194.885
X-798.928 Y-195.062
X-798.757 Y-195.23
X-798.576 Y-195.389
X-798.386 Y-195.537
X-798.187 Y-195.675
X-797.981 Y-195.802
X-797.768 Y-195.917
X-797.548 Y-196.02
X-797.322 Y-196.111
X-797.09 Y-196.189
X-796.854 Y-196.254
X-796.615 Y-196.306
X-796.372 Y-196.344
X-796.127 Y-196.369
X-795.88 Y-196.38
X-795.633 Y-196.377
X-795.386 Y-196.36
X-795.139 Y-196.329
X-794.894 Y-196.284
X-794.652 Y-196.225
X-794.412 Y-196.153
X-794.177 Y-196.067
X-794.084 Y-196.026
X-793.99 Y-195.983
X-793.899 Y-195.936
X-793.811 Y-195.883
X-793.482 Y-195.677
X-793.262 Y-195.538
X-793.18 Y-195.476
X-793.143 Y-195.44
X-792.539 Y-194.836
X-792.472 Y-194.753
X-792.166 Y-194.267
X-792.039 Y-194.066
X-791.979 Y-193.965
X-791.935 Y-193.863
X-791.653 Y-193.059
X-791.628 Y-192.959
X-791.616 Y-192.858
X-791.525 Y-192.052
X-791.524 Y-191.969
X-791.536 Y-191.851
X-791.604 Y-191.247
X-791.627 Y-191.046
X-791.652 Y-190.945
X-791.935 Y-190.137
X-791.976 Y-190.039
X-792.136 Y-189.78
X-792.353 Y-189.435
X-792.481 Y-189.233
X-792.539 Y-189.165
X-793.143 Y-188.56
X-793.229 Y-188.484
X-793.344 Y-188.41
X-793.957 Y-188.025
X-794.053 Y-187.969
X-794.15 Y-187.93
X-794.955 Y-187.648
X-795.018 Y-187.632
X-795.08 Y-187.623
X-795.761 Y-187.546
X-795.962 Y-187.524
X-796.164 Y-187.537
X-796.92 Y-187.623
X-796.969 Y-187.63
X-797.17 Y-187.692
X-797.775 Y-187.904
X-797.976 Y-187.984
X-798.043 Y-188.025
X-798.685 Y-188.428
X-798.781 Y-188.493
X-798.927 Y-188.629
X-799.386 Y-189.088
X-799.519 Y-189.233
X-799.587 Y-189.339
X-799.99 Y-189.98
X-800.024 Y-190.039
X-800.102 Y-190.24
X-800.348 Y-190.945
X-800.373 Y-191.046
X-800.442 Y-191.65
X-800.475 Y-191.952
Y-192.052
X-800.384 Y-192.858
X-800.372 Y-192.959
X-800.347 Y-193.059
X-800.065 Y-193.865
X-800.033 Y-193.942
X-799.99 Y-194.02
X-799.581 Y-194.67
X-799.516 Y-194.771
X-799.426 Y-194.872
X-798.983 Y-195.315
X-798.821 Y-195.476
X-798.781 Y-195.508
X-798.58 Y-195.638
X-798.177 Y-195.891
X-797.976 Y-196.016
X-797.822 Y-196.08
X-797.17 Y-196.308
X-796.969 Y-196.37
X-796.768 Y-196.395
X-796.164 Y-196.463
X-795.962 Y-196.476
X-795.559 Y-196.431
X-795.157 Y-196.386
X-795.056 Y-196.374
X-794.955 Y-196.352
X-794.15 Y-196.07
X-794.049 Y-196.029
X-793.948 Y-195.97
X-793.811 Y-195.883
X-793.739 Y-195.826
X-793.676 Y-195.757
X-793.642 Y-195.692 Z18.005
X-793.608 Y-195.628 Z18.018
X-793.575 Y-195.565 Z18.041
X-793.565 Y-195.502 Z18.071
X-793.556 Y-195.442 Z18.108
X-793.548 Y-195.387 Z18.153
X-793.557 Y-195.329 Z18.213
X-793.566 Y-195.28 Z18.281
X-793.572 Y-195.241 Z18.355
X-793.577 Y-195.213 Z18.434
X-793.58 Y-195.196 Z18.516
X-793.581 Y-195.19 Z18.599
G0 Z36
X-796 Y0
Z26.6
G1 Z26 F850
Z18 F283.3
X-796.02 Y0.032 F850
X-796.057 Y0.026
X-796.071 Y-0.009
X-796.063 Y-0.046
X-796.037 Y-0.073
X-796.001 Y-0.084
X-795.964 Y-0.078
X-795.933 Y-0.057
X-795.915 Y-0.024
X-795.912 Y0.013
X-795.924 Y0.049
X-795.949 Y0.077
X-795.98 Y0.098
X-796.016 Y0.108
X-796.054 Y0.105
X-796.088 Y0.091
X-796.117 Y0.066
X-796.137 Y0.035
X-796.148 Y-0.001
X-796.15 Y-0.076
X-796.114 Y-0.142
X-796.053 Y-0.186
X-795.979 Y-0.2
X-795.906 Y-0.185
X-795.843 Y-0.143
X-795.8 Y-0.082
X-795.781 Y-0.009
X-795.786 Y0.066
X-795.814 Y0.135
X-795.862 Y0.193
X-795.924 Y0.234
X-795.996 Y0.256
X-796.071
X-796.144 Y0.236
X-796.272 Y0.158
X-796.347 Y0.028
X-796.356 Y-0.122
X-796.302 Y-0.262
X-796.198 Y-0.37
X-796.061 Y-0.431
X-795.911 Y-0.441
X-795.767 Y-0.399
X-795.646 Y-0.311
X-795.558 Y-0.189
X-795.512 Y-0.046
X-795.511 Y0.104
X-795.554 Y0.247
X-795.636 Y0.373
X-795.75 Y0.471
X-795.886 Y0.534
X-796.033 Y0.561
X-796.183 Y0.551
X-796.326 Y0.505
X-796.453 Y0.425
X-796.558 Y0.319
X-796.635 Y0.19
X-796.682 Y0.047
X-796.694 Y-0.102
X-796.675 Y-0.251
X-796.625 Y-0.392
X-796.546 Y-0.52
X-796.444 Y-0.63
X-796.321 Y-0.716
X-796.184 Y-0.777
X-796.037 Y-0.809
X-795.888 Y-0.815
X-795.739 Y-0.791
X-795.598 Y-0.742
X-795.467 Y-0.668
X-795.353 Y-0.571
X-795.256 Y-0.456
X-795.182 Y-0.326
X-795.129 Y-0.185
X-795.102 Y-0.038
X-795.099 Y0.112
X-795.12 Y0.26
X-795.166 Y0.403
X-795.234 Y0.537
X-795.322 Y0.659
X-795.427 Y0.765
X-795.548 Y0.855
X-795.68 Y0.925
X-795.822 Y0.975
X-795.969 Y1.003
X-796.119 Y1.011
X-796.268 Y0.996
X-796.414 Y0.96
X-796.553 Y0.905
X-796.683 Y0.83
X-796.802 Y0.739
X-796.907 Y0.632
X-796.997 Y0.512
X-797.07 Y0.381
X-797.125 Y0.241
X-797.161 Y0.095
X-797.179 Y-0.054
X-797.176 Y-0.203
X-797.156 Y-0.352
X-797.116 Y-0.497
X-797.059 Y-0.635
X-796.986 Y-0.766
X-796.896 Y-0.887
X-796.793 Y-0.996
X-796.678 Y-1.092
X-796.552 Y-1.173
X-796.417 Y-1.239
X-796.276 Y-1.29
X-796.13 Y-1.323
X-795.981 Y-1.339
X-795.831
X-795.682 Y-1.321
X-795.536 Y-1.287
X-795.394 Y-1.237
X-795.259 Y-1.171
X-795.132 Y-1.092
X-795.015 Y-0.999
X-794.907 Y-0.894
X-794.812 Y-0.778
X-794.73 Y-0.652
X-794.661 Y-0.519
X-794.607 Y-0.379
X-794.568 Y-0.234
X-794.543 Y-0.086
X-794.534 Y0.063
X-794.541 Y0.213
X-794.562 Y0.362
X-794.598 Y0.507
X-794.648 Y0.649
X-794.712 Y0.784
X-794.79 Y0.913
X-794.879 Y1.033
X-794.979 Y1.145
X-795.09 Y1.246
X-795.21 Y1.336
X-795.338 Y1.414
X-795.473 Y1.48
X-795.613 Y1.533
X-795.758 Y1.573
X-795.905 Y1.599
X-796.055 Y1.612
X-796.205 Y1.611
X-796.354 Y1.596
X-796.501 Y1.568
X-796.645 Y1.526
X-796.785 Y1.472
X-796.92 Y1.406
X-797.048 Y1.327
X-797.169 Y1.238
X-797.281 Y1.139
X-797.385 Y1.031
X-797.478 Y0.913
X-797.562 Y0.789
X-797.634 Y0.657
X-797.695 Y0.52
X-797.744 Y0.378
X-797.781 Y0.233
X-797.805 Y0.085
X-797.818 Y-0.064
X-797.817 Y-0.214
X-797.805 Y-0.364
X-797.78 Y-0.512
X-797.743 Y-0.657
X-797.695 Y-0.799
X-797.635 Y-0.937
X-797.564 Y-1.069
X-797.483 Y-1.195
X-797.393 Y-1.315
X-797.293 Y-1.427
X-797.184 Y-1.53
X-797.068 Y-1.625
X-796.945 Y-1.711
X-796.815 Y-1.786
X-796.68 Y-1.852
X-796.541 Y-1.907
X-796.397 Y-1.951
X-796.251 Y-1.984
X-796.102 Y-2.005
X-795.953 Y-2.016
X-795.803 Y-2.015
X-795.653 Y-2.003
X-795.505 Y-1.98
X-795.359 Y-1.946
X-795.216 Y-1.901
X-795.076 Y-1.846
X-794.941 Y-1.781
X-794.811 Y-1.706
X-794.687 Y-1.621
X-794.569 Y-1.529
X-794.459 Y-1.427
X-794.355 Y-1.319
X-794.26 Y-1.203
X-794.174 Y-1.08
X-794.096 Y-0.952
X-794.027 Y-0.818
X-793.968 Y-0.68
X-793.919 Y-0.539
X-793.88 Y-0.394
X-793.851 Y-0.247
X-793.833 Y-0.098
X-793.824 Y0.052
X-793.826 Y0.202
X-793.838 Y0.351
X-793.861 Y0.5
X-793.893 Y0.646
X-793.935 Y0.79
X-793.987 Y0.931
X-794.048 Y1.068
X-794.118 Y1.201
X-794.197 Y1.328
X-794.284 Y1.45
X-794.379 Y1.566
X-794.481 Y1.676
X-794.591 Y1.779
X-794.706 Y1.874
X-794.828 Y1.962
X-794.955 Y2.041
X-795.087 Y2.112
X-795.224 Y2.175
X-795.364 Y2.228
X-795.507 Y2.273
X-795.653 Y2.308
X-795.801 Y2.334
X-795.95 Y2.351
X-796.099 Y2.358
X-796.25 Y2.355
X-796.399 Y2.344
X-796.548 Y2.322
X-796.694 Y2.292
X-796.839 Y2.253
X-796.981 Y2.205
X-797.12 Y2.148
X-797.255 Y2.083
X-797.386 Y2.009
X-797.512 Y1.928
X-797.633 Y1.839
X-797.748 Y1.743
X-797.857 Y1.64
X-797.96 Y1.531
X-798.056 Y1.416
X-798.145 Y1.295
X-798.227 Y1.169
X-798.301 Y1.039
X-798.367 Y0.904
X-798.425 Y0.766
X-798.475 Y0.624
X-798.516 Y0.48
X-798.549 Y0.334
X-798.573 Y0.186
X-798.589 Y0.037
X-798.596 Y-0.113
X-798.594 Y-0.263
X-798.583 Y-0.413
X-798.565 Y-0.562
X-798.537 Y-0.709
X-798.501 Y-0.855
X-798.457 Y-0.998
X-798.404 Y-1.139
X-798.344 Y-1.277
X-798.276 Y-1.411
X-798.2 Y-1.541
X-798.117 Y-1.667
X-798.026 Y-1.79
X-797.929 Y-1.905
X-797.827 Y-2.015
X-797.715 Y-2.121
X-797.598 Y-2.221
X-797.478 Y-2.312
X-797.351 Y-2.398
X-797.217 Y-2.477
X-797.08 Y-2.549
X-796.941 Y-2.612
X-796.796 Y-2.668
X-796.646 Y-2.716
X-796.494 Y-2.756
X-796.343 Y-2.786
X-796.188 Y-2.808
X-796.029 Y-2.822
X-795.871 Y-2.827
X-795.714 Y-2.823
X-795.557 Y-2.81
X-795.398 Y-2.787
X-795.24 Y-2.756
X-795.086 Y-2.716
X-794.935 Y-2.668
X-794.784 Y-2.611
X-794.635 Y-2.544
X-794.491 Y-2.47
X-794.353 Y-2.388
X-794.218 Y-2.298
X-794.087 Y-2.199
X-793.961 Y-2.093
X-793.843 Y-1.98
X-793.731 Y-1.862
X-793.625 Y-1.736
X-793.525 Y-1.602
X-793.433 Y-1.464
X-793.349 Y-1.32
X-793.273 Y-1.173
X-793.206 Y-1.021
X-793.146 Y-0.864
X-793.095 Y-0.702
X-793.054 Y-0.538
X-793.021 Y-0.373
X-792.999 Y-0.207
X-792.985 Y-0.038
X-792.981 Y0.134
X-792.987 Y0.306
X-793.002 Y0.476
X-793.027 Y0.646
X-793.061 Y0.813
X-793.105 Y0.98
X-793.159 Y1.145
X-793.222 Y1.308
X-793.295 Y1.467
X-793.376 Y1.622
X-793.465 Y1.771
X-793.563 Y1.915
X-793.67 Y2.055
X-793.785 Y2.189
X-793.908 Y2.318
X-794.039 Y2.439
X-794.176 Y2.553
X-794.319 Y2.658
X-794.467 Y2.756
X-794.622 Y2.845
X-794.782 Y2.926
X-794.948 Y2.998
X-795.117 Y3.061
X-795.292 Y3.115
X-795.468 Y3.159
X-795.647 Y3.192
X-795.828 Y3.216
X-796.01 Y3.229
X-796.192 Y3.232
X-796.375 Y3.225
X-796.559 Y3.208
X-796.742 Y3.18
X-796.923 Y3.141
X-797.103 Y3.092
X-797.281 Y3.033
X-797.454 Y2.965
X-797.624 Y2.886
X-797.79 Y2.798
X-797.95 Y2.7
X-798.106 Y2.593
X-798.255 Y2.478
X-798.397 Y2.354
X-798.533 Y2.222
X-798.662 Y2.082
X-798.783 Y1.934
X-798.896 Y1.779
X-799 Y1.618
X-799.095 Y1.451
X-799.181 Y1.278
X-799.257 Y1.1
X-799.324 Y0.918
X-799.38 Y0.731
X-799.425 Y0.542
X-799.46 Y0.349
X-799.484 Y0.155
X-799.497 Y-0.041
X-799.5 Y-0.238
X-799.491 Y-0.435
X-799.47 Y-0.631
X-799.439 Y-0.827
X-799.397 Y-1.021
X-799.344 Y-1.213
X-799.279 Y-1.402
X-799.204 Y-1.588
X-799.119 Y-1.77
X-799.023 Y-1.946
X-798.917 Y-2.118
X-798.801 Y-2.284
X-798.676 Y-2.443
X-798.542 Y-2.596
X-798.399 Y-2.741
X-798.248 Y-2.878
X-798.089 Y-3.007
X-797.922 Y-3.126
X-797.749 Y-3.237
X-797.569 Y-3.338
X-797.384 Y-3.429
X-797.193 Y-3.509
X-796.997 Y-3.579
X-796.798 Y-3.637
X-796.594 Y-3.685
X-796.389 Y-3.721
X-796.181 Y-3.745
X-795.971 Y-3.758
X-795.76 Y-3.759
X-795.55 Y-3.748
X-795.339 Y-3.725
X-795.13 Y-3.69
X-794.923 Y-3.643
X-794.718 Y-3.585
X-794.516 Y-3.515
X-794.319 Y-3.434
X-794.125 Y-3.341
X-793.937 Y-3.238
X-793.754 Y-3.123
X-793.578 Y-2.999
X-793.408 Y-2.864
X-793.247 Y-2.72
X-793.093 Y-2.566
X-792.947 Y-2.404
X-792.811 Y-2.233
X-792.684 Y-2.054
X-792.567 Y-1.868
X-792.461 Y-1.676
X-792.366 Y-1.477
X-792.281 Y-1.273
X-792.208 Y-1.064
X-792.147 Y-0.85
X-792.098 Y-0.633
X-792.061 Y-0.413
X-792.036 Y-0.191
X-792.024 Y0.033
Y0.257
X-792.037 Y0.482
X-792.063 Y0.706
X-792.102 Y0.929
X-792.153 Y1.15
X-792.217 Y1.368
X-792.293 Y1.583
X-792.381 Y1.793
X-792.481 Y1.999
X-792.593 Y2.199
X-792.716 Y2.393
X-792.85 Y2.58
X-792.995 Y2.76
X-793.15 Y2.932
X-793.314 Y3.095
X-793.489 Y3.249
X-793.672 Y3.393
X-793.863 Y3.527
X-794.062 Y3.65
X-794.268 Y3.762
X-794.48 Y3.862
X-794.698 Y3.951
X-794.921 Y4.027
X-795.149 Y4.091
X-795.38 Y4.142
X-795.615 Y4.18
X-795.852 Y4.204
X-796.09 Y4.216
X-796.329 Y4.214
X-796.568 Y4.198
X-796.807 Y4.169
X-797.044 Y4.127
X-797.278 Y4.071
X-797.51 Y4.002
X-797.737 Y3.919
X-797.96 Y3.824
X-798.178 Y3.716
X-798.39 Y3.596
X-798.595 Y3.464
X-798.793 Y3.32
X-798.983 Y3.165
X-799.165 Y2.999
X-799.337 Y2.823
X-799.499 Y2.637
X-799.651 Y2.442
X-799.792 Y2.238
X-799.921 Y2.026
X-800.039 Y1.806
X-800.144 Y1.58
X-800.237 Y1.348
X-800.316 Y1.11
X-800.343 Y1.011
X-800.368 Y0.911
X-800.387 Y0.81
X-800.401 Y0.708
X-800.453 Y0.245
X-800.475 Y0.044
X-800.474 Y-0.057
X-800.392 Y-0.786
X-800.372 Y-0.963
X-800.31 Y-1.164
X-800.099 Y-1.768
X-800.019 Y-1.97
X-799.99 Y-2.02
X-799.587 Y-2.661
X-799.513 Y-2.775
X-799.386 Y-2.912
X-798.918 Y-3.379
X-798.781 Y-3.507
X-798.671 Y-3.581
X-798.03 Y-3.983
X-797.976 Y-4.016
X-797.775 Y-4.097
X-797.17 Y-4.308
X-796.969 Y-4.37
X-796.843 Y-4.386
X-796.164 Y-4.463
X-795.962 Y-4.476
X-795.559 Y-4.431
X-795.056 Y-4.374
X-794.955 Y-4.352
X-794.15 Y-4.07
X-794.06 Y-4.035
X-793.97 Y-3.983
X-793.329 Y-3.581
X-793.236 Y-3.52
X-793.143 Y-3.44
X-792.539 Y-2.836
X-792.488 Y-2.775
X-792.337 Y-2.54
X-792.105 Y-2.171
X-791.981 Y-1.97
X-791.935 Y-1.863
X-791.69 Y-1.164
X-791.628 Y-0.963
X-791.605 Y-0.762
X-791.532 Y-0.114
X-791.524 Y-0.035
X-791.525 Y0.044
X-791.547 Y0.245
X-791.627 Y0.95
X-791.65 Y1.051
X-791.935 Y1.863
X-791.976 Y1.96
X-792.034 Y2.057
X-792.468 Y2.749
X-792.5 Y2.792
X-792.539 Y2.836
X-793.17 Y3.467
X-793.257 Y3.535
X-793.789 Y3.87
X-793.948 Y3.97
X-794.049 Y4.029
X-794.152 Y4.071
X-794.955 Y4.352
X-795.056 Y4.374
X-795.936 Y4.474
X-795.962 Y4.476
X-796.063 Y4.474
X-796.768 Y4.395
X-796.969 Y4.37
X-797.17 Y4.308
X-797.848 Y4.071
X-797.976 Y4.016
X-798.211 Y3.87
X-798.58 Y3.638
X-798.781 Y3.507
X-798.83 Y3.467
X-799.435 Y2.863
X-799.522 Y2.762
X-799.587 Y2.661
X-799.99 Y2.02
X-800.036 Y1.938
X-800.068 Y1.856
X-800.35 Y1.051
X-800.373 Y0.95
X-800.401 Y0.708
Y0.616
X-800.387 Y0.524
X-800.357 Y0.457 Z18.005
X-800.328 Y0.39 Z18.018
X-800.3 Y0.325 Z18.041
X-800.244 Y0.269 Z18.079
X-800.193 Y0.217 Z18.129
X-800.148 Y0.171 Z18.188
X-800.097 Y0.145 Z18.259
X-800.056 Y0.124 Z18.337
X-800.027 Y0.109 Z18.421
X-800.009 Y0.099 Z18.509
X-800.003 Y0.096 Z18.6
G0 Z36
X-398 Y-576
Z26.6
G1 Z26 F850
Z18 F283.3
X-398.036 Y-575.987 F850
X-398.061 Y-576.015
X-398.05 Y-576.051
X-398.021 Y-576.075
X-397.984 Y-576.08
X-397.949 Y-576.067
X-397.923 Y-576.039
X-397.913 Y-576.003
X-397.918 Y-575.966
X-397.939 Y-575.935
X-397.971 Y-575.915
X-398.008 Y-575.908
X-398.045 Y-575.911
X-398.08 Y-575.926
X-398.107 Y-575.951
X-398.126 Y-575.984
X-398.133 Y-576.021
X-398.129 Y-576.058
X-398.115 Y-576.093
X-398.07 Y-576.153
X-398.001 Y-576.182
X-397.926 Y-576.178
X-397.859 Y-576.144
X-397.811 Y-576.086
X-397.788 Y-576.015
X-397.793 Y-575.94
X-397.823 Y-575.871
X-397.873 Y-575.816
X-397.938 Y-575.779
X-398.011 Y-575.763
X-398.086 Y-575.769
X-398.156 Y-575.797
X-398.215 Y-575.843
X-398.259 Y-575.904
X-398.311 Y-576.044
X-398.289 Y-576.193
X-398.204 Y-576.316
X-398.075 Y-576.392
X-397.926 Y-576.413
X-397.78 Y-576.376
X-397.657 Y-576.291
X-397.57 Y-576.169
X-397.529 Y-576.024
X-397.536 Y-575.875
X-397.589 Y-575.734
X-397.681 Y-575.616
X-397.804 Y-575.529
X-397.946 Y-575.482
X-398.096 Y-575.476
X-398.241 Y-575.511
X-398.374 Y-575.58
X-398.485 Y-575.681
X-398.569 Y-575.806
X-398.619 Y-575.947
X-398.636 Y-576.096
X-398.616 Y-576.245
X-398.564 Y-576.386
X-398.481 Y-576.51
X-398.374 Y-576.616
X-398.247 Y-576.695
X-398.106 Y-576.747
X-397.958 Y-576.769
X-397.808 Y-576.761
X-397.663 Y-576.724
X-397.528 Y-576.658
X-397.407 Y-576.57
X-397.305 Y-576.459
X-397.224 Y-576.333
X-397.168 Y-576.194
X-397.138 Y-576.047
X-397.133 Y-575.897
X-397.156 Y-575.748
X-397.202 Y-575.606
X-397.272 Y-575.473
X-397.362 Y-575.353
X-397.471 Y-575.25
X-397.596 Y-575.167
X-397.732 Y-575.104
X-397.876 Y-575.063
X-398.025 Y-575.044
X-398.175 Y-575.049
X-398.322 Y-575.076
X-398.465 Y-575.124
X-398.598 Y-575.193
X-398.72 Y-575.281
X-398.828 Y-575.384
X-398.92 Y-575.503
X-398.995 Y-575.633
X-399.051 Y-575.772
X-399.087 Y-575.917
X-399.104 Y-576.067
X-399.099 Y-576.216
X-399.076 Y-576.365
X-399.032 Y-576.508
X-398.97 Y-576.645
X-398.892 Y-576.773
X-398.797 Y-576.889
X-398.689 Y-576.993
X-398.568 Y-577.082
X-398.437 Y-577.155
X-398.298 Y-577.212
X-398.154 Y-577.251
X-398.005 Y-577.273
X-397.855 Y-577.277
X-397.706 Y-577.263
X-397.559 Y-577.231
X-397.417 Y-577.183
X-397.282 Y-577.118
X-397.155 Y-577.039
X-397.037 Y-576.945
X-396.931 Y-576.839
X-396.838 Y-576.722
X-396.758 Y-576.595
X-396.693 Y-576.46
X-396.642 Y-576.319
X-396.608 Y-576.173
X-396.589 Y-576.024
X-396.586 Y-575.874
X-396.599 Y-575.725
X-396.628 Y-575.577
X-396.672 Y-575.434
X-396.731 Y-575.296
X-396.803 Y-575.165
X-396.889 Y-575.042
X-396.987 Y-574.928
X-397.096 Y-574.825
X-397.214 Y-574.733
X-397.341 Y-574.653
X-397.476 Y-574.586
X-397.616 Y-574.534
X-397.761 Y-574.494
X-397.909 Y-574.469
X-398.058 Y-574.458
X-398.208 Y-574.462
X-398.357 Y-574.48
X-398.504 Y-574.512
X-398.647 Y-574.557
X-398.785 Y-574.615
X-398.917 Y-574.686
X-399.042 Y-574.769
X-399.159 Y-574.863
X-399.267 Y-574.967
X-399.365 Y-575.081
X-399.452 Y-575.203
X-399.529 Y-575.332
X-399.593 Y-575.467
X-399.645 Y-575.608
X-399.685 Y-575.753
X-399.712 Y-575.9
X-399.725 Y-576.05
X-399.726 Y-576.2
X-399.714 Y-576.349
X-399.69 Y-576.497
X-399.652 Y-576.642
X-399.603 Y-576.784
X-399.542 Y-576.921
X-399.469 Y-577.052
X-399.386 Y-577.177
X-399.293 Y-577.295
X-399.191 Y-577.404
X-399.079 Y-577.505
X-398.96 Y-577.596
X-398.834 Y-577.678
X-398.702 Y-577.749
X-398.565 Y-577.809
X-398.423 Y-577.857
X-398.278 Y-577.895
X-398.13 Y-577.921
X-397.981 Y-577.935
X-397.831 Y-577.937
X-397.681 Y-577.928
X-397.532 Y-577.907
X-397.386 Y-577.875
X-397.242 Y-577.831
X-397.103 Y-577.777
X-396.967 Y-577.712
X-396.837 Y-577.637
X-396.713 Y-577.552
X-396.596 Y-577.459
X-396.486 Y-577.357
X-396.384 Y-577.247
X-396.291 Y-577.129
X-396.206 Y-577.006
X-396.131 Y-576.876
X-396.066 Y-576.741
X-396.01 Y-576.602
X-395.965 Y-576.459
X-395.93 Y-576.313
X-395.906 Y-576.165
X-395.892 Y-576.015
X-395.889 Y-575.865
X-395.897 Y-575.716
X-395.916 Y-575.567
X-395.945 Y-575.419
X-395.984 Y-575.275
X-396.033 Y-575.133
X-396.092 Y-574.995
X-396.161 Y-574.862
X-396.238 Y-574.733
X-396.325 Y-574.611
X-396.419 Y-574.494
X-396.521 Y-574.384
X-396.631 Y-574.282
X-396.747 Y-574.187
X-396.869 Y-574.1
X-396.997 Y-574.022
X-397.13 Y-573.952
X-397.267 Y-573.891
X-397.408 Y-573.84
X-397.552 Y-573.798
X-397.699 Y-573.766
X-397.847 Y-573.743
X-397.997 Y-573.73
X-398.146 Y-573.727
X-398.296 Y-573.734
X-398.445 Y-573.751
X-398.593 Y-573.777
X-398.739 Y-573.812
X-398.882 Y-573.857
X-399.022 Y-573.911
X-399.158 Y-573.974
X-399.29 Y-574.045
X-399.418 Y-574.124
X-399.539 Y-574.212
X-399.656 Y-574.306
X-399.766 Y-574.408
X-399.869 Y-574.517
X-399.966 Y-574.632
X-400.055 Y-574.752
X-400.137 Y-574.878
X-400.21 Y-575.009
X-400.276 Y-575.144
X-400.333 Y-575.282
X-400.381 Y-575.424
X-400.421 Y-575.569
X-400.452 Y-575.716
X-400.474 Y-575.864
X-400.487 Y-576.014
X-400.491 Y-576.164
X-400.486 Y-576.313
X-400.472 Y-576.463
X-400.449 Y-576.611
X-400.418 Y-576.758
X-400.378 Y-576.902
X-400.329 Y-577.044
X-400.272 Y-577.183
X-400.207 Y-577.318
X-400.134 Y-577.449
X-400.054 Y-577.576
X-399.967 Y-577.698
X-399.872 Y-577.814
X-399.771 Y-577.925
X-399.664 Y-578.03
X-399.551 Y-578.129
X-399.433 Y-578.221
X-399.309 Y-578.306
X-399.181 Y-578.384
X-399.047 Y-578.455
X-398.911 Y-578.518
X-398.772 Y-578.573
X-398.628 Y-578.62
X-398.48 Y-578.66
X-398.333 Y-578.691
X-398.185 Y-578.713
X-398.031 Y-578.728
X-397.878 Y-578.733
X-397.727 Y-578.731
X-397.574 Y-578.719
X-397.419 Y-578.699
X-397.267 Y-578.67
X-397.119 Y-578.633
X-396.971 Y-578.587
X-396.823 Y-578.532
X-396.68 Y-578.469
X-396.542 Y-578.399
X-396.407 Y-578.32
X-396.274 Y-578.233
X-396.146 Y-578.138
X-396.026 Y-578.038
X-395.911 Y-577.93
X-395.8 Y-577.814
X-395.695 Y-577.692
X-395.599 Y-577.565
X-395.51 Y-577.434
X-395.427 Y-577.295
X-395.352 Y-577.15
X-395.285 Y-577.003
X-395.227 Y-576.853
X-395.177 Y-576.699
X-395.136 Y-576.54
X-395.103 Y-576.378
X-395.08 Y-576.217
X-395.065 Y-576.054
X-395.06 Y-575.89
X-395.065 Y-575.723
X-395.078 Y-575.557
X-395.101 Y-575.393
X-395.133 Y-575.23
X-395.174 Y-575.069
X-395.225 Y-574.909
X-395.285 Y-574.75
X-395.354 Y-574.596
X-395.431 Y-574.447
X-395.517 Y-574.302
X-395.611 Y-574.161
X-395.714 Y-574.024
X-395.825 Y-573.892
X-395.943 Y-573.768
X-396.067 Y-573.65
X-396.198 Y-573.54
X-396.336 Y-573.437
X-396.48 Y-573.34
X-396.631 Y-573.252
X-396.787 Y-573.172
X-396.946 Y-573.101
X-397.109 Y-573.039
X-397.275 Y-572.986
X-397.445 Y-572.943
X-397.619 Y-572.909
X-397.795 Y-572.885
X-397.973 Y-572.87
X-398.151 Y-572.866
X-398.328 Y-572.872
X-398.506 Y-572.887
X-398.682 Y-572.913
X-398.858 Y-572.949
X-399.033 Y-572.995
X-399.205 Y-573.051
X-399.375 Y-573.116
X-399.541 Y-573.192
X-399.702 Y-573.276
X-399.858 Y-573.37
X-400.009 Y-573.472
X-400.154 Y-573.583
X-400.294 Y-573.702
X-400.427 Y-573.829
X-400.553 Y-573.965
X-400.672 Y-574.107
X-400.783 Y-574.257
X-400.885 Y-574.413
X-400.979 Y-574.575
X-401.063 Y-574.742
X-401.139 Y-574.914
X-401.204 Y-575.09
X-401.26 Y-575.27
X-401.305 Y-575.453
X-401.34 Y-575.639
X-401.365 Y-575.827
X-401.379 Y-576.017
X-401.383 Y-576.207
X-401.375 Y-576.399
X-401.357 Y-576.59
X-401.328 Y-576.78
X-401.288 Y-576.969
X-401.238 Y-577.156
X-401.177 Y-577.34
X-401.106 Y-577.521
X-401.024 Y-577.698
X-400.932 Y-577.871
X-400.83 Y-578.038
X-400.719 Y-578.2
X-400.599 Y-578.356
X-400.47 Y-578.505
X-400.332 Y-578.646
X-400.186 Y-578.781
X-400.032 Y-578.907
X-399.872 Y-579.024
X-399.704 Y-579.133
X-399.53 Y-579.232
X-399.351 Y-579.322
X-399.166 Y-579.401
X-398.976 Y-579.47
X-398.783 Y-579.529
X-398.586 Y-579.576
X-398.386 Y-579.613
X-398.184 Y-579.638
X-397.98 Y-579.652
X-397.775 Y-579.654
X-397.571 Y-579.645
X-397.366 Y-579.624
X-397.163 Y-579.592
X-396.961 Y-579.548
X-396.761 Y-579.493
X-396.565 Y-579.426
X-396.371 Y-579.349
X-396.183 Y-579.26
X-395.999 Y-579.161
X-395.82 Y-579.051
X-395.648 Y-578.931
X-395.482 Y-578.801
X-395.324 Y-578.662
X-395.173 Y-578.513
X-395.03 Y-578.357
X-394.897 Y-578.192
X-394.772 Y-578.019
X-394.657 Y-577.839
X-394.552 Y-577.652
X-394.458 Y-577.46
X-394.374 Y-577.262
X-394.302 Y-577.059
X-394.241 Y-576.852
X-394.191 Y-576.641
X-394.154 Y-576.428
X-394.128 Y-576.212
X-394.115 Y-575.994
X-394.113 Y-575.775
X-394.125 Y-575.557
X-394.148 Y-575.339
X-394.184 Y-575.122
X-394.232 Y-574.906
X-394.293 Y-574.694
X-394.365 Y-574.484
X-394.449 Y-574.279
X-394.545 Y-574.078
X-394.652 Y-573.883
X-394.771 Y-573.693
X-394.9 Y-573.51
X-395.04 Y-573.334
X-395.189 Y-573.165
X-395.349 Y-573.005
X-395.517 Y-572.855
X-395.694 Y-572.713
X-395.879 Y-572.581
X-396.072 Y-572.46
X-396.271 Y-572.349
X-396.478 Y-572.25
X-396.689 Y-572.162
X-396.906 Y-572.086
X-397.128 Y-572.023
X-397.352 Y-571.971
X-397.58 Y-571.933
X-397.811 Y-571.907
X-398.043 Y-571.894
X-398.276
X-398.509 Y-571.908
X-398.741 Y-571.934
X-398.973 Y-571.974
X-399.201 Y-572.027
X-399.427 Y-572.093
X-399.65 Y-572.171
X-399.868 Y-572.262
X-400.081 Y-572.366
X-400.289 Y-572.481
X-400.49 Y-572.609
X-400.684 Y-572.748
X-400.87 Y-572.897
X-401.048 Y-573.058
X-401.217 Y-573.228
X-401.377 Y-573.409
X-401.526 Y-573.598
X-401.665 Y-573.796
X-401.793 Y-574.001
X-401.909 Y-574.214
X-402.013 Y-574.434
X-402.105 Y-574.659
X-402.184 Y-574.89
X-402.25 Y-575.126
X-402.303 Y-575.365
X-402.343 Y-575.608
X-402.368 Y-575.853
X-402.38 Y-576.099
X-402.378 Y-576.347
X-402.363 Y-576.594
X-402.333 Y-576.841
X-402.289 Y-577.086
X-402.231 Y-577.329
X-402.16 Y-577.568
X-402.075 Y-577.804
X-402.033 Y-577.904
X-401.989 Y-578
X-401.94 Y-578.094
X-401.886 Y-578.185
X-401.663 Y-578.54
X-401.532 Y-578.748
X-401.5 Y-578.792
X-401.461 Y-578.835
X-400.83 Y-579.467
X-400.743 Y-579.535
X-400.211 Y-579.87
X-400.052 Y-579.97
X-399.951 Y-580.029
X-399.847 Y-580.071
X-399.045 Y-580.352
X-398.944 Y-580.375
X-398.064 Y-580.474
X-398.038 Y-580.476
X-397.937 Y-580.474
X-397.232 Y-580.395
X-397.031 Y-580.37
X-396.83 Y-580.308
X-396.153 Y-580.071
X-396.024 Y-580.016
X-395.789 Y-579.87
X-395.42 Y-579.638
X-395.219 Y-579.507
X-395.17 Y-579.467
X-394.566 Y-578.863
X-394.478 Y-578.762
X-394.413 Y-578.661
X-394.01 Y-578.02
X-393.964 Y-577.938
X-393.932 Y-577.856
X-393.65 Y-577.051
X-393.626 Y-576.95
X-393.547 Y-576.245
X-393.525 Y-576.044
Y-575.943
X-393.608 Y-575.214
X-393.628 Y-575.037
X-393.69 Y-574.836
X-393.901 Y-574.232
X-393.981 Y-574.03
X-394.01 Y-573.98
X-394.413 Y-573.339
X-394.488 Y-573.225
X-394.614 Y-573.088
X-395.082 Y-572.621
X-395.219 Y-572.493
X-395.329 Y-572.419
X-395.97 Y-572.017
X-396.024 Y-571.984
X-396.225 Y-571.904
X-396.83 Y-571.692
X-397.031 Y-571.63
X-397.156 Y-571.614
X-397.836 Y-571.537
X-398.038 Y-571.524
X-398.441 Y-571.569
X-398.944 Y-571.625
X-399.045 Y-571.648
X-399.85 Y-571.93
X-399.94 Y-571.965
X-400.03 Y-572.017
X-400.671 Y-572.419
X-400.764 Y-572.479
X-400.857 Y-572.56
X-401.461 Y-573.165
X-401.512 Y-573.225
X-401.663 Y-573.46
X-401.895 Y-573.829
X-402.019 Y-574.03
X-402.065 Y-574.137
X-402.31 Y-574.836
X-402.372 Y-575.037
X-402.395 Y-575.238
X-402.468 Y-575.886
X-402.476 Y-575.965
X-402.475 Y-576.044
X-402.453 Y-576.245
X-402.374 Y-576.95
X-402.35 Y-577.051
X-402.065 Y-577.863
X-402.024 Y-577.96
X-401.966 Y-578.057
X-401.886 Y-578.185
X-401.828 Y-578.257
X-401.76 Y-578.32
X-401.695 Y-578.354 Z18.005
X-401.63 Y-578.388 Z18.018
X-401.568 Y-578.421 Z18.041
X-401.504 Y-578.43 Z18.071
X-401.444 Y-578.44 Z18.108
X-401.389 Y-578.448 Z18.153
X-401.332 Y-578.438 Z18.213
X-401.283 Y-578.43 Z18.281
X-401.244 Y-578.424 Z18.355
X-401.216 Y-578.419 Z18.434
X-401.199 Y-578.416 Z18.516
X-401.193 Y-578.415 Z18.599
G0 Z36
X-398 Y-384
Z26.6
G1 Z26 F850
Z18 F283.3
X-397.988 Y-383.964 F850
X-398.016 Y-383.939
X-398.052 Y-383.95
X-398.075 Y-383.98
X-398.08 Y-384.017
X-398.066 Y-384.052
X-398.038 Y-384.077
X-398.002 Y-384.087
X-397.965 Y-384.081
X-397.934 Y-384.06
X-397.915 Y-384.028
X-397.908 Y-383.992
X-397.911 Y-383.954
X-397.926 Y-383.92
X-397.952 Y-383.892
X-397.985 Y-383.874
X-398.021 Y-383.867
X-398.059 Y-383.871
X-398.093 Y-383.886
X-398.153 Y-383.931
X-398.182 Y-384
X-398.178 Y-384.075
X-398.143 Y-384.141
X-398.085 Y-384.189
X-398.014 Y-384.212
X-397.939 Y-384.207
X-397.87 Y-384.177
X-397.815 Y-384.126
X-397.778 Y-384.061
X-397.763 Y-383.987
X-397.77 Y-383.912
X-397.798 Y-383.843
X-397.845 Y-383.784
X-397.905 Y-383.74
X-398.046 Y-383.689
X-398.195 Y-383.712
X-398.317 Y-383.798
X-398.393 Y-383.928
X-398.412 Y-384.077
X-398.375 Y-384.222
X-398.289 Y-384.345
X-398.166 Y-384.431
X-398.021 Y-384.471
X-397.872 Y-384.463
X-397.732 Y-384.41
X-397.614 Y-384.317
X-397.528 Y-384.194
X-397.481 Y-384.051
X-397.476 Y-383.901
X-397.512 Y-383.756
X-397.583 Y-383.623
X-397.684 Y-383.513
X-397.809 Y-383.43
X-397.951 Y-383.38
X-398.1 Y-383.365
X-398.248 Y-383.386
X-398.389 Y-383.438
X-398.513 Y-383.522
X-398.618 Y-383.63
X-398.697 Y-383.757
X-398.748 Y-383.898
X-398.769 Y-384.047
X-398.759 Y-384.197
X-398.722 Y-384.342
X-398.655 Y-384.476
X-398.566 Y-384.597
X-398.455 Y-384.698
X-398.328 Y-384.778
X-398.189 Y-384.833
X-398.041 Y-384.862
X-397.892 Y-384.866
X-397.743 Y-384.843
X-397.601 Y-384.796
X-397.469 Y-384.725
X-397.35 Y-384.634
X-397.247 Y-384.524
X-397.164 Y-384.399
X-397.102 Y-384.263
X-397.062 Y-384.118
X-397.045 Y-383.969
X-397.05 Y-383.819
X-397.078 Y-383.672
X-397.127 Y-383.53
X-397.197 Y-383.397
X-397.285 Y-383.276
X-397.389 Y-383.168
X-397.508 Y-383.077
X-397.639 Y-383.003
X-397.778 Y-382.948
X-397.924 Y-382.912
X-398.073 Y-382.897
X-398.223 Y-382.902
X-398.371 Y-382.927
X-398.514 Y-382.971
X-398.651 Y-383.034
X-398.778 Y-383.113
X-398.894 Y-383.208
X-398.997 Y-383.317
X-399.085 Y-383.439
X-399.158 Y-383.57
X-399.214 Y-383.709
X-399.252 Y-383.854
X-399.273 Y-384.003
X-399.276 Y-384.152
X-399.261 Y-384.302
X-399.229 Y-384.448
X-399.18 Y-384.59
X-399.114 Y-384.725
X-399.034 Y-384.852
X-398.94 Y-384.968
X-398.833 Y-385.074
X-398.715 Y-385.167
X-398.588 Y-385.246
X-398.452 Y-385.31
X-398.311 Y-385.36
X-398.164 Y-385.393
X-398.016 Y-385.411
X-397.866 Y-385.413
X-397.716 Y-385.399
X-397.569 Y-385.37
X-397.426 Y-385.325
X-397.288 Y-385.265
X-397.158 Y-385.192
X-397.035 Y-385.105
X-396.922 Y-385.007
X-396.819 Y-384.897
X-396.728 Y-384.778
X-396.649 Y-384.651
X-396.583 Y-384.516
X-396.531 Y-384.375
X-396.493 Y-384.23
X-396.468 Y-384.082
X-396.459 Y-383.932
X-396.463 Y-383.783
X-396.482 Y-383.634
X-396.515 Y-383.487
X-396.561 Y-383.345
X-396.62 Y-383.207
X-396.692 Y-383.075
X-396.775 Y-382.95
X-396.87 Y-382.834
X-396.975 Y-382.727
X-397.089 Y-382.629
X-397.211 Y-382.543
X-397.341 Y-382.467
X-397.477 Y-382.404
X-397.618 Y-382.353
X-397.763 Y-382.314
X-397.91 Y-382.288
X-398.06 Y-382.275
X-398.21
X-398.359 Y-382.288
X-398.507 Y-382.314
X-398.652 Y-382.352
X-398.794 Y-382.402
X-398.93 Y-382.464
X-399.061 Y-382.537
X-399.186 Y-382.621
X-399.302 Y-382.715
X-399.411 Y-382.818
X-399.511 Y-382.93
X-399.602 Y-383.049
X-399.683 Y-383.176
X-399.753 Y-383.308
X-399.812 Y-383.446
X-399.86 Y-383.588
X-399.897 Y-383.734
X-399.922 Y-383.882
X-399.935 Y-384.031
X-399.936 Y-384.181
X-399.926 Y-384.331
X-399.904 Y-384.479
X-399.871 Y-384.625
X-399.827 Y-384.769
X-399.771 Y-384.908
X-399.706 Y-385.043
X-399.63 Y-385.173
X-399.545 Y-385.296
X-399.45 Y-385.413
X-399.348 Y-385.522
X-399.237 Y-385.623
X-399.119 Y-385.716
X-398.995 Y-385.8
X-398.865 Y-385.874
X-398.729 Y-385.939
X-398.59 Y-385.994
X-398.446 Y-386.038
X-398.3 Y-386.072
X-398.152 Y-386.095
X-398.003 Y-386.108
X-397.853 Y-386.11
X-397.703 Y-386.101
X-397.554 Y-386.082
X-397.407 Y-386.052
X-397.263 Y-386.012
X-397.121 Y-385.961
X-396.984 Y-385.901
X-396.851 Y-385.832
X-396.723 Y-385.754
X-396.601 Y-385.667
X-396.485 Y-385.572
X-396.375 Y-385.469
X-396.274 Y-385.359
X-396.179 Y-385.242
X-396.093 Y-385.119
X-396.016 Y-384.991
X-395.947 Y-384.857
X-395.887 Y-384.72
X-395.836 Y-384.579
X-395.796 Y-384.434
X-395.764 Y-384.288
X-395.742 Y-384.139
X-395.73 Y-383.99
X-395.728 Y-383.84
X-395.736 Y-383.69
X-395.753 Y-383.541
X-395.78 Y-383.393
X-395.817 Y-383.248
X-395.862 Y-383.105
X-395.917 Y-382.965
X-395.981 Y-382.829
X-396.053 Y-382.698
X-396.133 Y-382.571
X-396.221 Y-382.45
X-396.316 Y-382.334
X-396.419 Y-382.225
X-396.528 Y-382.122
X-396.643 Y-382.026
X-396.765 Y-381.937
X-396.891 Y-381.857
X-397.022 Y-381.784
X-397.157 Y-381.719
X-397.297 Y-381.663
X-397.439 Y-381.615
X-397.584 Y-381.576
X-397.731 Y-381.546
X-397.879 Y-381.525
X-398.029 Y-381.513
X-398.179 Y-381.51
X-398.328 Y-381.516
X-398.478 Y-381.531
X-398.626 Y-381.554
X-398.772 Y-381.587
X-398.917 Y-381.628
X-399.058 Y-381.677
X-399.197 Y-381.735
X-399.331 Y-381.801
X-399.462 Y-381.874
X-399.588 Y-381.955
X-399.71 Y-382.043
X-399.826 Y-382.139
X-399.936 Y-382.24
X-400.04 Y-382.348
X-400.138 Y-382.462
X-400.23 Y-382.581
X-400.314 Y-382.705
X-400.391 Y-382.833
X-400.461 Y-382.968
X-400.523 Y-383.104
X-400.578 Y-383.244
X-400.624 Y-383.388
X-400.663 Y-383.536
X-400.693 Y-383.683
X-400.714 Y-383.832
X-400.728 Y-383.985
X-400.733 Y-384.139
X-400.729 Y-384.29
X-400.716 Y-384.442
X-400.695 Y-384.597
X-400.665 Y-384.749
X-400.627 Y-384.897
X-400.581 Y-385.044
X-400.525 Y-385.192
X-400.461 Y-385.335
X-400.39 Y-385.472
X-400.311 Y-385.607
X-400.222 Y-385.74
X-400.127 Y-385.866
X-400.026 Y-385.986
X-399.918 Y-386.101
X-399.801 Y-386.211
X-399.678 Y-386.315
X-399.551 Y-386.41
X-399.419 Y-386.499
X-399.279 Y-386.58
X-399.134 Y-386.655
X-398.986 Y-386.721
X-398.836 Y-386.778
X-398.682 Y-386.827
X-398.523 Y-386.867
X-398.361 Y-386.899
X-398.199 Y-386.922
X-398.037 Y-386.935
X-397.872 Y-386.939
X-397.706 Y-386.934
X-397.54 Y-386.919
X-397.375 Y-386.895
X-397.213 Y-386.862
X-397.052 Y-386.82
X-396.892 Y-386.768
X-396.734 Y-386.707
X-396.58 Y-386.637
X-396.431 Y-386.559
X-396.287 Y-386.473
X-396.146 Y-386.378
X-396.01 Y-386.274
X-395.879 Y-386.162
X-395.755 Y-386.044
X-395.639 Y-385.919
X-395.529 Y-385.787
X-395.427 Y-385.649
X-395.331 Y-385.504
X-395.243 Y-385.352
X-395.164 Y-385.196
X-395.094 Y-385.037
X-395.034 Y-384.873
X-394.982 Y-384.707
X-394.94 Y-384.536
X-394.907 Y-384.362
X-394.884 Y-384.186
X-394.87 Y-384.008
X-394.867 Y-383.83
X-394.874 Y-383.653
X-394.89 Y-383.476
X-394.917 Y-383.299
X-394.954 Y-383.123
X-395.001 Y-382.949
X-395.058 Y-382.777
X-395.125 Y-382.608
X-395.201 Y-382.443
X-395.286 Y-382.282
X-395.381 Y-382.126
X-395.484 Y-381.976
X-395.596 Y-381.831
X-395.716 Y-381.693
X-395.844 Y-381.56
X-395.98 Y-381.435
X-396.124 Y-381.317
X-396.274 Y-381.207
X-396.431 Y-381.105
X-396.593 Y-381.013
X-396.761 Y-380.929
X-396.933 Y-380.855
X-397.11 Y-380.79
X-397.29 Y-380.736
X-397.473 Y-380.692
X-397.659 Y-380.658
X-397.847 Y-380.634
X-398.037 Y-380.621
X-398.228 Y-380.619
X-398.419 Y-380.627
X-398.61 Y-380.647
X-398.8 Y-380.677
X-398.989 Y-380.717
X-399.175 Y-380.769
X-399.359 Y-380.831
X-399.54 Y-380.904
X-399.716 Y-380.986
X-399.888 Y-381.079
X-400.055 Y-381.182
X-400.216 Y-381.294
X-400.371 Y-381.415
X-400.52 Y-381.545
X-400.661 Y-381.684
X-400.794 Y-381.831
X-400.919 Y-381.985
X-401.036 Y-382.146
X-401.143 Y-382.315
X-401.241 Y-382.489
X-401.33 Y-382.669
X-401.408 Y-382.855
X-401.476 Y-383.045
X-401.533 Y-383.239
X-401.58 Y-383.436
X-401.615 Y-383.636
X-401.639 Y-383.838
X-401.652 Y-384.042
X-401.653 Y-384.247
X-401.642 Y-384.451
X-401.62 Y-384.656
X-401.587 Y-384.859
X-401.542 Y-385.061
X-401.485 Y-385.26
X-401.418 Y-385.456
X-401.339 Y-385.649
X-401.249 Y-385.837
X-401.148 Y-386.02
X-401.038 Y-386.198
X-400.917 Y-386.37
X-400.786 Y-386.535
X-400.646 Y-386.692
X-400.496 Y-386.842
X-400.339 Y-386.984
X-400.173 Y-387.117
X-399.999 Y-387.24
X-399.819 Y-387.354
X-399.632 Y-387.458
X-399.439 Y-387.551
X-399.24 Y-387.633
X-399.037 Y-387.705
X-398.829 Y-387.764
X-398.618 Y-387.813
X-398.404 Y-387.849
X-398.188 Y-387.873
X-397.971 Y-387.885
X-397.752
X-397.533 Y-387.873
X-397.315 Y-387.848
X-397.099 Y-387.811
X-396.884 Y-387.761
X-396.671 Y-387.699
X-396.462 Y-387.626
X-396.257 Y-387.54
X-396.057 Y-387.443
X-395.862 Y-387.335
X-395.673 Y-387.215
X-395.491 Y-387.085
X-395.316 Y-386.944
X-395.148 Y-386.793
X-394.99 Y-386.633
X-394.84 Y-386.464
X-394.699 Y-386.286
X-394.569 Y-386.1
X-394.448 Y-385.907
X-394.339 Y-385.707
X-394.241 Y-385.5
X-394.154 Y-385.287
X-394.08 Y-385.07
X-394.017 Y-384.849
X-393.967 Y-384.623
X-393.93 Y-384.395
X-393.906 Y-384.165
X-393.894 Y-383.932
X-393.896 Y-383.699
X-393.911 Y-383.466
X-393.939 Y-383.234
X-393.98 Y-383.003
X-394.034 Y-382.775
X-394.101 Y-382.549
X-394.181 Y-382.327
X-394.274 Y-382.11
X-394.378 Y-381.897
X-394.495 Y-381.69
X-394.624 Y-381.49
X-394.764 Y-381.297
X-394.915 Y-381.111
X-395.076 Y-380.934
X-395.248 Y-380.766
X-395.429 Y-380.608
X-395.619 Y-380.459
X-395.818 Y-380.322
X-396.024 Y-380.195
X-396.238 Y-380.081
X-396.458 Y-379.978
X-396.684 Y-379.887
X-396.915 Y-379.809
X-397.151 Y-379.745
X-397.391 Y-379.693
X-397.634 Y-379.655
X-397.879 Y-379.631
X-398.126 Y-379.62
X-398.373 Y-379.624
X-398.62 Y-379.641
X-398.867 Y-379.672
X-399.112 Y-379.718
X-399.354 Y-379.777
X-399.593 Y-379.849
X-399.829 Y-379.936
X-399.92 Y-379.975
X-400.013 Y-380.018
X-400.103 Y-380.066
X-400.19 Y-380.117
X-400.518 Y-380.323
X-400.738 Y-380.461
X-400.82 Y-380.524
X-400.857 Y-380.56
X-401.461 Y-381.164
X-401.528 Y-381.247
X-401.834 Y-381.733
X-401.961 Y-381.934
X-402.021 Y-382.035
X-402.065 Y-382.137
X-402.347 Y-382.941
X-402.372 Y-383.041
X-402.384 Y-383.142
X-402.475 Y-383.948
X-402.476 Y-384.031
X-402.464 Y-384.149
X-402.396 Y-384.753
X-402.373 Y-384.954
X-402.348 Y-385.055
X-402.065 Y-385.863
X-402.024 Y-385.961
X-401.864 Y-386.22
X-401.647 Y-386.565
X-401.519 Y-386.767
X-401.461 Y-386.835
X-400.857 Y-387.44
X-400.771 Y-387.516
X-400.656 Y-387.59
X-400.043 Y-387.975
X-399.947 Y-388.031
X-399.85 Y-388.07
X-399.045 Y-388.352
X-398.982 Y-388.368
X-398.92 Y-388.377
X-398.239 Y-388.454
X-398.038 Y-388.476
X-397.836 Y-388.463
X-397.08 Y-388.377
X-397.031 Y-388.37
X-396.83 Y-388.308
X-396.225 Y-388.096
X-396.024 Y-388.016
X-395.957 Y-387.975
X-395.315 Y-387.572
X-395.219 Y-387.507
X-395.073 Y-387.371
X-394.614 Y-386.912
X-394.481 Y-386.767
X-394.413 Y-386.661
X-394.01 Y-386.02
X-393.976 Y-385.961
X-393.898 Y-385.76
X-393.652 Y-385.055
X-393.627 Y-384.954
X-393.558 Y-384.35
X-393.525 Y-384.048
Y-383.948
X-393.616 Y-383.142
X-393.628 Y-383.041
X-393.653 Y-382.941
X-393.935 Y-382.135
X-393.967 Y-382.058
X-394.01 Y-381.98
X-394.419 Y-381.33
X-394.484 Y-381.229
X-394.574 Y-381.128
X-395.017 Y-380.685
X-395.179 Y-380.524
X-395.219 Y-380.492
X-395.42 Y-380.362
X-395.823 Y-380.109
X-396.024 Y-379.984
X-396.178 Y-379.92
X-396.83 Y-379.692
X-397.031 Y-379.63
X-397.232 Y-379.605
X-397.836 Y-379.537
X-398.038 Y-379.524
X-398.441 Y-379.569
X-398.843 Y-379.614
X-398.944 Y-379.626
X-399.045 Y-379.648
X-399.85 Y-379.93
X-399.951 Y-379.971
X-400.052 Y-380.03
X-400.19 Y-380.117
X-400.263 Y-380.175
X-400.325 Y-380.243
X-400.36 Y-380.309 Z18.005
X-400.394 Y-380.373 Z18.018
X-400.426 Y-380.435 Z18.041
X-400.436 Y-380.499 Z18.071
X-400.445 Y-380.559 Z18.108
X-400.454 Y-380.614 Z18.153
X-400.444 Y-380.672 Z18.213
X-400.436 Y-380.72 Z18.281
X-400.429 Y-380.759 Z18.355
X-400.424 Y-380.788 Z18.434
X-400.421 Y-380.805 Z18.516
X-400.42 Y-380.811 Z18.599
G0 Z36
X-398 Y-192
Z26.6
G1 Z26 F850
Z18 F283.3
X-398.036 Y-192.012 F850
X-398.038 Y-192.05
X-398.007 Y-192.072
X-397.97 Y-192.071
X-397.938 Y-192.052
X-397.918 Y-192.02
X-397.916 Y-191.982
X-397.93 Y-191.948
X-397.958 Y-191.922
X-397.993 Y-191.911
X-398.031 Y-191.915
X-398.064 Y-191.933
X-398.091 Y-191.959
X-398.109 Y-191.992
X-398.114 Y-192.029
X-398.108 Y-192.066
X-398.091 Y-192.099
X-398.065 Y-192.126
X-398.032 Y-192.144
X-397.959 Y-192.163
X-397.887 Y-192.143
X-397.831 Y-192.093
X-397.8 Y-192.025
X-397.799 Y-191.95
X-397.825 Y-191.879
X-397.875 Y-191.824
X-397.942 Y-191.789
X-398.016 Y-191.777
X-398.09 Y-191.788
X-398.157 Y-191.822
X-398.211 Y-191.874
X-398.249 Y-191.939
X-398.266 Y-192.012
X-398.262 Y-192.087
X-398.215 Y-192.229
X-398.105 Y-192.331
X-397.962 Y-192.374
X-397.813 Y-192.353
X-397.684 Y-192.276
X-397.593 Y-192.157
X-397.55 Y-192.013
X-397.559 Y-191.863
X-397.617 Y-191.725
X-397.716 Y-191.612
X-397.845 Y-191.535
X-397.991 Y-191.501
X-398.141 Y-191.51
X-398.281 Y-191.561
X-398.402 Y-191.65
X-398.494 Y-191.769
X-398.554 Y-191.906
X-398.578 Y-192.054
X-398.566 Y-192.204
X-398.517 Y-192.345
X-398.436 Y-192.472
X-398.328 Y-192.576
X-398.2 Y-192.654
X-398.057 Y-192.699
X-397.907 Y-192.715
X-397.758 Y-192.697
X-397.616 Y-192.65
X-397.487 Y-192.574
X-397.375 Y-192.474
X-397.284 Y-192.354
X-397.22 Y-192.219
X-397.181 Y-192.074
X-397.17 Y-191.924
X-397.187 Y-191.775
X-397.23 Y-191.632
X-397.298 Y-191.498
X-397.388 Y-191.378
X-397.498 Y-191.276
X-397.623 Y-191.193
X-397.761 Y-191.133
X-397.906 Y-191.097
X-398.056 Y-191.084
X-398.205 Y-191.097
X-398.351 Y-191.133
X-398.489 Y-191.191
X-398.617 Y-191.27
X-398.731 Y-191.367
X-398.829 Y-191.48
X-398.91 Y-191.607
X-398.971 Y-191.744
X-399.011 Y-191.888
X-399.031 Y-192.037
X-399.029 Y-192.187
X-399.006 Y-192.335
X-398.963 Y-192.479
X-398.901 Y-192.615
X-398.82 Y-192.742
X-398.723 Y-192.856
X-398.612 Y-192.957
X-398.488 Y-193.042
X-398.355 Y-193.11
X-398.214 Y-193.16
X-398.067 Y-193.192
X-397.917 Y-193.205
X-397.768 Y-193.2
X-397.62 Y-193.175
X-397.476 Y-193.133
X-397.338 Y-193.073
X-397.209 Y-192.997
X-397.089 Y-192.907
X-396.981 Y-192.802
X-396.887 Y-192.686
X-396.806 Y-192.56
X-396.741 Y-192.425
X-396.691 Y-192.283
X-396.658 Y-192.137
X-396.641 Y-191.988
Y-191.838
X-396.658 Y-191.689
X-396.692 Y-191.542
X-396.741 Y-191.401
X-396.805 Y-191.265
X-396.883 Y-191.137
X-396.975 Y-191.018
X-397.078 Y-190.91
X-397.193 Y-190.813
X-397.317 Y-190.728
X-397.449 Y-190.657
X-397.587 Y-190.6
X-397.731 Y-190.558
X-397.879 Y-190.53
X-398.028 Y-190.517
X-398.178 Y-190.52
X-398.327 Y-190.537
X-398.474 Y-190.569
X-398.616 Y-190.615
X-398.754 Y-190.675
X-398.885 Y-190.748
X-399.009 Y-190.833
X-399.124 Y-190.929
X-399.229 Y-191.036
X-399.323 Y-191.153
X-399.407 Y-191.277
X-399.478 Y-191.409
X-399.537 Y-191.547
X-399.583 Y-191.69
X-399.615 Y-191.836
X-399.634 Y-191.985
X-399.64 Y-192.135
X-399.632 Y-192.285
X-399.611 Y-192.433
X-399.577 Y-192.579
X-399.53 Y-192.722
X-399.47 Y-192.859
X-399.399 Y-192.991
X-399.316 Y-193.117
X-399.223 Y-193.234
X-399.12 Y-193.344
X-399.009 Y-193.444
X-398.889 Y-193.534
X-398.762 Y-193.614
X-398.628 Y-193.682
X-398.49 Y-193.74
X-398.347 Y-193.785
X-398.201 Y-193.819
X-398.052 Y-193.84
X-397.903 Y-193.849
X-397.753 Y-193.846
X-397.603 Y-193.831
X-397.456 Y-193.804
X-397.311 Y-193.765
X-397.17 Y-193.715
X-397.033 Y-193.653
X-396.901 Y-193.581
X-396.776 Y-193.499
X-396.657 Y-193.407
X-396.546 Y-193.306
X-396.443 Y-193.197
X-396.349 Y-193.08
X-396.264 Y-192.956
X-396.189 Y-192.827
X-396.124 Y-192.692
X-396.069 Y-192.552
X-396.026 Y-192.408
X-395.992 Y-192.262
X-395.97 Y-192.114
X-395.96 Y-191.964
Y-191.814
X-395.971 Y-191.665
X-395.994 Y-191.516
X-396.027 Y-191.37
X-396.07 Y-191.226
X-396.124 Y-191.086
X-396.188 Y-190.951
X-396.262 Y-190.82
X-396.345 Y-190.695
X-396.436 Y-190.576
X-396.536 Y-190.464
X-396.643 Y-190.359
X-396.758 Y-190.263
X-396.879 Y-190.174
X-397.006 Y-190.094
X-397.138 Y-190.024
X-397.275 Y-189.962
X-397.416 Y-189.91
X-397.56 Y-189.869
X-397.707 Y-189.837
X-397.855 Y-189.815
X-398.005 Y-189.803
X-398.155 Y-189.802
X-398.304 Y-189.81
X-398.453 Y-189.829
X-398.6 Y-189.857
X-398.745 Y-189.896
X-398.888 Y-189.944
X-399.026 Y-190.001
X-399.161 Y-190.067
X-399.291 Y-190.142
X-399.415 Y-190.226
X-399.534 Y-190.317
X-399.647 Y-190.416
X-399.753 Y-190.522
X-399.852 Y-190.635
X-399.944 Y-190.753
X-400.028 Y-190.878
X-400.103 Y-191.007
X-400.171 Y-191.141
X-400.229 Y-191.279
X-400.279 Y-191.421
X-400.319 Y-191.565
X-400.351 Y-191.712
X-400.373 Y-191.86
X-400.386 Y-192.01
X-400.39 Y-192.16
X-400.384 Y-192.31
X-400.369 Y-192.459
X-400.345 Y-192.607
X-400.312 Y-192.753
X-400.27 Y-192.897
X-400.219 Y-193.038
X-400.16 Y-193.176
X-400.092 Y-193.31
X-400.017 Y-193.44
X-399.933 Y-193.564
X-399.843 Y-193.684
X-399.745 Y-193.798
X-399.641 Y-193.906
X-399.531 Y-194.007
X-399.414 Y-194.102
X-399.293 Y-194.19
X-399.166 Y-194.27
X-399.035 Y-194.343
X-398.9 Y-194.408
X-398.761 Y-194.465
X-398.619 Y-194.514
X-398.475 Y-194.555
X-398.328 Y-194.587
X-398.18 Y-194.61
X-398.031 Y-194.625
X-397.881 Y-194.631
X-397.731 Y-194.629
X-397.581 Y-194.618
X-397.433 Y-194.599
X-397.284 Y-194.571
X-397.138 Y-194.535
X-396.995 Y-194.491
X-396.853 Y-194.438
X-396.713 Y-194.377
X-396.579 Y-194.309
X-396.449 Y-194.234
X-396.32 Y-194.149
X-396.197 Y-194.058
X-396.08 Y-193.961
X-395.969 Y-193.857
X-395.861 Y-193.744
X-395.76 Y-193.627
X-395.667 Y-193.505
X-395.581 Y-193.377
X-395.5 Y-193.242
X-395.427 Y-193.103
X-395.363 Y-192.962
X-395.306 Y-192.816
X-395.257 Y-192.665
X-395.217 Y-192.511
X-395.186 Y-192.358
X-395.163 Y-192.202
X-395.149 Y-192.042
X-395.144 Y-191.881
X-395.147 Y-191.722
X-395.16 Y-191.564
X-395.182 Y-191.404
X-395.214 Y-191.244
X-395.254 Y-191.087
X-395.302 Y-190.934
X-395.359 Y-190.782
X-395.426 Y-190.632
X-395.502 Y-190.485
X-395.584 Y-190.345
X-395.675 Y-190.209
X-395.773 Y-190.077
X-395.881 Y-189.95
X-395.995 Y-189.829
X-396.116 Y-189.715
X-396.242 Y-189.608
X-396.375 Y-189.508
X-396.515 Y-189.414
X-396.661 Y-189.328
X-396.811 Y-189.251
X-396.965 Y-189.182
X-397.122 Y-189.123
X-397.284 Y-189.071
X-397.45 Y-189.029
X-397.619 Y-188.995
X-397.788 Y-188.972
X-397.959 Y-188.958
X-398.13 Y-188.953
X-398.302 Y-188.959
X-398.475 Y-188.974
X-398.648 Y-188.999
X-398.82 Y-189.034
X-398.988 Y-189.078
X-399.154 Y-189.131
X-399.317 Y-189.194
X-399.477 Y-189.267
X-399.634 Y-189.349
X-399.786 Y-189.44
X-399.934 Y-189.539
X-400.076 Y-189.647
X-400.211 Y-189.763
X-400.34 Y-189.886
X-400.461 Y-190.016
X-400.576 Y-190.154
X-400.684 Y-190.299
X-400.784 Y-190.45
X-400.875 Y-190.607
X-400.957 Y-190.77
X-401.03 Y-190.936
X-401.094 Y-191.107
X-401.148 Y-191.281
X-401.192 Y-191.458
X-401.227 Y-191.639
X-401.251 Y-191.821
X-401.265 Y-192.006
X-401.268 Y-192.191
X-401.262 Y-192.378
X-401.244 Y-192.564
X-401.216 Y-192.749
X-401.178 Y-192.932
X-401.129 Y-193.113
X-401.07 Y-193.292
X-401.001 Y-193.467
X-400.922 Y-193.638
X-400.834 Y-193.805
X-400.736 Y-193.967
X-400.628 Y-194.124
X-400.512 Y-194.275
X-400.386 Y-194.42
X-400.253 Y-194.558
X-400.111 Y-194.689
X-399.962 Y-194.811
X-399.806 Y-194.926
X-399.643 Y-195.031
X-399.475 Y-195.128
X-399.3 Y-195.215
X-399.121 Y-195.292
X-398.937 Y-195.36
X-398.749 Y-195.417
X-398.557 Y-195.463
X-398.363 Y-195.499
X-398.167 Y-195.523
X-397.97 Y-195.537
X-397.771 Y-195.54
X-397.572 Y-195.531
X-397.373 Y-195.511
X-397.175 Y-195.48
X-396.979 Y-195.437
X-396.785 Y-195.384
X-396.594 Y-195.32
X-396.406 Y-195.244
X-396.223 Y-195.158
X-396.044 Y-195.062
X-395.871 Y-194.955
X-395.703 Y-194.839
X-395.542 Y-194.713
X-395.387 Y-194.578
X-395.241 Y-194.434
X-395.102 Y-194.281
X-394.972 Y-194.121
X-394.85 Y-193.953
X-394.738 Y-193.778
X-394.636 Y-193.597
X-394.544 Y-193.41
X-394.463 Y-193.217
X-394.392 Y-193.02
X-394.332 Y-192.819
X-394.284 Y-192.614
X-394.247 Y-192.406
X-394.222 Y-192.196
X-394.209 Y-191.985
X-394.208 Y-191.772
X-394.218 Y-191.559
X-394.241 Y-191.347
X-394.276 Y-191.136
X-394.322 Y-190.927
X-394.381 Y-190.72
X-394.451 Y-190.516
X-394.533 Y-190.316
X-394.626 Y-190.121
X-394.73 Y-189.931
X-394.845 Y-189.746
X-394.97 Y-189.568
X-395.106 Y-189.396
X-395.251 Y-189.233
X-395.406 Y-189.077
X-395.569 Y-188.93
X-395.741 Y-188.792
X-395.921 Y-188.664
X-396.109 Y-188.545
X-396.303 Y-188.438
X-396.503 Y-188.341
X-396.709 Y-188.255
X-396.92 Y-188.181
X-397.135 Y-188.119
X-397.354 Y-188.069
X-397.577 Y-188.031
X-397.801 Y-188.005
X-398.026 Y-187.993
X-398.253
X-398.48 Y-188.006
X-398.706 Y-188.031
X-398.931 Y-188.07
X-399.154 Y-188.121
X-399.375 Y-188.185
X-399.591 Y-188.261
X-399.804 Y-188.349
X-400.011 Y-188.45
X-400.214 Y-188.562
X-400.41 Y-188.686
X-400.599 Y-188.821
X-400.781 Y-188.967
X-400.954 Y-189.123
X-401.119 Y-189.289
X-401.275 Y-189.464
X-401.42 Y-189.648
X-401.556 Y-189.841
X-401.68 Y-190.041
X-401.794 Y-190.249
X-401.896 Y-190.463
X-401.985 Y-190.682
X-402.063 Y-190.908
X-402.128 Y-191.137
X-402.18 Y-191.371
X-402.218 Y-191.607
X-402.244 Y-191.846
X-402.256 Y-192.086
X-402.254 Y-192.327
X-402.239 Y-192.569
X-402.21 Y-192.809
