%
(1001)
(origin bottom left anchor hole stock bottom)
(T1  D=6 CR=0 - ZMIN=10 - flat end mill)
G90 G94
G17
G21

(anchor_adaptive_inner)
M9
T1 M6
S14000 M3
G54
G0 X-1194 Y-384.001
Z47
Z36
Z26.6
G1 Z26 F850
Z18 F283.3
X-1193.969 Y-384.022 F850
X-1193.937 Y-384.001
X-1193.938 Y-383.964
X-1193.96 Y-383.934
X-1193.995 Y-383.919
X-1194.032 Y-383.922
X-1194.064 Y-383.942
X-1194.083 Y-383.974
X-1194.088 Y-384.011
X-1194.076 Y-384.047
X-1194.051 Y-384.074
X-1194.017 Y-384.091
X-1193.98 Y-384.098
X-1193.943 Y-384.093
X-1193.91 Y-384.076
X-1193.883 Y-384.049
X-1193.867 Y-384.016
X-1193.86 Y-383.979
X-1193.864 Y-383.941
X-1193.892 Y-383.872
X-1193.95 Y-383.825
X-1194.024 Y-383.809
X-1194.097 Y-383.824
X-1194.159 Y-383.867
X-1194.2 Y-383.929
X-1194.216 Y-384.002
X-1194.205 Y-384.077
X-1194.172 Y-384.144
X-1194.119 Y-384.197
X-1194.052 Y-384.232
X-1193.979 Y-384.245
X-1193.904 Y-384.237
X-1193.835 Y-384.208
X-1193.776 Y-384.162
X-1193.688 Y-384.04
X-1193.67 Y-383.891
X-1193.719 Y-383.75
X-1193.823 Y-383.642
X-1193.961 Y-383.583
X-1194.111 Y-383.579
X-1194.253 Y-383.628
X-1194.369 Y-383.723
X-1194.447 Y-383.851
X-1194.481 Y-383.997
X-1194.468 Y-384.146
X-1194.41 Y-384.285
X-1194.315 Y-384.401
X-1194.191 Y-384.485
X-1194.048 Y-384.531
X-1193.898 Y-384.536
X-1193.752 Y-384.505
X-1193.618 Y-384.437
X-1193.504 Y-384.339
X-1193.417 Y-384.217
X-1193.362 Y-384.077
X-1193.341 Y-383.929
X-1193.353 Y-383.779
X-1193.4 Y-383.637
X-1193.475 Y-383.507
X-1193.576 Y-383.396
X-1193.698 Y-383.309
X-1193.835 Y-383.248
X-1193.982 Y-383.216
X-1194.131 Y-383.212
X-1194.279 Y-383.239
X-1194.419 Y-383.292
X-1194.547 Y-383.371
X-1194.658 Y-383.472
X-1194.75 Y-383.591
X-1194.818 Y-383.724
X-1194.863 Y-383.868
X-1194.881 Y-384.017
X-1194.875 Y-384.166
X-1194.843 Y-384.313
X-1194.787 Y-384.452
X-1194.71 Y-384.581
X-1194.612 Y-384.695
X-1194.498 Y-384.792
X-1194.37 Y-384.87
X-1194.232 Y-384.927
X-1194.086 Y-384.963
X-1193.937 Y-384.976
X-1193.787 Y-384.968
X-1193.64 Y-384.937
X-1193.499 Y-384.886
X-1193.367 Y-384.815
X-1193.246 Y-384.725
X-1193.139 Y-384.62
X-1193.048 Y-384.501
X-1192.974 Y-384.371
X-1192.919 Y-384.231
X-1192.883 Y-384.086
X-1192.866 Y-383.937
X-1192.87 Y-383.787
X-1192.892 Y-383.638
X-1192.934 Y-383.494
X-1192.994 Y-383.357
X-1193.071 Y-383.228
X-1193.163 Y-383.11
X-1193.27 Y-383.004
X-1193.388 Y-382.912
X-1193.517 Y-382.835
X-1193.654 Y-382.775
X-1193.798 Y-382.731
X-1193.945 Y-382.705
X-1194.095 Y-382.696
X-1194.245 Y-382.704
X-1194.393 Y-382.73
X-1194.536 Y-382.773
X-1194.674 Y-382.831
X-1194.805 Y-382.905
X-1194.927 Y-382.993
X-1195.037 Y-383.094
X-1195.137 Y-383.207
X-1195.223 Y-383.329
X-1195.295 Y-383.461
X-1195.353 Y-383.599
X-1195.396 Y-383.743
X-1195.423 Y-383.89
X-1195.435 Y-384.04
X-1195.431 Y-384.19
X-1195.411 Y-384.339
X-1195.377 Y-384.484
X-1195.327 Y-384.626
X-1195.263 Y-384.762
X-1195.186 Y-384.89
X-1195.096 Y-385.011
X-1194.995 Y-385.121
X-1194.884 Y-385.222
X-1194.763 Y-385.31
X-1194.634 Y-385.387
X-1194.498 Y-385.451
X-1194.357 Y-385.501
X-1194.211 Y-385.538
X-1194.063 Y-385.561
X-1193.913 Y-385.569
X-1193.763 Y-385.564
X-1193.614 Y-385.544
X-1193.468 Y-385.511
X-1193.325 Y-385.465
X-1193.188 Y-385.406
X-1193.056 Y-385.334
X-1192.931 Y-385.251
X-1192.814 Y-385.157
X-1192.706 Y-385.053
X-1192.608 Y-384.94
X-1192.52 Y-384.818
X-1192.443 Y-384.689
X-1192.378 Y-384.554
X-1192.324 Y-384.414
X-1192.283 Y-384.27
X-1192.255 Y-384.123
X-1192.239 Y-383.973
X-1192.236 Y-383.824
X-1192.246 Y-383.674
X-1192.268 Y-383.526
X-1192.303 Y-383.38
X-1192.349 Y-383.237
X-1192.407 Y-383.099
X-1192.477 Y-382.966
X-1192.557 Y-382.839
X-1192.647 Y-382.719
X-1192.747 Y-382.607
X-1192.855 Y-382.503
X-1192.972 Y-382.409
X-1193.095 Y-382.324
X-1193.225 Y-382.249
X-1193.361 Y-382.184
X-1193.501 Y-382.131
X-1193.645 Y-382.088
X-1193.791 Y-382.057
X-1193.94 Y-382.037
X-1194.09 Y-382.029
X-1194.24 Y-382.033
X-1194.389 Y-382.048
X-1194.537 Y-382.074
X-1194.682 Y-382.111
X-1194.824 Y-382.16
X-1194.962 Y-382.219
X-1195.095 Y-382.287
X-1195.223 Y-382.366
X-1195.344 Y-382.454
X-1195.459 Y-382.551
X-1195.566 Y-382.656
X-1195.666 Y-382.768
X-1195.756 Y-382.888
X-1195.838 Y-383.013
X-1195.911 Y-383.145
X-1195.974 Y-383.281
X-1196.027 Y-383.421
X-1196.07 Y-383.565
X-1196.102 Y-383.711
X-1196.124 Y-383.86
X-1196.135 Y-384.009
X-1196.137 Y-384.159
X-1196.127 Y-384.309
X-1196.107 Y-384.457
X-1196.077 Y-384.604
X-1196.036 Y-384.749
X-1195.986 Y-384.89
X-1195.926 Y-385.028
X-1195.857 Y-385.161
X-1195.779 Y-385.289
X-1195.693 Y-385.411
X-1195.598 Y-385.528
X-1195.496 Y-385.638
X-1195.386 Y-385.74
X-1195.271 Y-385.836
X-1195.149 Y-385.923
X-1195.021 Y-386.002
X-1194.888 Y-386.072
X-1194.752 Y-386.134
X-1194.611 Y-386.186
X-1194.467 Y-386.229
X-1194.321 Y-386.263
X-1194.173 Y-386.287
X-1194.024 Y-386.301
X-1193.874 Y-386.306
X-1193.724 Y-386.301
X-1193.575 Y-386.286
X-1193.427 Y-386.263
X-1193.28 Y-386.229
X-1193.136 Y-386.187
X-1192.996 Y-386.135
X-1192.858 Y-386.075
X-1192.725 Y-386.007
X-1192.596 Y-385.93
X-1192.472 Y-385.845
X-1192.354 Y-385.753
X-1192.242 Y-385.653
X-1192.136 Y-385.547
X-1192.037 Y-385.434
X-1191.944 Y-385.316
X-1191.86 Y-385.192
X-1191.783 Y-385.064
X-1191.714 Y-384.93
X-1191.653 Y-384.793
X-1191.6 Y-384.653
X-1191.556 Y-384.509
X-1191.521 Y-384.364
X-1191.494 Y-384.216
X-1191.476 Y-384.067
X-1191.468 Y-383.917
Y-383.767
X-1191.476 Y-383.618
X-1191.494 Y-383.469
X-1191.521 Y-383.321
X-1191.555 Y-383.175
X-1191.599 Y-383.032
X-1191.65 Y-382.891
X-1191.71 Y-382.753
X-1191.778 Y-382.619
X-1191.853 Y-382.489
X-1191.935 Y-382.364
X-1192.025 Y-382.244
X-1192.121 Y-382.129
X-1192.224 Y-382.019
X-1192.334 Y-381.915
X-1192.448 Y-381.818
X-1192.568 Y-381.728
X-1192.693 Y-381.643
X-1192.825 Y-381.566
X-1192.958 Y-381.497
X-1193.096 Y-381.435
X-1193.24 Y-381.38
X-1193.386 Y-381.334
X-1193.532 Y-381.296
X-1193.682 Y-381.266
X-1193.837 Y-381.245
X-1193.991 Y-381.232
X-1194.144 Y-381.228
X-1194.299 Y-381.232
X-1194.456 Y-381.246
X-1194.611 Y-381.268
X-1194.762 Y-381.298
X-1194.914 Y-381.338
X-1195.065 Y-381.387
X-1195.213 Y-381.444
X-1195.356 Y-381.508
X-1195.496 Y-381.581
X-1195.634 Y-381.663
X-1195.768 Y-381.753
X-1195.894 Y-381.849
X-1196.015 Y-381.952
X-1196.132 Y-382.064
X-1196.244 Y-382.183
X-1196.347 Y-382.307
X-1196.443 Y-382.436
X-1196.532 Y-382.571
X-1196.615 Y-382.713
X-1196.69 Y-382.86
X-1196.756 Y-383.009
X-1196.813 Y-383.162
X-1196.862 Y-383.319
X-1196.902 Y-383.481
X-1196.934 Y-383.644
X-1196.956 Y-383.809
X-1196.959 Y-383.85
X-1196.965 Y-383.979
X-1196.962 Y-384.109
X-1196.951 Y-384.238
X-1196.914 Y-384.552
X-1196.907 Y-384.608
X-1196.897 Y-384.68
X-1196.878 Y-384.753
X-1196.706 Y-385.202
X-1196.644 Y-385.357
X-1196.514 Y-385.558
X-1196.303 Y-385.865
X-1196.233 Y-385.961
X-1196.102 Y-386.088
X-1195.791 Y-386.364
X-1195.699 Y-386.441
X-1195.497 Y-386.554
X-1195.296 Y-386.659
X-1195.088 Y-386.767
X-1194.991 Y-386.801
X-1194.491 Y-386.923
X-1194.39 Y-386.947
X-1194.289 Y-386.956
X-1193.886
X-1193.685 Y-386.955
X-1193.584 Y-386.942
X-1192.996 Y-386.797
X-1192.911 Y-386.767
X-1192.88 Y-386.752
X-1192.376 Y-386.487
X-1192.326 Y-386.458
X-1192.275 Y-386.421
X-1192.209 Y-386.364
X-1191.873 Y-386.065
X-1191.767 Y-385.961
X-1191.671 Y-385.828
X-1191.47 Y-385.535
X-1191.356 Y-385.357
X-1191.269 Y-385.135
X-1191.122 Y-384.753
X-1191.099 Y-384.652
X-1191.039 Y-384.149
X-1191.027 Y-384.048
Y-383.948
X-1191.075 Y-383.545
X-1191.099 Y-383.343
X-1191.124 Y-383.243
X-1191.317 Y-382.739
X-1191.359 Y-382.639
X-1191.419 Y-382.538
X-1191.697 Y-382.135
X-1191.77 Y-382.035
X-1191.874 Y-381.934
X-1192.275 Y-381.578
X-1192.343 Y-381.531
X-1192.477 Y-381.46
X-1192.88 Y-381.248
X-1192.93 Y-381.225
X-1192.98 Y-381.207
X-1193.081 Y-381.182
X-1193.584 Y-381.059
X-1193.685 Y-381.045
X-1193.886 Y-381.044
X-1194.289
X-1194.39 Y-381.053
X-1194.491 Y-381.077
X-1194.994 Y-381.2
X-1195.044 Y-381.216
X-1195.095 Y-381.236
X-1195.296 Y-381.341
X-1195.497 Y-381.446
X-1195.657 Y-381.531
X-1195.699 Y-381.559
X-1195.9 Y-381.733
X-1196.126 Y-381.934
X-1196.229 Y-382.034
X-1196.303 Y-382.135
X-1196.581 Y-382.538
X-1196.642 Y-382.639
X-1196.683 Y-382.739
X-1196.876 Y-383.243
X-1196.901 Y-383.343
X-1196.907 Y-383.392
X-1196.973 Y-383.948
Y-384.048
X-1196.951 Y-384.238
X-1196.93 Y-384.328
X-1196.895 Y-384.414
X-1196.851 Y-384.473 Z18.005
X-1196.807 Y-384.531 Z18.018
X-1196.765 Y-384.588 Z18.041
X-1196.698 Y-384.63 Z18.079
X-1196.636 Y-384.669 Z18.129
X-1196.581 Y-384.703 Z18.188
X-1196.526 Y-384.717 Z18.259
X-1196.482 Y-384.728 Z18.337
X-1196.45 Y-384.737 Z18.421
X-1196.43 Y-384.741 Z18.509
X-1196.423 Y-384.743 Z18.6
G0 Z36
X-1194 Y-192
Z26.6
G1 Z26 F850
Z18 F283.3
X-1193.969 Y-191.979 F850
X-1193.977 Y-191.942
X-1194.012 Y-191.929
X-1194.048 Y-191.939
X-1194.074 Y-191.967
X-1194.084 Y-192.003
X-1194.076 Y-192.039
X-1194.053 Y-192.069
X-1194.02 Y-192.086
X-1193.983 Y-192.088
X-1193.948 Y-192.073
X-1193.921 Y-192.047
X-1193.901 Y-192.015
X-1193.893 Y-191.979
X-1193.898 Y-191.941
X-1193.913 Y-191.907
X-1193.939 Y-191.88
X-1193.972 Y-191.861
X-1194.008 Y-191.853
X-1194.083 Y-191.854
X-1194.147 Y-191.893
X-1194.188 Y-191.956
X-1194.199 Y-192.03
X-1194.18 Y-192.103
X-1194.136 Y-192.163
X-1194.072 Y-192.203
X-1193.999 Y-192.219
X-1193.925 Y-192.211
X-1193.856 Y-192.18
X-1193.801 Y-192.129
X-1193.762 Y-192.065
X-1193.744 Y-191.992
X-1193.747 Y-191.917
X-1193.771 Y-191.846
X-1193.854 Y-191.721
X-1193.988 Y-191.652
X-1194.138 Y-191.65
X-1194.275 Y-191.71
X-1194.378 Y-191.819
X-1194.434 Y-191.959
X-1194.436 Y-192.109
X-1194.388 Y-192.251
X-1194.295 Y-192.368
X-1194.169 Y-192.45
X-1194.024 Y-192.489
X-1193.874 Y-192.483
X-1193.733 Y-192.434
X-1193.611 Y-192.346
X-1193.518 Y-192.228
X-1193.462 Y-192.089
X-1193.441 Y-191.941
X-1193.458 Y-191.792
X-1193.51 Y-191.651
X-1193.596 Y-191.528
X-1193.707 Y-191.428
X-1193.84 Y-191.357
X-1193.984 Y-191.317
X-1194.134 Y-191.312
X-1194.282 Y-191.337
X-1194.421 Y-191.394
X-1194.545 Y-191.478
X-1194.649 Y-191.586
X-1194.73 Y-191.712
X-1194.785 Y-191.852
X-1194.81 Y-192
X-1194.809 Y-192.15
X-1194.779 Y-192.297
X-1194.723 Y-192.436
X-1194.642 Y-192.563
X-1194.541 Y-192.673
X-1194.422 Y-192.764
X-1194.288 Y-192.833
X-1194.145 Y-192.878
X-1193.997 Y-192.899
X-1193.847 Y-192.895
X-1193.699 Y-192.867
X-1193.559 Y-192.814
X-1193.428 Y-192.741
X-1193.311 Y-192.647
X-1193.209 Y-192.537
X-1193.125 Y-192.413
X-1193.062 Y-192.277
X-1193.018 Y-192.133
X-1192.996 Y-191.985
Y-191.835
X-1193.017 Y-191.686
X-1193.06 Y-191.543
X-1193.121 Y-191.406
X-1193.202 Y-191.279
X-1193.299 Y-191.165
X-1193.41 Y-191.065
X-1193.535 Y-190.981
X-1193.669 Y-190.914
X-1193.811 Y-190.865
X-1193.958 Y-190.836
X-1194.108 Y-190.825
X-1194.257 Y-190.834
X-1194.405 Y-190.862
X-1194.547 Y-190.908
X-1194.683 Y-190.971
X-1194.811 Y-191.051
X-1194.927 Y-191.145
X-1195.031 Y-191.253
X-1195.122 Y-191.373
X-1195.197 Y-191.502
X-1195.257 Y-191.64
X-1195.301 Y-191.783
X-1195.327 Y-191.931
X-1195.337 Y-192.081
X-1195.329 Y-192.231
X-1195.305 Y-192.379
X-1195.265 Y-192.523
X-1195.208 Y-192.662
X-1195.136 Y-192.794
X-1195.051 Y-192.917
X-1194.953 Y-193.03
X-1194.843 Y-193.132
X-1194.723 Y-193.222
X-1194.593 Y-193.298
X-1194.457 Y-193.361
X-1194.315 Y-193.409
X-1194.168 Y-193.442
X-1194.02 Y-193.459
X-1193.87 Y-193.461
X-1193.72 Y-193.448
X-1193.573 Y-193.42
X-1193.429 Y-193.377
X-1193.29 Y-193.32
X-1193.158 Y-193.25
X-1193.033 Y-193.167
X-1192.916 Y-193.073
X-1192.81 Y-192.967
X-1192.714 Y-192.852
X-1192.629 Y-192.728
X-1192.557 Y-192.597
X-1192.497 Y-192.459
X-1192.45 Y-192.316
X-1192.417 Y-192.17
X-1192.398 Y-192.021
X-1192.392 Y-191.871
X-1192.4 Y-191.722
X-1192.422 Y-191.573
X-1192.457 Y-191.427
X-1192.505 Y-191.285
X-1192.566 Y-191.148
X-1192.638 Y-191.017
X-1192.722 Y-190.892
X-1192.817 Y-190.776
X-1192.921 Y-190.668
X-1193.034 Y-190.57
X-1193.155 Y-190.481
X-1193.284 Y-190.404
X-1193.418 Y-190.338
X-1193.558 Y-190.283
X-1193.702 Y-190.241
X-1193.849 Y-190.211
X-1193.998 Y-190.193
X-1194.148 Y-190.187
X-1194.298 Y-190.195
X-1194.446 Y-190.214
X-1194.593 Y-190.245
X-1194.737 Y-190.289
X-1194.876 Y-190.344
X-1195.011 Y-190.41
X-1195.14 Y-190.486
X-1195.262 Y-190.573
X-1195.377 Y-190.669
X-1195.484 Y-190.774
X-1195.583 Y-190.887
X-1195.672 Y-191.008
X-1195.752 Y-191.135
X-1195.822 Y-191.268
X-1195.881 Y-191.405
X-1195.929 Y-191.547
X-1195.967 Y-191.693
X-1195.993 Y-191.84
X-1196.008 Y-191.99
X-1196.011 Y-192.14
X-1196.004 Y-192.289
X-1195.985 Y-192.438
X-1195.955 Y-192.585
X-1195.914 Y-192.73
X-1195.863 Y-192.871
X-1195.802 Y-193.007
X-1195.73 Y-193.139
X-1195.649 Y-193.266
X-1195.56 Y-193.386
X-1195.461 Y-193.499
X-1195.355 Y-193.605
X-1195.242 Y-193.703
X-1195.121 Y-193.793
X-1194.995 Y-193.874
X-1194.864 Y-193.946
X-1194.727 Y-194.008
X-1194.587 Y-194.061
X-1194.443 Y-194.103
X-1194.296 Y-194.136
X-1194.148 Y-194.158
X-1193.998 Y-194.17
X-1193.848 Y-194.171
X-1193.699 Y-194.162
X-1193.55 Y-194.143
X-1193.403 Y-194.114
X-1193.258 Y-194.075
X-1193.116 Y-194.027
X-1192.978 Y-193.968
X-1192.844 Y-193.901
X-1192.714 Y-193.825
X-1192.59 Y-193.74
X-1192.473 Y-193.648
X-1192.361 Y-193.548
X-1192.256 Y-193.44
X-1192.158 Y-193.326
X-1192.069 Y-193.206
X-1191.987 Y-193.081
X-1191.913 Y-192.95
X-1191.848 Y-192.815
X-1191.792 Y-192.676
X-1191.745 Y-192.533
X-1191.707 Y-192.388
X-1191.678 Y-192.241
X-1191.659 Y-192.092
X-1191.65 Y-191.942
X-1191.649 Y-191.792
X-1191.658 Y-191.643
X-1191.677 Y-191.494
X-1191.705 Y-191.347
X-1191.742 Y-191.201
X-1191.788 Y-191.058
X-1191.843 Y-190.919
X-1191.906 Y-190.783
X-1191.977 Y-190.651
X-1192.057 Y-190.523
X-1192.144 Y-190.401
X-1192.238 Y-190.285
X-1192.339 Y-190.174
X-1192.447 Y-190.07
X-1192.561 Y-189.972
X-1192.68 Y-189.881
X-1192.805 Y-189.798
X-1192.934 Y-189.722
X-1193.068 Y-189.654
X-1193.205 Y-189.594
X-1193.346 Y-189.542
X-1193.49 Y-189.499
X-1193.636 Y-189.464
X-1193.784 Y-189.438
X-1193.932 Y-189.421
X-1194.082 Y-189.412
X-1194.232
X-1194.382 Y-189.421
X-1194.531 Y-189.438
X-1194.679 Y-189.464
X-1194.825 Y-189.498
X-1194.969 Y-189.541
X-1195.11 Y-189.592
X-1195.248 Y-189.65
X-1195.384 Y-189.718
X-1195.514 Y-189.791
X-1195.64 Y-189.873
X-1195.762 Y-189.962
X-1195.881 Y-190.058
X-1195.992 Y-190.16
X-1196.096 Y-190.268
X-1196.198 Y-190.384
X-1196.292 Y-190.505
X-1196.378 Y-190.63
X-1196.457 Y-190.76
X-1196.531 Y-190.898
X-1196.596 Y-191.038
X-1196.652 Y-191.18
X-1196.701 Y-191.327
X-1196.743 Y-191.479
X-1196.775 Y-191.632
X-1196.799 Y-191.785
X-1196.814 Y-191.941
X-1196.82 Y-192.1
X-1196.818 Y-192.259
X-1196.807 Y-192.415
X-1196.786 Y-192.571
X-1196.757 Y-192.729
X-1196.718 Y-192.885
X-1196.672 Y-193.038
X-1196.617 Y-193.187
X-1196.552 Y-193.335
X-1196.479 Y-193.48
X-1196.398 Y-193.621
X-1196.31 Y-193.755
X-1196.214 Y-193.885
X-1196.109 Y-194.012
X-1195.997 Y-194.133
X-1195.879 Y-194.246
X-1195.755 Y-194.352
X-1195.625 Y-194.452
X-1195.487 Y-194.546
X-1195.344 Y-194.632
X-1195.197 Y-194.709
X-1195.175 Y-194.719
X-1195.06 Y-194.767
X-1194.942 Y-194.809
X-1194.821 Y-194.842
X-1194.491 Y-194.923
X-1194.39 Y-194.947
X-1194.289 Y-194.956
X-1193.776 Y-194.955
X-1193.685
X-1193.584 Y-194.941
X-1193.081 Y-194.818
X-1192.98 Y-194.792
X-1192.93 Y-194.775
X-1192.88 Y-194.752
X-1192.477 Y-194.54
X-1192.343 Y-194.469
X-1192.275 Y-194.422
X-1191.873 Y-194.065
X-1191.77 Y-193.965
X-1191.697 Y-193.865
X-1191.419 Y-193.462
X-1191.359 Y-193.361
X-1191.317 Y-193.261
X-1191.124 Y-192.757
X-1191.099 Y-192.657
X-1191.051 Y-192.254
X-1191.027 Y-192.052
Y-191.952
X-1191.086 Y-191.448
X-1191.099 Y-191.348
X-1191.122 Y-191.247
X-1191.276 Y-190.844
X-1191.356 Y-190.643
X-1191.47 Y-190.465
X-1191.671 Y-190.172
X-1191.767 Y-190.039
X-1191.873 Y-189.935
X-1192.209 Y-189.636
X-1192.275 Y-189.579
X-1192.326 Y-189.542
X-1192.376 Y-189.513
X-1192.88 Y-189.248
X-1192.911 Y-189.233
X-1192.996 Y-189.203
X-1193.584 Y-189.058
X-1193.685 Y-189.045
X-1194.088 Y-189.044
X-1194.289
X-1194.39 Y-189.053
X-1194.491 Y-189.077
X-1194.991 Y-189.199
X-1195.088 Y-189.233
X-1195.296 Y-189.34
X-1195.497 Y-189.446
X-1195.699 Y-189.559
X-1195.791 Y-189.636
X-1196.102 Y-189.912
X-1196.233 Y-190.039
X-1196.303 Y-190.135
X-1196.514 Y-190.442
X-1196.644 Y-190.643
X-1196.706 Y-190.798
X-1196.878 Y-191.247
X-1196.897 Y-191.32
X-1196.907 Y-191.392
X-1196.973 Y-191.952
Y-192.052
X-1196.907 Y-192.608
X-1196.901 Y-192.657
X-1196.876 Y-192.757
X-1196.683 Y-193.261
X-1196.642 Y-193.361
X-1196.581 Y-193.462
X-1196.303 Y-193.865
X-1196.229 Y-193.966
X-1196.126 Y-194.066
X-1195.899 Y-194.267
X-1195.699 Y-194.441
X-1195.657 Y-194.469
X-1195.497 Y-194.554
X-1195.276 Y-194.67
X-1195.095 Y-194.764
X-1195.044 Y-194.784
X-1194.994 Y-194.8
X-1194.821 Y-194.842
X-1194.73 Y-194.854
X-1194.637 Y-194.852
X-1194.566 Y-194.831 Z18.005
X-1194.496 Y-194.81 Z18.018
X-1194.429 Y-194.791 Z18.041
X-1194.366 Y-194.743 Z18.079
X-1194.308 Y-194.699 Z18.129
X-1194.256 Y-194.659 Z18.188
X-1194.224 Y-194.613 Z18.259
X-1194.198 Y-194.575 Z18.337
X-1194.179 Y-194.548 Z18.421
X-1194.167 Y-194.531 Z18.509
X-1194.163 Y-194.525 Z18.6
G0 Z36
X-796 Y-576
Z26.6
G1 Z26 F850
Z18 F283.3
Y-575.962 F850
X-796.035 Y-575.948
X-796.065 Y-575.97
X-796.077 Y-576.005
X-796.07 Y-576.042
X-796.045 Y-576.071
X-796.011 Y-576.085
X-795.973 Y-576.083
X-795.94 Y-576.065
X-795.918 Y-576.035
X-795.91 Y-575.999
X-795.916 Y-575.962
X-795.932 Y-575.927
X-795.957 Y-575.9
X-795.99 Y-575.883
X-796.027 Y-575.876
X-796.064 Y-575.882
X-796.098 Y-575.898
X-796.126 Y-575.923
X-796.167 Y-575.986
X-796.172 Y-576.061
X-796.143 Y-576.13
X-796.088 Y-576.181
X-796.017 Y-576.207
X-795.942 Y-576.204
X-795.873 Y-576.175
X-795.819 Y-576.123
X-795.784 Y-576.057
X-795.771 Y-575.983
X-795.781 Y-575.909
X-795.812 Y-575.841
X-795.862 Y-575.785
X-795.925 Y-575.745
X-795.997 Y-575.724
X-796.147 Y-575.722
X-796.279 Y-575.793
X-796.366 Y-575.915
X-796.394 Y-576.063
X-796.363 Y-576.209
X-796.28 Y-576.334
X-796.158 Y-576.421
X-796.013 Y-576.461
X-795.863 Y-576.451
X-795.725 Y-576.394
X-795.61 Y-576.297
X-795.53 Y-576.17
X-795.491 Y-576.026
X-795.494 Y-575.876
X-795.539 Y-575.732
X-795.621 Y-575.607
X-795.732 Y-575.506
X-795.864 Y-575.435
X-796.01 Y-575.399
X-796.16
X-796.306 Y-575.435
X-796.439 Y-575.504
X-796.554 Y-575.6
X-796.643 Y-575.72
X-796.706 Y-575.857
X-796.738 Y-576.003
X-796.739 Y-576.153
X-796.709 Y-576.3
X-796.651 Y-576.438
X-796.567 Y-576.563
X-796.459 Y-576.667
X-796.335 Y-576.751
X-796.197 Y-576.81
X-796.05 Y-576.842
X-795.9 Y-576.848
X-795.752 Y-576.827
X-795.609 Y-576.78
X-795.477 Y-576.709
X-795.359 Y-576.617
X-795.257 Y-576.507
X-795.176 Y-576.381
X-795.116 Y-576.243
X-795.079 Y-576.098
X-795.066 Y-575.949
X-795.076 Y-575.799
X-795.109 Y-575.653
X-795.164 Y-575.513
X-795.24 Y-575.384
X-795.334 Y-575.266
X-795.444 Y-575.164
X-795.567 Y-575.079
X-795.701 Y-575.012
X-795.844 Y-574.966
X-795.992 Y-574.939
X-796.142 Y-574.934
X-796.291 Y-574.949
X-796.437 Y-574.984
X-796.576 Y-575.039
X-796.708 Y-575.112
X-796.828 Y-575.201
X-796.936 Y-575.306
X-797.029 Y-575.423
X-797.106 Y-575.551
X-797.167 Y-575.689
X-797.21 Y-575.832
X-797.235 Y-575.98
X-797.242 Y-576.13
X-797.229 Y-576.28
X-797.199 Y-576.427
X-797.152 Y-576.569
X-797.088 Y-576.705
X-797.009 Y-576.832
X-796.916 Y-576.949
X-796.809 Y-577.055
X-796.691 Y-577.148
X-796.563 Y-577.226
X-796.427 Y-577.29
X-796.285 Y-577.338
X-796.139 Y-577.37
X-795.99 Y-577.386
X-795.84
X-795.691 Y-577.368
X-795.544 Y-577.336
X-795.402 Y-577.288
X-795.266 Y-577.225
X-795.137 Y-577.148
X-795.017 Y-577.058
X-794.908 Y-576.956
X-794.809 Y-576.843
X-794.722 Y-576.72
X-794.648 Y-576.59
X-794.588 Y-576.453
X-794.542 Y-576.31
X-794.51 Y-576.163
X-794.492 Y-576.014
X-794.49 Y-575.864
X-794.502 Y-575.715
X-794.529 Y-575.567
X-794.57 Y-575.423
X-794.624 Y-575.283
X-794.691 Y-575.149
X-794.77 Y-575.022
X-794.861 Y-574.902
X-794.963 Y-574.792
X-795.075 Y-574.692
X-795.195 Y-574.602
X-795.323 Y-574.524
X-795.458 Y-574.458
X-795.598 Y-574.404
X-795.742 Y-574.363
X-795.89 Y-574.336
X-796.039 Y-574.321
X-796.189 Y-574.319
X-796.338 Y-574.331
X-796.486 Y-574.356
X-796.631 Y-574.394
X-796.773 Y-574.444
X-796.909 Y-574.505
X-797.04 Y-574.579
X-797.164 Y-574.663
X-797.281 Y-574.758
X-797.389 Y-574.862
X-797.488 Y-574.974
X-797.577 Y-575.095
X-797.656 Y-575.222
X-797.725 Y-575.356
X-797.782 Y-575.495
X-797.827 Y-575.638
X-797.861 Y-575.784
X-797.883 Y-575.932
X-797.893 Y-576.082
X-797.891 Y-576.232
X-797.877 Y-576.381
X-797.851 Y-576.529
X-797.814 Y-576.674
X-797.765 Y-576.816
X-797.706 Y-576.954
X-797.636 Y-577.086
X-797.556 Y-577.213
X-797.466 Y-577.334
X-797.367 Y-577.447
X-797.261 Y-577.552
X-797.146 Y-577.649
X-797.024 Y-577.737
X-796.897 Y-577.815
X-796.763 Y-577.884
X-796.625 Y-577.943
X-796.483 Y-577.991
X-796.338 Y-578.029
X-796.19 Y-578.055
X-796.041 Y-578.071
X-795.891 Y-578.076
X-795.742 Y-578.07
X-795.592 Y-578.053
X-795.445 Y-578.026
X-795.3 Y-577.988
X-795.158 Y-577.94
X-795.02 Y-577.882
X-794.886 Y-577.814
X-794.757 Y-577.737
X-794.634 Y-577.651
X-794.518 Y-577.556
X-794.408 Y-577.454
X-794.306 Y-577.344
X-794.211 Y-577.228
X-794.125 Y-577.105
X-794.047 Y-576.977
X-793.979 Y-576.843
X-793.919 Y-576.706
X-793.87 Y-576.564
X-793.829 Y-576.42
X-793.799 Y-576.273
X-793.778 Y-576.124
X-793.768 Y-575.974
X-793.767 Y-575.825
X-793.777 Y-575.675
X-793.796 Y-575.526
X-793.825 Y-575.379
X-793.864 Y-575.234
X-793.912 Y-575.092
X-793.969 Y-574.953
X-794.035 Y-574.818
X-794.109 Y-574.688
X-794.192 Y-574.563
X-794.283 Y-574.444
X-794.381 Y-574.33
X-794.486 Y-574.223
X-794.598 Y-574.123
X-794.716 Y-574.031
X-794.839 Y-573.945
X-794.968 Y-573.868
X-795.101 Y-573.799
X-795.238 Y-573.739
X-795.379 Y-573.687
X-795.523 Y-573.644
X-795.669 Y-573.61
X-795.817 Y-573.585
X-795.966 Y-573.569
X-796.116 Y-573.562
X-796.266 Y-573.565
X-796.415 Y-573.576
X-796.564 Y-573.597
X-796.711 Y-573.626
X-796.856 Y-573.665
X-796.998 Y-573.712
X-797.138 Y-573.767
X-797.273 Y-573.831
X-797.405 Y-573.903
X-797.533 Y-573.982
X-797.655 Y-574.069
X-797.772 Y-574.163
X-797.883 Y-574.263
X-797.988 Y-574.37
X-798.087 Y-574.483
X-798.179 Y-574.602
X-798.264 Y-574.725
X-798.342 Y-574.854
X-798.412 Y-574.986
X-798.474 Y-575.123
X-798.529 Y-575.262
X-798.575 Y-575.405
X-798.613 Y-575.55
X-798.643 Y-575.697
X-798.665 Y-575.847
X-798.678 Y-575.997
X-798.682 Y-576.146
X-798.678 Y-576.298
X-798.665 Y-576.45
X-798.645 Y-576.599
X-798.615 Y-576.746
X-798.577 Y-576.895
X-798.53 Y-577.042
X-798.476 Y-577.183
X-798.414 Y-577.322
X-798.342 Y-577.461
X-798.263 Y-577.594
X-798.178 Y-577.721
X-798.085 Y-577.845
X-797.983 Y-577.965
X-797.875 Y-578.079
X-797.763 Y-578.185
X-797.643 Y-578.285
X-797.515 Y-578.381
X-797.383 Y-578.469
X-797.248 Y-578.548
X-797.108 Y-578.62
X-796.961 Y-578.685
X-796.81 Y-578.742
X-796.658 Y-578.789
X-796.505 Y-578.828
X-796.346 Y-578.859
X-796.184 Y-578.881
X-796.023 Y-578.894
X-795.863 Y-578.898
X-795.701 Y-578.892
X-795.537 Y-578.878
X-795.374 Y-578.854
X-795.214 Y-578.821
X-795.056 Y-578.779
X-794.9 Y-578.728
X-794.745 Y-578.668
X-794.593 Y-578.599
X-794.446 Y-578.521
X-794.342 Y-578.456
X-794.26 Y-578.398
X-794.181 Y-578.336
X-794.15 Y-578.31
X-793.948 Y-578.132
X-793.864 Y-578.057
X-793.8 Y-577.998
X-793.747 Y-577.938
X-793.689 Y-577.856
X-793.411 Y-577.453
X-793.373 Y-577.393
X-793.344 Y-577.334
X-793.143 Y-576.804
X-793.117 Y-576.726
X-793.101 Y-576.648
X-793.052 Y-576.245
X-793.028 Y-576.044
X-793.029 Y-575.943
X-793.102 Y-575.339
X-793.127 Y-575.238
X-793.344 Y-574.666
X-793.359 Y-574.634
X-793.489 Y-574.433
X-793.628 Y-574.232
X-793.747 Y-574.062
X-793.773 Y-574.03
X-793.948 Y-573.868
X-794.22 Y-573.628
X-794.286 Y-573.572
X-794.351 Y-573.527
X-794.754 Y-573.315
X-794.933 Y-573.225
X-794.955 Y-573.216
X-795.157 Y-573.163
X-795.559 Y-573.064
X-795.66 Y-573.047
X-795.761 Y-573.044
X-796.164
X-796.365 Y-573.05
X-796.566 Y-573.095
X-796.969 Y-573.194
X-797.066 Y-573.225
X-797.17 Y-573.276
X-797.573 Y-573.487
X-797.674 Y-573.543
X-797.78 Y-573.628
X-798.177 Y-573.98
X-798.227 Y-574.03
X-798.379 Y-574.242
X-798.58 Y-574.534
X-798.641 Y-574.634
X-798.72 Y-574.836
X-798.873 Y-575.238
X-798.898 Y-575.339
X-798.971 Y-575.943
X-798.972 Y-576.044
X-798.924 Y-576.447
X-798.899 Y-576.648
X-798.877 Y-576.749
X-798.84 Y-576.849
X-798.687 Y-577.252
X-798.647 Y-577.353
X-798.589 Y-577.453
X-798.311 Y-577.856
X-798.252 Y-577.938
X-798.177 Y-578.021
X-797.775 Y-578.377
X-797.669 Y-578.46
X-797.573 Y-578.513
X-797.17 Y-578.724
X-797.07 Y-578.774
X-796.969 Y-578.806
X-796.566 Y-578.905
X-796.365 Y-578.95
X-796.164 Y-578.956
X-795.761
X-795.66 Y-578.953
X-795.559 Y-578.936
X-795.157 Y-578.837
X-794.955 Y-578.784
X-794.754 Y-578.685
X-794.351 Y-578.473
X-794.331 Y-578.46
X-794.181 Y-578.336
X-794.116 Y-578.269
X-794.063 Y-578.193
X-794.037 Y-578.124 Z18.005
X-794.012 Y-578.056 Z18.018
X-793.988 Y-577.99 Z18.041
X-793.983 Y-577.937 Z18.065
X-793.979 Y-577.887 Z18.093
X-793.991 Y-577.822 Z18.143
X-794.002 Y-577.764 Z18.2
X-794.011 Y-577.714 Z18.266
X-794.018 Y-577.674 Z18.338
X-794.032 Y-577.643 Z18.422
X-794.04 Y-577.625 Z18.51
X-794.042 Y-577.618 Z18.6
G0 Z36
X-796 Y-384
Z26.6
G1 Z26 F850
Z18 F283.3
X-795.975 Y-384.028 F850
X-795.939 Y-384.016
X-795.931 Y-383.979
X-795.946 Y-383.944
X-795.976 Y-383.922
X-796.013 Y-383.917
X-796.049 Y-383.929
X-796.075 Y-383.956
X-796.088 Y-383.991
X-796.085 Y-384.028
X-796.066 Y-384.061
X-796.037 Y-384.085
X-796.003 Y-384.1
X-795.966 Y-384.104
X-795.929 Y-384.094
X-795.897 Y-384.074
X-795.874 Y-384.045
X-795.859 Y-384.011
X-795.855 Y-383.974
X-795.866 Y-383.899
X-795.912 Y-383.841
X-795.98 Y-383.808
X-796.055 Y-383.807
X-796.124 Y-383.834
X-796.179 Y-383.886
X-796.211 Y-383.953
X-796.217 Y-384.028
X-796.2 Y-384.101
X-796.16 Y-384.165
X-796.103 Y-384.214
X-796.035 Y-384.244
X-795.96 Y-384.253
X-795.886 Y-384.24
X-795.819 Y-384.208
X-795.705 Y-384.11
X-795.654 Y-383.969
X-795.67 Y-383.82
X-795.747 Y-383.691
X-795.868 Y-383.602
X-796.013 Y-383.564
X-796.162 Y-383.58
X-796.297 Y-383.646
X-796.402 Y-383.753
X-796.468 Y-383.888
X-796.489 Y-384.037
X-796.464 Y-384.185
X-796.398 Y-384.319
X-796.296 Y-384.429
X-796.167 Y-384.506
X-796.022 Y-384.545
X-795.872 Y-384.548
X-795.726 Y-384.512
X-795.593 Y-384.443
X-795.482 Y-384.343
X-795.396 Y-384.22
X-795.342 Y-384.08
X-795.32 Y-383.931
X-795.333 Y-383.782
X-795.377 Y-383.638
X-795.451 Y-383.508
X-795.549 Y-383.395
X-795.669 Y-383.305
X-795.805 Y-383.24
X-795.95 Y-383.203
X-796.1 Y-383.196
X-796.249 Y-383.216
X-796.391 Y-383.264
X-796.522 Y-383.337
X-796.638 Y-383.432
X-796.734 Y-383.547
X-796.81 Y-383.676
X-796.862 Y-383.817
X-796.89 Y-383.964
X-796.892 Y-384.114
X-796.869 Y-384.263
X-796.823 Y-384.405
X-796.754 Y-384.538
X-796.664 Y-384.659
X-796.557 Y-384.764
X-796.435 Y-384.851
X-796.301 Y-384.919
X-796.159 Y-384.965
X-796.011 Y-384.991
X-795.861 Y-384.994
X-795.712 Y-384.976
X-795.567 Y-384.937
X-795.43 Y-384.877
X-795.302 Y-384.799
X-795.186 Y-384.703
X-795.085 Y-384.593
X-794.999 Y-384.47
X-794.931 Y-384.336
X-794.881 Y-384.194
X-794.851 Y-384.048
X-794.839 Y-383.898
X-794.847 Y-383.748
X-794.875 Y-383.601
X-794.92 Y-383.458
X-794.984 Y-383.322
X-795.064 Y-383.195
X-795.158 Y-383.078
X-795.266 Y-382.975
X-795.386 Y-382.885
X-795.516 Y-382.809
X-795.654 Y-382.751
X-795.798 Y-382.708
X-795.946 Y-382.682
X-796.095 Y-382.674
X-796.245 Y-382.683
X-796.393 Y-382.709
X-796.537 Y-382.752
X-796.675 Y-382.81
X-796.806 Y-382.883
X-796.928 Y-382.97
X-797.04 Y-383.07
X-797.14 Y-383.182
X-797.228 Y-383.304
X-797.302 Y-383.434
X-797.362 Y-383.572
X-797.407 Y-383.714
X-797.437 Y-383.861
X-797.451 Y-384.011
Y-384.161
X-797.434 Y-384.31
X-797.403 Y-384.457
X-797.357 Y-384.599
X-797.296 Y-384.737
X-797.223 Y-384.867
X-797.137 Y-384.99
X-797.039 Y-385.104
X-796.931 Y-385.208
X-796.813 Y-385.301
X-796.686 Y-385.381
X-796.553 Y-385.45
X-796.414 Y-385.506
X-796.27 Y-385.548
X-796.123 Y-385.577
X-795.973 Y-385.592
X-795.823
X-795.674 Y-385.58
X-795.526 Y-385.553
X-795.382 Y-385.513
X-795.241 Y-385.461
X-795.106 Y-385.395
X-794.978 Y-385.318
X-794.856 Y-385.23
X-794.743 Y-385.132
X-794.639 Y-385.023
X-794.545 Y-384.907
X-794.461 Y-384.782
X-794.389 Y-384.651
X-794.328 Y-384.514
X-794.279 Y-384.372
X-794.242 Y-384.227
X-794.217 Y-384.079
X-794.206 Y-383.929
Y-383.779
X-794.219 Y-383.63
X-794.245 Y-383.482
X-794.283 Y-383.337
X-794.332 Y-383.195
X-794.393 Y-383.058
X-794.465 Y-382.926
X-794.547 Y-382.801
X-794.639 Y-382.682
X-794.74 Y-382.571
X-794.849 Y-382.469
X-794.967 Y-382.376
X-795.091 Y-382.292
X-795.222 Y-382.218
X-795.358 Y-382.154
X-795.498 Y-382.102
X-795.642 Y-382.06
X-795.789 Y-382.029
X-795.938 Y-382.01
X-796.088 Y-382.003
X-796.238 Y-382.006
X-796.387 Y-382.021
X-796.535 Y-382.047
X-796.68 Y-382.084
X-796.822 Y-382.132
X-796.96 Y-382.19
X-797.094 Y-382.259
X-797.222 Y-382.337
X-797.344 Y-382.424
X-797.46 Y-382.519
X-797.568 Y-382.623
X-797.668 Y-382.735
X-797.76 Y-382.853
X-797.844 Y-382.978
X-797.918 Y-383.108
X-797.982 Y-383.244
X-798.037 Y-383.383
X-798.082 Y-383.526
X-798.117 Y-383.672
X-798.142 Y-383.82
X-798.156 Y-383.97
X-798.16 Y-384.12
X-798.153 Y-384.269
X-798.136 Y-384.418
X-798.109 Y-384.566
X-798.071 Y-384.711
X-798.024 Y-384.854
X-797.968 Y-384.993
X-797.902 Y-385.127
X-797.827 Y-385.257
X-797.744 Y-385.382
X-797.652 Y-385.501
X-797.553 Y-385.614
X-797.447 Y-385.719
X-797.334 Y-385.818
X-797.214 Y-385.909
X-797.089 Y-385.991
X-796.959 Y-386.066
X-796.824 Y-386.131
X-796.685 Y-386.188
X-796.543 Y-386.236
X-796.398 Y-386.275
X-796.251 Y-386.304
X-796.102 Y-386.323
X-795.953 Y-386.334
X-795.803
X-795.653 Y-386.325
X-795.504 Y-386.307
X-795.357 Y-386.28
X-795.211 Y-386.243
X-795.068 Y-386.197
X-794.929 Y-386.142
X-794.793 Y-386.079
X-794.661 Y-386.007
X-794.534 Y-385.928
X-794.411 Y-385.841
X-794.295 Y-385.746
X-794.184 Y-385.645
X-794.08 Y-385.537
X-793.983 Y-385.423
X-793.893 Y-385.303
X-793.81 Y-385.178
X-793.734 Y-385.048
X-793.667 Y-384.914
X-793.608 Y-384.777
X-793.557 Y-384.636
X-793.514 Y-384.492
X-793.481 Y-384.346
X-793.455 Y-384.198
X-793.439 Y-384.049
X-793.431 Y-383.899
X-793.432 Y-383.749
X-793.442 Y-383.599
X-793.461 Y-383.45
X-793.488 Y-383.303
X-793.523 Y-383.157
X-793.567 Y-383.014
X-793.619 Y-382.873
X-793.679 Y-382.735
X-793.747 Y-382.602
X-793.822 Y-382.472
X-793.906 Y-382.345
X-793.995 Y-382.225
X-794.091 Y-382.11
X-794.195 Y-382
X-794.305 Y-381.894
X-794.42 Y-381.797
X-794.539 Y-381.706
X-794.667 Y-381.62
X-794.799 Y-381.541
X-794.933 Y-381.471
X-795.073 Y-381.409
X-795.218 Y-381.353
X-795.366 Y-381.305
X-795.514 Y-381.267
X-795.666 Y-381.236
X-795.822 Y-381.214
X-795.978 Y-381.201
X-796.132 Y-381.196
X-796.289 Y-381.2
X-796.447 Y-381.214
X-796.604 Y-381.236
X-796.758 Y-381.266
X-796.911 Y-381.305
X-797.064 Y-381.354
X-797.214 Y-381.412
X-797.359 Y-381.477
X-797.5 Y-381.55
X-797.639 Y-381.632
X-797.775 Y-381.723
X-797.904 Y-381.82
X-798.027 Y-381.924
X-798.144 Y-382.036
X-798.257 Y-382.155
X-798.363 Y-382.281
X-798.461 Y-382.412
X-798.551 Y-382.548
X-798.634 Y-382.69
X-798.71 Y-382.838
X-798.777 Y-382.991
X-798.836 Y-383.146
X-798.843 Y-383.169
X-798.876 Y-383.286
X-798.902 Y-383.405
X-798.921 Y-383.526
X-798.947 Y-383.746
X-798.971 Y-383.948
X-798.972 Y-384.048
X-798.904 Y-384.607
X-798.899 Y-384.652
X-798.875 Y-384.753
X-798.781 Y-385.003
X-798.724 Y-385.156
X-798.645 Y-385.357
X-798.58 Y-385.466
X-798.378 Y-385.76
X-798.235 Y-385.961
X-798.177 Y-386.021
X-797.775 Y-386.377
X-797.674 Y-386.457
X-797.573 Y-386.513
X-797.17 Y-386.724
X-797.087 Y-386.767
X-796.969 Y-386.806
X-796.566 Y-386.905
X-796.365 Y-386.951
X-796.164 Y-386.956
X-795.761
X-795.66 Y-386.953
X-795.559 Y-386.936
X-795.157 Y-386.837
X-794.955 Y-386.784
X-794.913 Y-386.767
X-794.754 Y-386.685
X-794.526 Y-386.565
X-794.351 Y-386.472
X-794.281 Y-386.424
X-794.21 Y-386.364
X-793.948 Y-386.132
X-793.765 Y-385.961
X-793.747 Y-385.939
X-793.484 Y-385.558
X-793.355 Y-385.357
X-793.344 Y-385.333
X-793.143 Y-384.804
X-793.125 Y-384.753
X-793.101 Y-384.652
X-793.04 Y-384.149
X-793.028 Y-384.048
X-793.029 Y-383.948
X-793.102 Y-383.343
X-793.118 Y-383.27
X-793.143 Y-383.196
X-793.316 Y-382.739
X-793.344 Y-382.667
X-793.376 Y-382.603
X-793.417 Y-382.538
X-793.695 Y-382.135
X-793.747 Y-382.061
X-793.804 Y-381.998
X-793.874 Y-381.934
X-794.247 Y-381.604
X-794.296 Y-381.564
X-794.351 Y-381.527
X-794.754 Y-381.315
X-794.955 Y-381.216
X-795.157 Y-381.163
X-795.559 Y-381.064
X-795.66 Y-381.046
X-795.761 Y-381.044
X-796.164
X-796.365 Y-381.05
X-796.566 Y-381.095
X-796.969 Y-381.194
X-797.07 Y-381.226
X-797.17 Y-381.276
X-797.573 Y-381.487
X-797.654 Y-381.531
X-797.775 Y-381.623
X-798.177 Y-381.98
X-798.25 Y-382.058
X-798.305 Y-382.135
X-798.583 Y-382.538
X-798.643 Y-382.639
X-798.684 Y-382.739
X-798.837 Y-383.142
X-798.874 Y-383.243
X-798.898 Y-383.343
X-798.921 Y-383.526
Y-383.618
X-798.908 Y-383.71
X-798.879 Y-383.778 Z18.005
X-798.85 Y-383.845 Z18.018
X-798.823 Y-383.909 Z18.041
X-798.768 Y-383.966 Z18.079
X-798.717 Y-384.019 Z18.129
X-798.672 Y-384.065 Z18.188
X-798.622 Y-384.092 Z18.259
X-798.581 Y-384.113 Z18.337
X-798.552 Y-384.129 Z18.421
X-798.534 Y-384.138 Z18.509
X-798.528 Y-384.142 Z18.6
G0 Z36
X-796.001 Y-192
Z26.6
G1 Z26 F850
Z18 F283.3
X-796.026 Y-192.028 F850
X-796.009 Y-192.062
X-795.972 Y-192.066
X-795.939 Y-192.048
X-795.92 Y-192.015
X-795.919 Y-191.978
X-795.935 Y-191.944
X-795.964 Y-191.92
X-796 Y-191.912
X-796.037 Y-191.919
X-796.068 Y-191.941
X-796.088 Y-191.972
X-796.099 Y-192.008
Y-192.045
X-796.086 Y-192.081
X-796.063 Y-192.11
X-796.032 Y-192.131
X-795.996 Y-192.142
X-795.958
X-795.886 Y-192.123
X-795.832 Y-192.071
X-795.807 Y-192
X-795.813 Y-191.925
X-795.848 Y-191.859
X-795.905 Y-191.81
X-795.976 Y-191.785
X-796.051 Y-191.787
X-796.122 Y-191.812
X-796.181 Y-191.858
X-796.224 Y-191.92
X-796.246 Y-191.991
X-796.247 Y-192.066
X-796.227 Y-192.139
X-796.188 Y-192.203
X-796.078 Y-192.305
X-795.933 Y-192.341
X-795.786 Y-192.309
X-795.666 Y-192.219
X-795.591 Y-192.09
X-795.568 Y-191.941
X-795.6 Y-191.795
X-795.68 Y-191.668
X-795.797 Y-191.574
X-795.938 Y-191.523
X-796.088 Y-191.518
X-796.233 Y-191.558
X-796.359 Y-191.638
X-796.458 Y-191.751
X-796.521 Y-191.887
X-796.545 Y-192.035
X-796.531 Y-192.185
X-796.481 Y-192.326
X-796.398 Y-192.451
X-796.286 Y-192.552
X-796.155 Y-192.624
X-796.01 Y-192.662
X-795.86 Y-192.669
X-795.713 Y-192.64
X-795.575 Y-192.582
X-795.453 Y-192.494
X-795.351 Y-192.384
X-795.274 Y-192.256
X-795.224 Y-192.114
X-795.202 Y-191.966
X-795.211 Y-191.816
X-795.246 Y-191.67
X-795.309 Y-191.534
X-795.395 Y-191.411
X-795.502 Y-191.306
X-795.626 Y-191.222
X-795.763 Y-191.16
X-795.909 Y-191.124
X-796.058 Y-191.112
X-796.208 Y-191.125
X-796.353 Y-191.163
X-796.49 Y-191.224
X-796.615 Y-191.307
X-796.725 Y-191.409
X-796.818 Y-191.526
X-796.892 Y-191.657
X-796.946 Y-191.797
X-796.977 Y-191.944
X-796.987 Y-192.093
X-796.974 Y-192.243
X-796.94 Y-192.389
X-796.886 Y-192.529
X-796.812 Y-192.659
X-796.721 Y-192.778
X-796.614 Y-192.883
X-796.493 Y-192.973
X-796.362 Y-193.045
X-796.222 Y-193.098
X-796.076 Y-193.133
X-795.926 Y-193.148
X-795.777 Y-193.143
X-795.628 Y-193.12
X-795.485 Y-193.077
X-795.347 Y-193.017
X-795.219 Y-192.939
X-795.101 Y-192.847
X-794.995 Y-192.74
X-794.903 Y-192.622
X-794.826 Y-192.493
X-794.765 Y-192.356
X-794.721 Y-192.213
X-794.694 Y-192.065
X-794.684 Y-191.915
X-794.692 Y-191.766
X-794.716 Y-191.618
X-794.758 Y-191.474
X-794.815 Y-191.335
X-794.887 Y-191.203
X-794.974 Y-191.081
X-795.074 Y-190.969
X-795.185 Y-190.868
X-795.306 Y-190.78
X-795.437 Y-190.706
X-795.574 Y-190.646
X-795.717 Y-190.601
X-795.864 Y-190.571
X-796.013 Y-190.556
X-796.163 Y-190.558
X-796.312 Y-190.574
X-796.459 Y-190.607
X-796.602 Y-190.653
X-796.739 Y-190.714
X-796.869 Y-190.788
X-796.991 Y-190.875
X-797.104 Y-190.974
X-797.207 Y-191.083
X-797.299 Y-191.202
X-797.379 Y-191.328
X-797.446 Y-191.463
X-797.5 Y-191.602
X-797.541 Y-191.747
X-797.568 Y-191.894
X-797.581 Y-192.044
X-797.58 Y-192.194
X-797.565 Y-192.343
X-797.537 Y-192.49
X-797.495 Y-192.634
X-797.44 Y-192.774
X-797.373 Y-192.908
X-797.294 Y-193.036
X-797.203 Y-193.155
X-797.103 Y-193.267
X-796.993 Y-193.369
X-796.875 Y-193.461
X-796.749 Y-193.542
X-796.616 Y-193.612
X-796.478 Y-193.671
X-796.335 Y-193.717
X-796.189 Y-193.751
X-796.041 Y-193.772
X-795.891 Y-193.781
X-795.741 Y-193.777
X-795.592 Y-193.76
X-795.445 Y-193.732
X-795.3 Y-193.691
X-795.16 Y-193.638
X-795.024 Y-193.574
X-794.894 Y-193.499
X-794.771 Y-193.414
X-794.655 Y-193.319
X-794.546 Y-193.215
X-794.447 Y-193.103
X-794.356 Y-192.983
X-794.276 Y-192.857
X-794.206 Y-192.724
X-794.146 Y-192.587
X-794.097 Y-192.445
X-794.06 Y-192.3
X-794.033 Y-192.152
X-794.018 Y-192.003
X-794.015 Y-191.853
X-794.023 Y-191.703
X-794.042 Y-191.554
X-794.073 Y-191.407
X-794.114 Y-191.263
X-794.166 Y-191.123
X-794.229 Y-190.986
X-794.301 Y-190.855
X-794.383 Y-190.729
X-794.474 Y-190.61
X-794.574 Y-190.498
X-794.681 Y-190.393
X-794.796 Y-190.296
X-794.917 Y-190.208
X-795.045 Y-190.129
X-795.177 Y-190.059
X-795.315 Y-189.999
X-795.456 Y-189.949
X-795.601 Y-189.909
X-795.748 Y-189.879
X-795.897 Y-189.86
X-796.046 Y-189.851
X-796.196 Y-189.853
X-796.346 Y-189.865
X-796.494 Y-189.887
X-796.641 Y-189.92
X-796.784 Y-189.963
X-796.925 Y-190.015
X-797.062 Y-190.077
X-797.194 Y-190.147
X-797.321 Y-190.227
X-797.442 Y-190.315
X-797.558 Y-190.411
X-797.666 Y-190.514
X-797.768 Y-190.625
X-797.862 Y-190.742
X-797.948 Y-190.865
X-798.026 Y-190.993
X-798.095 Y-191.126
X-798.155 Y-191.264
X-798.206 Y-191.404
X-798.248 Y-191.549
X-798.281 Y-191.695
X-798.304 Y-191.843
X-798.318 Y-191.993
X-798.321 Y-192.142
X-798.316 Y-192.292
X-798.301 Y-192.442
X-798.276 Y-192.59
X-798.242 Y-192.736
X-798.199 Y-192.879
X-798.147 Y-193.02
X-798.087 Y-193.157
X-798.018 Y-193.291
X-797.941 Y-193.419
X-797.856 Y-193.543
X-797.763 Y-193.661
X-797.664 Y-193.773
X-797.558 Y-193.879
X-797.445 Y-193.978
X-797.327 Y-194.071
X-797.203 Y-194.156
X-797.075 Y-194.233
X-796.942 Y-194.302
X-796.805 Y-194.363
X-796.664 Y-194.416
X-796.521 Y-194.461
X-796.375 Y-194.496
X-796.228 Y-194.524
X-796.079 Y-194.542
X-795.929 Y-194.551
X-795.779 Y-194.552
X-795.629 Y-194.544
X-795.48 Y-194.527
X-795.333 Y-194.502
X-795.186 Y-194.468
X-795.043 Y-194.425
X-794.901 Y-194.374
X-794.763 Y-194.316
X-794.629 Y-194.249
X-794.499 Y-194.175
X-794.373 Y-194.094
X-794.251 Y-194.005
X-794.135 Y-193.909
X-794.024 Y-193.807
X-793.92 Y-193.7
X-793.821 Y-193.585
X-793.728 Y-193.464
X-793.643 Y-193.34
X-793.565 Y-193.211
X-793.493 Y-193.075
X-793.429 Y-192.936
X-793.373 Y-192.795
X-793.326 Y-192.65
X-793.285 Y-192.499
X-793.254 Y-192.347
X-793.231 Y-192.196
X-793.216 Y-192.042
X-793.211 Y-191.885
X-793.214 Y-191.728
X-793.225 Y-191.574
X-793.246 Y-191.419
X-793.276 Y-191.262
X-793.314 Y-191.108
X-793.361 Y-190.959
X-793.416 Y-190.811
X-793.481 Y-190.664
X-793.554 Y-190.521
X-793.634 Y-190.383
X-793.721 Y-190.25
X-793.817 Y-190.121
X-793.922 Y-189.996
X-794.032 Y-189.877
X-794.149 Y-189.766
X-794.272 Y-189.661
X-794.403 Y-189.562
X-794.539 Y-189.47
X-794.68 Y-189.386
X-794.824 Y-189.311
X-794.974 Y-189.243
X-795.129 Y-189.183
X-795.288 Y-189.132
X-795.364 Y-189.112
X-795.471 Y-189.086
X-795.559 Y-189.064
X-795.66 Y-189.047
X-795.761 Y-189.044
X-796.164
X-796.365 Y-189.049
X-796.566 Y-189.095
X-796.969 Y-189.194
X-797.087 Y-189.233
X-797.17 Y-189.276
X-797.573 Y-189.487
X-797.674 Y-189.543
X-797.775 Y-189.623
X-798.177 Y-189.979
X-798.235 Y-190.039
X-798.379 Y-190.242
X-798.58 Y-190.534
X-798.645 Y-190.643
X-798.724 Y-190.844
X-798.8 Y-191.046
X-798.875 Y-191.247
X-798.899 Y-191.348
X-798.96 Y-191.851
X-798.972 Y-191.952
X-798.971 Y-192.052
X-798.898 Y-192.657
X-798.874 Y-192.757
X-798.837 Y-192.858
X-798.684 Y-193.261
X-798.643 Y-193.361
X-798.58 Y-193.466
X-798.305 Y-193.865
X-798.25 Y-193.942
X-798.177 Y-194.02
X-797.775 Y-194.377
X-797.654 Y-194.469
X-797.573 Y-194.513
X-797.17 Y-194.724
X-797.07 Y-194.774
X-796.969 Y-194.806
X-796.566 Y-194.905
X-796.365 Y-194.95
X-796.164 Y-194.956
X-795.761
X-795.66 Y-194.954
X-795.559 Y-194.936
X-795.157 Y-194.837
X-794.955 Y-194.784
X-794.754 Y-194.685
X-794.345 Y-194.469
X-794.296 Y-194.436
X-794.247 Y-194.396
X-793.874 Y-194.066
X-793.804 Y-194.002
X-793.747 Y-193.939
X-793.695 Y-193.865
X-793.417 Y-193.462
X-793.376 Y-193.397
X-793.344 Y-193.333
X-793.24 Y-193.059
X-793.143 Y-192.804
X-793.118 Y-192.73
X-793.102 Y-192.657
X-793.029 Y-192.052
X-793.028 Y-191.952
X-793.089 Y-191.448
X-793.101 Y-191.348
X-793.125 Y-191.247
X-793.143 Y-191.196
X-793.344 Y-190.667
X-793.355 Y-190.643
X-793.484 Y-190.442
X-793.747 Y-190.061
X-793.765 Y-190.039
X-793.948 Y-189.868
X-794.21 Y-189.636
X-794.281 Y-189.576
X-794.351 Y-189.528
X-794.552 Y-189.421
X-794.754 Y-189.315
X-794.913 Y-189.233
X-794.955 Y-189.216
X-795.157 Y-189.163
X-795.364 Y-189.112
X-795.455 Y-189.1
X-795.548 Y-189.103
X-795.619 Y-189.123 Z18.005
X-795.689 Y-189.144 Z18.018
X-795.756 Y-189.164 Z18.041
X-795.82 Y-189.211 Z18.079
X-795.878 Y-189.255 Z18.129
X-795.929 Y-189.294 Z18.188
X-795.962 Y-189.341 Z18.259
X-795.988 Y-189.379 Z18.337
X-796.007 Y-189.406 Z18.421
X-796.018 Y-189.423 Z18.509
X-796.022 Y-189.429 Z18.6
G0 Z36
X-796 Y0
Z26.6
G1 Z26 F850
Z18 F283.3
X-796.025 Y-0.028 F850
X-796.009 Y-0.062
X-795.972 Y-0.066
X-795.939 Y-0.048
X-795.92 Y-0.015
X-795.919 Y0.022
X-795.935 Y0.056
X-795.964 Y0.08
X-796 Y0.088
X-796.037 Y0.081
X-796.068 Y0.059
X-796.088 Y0.028
X-796.099 Y-0.008
Y-0.045
X-796.086 Y-0.081
X-796.063 Y-0.11
X-796.032 Y-0.131
X-795.996 Y-0.142
X-795.958
X-795.886 Y-0.123
X-795.832 Y-0.07
X-795.807 Y0
X-795.813 Y0.075
X-795.848 Y0.141
X-795.905 Y0.19
X-795.976 Y0.215
X-796.051 Y0.213
X-796.122 Y0.188
X-796.181 Y0.142
X-796.224 Y0.08
X-796.246 Y0.008
X-796.247 Y-0.067
X-796.227 Y-0.139
X-796.188 Y-0.203
X-796.078 Y-0.305
X-795.932 Y-0.341
X-795.786 Y-0.309
X-795.666 Y-0.219
X-795.59 Y-0.089
X-795.568 Y0.06
X-795.6 Y0.206
X-795.68 Y0.333
X-795.798 Y0.426
X-795.939 Y0.477
X-796.089 Y0.482
X-796.234 Y0.442
X-796.36 Y0.361
X-796.458 Y0.248
X-796.521 Y0.112
X-796.544 Y-0.037
X-796.531 Y-0.186
X-796.48 Y-0.327
X-796.397 Y-0.452
X-796.285 Y-0.552
X-796.154 Y-0.624
X-796.008 Y-0.662
X-795.859 Y-0.668
X-795.711 Y-0.639
X-795.573 Y-0.581
X-795.452 Y-0.493
X-795.35 Y-0.383
X-795.273 Y-0.254
X-795.224 Y-0.112
X-795.202 Y0.036
X-795.211 Y0.186
X-795.247 Y0.331
X-795.31 Y0.467
X-795.397 Y0.59
X-795.504 Y0.695
X-795.628 Y0.779
X-795.765 Y0.841
X-795.911 Y0.876
X-796.06 Y0.888
X-796.21 Y0.874
X-796.355 Y0.836
X-796.491 Y0.775
X-796.616 Y0.691
X-796.727 Y0.59
X-796.819 Y0.472
X-796.893 Y0.341
X-796.946 Y0.201
X-796.977 Y0.054
X-796.987 Y-0.096
X-796.974 Y-0.245
X-796.939 Y-0.391
X-796.885 Y-0.531
X-796.81 Y-0.661
X-796.719 Y-0.78
X-796.612 Y-0.885
X-796.491 Y-0.974
X-796.359 Y-1.046
X-796.219 Y-1.099
X-796.073 Y-1.133
X-795.924 Y-1.148
X-795.774 Y-1.143
X-795.626 Y-1.119
X-795.482 Y-1.076
X-795.345 Y-1.015
X-795.216 Y-0.938
X-795.099 Y-0.844
X-794.993 Y-0.738
X-794.902 Y-0.619
X-794.825 Y-0.49
X-794.764 Y-0.353
X-794.721 Y-0.21
X-794.694 Y-0.062
X-794.684 Y0.088
X-794.692 Y0.238
X-794.717 Y0.385
X-794.759 Y0.53
X-794.817 Y0.668
X-794.889 Y0.799
X-794.976 Y0.921
X-795.076 Y1.033
X-795.188 Y1.134
X-795.309 Y1.221
X-795.44 Y1.296
X-795.577 Y1.355
X-795.721 Y1.4
X-795.868 Y1.43
X-796.017 Y1.444
X-796.167 Y1.442
X-796.316 Y1.425
X-796.462 Y1.392
X-796.605 Y1.345
X-796.742 Y1.284
X-796.872 Y1.209
X-796.994 Y1.122
X-797.107 Y1.024
X-797.209 Y0.914
X-797.301 Y0.795
X-797.381 Y0.668
X-797.447 Y0.534
X-797.501 Y0.394
X-797.542 Y0.249
X-797.568 Y0.102
X-797.581 Y-0.048
X-797.579 Y-0.198
X-797.564 Y-0.347
X-797.535 Y-0.494
X-797.493 Y-0.638
X-797.438 Y-0.778
X-797.37 Y-0.912
X-797.291 Y-1.039
X-797.2 Y-1.158
X-797.1 Y-1.27
X-796.99 Y-1.371
X-796.871 Y-1.463
X-796.745 Y-1.544
X-796.612 Y-1.614
X-796.474 Y-1.672
X-796.331 Y-1.718
X-796.185 Y-1.751
X-796.036 Y-1.772
X-795.886 Y-1.781
X-795.736 Y-1.776
X-795.587 Y-1.759
X-795.44 Y-1.73
X-795.296 Y-1.689
X-795.156 Y-1.636
X-795.02 Y-1.572
X-794.89 Y-1.496
X-794.767 Y-1.411
X-794.651 Y-1.316
X-794.543 Y-1.212
X-794.444 Y-1.099
X-794.354 Y-0.979
X-794.274 Y-0.852
X-794.204 Y-0.72
X-794.144 Y-0.582
X-794.096 Y-0.44
X-794.059 Y-0.295
X-794.033 Y-0.147
X-794.018 Y0.002
X-794.015 Y0.152
X-794.024 Y0.302
X-794.043 Y0.451
X-794.074 Y0.598
X-794.116 Y0.742
X-794.169 Y0.882
X-794.232 Y1.018
X-794.304 Y1.149
X-794.386 Y1.275
X-794.478 Y1.394
X-794.578 Y1.506
X-794.685 Y1.61
X-794.8 Y1.707
X-794.922 Y1.795
X-795.049 Y1.873
X-795.182 Y1.943
X-795.32 Y2.003
X-795.461 Y2.052
X-795.606 Y2.092
X-795.753 Y2.121
X-795.902 Y2.14
X-796.052 Y2.149
X-796.202 Y2.147
X-796.351 Y2.134
X-796.5 Y2.111
X-796.646 Y2.078
X-796.79 Y2.035
X-796.93 Y1.983
X-797.067 Y1.921
X-797.199 Y1.849
X-797.326 Y1.77
X-797.447 Y1.681
X-797.562 Y1.585
X-797.67 Y1.481
X-797.771 Y1.371
X-797.865 Y1.253
X-797.951 Y1.13
X-798.028 Y1.002
X-798.097 Y0.868
X-798.157 Y0.731
X-798.208 Y0.59
X-798.249 Y0.446
X-798.281 Y0.299
X-798.304 Y0.151
X-798.317 Y0.002
X-798.321 Y-0.148
X-798.315 Y-0.298
X-798.299 Y-0.448
X-798.275 Y-0.595
X-798.24 Y-0.741
X-798.197 Y-0.885
X-798.145 Y-1.026
X-798.084 Y-1.163
X-798.014 Y-1.296
X-797.937 Y-1.424
X-797.852 Y-1.548
X-797.759 Y-1.665
X-797.659 Y-1.778
X-797.553 Y-1.883
X-797.44 Y-1.982
X-797.321 Y-2.074
X-797.198 Y-2.159
X-797.069 Y-2.235
X-796.936 Y-2.304
X-796.798 Y-2.365
X-796.658 Y-2.418
X-796.515 Y-2.462
X-796.369 Y-2.497
X-796.221 Y-2.524
X-796.072 Y-2.542
X-795.923 Y-2.551
X-795.773 Y-2.552
X-795.623 Y-2.543
X-795.474 Y-2.526
X-795.326 Y-2.5
X-795.18 Y-2.466
X-795.036 Y-2.423
X-794.895 Y-2.372
X-794.757 Y-2.313
X-794.623 Y-2.246
X-794.493 Y-2.171
X-794.367 Y-2.089
X-794.246 Y-2.001
X-794.13 Y-1.904
X-794.02 Y-1.802
X-793.915 Y-1.694
X-793.817 Y-1.579
X-793.724 Y-1.458
X-793.639 Y-1.334
X-793.562 Y-1.205
X-793.49 Y-1.069
X-793.426 Y-0.929
X-793.371 Y-0.788
X-793.324 Y-0.643
X-793.284 Y-0.492
X-793.253 Y-0.34
X-793.23 Y-0.189
X-793.216 Y-0.035
X-793.211 Y0.123
X-793.214 Y0.279
X-793.227 Y0.433
X-793.248 Y0.588
X-793.278 Y0.745
X-793.317 Y0.899
X-793.364 Y1.048
X-793.419 Y1.196
X-793.484 Y1.343
X-793.557 Y1.486
X-793.638 Y1.623
X-793.726 Y1.755
X-793.822 Y1.885
X-793.927 Y2.01
X-794.038 Y2.128
X-794.154 Y2.238
X-794.278 Y2.343
X-794.409 Y2.442
X-794.546 Y2.534
X-794.686 Y2.617
X-794.831 Y2.692
X-794.981 Y2.76
X-795.137 Y2.819
X-795.296 Y2.87
X-795.399 Y2.896
X-795.487 Y2.918
X-795.559 Y2.936
X-795.66 Y2.954
X-795.761 Y2.956
X-796.164
X-796.365 Y2.95
X-796.566 Y2.905
X-796.969 Y2.806
X-797.07 Y2.774
X-797.17 Y2.724
X-797.573 Y2.513
X-797.669 Y2.46
X-797.775 Y2.377
X-798.177 Y2.02
X-798.252 Y1.938
X-798.311 Y1.856
X-798.589 Y1.453
X-798.647 Y1.353
X-798.687 Y1.252
X-798.84 Y0.849
X-798.877 Y0.749
X-798.899 Y0.648
X-798.948 Y0.245
X-798.972 Y0.044
X-798.971 Y-0.057
X-798.898 Y-0.661
X-798.873 Y-0.762
X-798.72 Y-1.164
X-798.641 Y-1.366
X-798.58 Y-1.466
X-798.372 Y-1.768
X-798.227 Y-1.97
X-798.177 Y-2.02
X-797.775 Y-2.377
X-797.674 Y-2.457
X-797.573 Y-2.513
X-797.17 Y-2.724
X-797.066 Y-2.775
X-796.969 Y-2.806
X-796.566 Y-2.905
X-796.365 Y-2.95
X-796.164 Y-2.956
X-795.761
X-795.66 Y-2.954
X-795.559 Y-2.936
X-795.157 Y-2.837
X-794.955 Y-2.784
X-794.932 Y-2.775
X-794.754 Y-2.685
X-794.351 Y-2.472
X-794.286 Y-2.428
X-794.22 Y-2.372
X-793.948 Y-2.132
X-793.773 Y-1.97
X-793.747 Y-1.938
X-793.546 Y-1.648
X-793.489 Y-1.567
X-793.359 Y-1.366
X-793.344 Y-1.334
X-793.143 Y-0.804
X-793.127 Y-0.762
X-793.102 Y-0.661
X-793.029 Y-0.057
X-793.028 Y0.044
X-793.076 Y0.447
X-793.101 Y0.648
X-793.117 Y0.726
X-793.143 Y0.804
X-793.344 Y1.334
X-793.373 Y1.394
X-793.411 Y1.453
X-793.689 Y1.856
X-793.747 Y1.938
X-793.8 Y1.998
X-793.865 Y2.057
X-794.15 Y2.31
X-794.331 Y2.46
X-794.351 Y2.472
X-794.754 Y2.685
X-794.955 Y2.784
X-795.157 Y2.837
X-795.399 Y2.896
X-795.49 Y2.908
X-795.583 Y2.906
X-795.654 Y2.885 Z18.005
X-795.724 Y2.865 Z18.018
X-795.791 Y2.845 Z18.041
X-795.854 Y2.797 Z18.079
X-795.913 Y2.753 Z18.129
X-795.964 Y2.714 Z18.188
X-795.997 Y2.668 Z18.259
X-796.023 Y2.63 Z18.337
X-796.042 Y2.603 Z18.421
X-796.053 Y2.586 Z18.509
X-796.057 Y2.58 Z18.6
G0 Z36
X-398 Y-576
Z26.6
G1 Z26 F850
Z18 F283.3
Y-575.962 F850
X-398.035 Y-575.948
X-398.065 Y-575.97
X-398.077 Y-576.006
X-398.069 Y-576.043
X-398.045 Y-576.071
X-398.01 Y-576.085
X-397.973 Y-576.083
X-397.94 Y-576.065
X-397.918 Y-576.035
X-397.91 Y-575.998
X-397.916 Y-575.961
X-397.932 Y-575.927
X-397.957 Y-575.9
X-397.991 Y-575.883
X-398.028 Y-575.876
X-398.065 Y-575.882
X-398.099 Y-575.898
X-398.126 Y-575.924
X-398.167 Y-575.987
X-398.172 Y-576.062
X-398.142 Y-576.13
X-398.087 Y-576.181
X-398.016 Y-576.207
X-397.941 Y-576.204
X-397.873 Y-576.174
X-397.818 Y-576.122
X-397.783 Y-576.056
X-397.771 Y-575.982
X-397.781 Y-575.908
X-397.813 Y-575.84
X-397.863 Y-575.784
X-397.927 Y-575.744
X-397.999 Y-575.724
X-398.149 Y-575.723
X-398.281 Y-575.794
X-398.367 Y-575.917
X-398.394 Y-576.065
X-398.362 Y-576.211
X-398.278 Y-576.336
X-398.155 Y-576.422
X-398.011 Y-576.461
X-397.861 Y-576.451
X-397.723 Y-576.393
X-397.609 Y-576.295
X-397.529 Y-576.168
X-397.491 Y-576.023
X-397.495 Y-575.873
X-397.54 Y-575.73
X-397.623 Y-575.605
X-397.734 Y-575.504
X-397.867 Y-575.435
X-398.013 Y-575.399
X-398.163 Y-575.4
X-398.309 Y-575.436
X-398.441 Y-575.506
X-398.556 Y-575.603
X-398.645 Y-575.724
X-398.707 Y-575.86
X-398.738 Y-576.007
Y-576.157
X-398.708 Y-576.304
X-398.648 Y-576.442
X-398.564 Y-576.566
X-398.456 Y-576.67
X-398.331 Y-576.753
X-398.192 Y-576.811
X-398.046 Y-576.843
X-397.896 Y-576.848
X-397.748 Y-576.825
X-397.605 Y-576.778
X-397.474 Y-576.706
X-397.355 Y-576.614
X-397.255 Y-576.503
X-397.174 Y-576.377
X-397.114 Y-576.239
X-397.079 Y-576.093
X-397.066 Y-575.944
X-397.077 Y-575.794
X-397.111 Y-575.648
X-397.167 Y-575.509
X-397.243 Y-575.38
X-397.337 Y-575.263
X-397.448 Y-575.161
X-397.572 Y-575.077
X-397.707 Y-575.011
X-397.849 Y-574.965
X-397.997 Y-574.939
X-398.147 Y-574.935
X-398.296 Y-574.95
X-398.442 Y-574.986
X-398.581 Y-575.042
X-398.712 Y-575.115
X-398.832 Y-575.206
X-398.939 Y-575.311
X-399.032 Y-575.428
X-399.109 Y-575.557
X-399.169 Y-575.695
X-399.211 Y-575.839
X-399.235 Y-575.987
X-399.241 Y-576.137
X-399.228 Y-576.286
X-399.197 Y-576.433
X-399.149 Y-576.575
X-399.085 Y-576.71
X-399.005 Y-576.837
X-398.911 Y-576.954
X-398.803 Y-577.059
X-398.685 Y-577.151
X-398.557 Y-577.229
X-398.421 Y-577.292
X-398.279 Y-577.34
X-398.132 Y-577.371
X-397.983 Y-577.386
X-397.833 Y-577.385
X-397.684 Y-577.367
X-397.537 Y-577.333
X-397.396 Y-577.285
X-397.26 Y-577.221
X-397.131 Y-577.143
X-397.012 Y-577.053
X-396.903 Y-576.95
X-396.804 Y-576.837
X-396.718 Y-576.714
X-396.645 Y-576.583
X-396.585 Y-576.445
X-396.54 Y-576.302
X-396.509 Y-576.155
X-396.492 Y-576.006
X-396.491 Y-575.856
X-396.504 Y-575.707
X-396.531 Y-575.559
X-396.573 Y-575.415
X-396.627 Y-575.276
X-396.695 Y-575.142
X-396.776 Y-575.015
X-396.867 Y-574.896
X-396.97 Y-574.787
X-397.082 Y-574.687
X-397.202 Y-574.598
X-397.331 Y-574.521
X-397.466 Y-574.455
X-397.606 Y-574.402
X-397.751 Y-574.362
X-397.898 Y-574.335
X-398.048 Y-574.321
X-398.198 Y-574.32
X-398.347 Y-574.333
X-398.495 Y-574.358
X-398.64 Y-574.397
X-398.781 Y-574.448
X-398.917 Y-574.51
X-399.048 Y-574.584
X-399.171 Y-574.669
X-399.287 Y-574.764
X-399.395 Y-574.869
X-399.493 Y-574.982
X-399.582 Y-575.103
X-399.66 Y-575.231
X-399.728 Y-575.365
X-399.784 Y-575.504
X-399.829 Y-575.647
X-399.862 Y-575.793
X-399.883 Y-575.942
X-399.892 Y-576.092
X-399.89 Y-576.242
X-399.875 Y-576.391
X-399.848 Y-576.538
X-399.81 Y-576.684
X-399.761 Y-576.825
X-399.701 Y-576.963
X-399.63 Y-577.095
X-399.549 Y-577.221
X-399.459 Y-577.341
X-399.36 Y-577.454
X-399.253 Y-577.558
X-399.137 Y-577.655
X-399.015 Y-577.742
X-398.887 Y-577.82
X-398.754 Y-577.888
X-398.615 Y-577.946
X-398.473 Y-577.993
X-398.328 Y-578.03
X-398.18 Y-578.056
X-398.031 Y-578.071
X-397.881 Y-578.076
X-397.731 Y-578.069
X-397.582 Y-578.051
X-397.434 Y-578.023
X-397.29 Y-577.984
X-397.148 Y-577.935
X-397.01 Y-577.877
X-396.876 Y-577.808
X-396.748 Y-577.73
X-396.626 Y-577.644
X-396.51 Y-577.549
X-396.401 Y-577.446
X-396.299 Y-577.336
X-396.205 Y-577.219
X-396.119 Y-577.095
X-396.042 Y-576.966
X-395.974 Y-576.833
X-395.916 Y-576.695
X-395.867 Y-576.553
X-395.827 Y-576.408
X-395.797 Y-576.261
X-395.778 Y-576.113
X-395.768 Y-575.963
Y-575.813
X-395.779 Y-575.663
X-395.799 Y-575.515
X-395.828 Y-575.368
X-395.868 Y-575.223
X-395.916 Y-575.081
X-395.974 Y-574.943
X-396.041 Y-574.808
X-396.116 Y-574.679
X-396.2 Y-574.554
X-396.291 Y-574.435
X-396.39 Y-574.322
X-396.495 Y-574.216
X-396.608 Y-574.116
X-396.726 Y-574.024
X-396.85 Y-573.939
X-396.979 Y-573.863
X-397.113 Y-573.794
X-397.25 Y-573.735
X-397.391 Y-573.684
X-397.535 Y-573.641
X-397.681 Y-573.608
X-397.829 Y-573.584
X-397.979 Y-573.569
X-398.128 Y-573.563
X-398.278 Y-573.566
X-398.428 Y-573.578
X-398.576 Y-573.6
X-398.723 Y-573.63
X-398.868 Y-573.669
X-399.01 Y-573.717
X-399.149 Y-573.773
X-399.285 Y-573.838
X-399.416 Y-573.91
X-399.543 Y-573.99
X-399.665 Y-574.078
X-399.781 Y-574.172
X-399.892 Y-574.273
X-399.997 Y-574.381
X-400.095 Y-574.494
X-400.186 Y-574.613
X-400.271 Y-574.737
X-400.348 Y-574.866
X-400.417 Y-574.999
X-400.479 Y-575.135
X-400.533 Y-575.276
X-400.578 Y-575.418
X-400.616 Y-575.564
X-400.645 Y-575.711
X-400.665 Y-575.861
X-400.678 Y-576.01
X-400.681 Y-576.16
X-400.677 Y-576.312
X-400.663 Y-576.464
X-400.641 Y-576.612
X-400.611 Y-576.76
X-400.572 Y-576.909
X-400.525 Y-577.055
X-400.47 Y-577.196
X-400.407 Y-577.335
X-400.334 Y-577.473
X-400.255 Y-577.606
X-400.169 Y-577.732
X-400.075 Y-577.856
X-399.973 Y-577.975
X-399.864 Y-578.089
X-399.751 Y-578.194
X-399.631 Y-578.294
X-399.503 Y-578.389
X-399.37 Y-578.476
X-399.235 Y-578.554
X-399.094 Y-578.625
X-398.947 Y-578.69
X-398.796 Y-578.746
X-398.644 Y-578.793
X-398.49 Y-578.831
X-398.331 Y-578.861
X-398.169 Y-578.882
X-398.008 Y-578.894
X-397.847 Y-578.897
X-397.686 Y-578.891
X-397.522 Y-578.875
X-397.359 Y-578.85
X-397.199 Y-578.817
X-397.042 Y-578.774
X-396.886 Y-578.723
X-396.731 Y-578.661
X-396.579 Y-578.591
X-396.433 Y-578.513
X-396.416 Y-578.503
X-396.315 Y-578.438
X-396.219 Y-578.367
X-396.127 Y-578.29
X-395.864 Y-578.057
X-395.823 Y-578.021
X-395.748 Y-577.938
X-395.689 Y-577.856
X-395.411 Y-577.453
X-395.353 Y-577.353
X-395.313 Y-577.252
X-395.16 Y-576.849
X-395.123 Y-576.749
X-395.101 Y-576.648
X-395.052 Y-576.245
X-395.028 Y-576.044
X-395.029 Y-575.943
X-395.102 Y-575.339
X-395.127 Y-575.238
X-395.28 Y-574.836
X-395.359 Y-574.634
X-395.42 Y-574.534
X-395.628 Y-574.232
X-395.773 Y-574.03
X-395.823 Y-573.98
X-396.225 Y-573.623
X-396.326 Y-573.543
X-396.427 Y-573.487
X-396.83 Y-573.276
X-396.934 Y-573.225
X-397.031 Y-573.194
X-397.434 Y-573.095
X-397.635 Y-573.05
X-397.836 Y-573.044
X-398.239
X-398.34 Y-573.047
X-398.441 Y-573.064
X-398.843 Y-573.163
X-399.045 Y-573.216
X-399.067 Y-573.225
X-399.246 Y-573.315
X-399.649 Y-573.527
X-399.714 Y-573.572
X-399.78 Y-573.628
X-400.052 Y-573.868
X-400.227 Y-574.03
X-400.253 Y-574.062
X-400.454 Y-574.352
X-400.511 Y-574.433
X-400.641 Y-574.634
X-400.656 Y-574.666
X-400.873 Y-575.238
X-400.898 Y-575.339
X-400.971 Y-575.943
X-400.972 Y-576.044
X-400.924 Y-576.447
X-400.899 Y-576.648
X-400.883 Y-576.726
X-400.857 Y-576.804
X-400.656 Y-577.334
X-400.627 Y-577.393
X-400.589 Y-577.453
X-400.311 Y-577.856
X-400.253 Y-577.938
X-400.2 Y-577.998
X-400.136 Y-578.057
X-399.85 Y-578.31
X-399.669 Y-578.46
X-399.649 Y-578.473
X-399.246 Y-578.685
X-399.045 Y-578.784
X-398.843 Y-578.837
X-398.441 Y-578.936
X-398.34 Y-578.953
X-398.239 Y-578.956
X-397.836
X-397.635 Y-578.95
X-397.434 Y-578.905
X-397.031 Y-578.806
X-396.93 Y-578.774
X-396.83 Y-578.724
X-396.427 Y-578.513
X-396.331 Y-578.46
X-396.225 Y-578.377
X-396.127 Y-578.29
X-396.065 Y-578.222
X-396.015 Y-578.144
X-395.991 Y-578.074 Z18.005
X-395.968 Y-578.005 Z18.018
X-395.946 Y-577.938 Z18.041
X-395.941 Y-577.855 Z18.081
X-395.952 Y-577.792 Z18.125
X-395.963 Y-577.735 Z18.176
X-395.972 Y-577.684 Z18.235
X-395.98 Y-577.642 Z18.3
X-395.994 Y-577.61 Z18.37
X-396.005 Y-577.587 Z18.445
X-396.011 Y-577.574 Z18.522
X-396.013 Y-577.569 Z18.6
G0 Z36
X-398 Y-384
Z26.6
G1 Z26 F850
Z18 F283.3
Y-384.038 F850
X-397.966 Y-384.052
X-397.935 Y-384.031
X-397.923 Y-383.996
X-397.93 Y-383.959
X-397.954 Y-383.93
X-397.988 Y-383.915
X-398.026 Y-383.916
X-398.059 Y-383.934
X-398.082 Y-383.964
X-398.09 Y-384
X-398.084 Y-384.037
X-398.069 Y-384.072
X-398.044 Y-384.1
X-398.011 Y-384.117
X-397.974 Y-384.124
X-397.937 Y-384.119
X-397.903 Y-384.103
X-397.875 Y-384.078
X-397.833 Y-384.016
X-397.827 Y-383.941
X-397.856 Y-383.872
X-397.91 Y-383.82
X-397.98 Y-383.794
X-398.055 Y-383.795
X-398.124 Y-383.823
X-398.18 Y-383.874
X-398.215 Y-383.94
X-398.229 Y-384.014
X-398.22 Y-384.088
X-398.19 Y-384.157
X-398.141 Y-384.214
X-398.078 Y-384.254
X-398.006 Y-384.276
X-397.856 Y-384.28
X-397.723 Y-384.21
X-397.635 Y-384.089
X-397.605 Y-383.942
X-397.634 Y-383.795
X-397.716 Y-383.669
X-397.837 Y-383.581
X-397.981 Y-383.539
X-398.131 Y-383.547
X-398.27 Y-383.603
X-398.386 Y-383.698
X-398.468 Y-383.824
X-398.509 Y-383.968
X-398.507 Y-384.118
X-398.464 Y-384.262
X-398.383 Y-384.388
X-398.274 Y-384.491
X-398.143 Y-384.563
X-397.997 Y-384.601
X-397.847 Y-384.602
X-397.701 Y-384.569
X-397.567 Y-384.502
X-397.451 Y-384.407
X-397.36 Y-384.287
X-397.296 Y-384.152
X-397.262 Y-384.006
X-397.259 Y-383.856
X-397.287 Y-383.708
X-397.344 Y-383.57
X-397.427 Y-383.444
X-397.533 Y-383.338
X-397.656 Y-383.253
X-397.794 Y-383.193
X-397.94 Y-383.158
X-398.089 Y-383.151
X-398.238 Y-383.17
X-398.381 Y-383.215
X-398.514 Y-383.285
X-398.634 Y-383.375
X-398.736 Y-383.484
X-398.82 Y-383.609
X-398.881 Y-383.746
X-398.919 Y-383.891
X-398.935 Y-384.04
X-398.926 Y-384.19
X-398.895 Y-384.337
X-398.841 Y-384.477
X-398.767 Y-384.607
X-398.675 Y-384.726
X-398.566 Y-384.829
X-398.444 Y-384.916
X-398.311 Y-384.984
X-398.168 Y-385.032
X-398.021 Y-385.06
X-397.871 Y-385.068
X-397.722 Y-385.055
X-397.576 Y-385.021
X-397.435 Y-384.968
X-397.303 Y-384.897
X-397.182 Y-384.809
X-397.073 Y-384.706
X-396.978 Y-384.589
X-396.899 Y-384.462
X-396.837 Y-384.326
X-396.792 Y-384.182
X-396.766 Y-384.035
X-396.757 Y-383.885
X-396.767 Y-383.735
X-396.795 Y-383.588
X-396.841 Y-383.445
X-396.903 Y-383.309
X-396.981 Y-383.18
X-397.073 Y-383.062
X-397.179 Y-382.955
X-397.295 Y-382.861
X-397.422 Y-382.781
X-397.557 Y-382.715
X-397.698 Y-382.665
X-397.845 Y-382.632
X-397.993 Y-382.614
X-398.143 Y-382.613
X-398.293 Y-382.628
X-398.439 Y-382.659
X-398.582 Y-382.705
X-398.719 Y-382.767
X-398.849 Y-382.842
X-398.97 Y-382.931
X-399.081 Y-383.031
X-399.181 Y-383.143
X-399.269 Y-383.264
X-399.345 Y-383.394
X-399.407 Y-383.53
X-399.454 Y-383.673
X-399.488 Y-383.819
X-399.507 Y-383.968
X-399.511 Y-384.118
X-399.501 Y-384.267
X-399.476 Y-384.415
X-399.437 Y-384.56
X-399.385 Y-384.701
X-399.319 Y-384.835
X-399.241 Y-384.963
X-399.152 Y-385.084
X-399.051 Y-385.195
X-398.941 Y-385.297
X-398.822 Y-385.388
X-398.695 Y-385.468
X-398.561 Y-385.535
X-398.422 Y-385.591
X-398.278 Y-385.633
X-398.131 Y-385.663
X-397.982 Y-385.68
X-397.832 Y-385.683
X-397.682 Y-385.673
X-397.534 Y-385.65
X-397.388 Y-385.614
X-397.246 Y-385.566
X-397.109 Y-385.505
X-396.977 Y-385.433
X-396.852 Y-385.351
X-396.734 Y-385.258
X-396.625 Y-385.155
X-396.525 Y-385.044
X-396.434 Y-384.924
X-396.353 Y-384.798
X-396.283 Y-384.665
X-396.224 Y-384.527
X-396.177 Y-384.385
X-396.142 Y-384.239
X-396.118 Y-384.091
X-396.106 Y-383.941
X-396.107 Y-383.791
X-396.119 Y-383.642
X-396.143 Y-383.494
X-396.178 Y-383.348
X-396.225 Y-383.205
X-396.283 Y-383.067
X-396.351 Y-382.934
X-396.43 Y-382.806
X-396.518 Y-382.684
X-396.615 Y-382.57
X-396.721 Y-382.463
X-396.834 Y-382.365
X-396.955 Y-382.276
X-397.081 Y-382.196
X-397.214 Y-382.125
X-397.351 Y-382.065
X-397.493 Y-382.015
X-397.637 Y-381.976
X-397.785 Y-381.947
X-397.934 Y-381.93
X-398.083 Y-381.923
X-398.233 Y-381.927
X-398.383 Y-381.942
X-398.53 Y-381.967
X-398.676 Y-382.004
X-398.819 Y-382.05
X-398.958 Y-382.106
X-399.092 Y-382.173
X-399.222 Y-382.248
X-399.346 Y-382.333
X-399.463 Y-382.426
X-399.574 Y-382.527
X-399.678 Y-382.635
X-399.774 Y-382.751
X-399.861 Y-382.872
X-399.941 Y-383
X-400.011 Y-383.132
X-400.072 Y-383.269
X-400.123 Y-383.41
X-400.166 Y-383.554
X-400.198 Y-383.701
X-400.22 Y-383.849
X-400.232 Y-383.998
X-400.235 Y-384.148
X-400.227 Y-384.298
X-400.21 Y-384.447
X-400.182 Y-384.595
X-400.145 Y-384.74
X-400.099 Y-384.883
X-400.044 Y-385.022
X-399.979 Y-385.158
X-399.906 Y-385.289
X-399.825 Y-385.415
X-399.736 Y-385.535
X-399.639 Y-385.65
X-399.535 Y-385.758
X-399.425 Y-385.86
X-399.308 Y-385.954
X-399.185 Y-386.04
X-399.058 Y-386.119
X-398.925 Y-386.19
X-398.789 Y-386.252
X-398.649 Y-386.306
X-398.506 Y-386.35
X-398.36 Y-386.386
X-398.212 Y-386.413
X-398.064 Y-386.431
X-397.914 Y-386.439
X-397.764 Y-386.438
X-397.614 Y-386.429
X-397.465 Y-386.41
X-397.318 Y-386.382
X-397.172 Y-386.345
X-397.029 Y-386.3
X-396.889 Y-386.246
X-396.753 Y-386.184
X-396.62 Y-386.114
X-396.492 Y-386.036
X-396.369 Y-385.951
X-396.251 Y-385.858
X-396.138 Y-385.759
X-396.032 Y-385.654
X-395.931 Y-385.542
X-395.838 Y-385.425
X-395.751 Y-385.302
X-395.672 Y-385.175
X-395.601 Y-385.043
X-395.536 Y-384.907
X-395.48 Y-384.768
X-395.432 Y-384.626
X-395.392 Y-384.481
X-395.361 Y-384.335
X-395.337 Y-384.185
X-395.323 Y-384.036
X-395.316 Y-383.886
X-395.318 Y-383.735
X-395.329 Y-383.582
X-395.348 Y-383.433
X-395.376 Y-383.286
X-395.413 Y-383.136
X-395.457 Y-382.989
X-395.51 Y-382.847
X-395.57 Y-382.707
X-395.64 Y-382.567
X-395.718 Y-382.433
X-395.801 Y-382.305
X-395.893 Y-382.181
X-395.993 Y-382.059
X-396.1 Y-381.944
X-396.211 Y-381.837
X-396.33 Y-381.735
X-396.456 Y-381.638
X-396.587 Y-381.548
X-396.721 Y-381.467
X-396.861 Y-381.394
X-397.007 Y-381.327
X-397.157 Y-381.268
X-397.308 Y-381.219
X-397.461 Y-381.178
X-397.619 Y-381.145
X-397.781 Y-381.121
X-397.942 Y-381.106
X-398.102 Y-381.101
X-398.264 Y-381.104
X-398.428 Y-381.117
X-398.591 Y-381.139
X-398.752 Y-381.17
X-398.91 Y-381.21
X-399.067 Y-381.259
X-399.223 Y-381.317
X-399.376 Y-381.384
X-399.469 Y-381.432
X-399.523 Y-381.461
X-399.655 Y-381.531
X-399.704 Y-381.564
X-399.753 Y-381.604
X-400.126 Y-381.934
X-400.196 Y-381.998
X-400.253 Y-382.061
X-400.305 Y-382.135
X-400.583 Y-382.538
X-400.624 Y-382.603
X-400.656 Y-382.667
X-400.76 Y-382.941
X-400.857 Y-383.196
X-400.882 Y-383.27
X-400.898 Y-383.343
X-400.971 Y-383.948
X-400.972 Y-384.048
X-400.911 Y-384.552
X-400.899 Y-384.652
X-400.875 Y-384.753
X-400.857 Y-384.804
X-400.656 Y-385.333
X-400.645 Y-385.357
X-400.517 Y-385.558
X-400.253 Y-385.939
X-400.235 Y-385.961
X-400.052 Y-386.132
X-399.79 Y-386.364
X-399.719 Y-386.424
X-399.649 Y-386.472
X-399.448 Y-386.579
X-399.246 Y-386.685
X-399.087 Y-386.767
X-399.045 Y-386.784
X-398.843 Y-386.837
X-398.441 Y-386.936
X-398.34 Y-386.953
X-398.239 Y-386.956
X-397.836
X-397.635 Y-386.951
X-397.434 Y-386.905
X-397.031 Y-386.806
X-396.913 Y-386.767
X-396.83 Y-386.724
X-396.427 Y-386.513
X-396.326 Y-386.457
X-396.225 Y-386.377
X-395.823 Y-386.021
X-395.765 Y-385.961
X-395.621 Y-385.758
X-395.42 Y-385.466
X-395.355 Y-385.357
X-395.276 Y-385.156
X-395.2 Y-384.954
X-395.125 Y-384.753
X-395.101 Y-384.652
X-395.04 Y-384.149
X-395.028 Y-384.048
X-395.029 Y-383.948
X-395.102 Y-383.343
X-395.126 Y-383.243
X-395.163 Y-383.142
X-395.316 Y-382.739
X-395.357 Y-382.639
X-395.42 Y-382.534
X-395.695 Y-382.135
X-395.75 Y-382.058
X-395.823 Y-381.98
X-396.225 Y-381.623
X-396.346 Y-381.531
X-396.427 Y-381.487
X-396.83 Y-381.276
X-396.93 Y-381.226
X-397.031 Y-381.194
X-397.434 Y-381.095
X-397.635 Y-381.05
X-397.836 Y-381.044
X-398.239
X-398.34 Y-381.046
X-398.441 Y-381.064
X-398.843 Y-381.163
X-399.045 Y-381.216
X-399.246 Y-381.315
X-399.469 Y-381.432
X-399.545 Y-381.484
X-399.613 Y-381.548
X-399.652 Y-381.61 Z18.005
X-399.691 Y-381.672 Z18.018
X-399.728 Y-381.732 Z18.041
X-399.743 Y-381.809 Z18.079
X-399.757 Y-381.881 Z18.129
X-399.77 Y-381.944 Z18.188
Y-381.953 Z18.197
X-399.763 Y-382.006 Z18.267
X-399.758 Y-382.049 Z18.343
X-399.753 Y-382.081 Z18.426
X-399.751 Y-382.1 Z18.512
X-399.75 Y-382.106 Z18.6
G0 Z36
X-398 Y-192
Z26.6
G1 Z26 F850
Z18 F283.3
Y-191.962 F850
X-398.035 Y-191.948
X-398.065 Y-191.97
X-398.077 Y-192.006
X-398.069 Y-192.042
X-398.045 Y-192.071
X-398.01 Y-192.085
X-397.973 Y-192.083
X-397.94 Y-192.065
X-397.918 Y-192.035
X-397.91 Y-191.998
X-397.916 Y-191.961
X-397.932 Y-191.927
X-397.957 Y-191.9
X-397.991 Y-191.882
X-398.028 Y-191.876
X-398.065 Y-191.882
X-398.099 Y-191.898
X-398.126 Y-191.923
X-398.167 Y-191.986
X-398.172 Y-192.061
X-398.142 Y-192.13
X-398.087 Y-192.181
X-398.017 Y-192.207
X-397.942 Y-192.204
X-397.873 Y-192.175
X-397.819 Y-192.123
X-397.784 Y-192.057
X-397.771 Y-191.983
X-397.781 Y-191.908
X-397.813 Y-191.84
X-397.862 Y-191.784
X-397.926 Y-191.745
X-397.998 Y-191.724
X-398.148 Y-191.723
X-398.28 Y-191.794
X-398.366 Y-191.916
X-398.394 Y-192.064
X-398.363 Y-192.21
X-398.279 Y-192.335
X-398.157 Y-192.422
X-398.012 Y-192.461
X-397.862 Y-192.451
X-397.724 Y-192.393
X-397.61 Y-192.296
X-397.53 Y-192.169
X-397.491 Y-192.024
X-397.494 Y-191.874
X-397.54 Y-191.731
X-397.622 Y-191.606
X-397.733 Y-191.505
X-397.866 Y-191.435
X-398.011 Y-191.399
X-398.161 Y-191.4
X-398.307 Y-191.435
X-398.44 Y-191.505
X-398.555 Y-191.601
X-398.644 Y-191.722
X-398.706 Y-191.858
X-398.738 Y-192.005
Y-192.155
X-398.708 Y-192.302
X-398.649 Y-192.44
X-398.565 Y-192.564
X-398.458 Y-192.668
X-398.333 Y-192.752
X-398.195 Y-192.81
X-398.048 Y-192.842
X-397.898 Y-192.848
X-397.75 Y-192.826
X-397.607 Y-192.779
X-397.476 Y-192.708
X-397.357 Y-192.616
X-397.256 Y-192.505
X-397.175 Y-192.379
X-397.115 Y-192.241
X-397.079 Y-192.096
X-397.066 Y-191.946
X-397.077 Y-191.797
X-397.11 Y-191.651
X-397.165 Y-191.511
X-397.242 Y-191.382
X-397.335 Y-191.265
X-397.446 Y-191.163
X-397.569 Y-191.078
X-397.704 Y-191.012
X-397.846 Y-190.966
X-397.994 Y-190.939
X-398.144 Y-190.934
X-398.293 Y-190.95
X-398.439 Y-190.985
X-398.578 Y-191.041
X-398.71 Y-191.113
X-398.83 Y-191.203
X-398.937 Y-191.308
X-399.03 Y-191.425
X-399.107 Y-191.554
X-399.168 Y-191.691
X-399.211 Y-191.835
X-399.235 Y-191.983
X-399.241 Y-192.133
X-399.229 Y-192.282
X-399.198 Y-192.429
X-399.151 Y-192.572
X-399.087 Y-192.707
X-399.007 Y-192.834
X-398.913 Y-192.951
X-398.806 Y-193.056
X-398.688 Y-193.149
X-398.56 Y-193.227
X-398.424 Y-193.291
X-398.282 Y-193.339
X-398.136 Y-193.37
X-397.987 Y-193.386
X-397.837 Y-193.385
X-397.688 Y-193.368
X-397.541 Y-193.335
X-397.399 Y-193.286
X-397.263 Y-193.223
X-397.135 Y-193.146
X-397.015 Y-193.055
X-396.905 Y-192.953
X-396.807 Y-192.84
X-396.72 Y-192.717
X-396.647 Y-192.587
X-396.587 Y-192.449
X-396.541 Y-192.306
X-396.509 Y-192.16
X-396.492 Y-192.011
X-396.491 Y-191.861
X-396.503 Y-191.711
X-396.53 Y-191.564
X-396.571 Y-191.419
X-396.625 Y-191.28
X-396.693 Y-191.146
X-396.773 Y-191.019
X-396.864 Y-190.9
X-396.966 Y-190.79
X-397.078 Y-190.69
X-397.198 Y-190.601
X-397.326 Y-190.523
X-397.461 Y-190.457
X-397.601 Y-190.403
X-397.746 Y-190.363
X-397.893 Y-190.335
X-398.043 Y-190.321
X-398.193 Y-190.32
X-398.342 Y-190.332
X-398.49 Y-190.357
X-398.635 Y-190.395
X-398.776 Y-190.445
X-398.913 Y-190.508
X-399.043 Y-190.581
X-399.167 Y-190.666
X-399.284 Y-190.761
X-399.391 Y-190.865
X-399.49 Y-190.978
X-399.579 Y-191.098
X-399.658 Y-191.226
X-399.726 Y-191.36
X-399.783 Y-191.499
X-399.828 Y-191.642
X-399.862 Y-191.788
X-399.883 Y-191.936
X-399.893 Y-192.086
X-399.89 Y-192.236
X-399.876 Y-192.385
X-399.85 Y-192.533
X-399.812 Y-192.678
X-399.763 Y-192.82
X-399.704 Y-192.958
X-399.633 Y-193.09
X-399.553 Y-193.217
X-399.463 Y-193.337
X-399.364 Y-193.45
X-399.257 Y-193.555
X-399.142 Y-193.651
X-399.021 Y-193.739
X-398.893 Y-193.817
X-398.759 Y-193.886
X-398.621 Y-193.944
X-398.479 Y-193.992
X-398.334 Y-194.029
X-398.186 Y-194.056
X-398.037 Y-194.071
X-397.887 Y-194.076
X-397.737 Y-194.07
X-397.588 Y-194.053
X-397.44 Y-194.025
X-397.295 Y-193.987
X-397.154 Y-193.938
X-397.015 Y-193.88
X-396.882 Y-193.811
X-396.753 Y-193.734
X-396.631 Y-193.648
X-396.514 Y-193.553
X-396.405 Y-193.45
X-396.303 Y-193.341
X-396.208 Y-193.224
X-396.123 Y-193.101
X-396.045 Y-192.972
X-395.977 Y-192.839
X-395.918 Y-192.701
X-395.868 Y-192.559
X-395.828 Y-192.415
X-395.798 Y-192.268
X-395.778 Y-192.119
X-395.768 Y-191.97
Y-191.82
X-395.777 Y-191.67
X-395.797 Y-191.521
X-395.826 Y-191.374
X-395.865 Y-191.229
X-395.914 Y-191.087
X-395.971 Y-190.949
X-396.037 Y-190.814
X-396.112 Y-190.684
X-396.195 Y-190.559
X-396.286 Y-190.44
X-396.385 Y-190.327
X-396.49 Y-190.22
X-396.602 Y-190.12
X-396.72 Y-190.028
X-396.844 Y-189.943
X-396.973 Y-189.866
X-397.106 Y-189.797
X-397.243 Y-189.737
X-397.384 Y-189.685
X-397.528 Y-189.643
X-397.674 Y-189.609
X-397.822 Y-189.584
X-397.971 Y-189.569
X-398.121 Y-189.562
X-398.271 Y-189.565
X-398.421 Y-189.577
X-398.569 Y-189.598
X-398.716 Y-189.628
X-398.861 Y-189.667
X-399.003 Y-189.714
X-399.143 Y-189.77
X-399.278 Y-189.834
X-399.41 Y-189.906
X-399.537 Y-189.986
X-399.659 Y-190.073
X-399.776 Y-190.167
X-399.887 Y-190.268
X-399.992 Y-190.375
X-400.09 Y-190.488
X-400.182 Y-190.607
X-400.267 Y-190.73
X-400.344 Y-190.859
X-400.414 Y-190.992
X-400.476 Y-191.128
X-400.53 Y-191.268
X-400.576 Y-191.411
X-400.614 Y-191.556
X-400.644 Y-191.703
X-400.665 Y-191.853
X-400.678 Y-192.002
X-400.682 Y-192.152
X-400.677 Y-192.304
X-400.664 Y-192.456
X-400.643 Y-192.605
X-400.614 Y-192.752
X-400.575 Y-192.901
X-400.528 Y-193.047
X-400.474 Y-193.188
X-400.411 Y-193.328
X-400.339 Y-193.466
X-400.26 Y-193.599
X-400.174 Y-193.726
X-400.081 Y-193.849
X-399.979 Y-193.97
X-399.871 Y-194.083
X-399.758 Y-194.189
X-399.638 Y-194.289
X-399.51 Y-194.384
X-399.378 Y-194.472
X-399.242 Y-194.551
X-399.102 Y-194.622
X-398.955 Y-194.687
X-398.804 Y-194.743
X-398.652 Y-194.791
X-398.498 Y-194.83
X-398.34 Y-194.86
X-398.178 Y-194.882
X-398.017 Y-194.894
X-397.856 Y-194.898
X-397.694 Y-194.892
X-397.531 Y-194.877
X-397.368 Y-194.852
X-397.207 Y-194.819
X-397.05 Y-194.777
X-396.894 Y-194.726
X-396.739 Y-194.665
X-396.587 Y-194.596
X-396.44 Y-194.518
X-396.421 Y-194.507
X-396.319 Y-194.441
X-396.221 Y-194.369
X-396.128 Y-194.291
X-395.874 Y-194.066
X-395.823 Y-194.02
X-395.75 Y-193.942
X-395.695 Y-193.865
X-395.417 Y-193.462
X-395.357 Y-193.361
X-395.316 Y-193.261
X-395.163 Y-192.858
X-395.126 Y-192.757
X-395.102 Y-192.657
X-395.029 Y-192.052
X-395.028 Y-191.952
X-395.089 Y-191.448
X-395.101 Y-191.348
X-395.125 Y-191.247
X-395.219 Y-190.997
X-395.276 Y-190.844
X-395.355 Y-190.643
X-395.42 Y-190.534
X-395.622 Y-190.24
X-395.765 Y-190.039
X-395.823 Y-189.979
X-396.225 Y-189.623
X-396.326 Y-189.543
X-396.427 Y-189.487
X-396.83 Y-189.276
X-396.913 Y-189.233
X-397.031 Y-189.194
X-397.434 Y-189.095
X-397.635 Y-189.049
X-397.836 Y-189.044
X-398.239
X-398.34 Y-189.047
X-398.441 Y-189.064
X-398.843 Y-189.163
X-399.045 Y-189.216
X-399.087 Y-189.233
X-399.246 Y-189.315
X-399.474 Y-189.435
X-399.649 Y-189.528
X-399.719 Y-189.576
X-399.79 Y-189.636
X-400.052 Y-189.868
X-400.235 Y-190.039
X-400.253 Y-190.061
X-400.517 Y-190.442
X-400.645 Y-190.643
X-400.656 Y-190.667
X-400.857 Y-191.196
X-400.875 Y-191.247
X-400.899 Y-191.348
X-400.96 Y-191.851
X-400.972 Y-191.952
X-400.971 Y-192.052
X-400.898 Y-192.657
X-400.882 Y-192.73
X-400.857 Y-192.804
X-400.684 Y-193.261
X-400.656 Y-193.333
X-400.624 Y-193.397
X-400.583 Y-193.462
X-400.305 Y-193.865
X-400.253 Y-193.939
X-400.196 Y-194.002
X-400.126 Y-194.066
X-399.753 Y-194.396
X-399.704 Y-194.436
X-399.649 Y-194.473
X-399.246 Y-194.685
X-399.045 Y-194.784
X-398.843 Y-194.837
X-398.441 Y-194.936
X-398.34 Y-194.954
X-398.239 Y-194.956
X-397.836
X-397.635 Y-194.95
X-397.434 Y-194.905
X-397.031 Y-194.806
X-396.93 Y-194.774
X-396.83 Y-194.724
X-396.427 Y-194.513
X-396.346 Y-194.469
X-396.225 Y-194.377
X-396.128 Y-194.291
X-396.066 Y-194.222
X-396.015 Y-194.145
X-395.992 Y-194.075 Z18.005
X-395.969 Y-194.006 Z18.018
X-395.947 Y-193.939 Z18.041
X-395.941 Y-193.856 Z18.081
X-395.953 Y-193.793 Z18.125
X-395.963 Y-193.735 Z18.176
X-395.973 Y-193.685 Z18.235
X-395.98 Y-193.643 Z18.3
X-395.995 Y-193.611 Z18.37
X-396.006 Y-193.588 Z18.445
X-396.012 Y-193.574 Z18.522
X-396.014 Y-193.569 Z18.6
G0 Z36
X-398 Y0
Z26.6
G1 Z26 F850
Z18 F283.3
X-397.975 Y-0.029 F850
X-397.94 Y-0.016
X-397.931 Y0.02
X-397.945 Y0.055
X-397.975 Y0.078
X-398.012 Y0.083
X-398.048 Y0.071
X-398.075 Y0.045
X-398.088 Y0.01
X-398.085 Y-0.027
X-398.067 Y-0.06
X-398.038 Y-0.084
X-398.004 Y-0.1
X-397.966 Y-0.104
X-397.93 Y-0.095
X-397.898 Y-0.075
X-397.874 Y-0.047
X-397.859 Y-0.012
X-397.854 Y0.025
X-397.865 Y0.099
X-397.91 Y0.159
X-397.978 Y0.192
X-398.053 Y0.194
X-398.123 Y0.167
X-398.178 Y0.116
X-398.21 Y0.049
X-398.218 Y-0.026
X-398.201 Y-0.099
X-398.162 Y-0.163
X-398.106 Y-0.213
X-398.037 Y-0.243
X-397.963 Y-0.253
X-397.889 Y-0.242
X-397.821 Y-0.21
X-397.706 Y-0.113
X-397.653 Y0.027
X-397.668 Y0.177
X-397.744 Y0.306
X-397.864 Y0.396
X-398.008 Y0.436
X-398.158 Y0.421
X-398.293 Y0.357
X-398.399 Y0.251
X-398.466 Y0.117
X-398.489 Y-0.032
X-398.466 Y-0.18
X-398.401 Y-0.315
X-398.3 Y-0.426
X-398.172 Y-0.505
X-398.028 Y-0.545
X-397.878 Y-0.549
X-397.732 Y-0.515
X-397.598 Y-0.447
X-397.485 Y-0.348
X-397.398 Y-0.226
X-397.343 Y-0.086
X-397.319 Y0.062
X-397.331 Y0.211
X-397.373 Y0.355
X-397.446 Y0.487
X-397.543 Y0.601
X-397.662 Y0.692
X-397.797 Y0.758
X-397.942 Y0.796
X-398.092 Y0.805
X-398.241 Y0.787
X-398.383 Y0.74
X-398.515 Y0.668
X-398.632 Y0.574
X-398.73 Y0.461
X-398.807 Y0.332
X-398.86 Y0.192
X-398.889 Y0.045
X-398.893 Y-0.105
X-398.872 Y-0.254
X-398.827 Y-0.397
X-398.759 Y-0.531
X-398.671 Y-0.652
X-398.565 Y-0.758
X-398.444 Y-0.847
X-398.311 Y-0.916
X-398.169 Y-0.964
X-398.021 Y-0.991
X-397.871 Y-0.996
X-397.722 Y-0.979
X-397.577 Y-0.941
X-397.439 Y-0.883
X-397.31 Y-0.806
X-397.193 Y-0.711
X-397.091 Y-0.602
X-397.004 Y-0.48
X-396.935 Y-0.347
X-396.883 Y-0.206
X-396.851 Y-0.059
X-396.838 Y0.09
X-396.845 Y0.24
X-396.871 Y0.388
X-396.915 Y0.531
X-396.977 Y0.668
X-397.055 Y0.796
X-397.149 Y0.913
X-397.256 Y1.018
X-397.375 Y1.109
X-397.504 Y1.186
X-397.641 Y1.246
X-397.785 Y1.29
X-397.932 Y1.317
X-398.082 Y1.326
X-398.232 Y1.319
X-398.38 Y1.295
X-398.524 Y1.254
X-398.663 Y1.197
X-398.794 Y1.125
X-398.917 Y1.039
X-399.03 Y0.94
X-399.132 Y0.83
X-399.221 Y0.709
X-399.296 Y0.579
X-399.357 Y0.442
X-399.404 Y0.3
X-399.436 Y0.153
X-399.451 Y0.004
X-399.452 Y-0.146
X-399.437 Y-0.295
X-399.407 Y-0.442
X-399.363 Y-0.586
X-399.304 Y-0.723
X-399.232 Y-0.855
X-399.147 Y-0.979
X-399.05 Y-1.093
X-398.943 Y-1.198
X-398.826 Y-1.292
X-398.7 Y-1.374
X-398.568 Y-1.445
X-398.429 Y-1.502
X-398.286 Y-1.545
X-398.139 Y-1.575
X-397.99 Y-1.592
X-397.84 Y-1.594
X-397.69 Y-1.583
X-397.542 Y-1.558
X-397.397 Y-1.519
X-397.256 Y-1.468
X-397.12 Y-1.404
X-396.991 Y-1.328
X-396.869 Y-1.242
X-396.755 Y-1.144
X-396.65 Y-1.037
X-396.554 Y-0.921
X-396.469 Y-0.798
X-396.395 Y-0.667
X-396.333 Y-0.531
X-396.283 Y-0.39
X-396.244 Y-0.244
X-396.218 Y-0.097
X-396.205 Y0.053
X-396.204 Y0.203
X-396.216 Y0.352
X-396.24 Y0.5
X-396.276 Y0.646
X-396.324 Y0.788
X-396.383 Y0.926
X-396.454 Y1.058
X-396.535 Y1.185
X-396.625 Y1.304
X-396.725 Y1.416
X-396.834 Y1.519
X-396.95 Y1.614
X-397.074 Y1.699
X-397.204 Y1.774
X-397.339 Y1.839
X-397.479 Y1.893
X-397.622 Y1.936
X-397.769 Y1.968
X-397.918 Y1.989
X-398.067 Y1.998
X-398.217 Y1.996
X-398.367 Y1.983
X-398.515 Y1.958
X-398.66 Y1.923
X-398.803 Y1.876
X-398.942 Y1.819
X-399.076 Y1.752
X-399.205 Y1.676
X-399.328 Y1.59
X-399.444 Y1.495
X-399.554 Y1.392
X-399.655 Y1.282
X-399.748 Y1.165
X-399.833 Y1.041
X-399.909 Y0.911
X-399.975 Y0.776
X-400.031 Y0.637
X-400.077 Y0.495
X-400.114 Y0.349
X-400.14 Y0.202
X-400.155 Y0.052
X-400.161 Y-0.098
X-400.156 Y-0.247
X-400.14 Y-0.397
X-400.114 Y-0.544
X-400.079 Y-0.69
X-400.033 Y-0.833
X-399.978 Y-0.973
X-399.913 Y-1.108
X-399.84 Y-1.239
X-399.758 Y-1.364
X-399.668 Y-1.484
X-399.57 Y-1.598
X-399.464 Y-1.704
X-399.352 Y-1.804
X-399.234 Y-1.896
X-399.109 Y-1.98
X-398.98 Y-2.056
X-398.846 Y-2.123
X-398.707 Y-2.181
X-398.566 Y-2.23
X-398.421 Y-2.27
X-398.274 Y-2.301
X-398.126 Y-2.322
X-397.976 Y-2.334
X-397.826 Y-2.336
X-397.677 Y-2.329
X-397.527 Y-2.312
X-397.38 Y-2.286
X-397.234 Y-2.251
X-397.091 Y-2.206
X-396.95 Y-2.153
X-396.814 Y-2.091
X-396.681 Y-2.021
X-396.553 Y-1.943
X-396.43 Y-1.857
X-396.313 Y-1.764
X-396.201 Y-1.663
X-396.096 Y-1.556
X-395.997 Y-1.443
X-395.906 Y-1.324
X-395.822 Y-1.2
X-395.745 Y-1.071
X-395.676 Y-0.938
X-395.616 Y-0.801
X-395.563 Y-0.66
X-395.519 Y-0.517
X-395.484 Y-0.371
X-395.457 Y-0.224
X-395.439 Y-0.075
X-395.43 Y0.075
Y0.225
X-395.438 Y0.375
X-395.455 Y0.524
X-395.481 Y0.672
X-395.515 Y0.818
X-395.557 Y0.962
X-395.608 Y1.103
X-395.667 Y1.241
X-395.733 Y1.375
X-395.807 Y1.506
X-395.889 Y1.633
X-395.977 Y1.755
X-396.072 Y1.871
X-396.175 Y1.982
X-396.284 Y2.089
X-396.397 Y2.187
X-396.516 Y2.279
X-396.643 Y2.367
X-396.774 Y2.446
X-396.908 Y2.518
X-397.046 Y2.582
X-397.192 Y2.639
X-397.339 Y2.688
X-397.486 Y2.728
X-397.637 Y2.76
X-397.793 Y2.784
X-397.949 Y2.799
X-398.104 Y2.805
X-398.26 Y2.803
X-398.419 Y2.791
X-398.576 Y2.77
X-398.73 Y2.741
X-398.883 Y2.704
X-399.037 Y2.656
X-399.188 Y2.601
X-399.334 Y2.537
X-399.475 Y2.465
X-399.615 Y2.385
X-399.752 Y2.295
X-399.882 Y2.199
X-400.005 Y2.096
X-400.124 Y1.986
X-400.238 Y1.868
X-400.345 Y1.742
X-400.444 Y1.613
X-400.536 Y1.478
X-400.621 Y1.337
X-400.698 Y1.189
X-400.767 Y1.037
X-400.829 Y0.879
X-400.84 Y0.849
X-400.857 Y0.804
X-400.883 Y0.726
X-400.899 Y0.648
X-400.961 Y0.135
X-400.972 Y0.044
X-400.971 Y-0.057
X-400.898 Y-0.661
X-400.873 Y-0.762
X-400.72 Y-1.164
X-400.656 Y-1.334
X-400.641 Y-1.366
X-400.511 Y-1.567
X-400.372 Y-1.768
X-400.253 Y-1.938
X-400.227 Y-1.97
X-400.052 Y-2.132
X-399.78 Y-2.372
X-399.714 Y-2.428
X-399.649 Y-2.472
X-399.246 Y-2.685
X-399.068 Y-2.775
X-399.045 Y-2.784
X-398.843 Y-2.837
X-398.441 Y-2.936
X-398.34 Y-2.954
X-398.239 Y-2.956
X-397.836
X-397.635 Y-2.95
X-397.434 Y-2.905
X-397.031 Y-2.806
X-396.934 Y-2.775
X-396.83 Y-2.724
X-396.427 Y-2.513
X-396.326 Y-2.457
X-396.22 Y-2.372
X-395.823 Y-2.02
X-395.774 Y-1.97
X-395.621 Y-1.758
X-395.42 Y-1.466
X-395.359 Y-1.366
X-395.28 Y-1.164
X-395.127 Y-0.762
X-395.102 Y-0.661
X-395.029 Y-0.057
X-395.028 Y0.044
X-395.076 Y0.447
X-395.101 Y0.648
X-395.123 Y0.749
X-395.16 Y0.849
X-395.313 Y1.252
X-395.353 Y1.353
X-395.411 Y1.453
X-395.689 Y1.856
X-395.748 Y1.938
X-395.823 Y2.02
X-396.225 Y2.377
X-396.331 Y2.46
X-396.427 Y2.513
X-396.83 Y2.724
X-396.93 Y2.774
X-397.031 Y2.806
X-397.434 Y2.905
X-397.635 Y2.95
X-397.836 Y2.956
X-398.239
X-398.34 Y2.954
X-398.441 Y2.936
X-398.843 Y2.837
X-399.045 Y2.784
X-399.246 Y2.685
X-399.649 Y2.472
X-399.669 Y2.46
X-399.85 Y2.31
X-400.135 Y2.057
X-400.2 Y1.998
X-400.253 Y1.938
X-400.311 Y1.856
X-400.589 Y1.453
X-400.627 Y1.394
X-400.656 Y1.334
X-400.829 Y0.879
X-400.852 Y0.79
X-400.86 Y0.697
X-400.861 Y0.686
X-400.847 Y0.613 Z18.006
X-400.834 Y0.542 Z18.021
X-400.821 Y0.473 Z18.046
X-400.78 Y0.405 Z18.086
X-400.742 Y0.342 Z18.138
X-400.709 Y0.287 Z18.2
X-400.669 Y0.252 Z18.27
X-400.637 Y0.224 Z18.346
X-400.613 Y0.204 Z18.427
X-400.599 Y0.192 Z18.513
X-400.594 Y0.187 Z18.6
G0 Z36
X0 Y-384
Z26.6
G1 Z26 F850
Z18 F283.3
X-0.035 Y-383.987 F850
X-0.061 Y-384.014
X-0.051 Y-384.05
X-0.022 Y-384.074
X0.015 Y-384.08
X0.05 Y-384.068
X0.076 Y-384.04
X0.087 Y-384.005
X0.082 Y-383.968
X0.062 Y-383.936
X0.031 Y-383.916
X-0.006 Y-383.908
X-0.043 Y-383.91
X-0.078 Y-383.924
X-0.106 Y-383.949
X-0.125 Y-383.981
X-0.133 Y-384.018
X-0.13 Y-384.055
X-0.117 Y-384.09
X-0.073 Y-384.151
X-0.005 Y-384.182
X0.07 Y-384.18
X0.137 Y-384.147
X0.187 Y-384.09
X0.211 Y-384.019
X0.209 Y-383.945
X0.18 Y-383.875
X0.131 Y-383.819
X0.067 Y-383.78
X-0.006 Y-383.763
X-0.081 Y-383.768
X-0.151 Y-383.794
X-0.211 Y-383.839
X-0.257 Y-383.898
X-0.312 Y-384.038
X-0.294 Y-384.187
X-0.21 Y-384.311
X-0.083 Y-384.391
X0.065 Y-384.414
X0.211 Y-384.381
X0.337 Y-384.298
X0.426 Y-384.178
X0.47 Y-384.034
X0.467 Y-383.884
X0.417 Y-383.743
X0.327 Y-383.623
X0.207 Y-383.534
X0.065 Y-383.483
X-0.084 Y-383.474
X-0.231 Y-383.505
X-0.365 Y-383.572
X-0.478 Y-383.671
X-0.565 Y-383.793
X-0.618 Y-383.934
X-0.638 Y-384.082
X-0.621 Y-384.231
X-0.572 Y-384.373
X-0.492 Y-384.5
X-0.387 Y-384.608
X-0.262 Y-384.69
X-0.122 Y-384.745
X0.026 Y-384.77
X0.176 Y-384.765
X0.322 Y-384.731
X0.458 Y-384.668
X0.581 Y-384.582
X0.685 Y-384.474
X0.768 Y-384.349
X0.827 Y-384.211
X0.861 Y-384.065
X0.869 Y-383.915
X0.85 Y-383.767
X0.807 Y-383.623
X0.74 Y-383.489
X0.651 Y-383.367
X0.545 Y-383.262
X0.422 Y-383.176
X0.287 Y-383.11
X0.144 Y-383.066
X-0.004 Y-383.044
X-0.154 Y-383.045
X-0.302 Y-383.07
X-0.446 Y-383.115
X-0.58 Y-383.181
X-0.704 Y-383.265
X-0.815 Y-383.367
X-0.909 Y-383.483
X-0.987 Y-383.611
X-1.046 Y-383.749
X-1.085 Y-383.894
X-1.105 Y-384.043
X-1.104 Y-384.193
X-1.083 Y-384.341
X-1.043 Y-384.486
X-0.984 Y-384.624
X-0.908 Y-384.753
X-0.816 Y-384.871
X-0.71 Y-384.978
X-0.591 Y-385.069
X-0.462 Y-385.145
X-0.324 Y-385.205
X-0.181 Y-385.248
X-0.033 Y-385.273
X0.117 Y-385.28
X0.267 Y-385.269
X0.414 Y-385.241
X0.557 Y-385.195
X0.694 Y-385.134
X0.823 Y-385.057
X0.942 Y-384.966
X1.05 Y-384.862
X1.146 Y-384.747
X1.229 Y-384.622
X1.297 Y-384.488
X1.351 Y-384.348
X1.388 Y-384.203
X1.41 Y-384.055
X1.417 Y-383.905
X1.406 Y-383.755
X1.381 Y-383.607
X1.34 Y-383.463
X1.284 Y-383.324
X1.215 Y-383.191
X1.131 Y-383.066
X1.036 Y-382.95
X0.93 Y-382.844
X0.813 Y-382.75
X0.688 Y-382.668
X0.555 Y-382.598
X0.416 Y-382.542
X0.272 Y-382.5
X0.124 Y-382.471
X-0.025 Y-382.458
X-0.175
X-0.324 Y-382.472
X-0.472 Y-382.501
X-0.615 Y-382.543
X-0.755 Y-382.599
X-0.888 Y-382.667
X-1.015 Y-382.747
X-1.134 Y-382.838
X-1.244 Y-382.94
X-1.345 Y-383.051
X-1.435 Y-383.171
X-1.514 Y-383.299
X-1.581 Y-383.433
X-1.636 Y-383.572
X-1.679 Y-383.716
X-1.709 Y-383.863
X-1.726 Y-384.012
X-1.73 Y-384.162
X-1.722 Y-384.312
X-1.7 Y-384.46
X-1.666 Y-384.606
X-1.62 Y-384.749
X-1.561 Y-384.887
X-1.492 Y-385.02
X-1.411 Y-385.147
X-1.321 Y-385.266
X-1.221 Y-385.378
X-1.112 Y-385.481
X-0.995 Y-385.575
X-0.87 Y-385.659
X-0.74 Y-385.733
X-0.604 Y-385.796
X-0.463 Y-385.848
X-0.319 Y-385.889
X-0.171 Y-385.918
X-0.022 Y-385.935
X0.127 Y-385.941
X0.277 Y-385.934
X0.426 Y-385.917
X0.573 Y-385.888
X0.718 Y-385.847
X0.859 Y-385.796
X0.996 Y-385.734
X1.127 Y-385.662
X1.253 Y-385.58
X1.372 Y-385.489
X1.484 Y-385.389
X1.588 Y-385.281
X1.684 Y-385.166
X1.772 Y-385.044
X1.85 Y-384.916
X1.918 Y-384.783
X1.977 Y-384.644
X2.025 Y-384.502
X2.063 Y-384.357
X2.09 Y-384.21
X2.107 Y-384.061
X2.113 Y-383.911
X2.108 Y-383.761
X2.093 Y-383.612
X2.067 Y-383.464
X2.031 Y-383.318
X1.985 Y-383.176
X1.929 Y-383.037
X1.863 Y-382.902
X1.789 Y-382.772
X1.705 Y-382.647
X1.613 Y-382.529
X1.513 Y-382.417
X1.406 Y-382.312
X1.292 Y-382.214
X1.171 Y-382.125
X1.045 Y-382.044
X0.914 Y-381.971
X0.778 Y-381.908
X0.638 Y-381.853
X0.495 Y-381.808
X0.349 Y-381.773
X0.202 Y-381.747
X0.053 Y-381.731
X-0.097 Y-381.725
X-0.247 Y-381.728
X-0.397 Y-381.741
X-0.545 Y-381.764
X-0.691 Y-381.797
X-0.836 Y-381.838
X-0.977 Y-381.889
X-1.114 Y-381.949
X-1.248 Y-382.017
X-1.377 Y-382.094
X-1.501 Y-382.179
X-1.619 Y-382.271
X-1.731 Y-382.37
X-1.837 Y-382.477
X-1.936 Y-382.589
X-2.028 Y-382.708
X-2.112 Y-382.832
X-2.188 Y-382.961
X-2.257 Y-383.095
X-2.317 Y-383.232
X-2.368 Y-383.373
X-2.411 Y-383.517
X-2.445 Y-383.663
X-2.471 Y-383.811
X-2.487 Y-383.96
X-2.494 Y-384.11
X-2.492 Y-384.26
X-2.482 Y-384.409
X-2.462 Y-384.558
X-2.434 Y-384.705
X-2.397 Y-384.851
X-2.351 Y-384.994
X-2.297 Y-385.134
X-2.235 Y-385.27
X-2.165 Y-385.403
X-2.088 Y-385.531
X-2.003 Y-385.655
X-1.911 Y-385.774
X-1.813 Y-385.887
X-1.708 Y-385.994
X-1.597 Y-386.095
X-1.48 Y-386.189
X-1.359 Y-386.277
X-1.232 Y-386.358
X-1.1 Y-386.432
X-0.965 Y-386.498
X-0.827 Y-386.556
X-0.684 Y-386.606
X-0.538 Y-386.649
X-0.391 Y-386.683
X-0.243 Y-386.709
X-0.09 Y-386.726
X0.063 Y-386.735
X0.214 Y-386.736
X0.367 Y-386.728
X0.522 Y-386.711
X0.675 Y-386.685
X0.824 Y-386.651
X0.973 Y-386.608
X1.122 Y-386.557
X1.266 Y-386.497
X1.406 Y-386.43
X1.543 Y-386.354
X1.678 Y-386.269
X1.807 Y-386.178
X1.929 Y-386.08
X2.047 Y-385.975
X2.161 Y-385.861
X2.268 Y-385.741
X2.367 Y-385.617
X2.458 Y-385.487
X2.544 Y-385.35
X2.623 Y-385.207
X2.693 Y-385.061
X2.754 Y-384.913
X2.807 Y-384.76
X2.852 Y-384.602
X2.888 Y-384.441
X2.915 Y-384.28
X2.933 Y-384.118
X2.941 Y-383.953
Y-383.787
X2.931 Y-383.62
X2.911 Y-383.455
X2.907 Y-383.429
X2.881 Y-383.305
X2.848 Y-383.183
X2.807 Y-383.064
X2.706 Y-382.798
X2.684 Y-382.739
X2.643 Y-382.639
X2.583 Y-382.538
X2.303 Y-382.132
X2.228 Y-382.033
X2.126 Y-381.934
X1.899 Y-381.733
X1.699 Y-381.56
X1.655 Y-381.531
X1.497 Y-381.447
X1.095 Y-381.237
X0.994 Y-381.201
X0.491 Y-381.076
X0.39 Y-381.053
X0.289 Y-381.044
X-0.114
X-0.315 Y-381.045
X-0.416 Y-381.058
X-0.919 Y-381.182
X-1.02 Y-381.208
X-1.12 Y-381.249
X-1.523 Y-381.461
X-1.656 Y-381.531
X-1.725 Y-381.579
X-2.127 Y-381.935
X-2.231 Y-382.035
X-2.305 Y-382.135
X-2.583 Y-382.538
X-2.643 Y-382.639
X-2.684 Y-382.739
X-2.836 Y-383.142
X-2.874 Y-383.243
X-2.898 Y-383.343
X-2.971 Y-383.948
X-2.972 Y-384.048
X-2.911 Y-384.552
X-2.899 Y-384.652
X-2.875 Y-384.753
X-2.8 Y-384.954
X-2.723 Y-385.156
X-2.645 Y-385.357
X-2.53 Y-385.538
X-2.329 Y-385.83
X-2.234 Y-385.961
X-2.127 Y-386.065
X-1.79 Y-386.364
X-1.725 Y-386.42
X-1.674 Y-386.457
X-1.624 Y-386.486
X-1.12 Y-386.751
X-1.087 Y-386.767
X-0.919 Y-386.818
X-0.416 Y-386.942
X-0.315 Y-386.955
X0.289 Y-386.956
X0.39 Y-386.947
X0.491 Y-386.924
X0.99 Y-386.8
X1.087 Y-386.767
X1.296 Y-386.658
X1.497 Y-386.553
X1.699 Y-386.44
X1.79 Y-386.364
X2.102 Y-386.088
X2.234 Y-385.961
X2.303 Y-385.868
X2.516 Y-385.558
X2.645 Y-385.357
X2.723 Y-385.156
X2.8 Y-384.954
X2.875 Y-384.753
X2.896 Y-384.668
X2.911 Y-384.552
X2.972 Y-384.048
X2.971 Y-383.948
X2.898 Y-383.343
X2.874 Y-383.243
X2.807 Y-383.064
X2.764 Y-382.981
X2.71 Y-382.906
X2.652 Y-382.86 Z18.005
X2.596 Y-382.814 Z18.018
X2.541 Y-382.77 Z18.041
X2.466 Y-382.745 Z18.079
X2.397 Y-382.722 Z18.129
X2.335 Y-382.702 Z18.188
X2.291 Y-382.698 Z18.241
X2.253 Y-382.696 Z18.298
X2.218 Y-382.698 Z18.369
X2.193 Y-382.7 Z18.444
X2.177 Y-382.701 Z18.521
X2.172 Z18.6
G0 Z36
X0 Y-192
Z26.6
G1 Z26 F850
Z18 F283.3
Y-192.038 F850
X0.034 Y-192.052
X0.065 Y-192.031
X0.077 Y-191.995
X0.07 Y-191.958
X0.046 Y-191.93
X0.011 Y-191.915
X-0.026 Y-191.917
X-0.059 Y-191.934
X-0.082 Y-191.964
X-0.09 Y-192.001
X-0.084 Y-192.038
X-0.069 Y-192.072
X-0.044 Y-192.1
X-0.011 Y-192.117
X0.026 Y-192.124
X0.063 Y-192.118
X0.097 Y-192.103
X0.125 Y-192.078
X0.167 Y-192.016
X0.172 Y-191.941
X0.144 Y-191.871
X0.089 Y-191.82
X0.019 Y-191.793
X-0.056 Y-191.795
X-0.125 Y-191.824
X-0.18 Y-191.875
X-0.216 Y-191.941
X-0.229 Y-192.015
X-0.22 Y-192.089
X-0.189 Y-192.158
X-0.14 Y-192.214
X-0.077 Y-192.255
X-0.005 Y-192.276
X0.145 Y-192.279
X0.278 Y-192.209
X0.366 Y-192.088
X0.395 Y-191.94
X0.365 Y-191.793
X0.282 Y-191.668
X0.161 Y-191.58
X0.017 Y-191.539
X-0.133 Y-191.548
X-0.272 Y-191.604
X-0.387 Y-191.7
X-0.468 Y-191.826
X-0.509 Y-191.971
X-0.507 Y-192.12
X-0.463 Y-192.264
X-0.382 Y-192.39
X-0.272 Y-192.492
X-0.14 Y-192.564
X0.005 Y-192.601
X0.155 Y-192.602
X0.301 Y-192.568
X0.435 Y-192.5
X0.551 Y-192.404
X0.641 Y-192.285
X0.705 Y-192.149
X0.738 Y-192.002
X0.74 Y-191.852
X0.712 Y-191.705
X0.654 Y-191.567
X0.571 Y-191.442
X0.464 Y-191.336
X0.341 Y-191.251
X0.203 Y-191.192
X0.057 Y-191.158
X-0.093 Y-191.151
X-0.242 Y-191.171
X-0.385 Y-191.217
X-0.517 Y-191.287
X-0.637 Y-191.378
X-0.739 Y-191.488
X-0.821 Y-191.613
X-0.883 Y-191.75
X-0.92 Y-191.895
X-0.935 Y-192.044
X-0.925 Y-192.194
X-0.893 Y-192.34
X-0.839 Y-192.48
X-0.765 Y-192.61
X-0.672 Y-192.729
X-0.563 Y-192.831
X-0.44 Y-192.918
X-0.306 Y-192.985
X-0.164 Y-193.033
X-0.017 Y-193.061
X0.133 Y-193.067
X0.283 Y-193.053
X0.429 Y-193.019
X0.569 Y-192.965
X0.701 Y-192.894
X0.822 Y-192.805
X0.93 Y-192.702
X1.025 Y-192.585
X1.103 Y-192.457
X1.165 Y-192.32
X1.209 Y-192.177
X1.235 Y-192.029
X1.243 Y-191.88
X1.232 Y-191.73
X1.203 Y-191.583
X1.157 Y-191.44
X1.094 Y-191.304
X1.015 Y-191.176
X0.923 Y-191.058
X0.817 Y-190.952
X0.7 Y-190.858
X0.573 Y-190.778
X0.437 Y-190.714
X0.296 Y-190.664
X0.15 Y-190.631
X0.001 Y-190.614
X-0.149 Y-190.613
X-0.299 Y-190.629
X-0.445 Y-190.661
X-0.588 Y-190.708
X-0.724 Y-190.77
X-0.854 Y-190.846
X-0.974 Y-190.935
X-1.085 Y-191.036
X-1.185 Y-191.148
X-1.272 Y-191.27
X-1.347 Y-191.4
X-1.409 Y-191.537
X-1.456 Y-191.679
X-1.489 Y-191.825
X-1.507 Y-191.974
X-1.511 Y-192.124
X-1.5 Y-192.274
X-1.475 Y-192.422
X-1.435 Y-192.566
X-1.382 Y-192.707
X-1.316 Y-192.841
X-1.237 Y-192.969
X-1.147 Y-193.089
X-1.046 Y-193.2
X-0.935 Y-193.301
X-0.816 Y-193.391
X-0.688 Y-193.471
X-0.554 Y-193.538
X-0.415 Y-193.593
X-0.271 Y-193.635
X-0.123 Y-193.664
X0.026 Y-193.68
X0.176 Y-193.682
X0.325 Y-193.671
X0.473 Y-193.648
X0.619 Y-193.611
X0.761 Y-193.562
X0.898 Y-193.502
X1.029 Y-193.429
X1.154 Y-193.346
X1.271 Y-193.252
X1.38 Y-193.149
X1.48 Y-193.037
X1.57 Y-192.917
X1.65 Y-192.79
X1.72 Y-192.657
X1.778 Y-192.519
X1.824 Y-192.377
X1.859 Y-192.231
X1.883 Y-192.083
X1.894 Y-191.933
X1.893 Y-191.783
X1.88 Y-191.633
X1.855 Y-191.486
X1.819 Y-191.34
X1.771 Y-191.198
X1.713 Y-191.06
X1.644 Y-190.926
X1.565 Y-190.799
X1.476 Y-190.678
X1.379 Y-190.564
X1.273 Y-190.458
X1.159 Y-190.36
X1.038 Y-190.271
X0.911 Y-190.192
X0.778 Y-190.122
X0.64 Y-190.062
X0.499 Y-190.013
X0.354 Y-189.974
X0.206 Y-189.946
X0.057 Y-189.929
X-0.092 Y-189.923
X-0.242 Y-189.928
X-0.392 Y-189.943
X-0.539 Y-189.97
X-0.685 Y-190.006
X-0.827 Y-190.054
X-0.966 Y-190.111
X-1.1 Y-190.178
X-1.229 Y-190.254
X-1.353 Y-190.339
X-1.47 Y-190.432
X-1.581 Y-190.534
X-1.684 Y-190.643
X-1.779 Y-190.758
X-1.866 Y-190.88
X-1.945 Y-191.008
X-2.015 Y-191.141
X-2.075 Y-191.278
X-2.126 Y-191.419
X-2.167 Y-191.564
X-2.199 Y-191.71
X-2.221 Y-191.859
X-2.232 Y-192.008
X-2.234 Y-192.158
X-2.226 Y-192.308
X-2.208 Y-192.457
X-2.18 Y-192.604
X-2.142 Y-192.749
X-2.095 Y-192.892
X-2.039 Y-193.031
X-1.974 Y-193.166
X-1.901 Y-193.297
X-1.819 Y-193.423
X-1.729 Y-193.543
X-1.632 Y-193.657
X-1.528 Y-193.765
X-1.417 Y-193.866
X-1.299 Y-193.959
X-1.177 Y-194.046
X-1.049 Y-194.124
X-0.916 Y-194.194
X-0.779 Y-194.255
X-0.639 Y-194.308
X-0.496 Y-194.353
X-0.35 Y-194.388
X-0.202 Y-194.414
X-0.053 Y-194.431
X0.097 Y-194.439
X0.247 Y-194.437
X0.396 Y-194.427
X0.545 Y-194.408
X0.692 Y-194.379
X0.838 Y-194.342
X0.981 Y-194.296
X1.12 Y-194.241
X1.257 Y-194.179
X1.389 Y-194.108
X1.517 Y-194.03
X1.64 Y-193.944
X1.758 Y-193.851
X1.87 Y-193.751
X1.976 Y-193.645
X2.075 Y-193.533
X2.168 Y-193.415
X2.254 Y-193.292
X2.333 Y-193.164
X2.404 Y-193.032
X2.467 Y-192.897
X2.523 Y-192.757
X2.57 Y-192.615
X2.61 Y-192.47
X2.641 Y-192.323
X2.663 Y-192.174
X2.678 Y-192.024
X2.683 Y-191.874
X2.68 Y-191.723
X2.669 Y-191.571
X2.649 Y-191.422
X2.621 Y-191.274
X2.584 Y-191.125
X2.538 Y-190.978
X2.485 Y-190.836
X2.424 Y-190.696
X2.353 Y-190.557
X2.276 Y-190.423
X2.191 Y-190.296
X2.099 Y-190.171
X1.998 Y-190.05
X1.891 Y-189.936
X1.78 Y-189.829
X1.661 Y-189.727
X1.534 Y-189.631
X1.402 Y-189.542
X1.268 Y-189.462
X1.128 Y-189.389
X0.982 Y-189.323
X0.832 Y-189.265
X0.68 Y-189.216
X0.527 Y-189.176
X0.368 Y-189.144
X0.207 Y-189.12
X0.046 Y-189.106
X-0.115 Y-189.101
X-0.277 Y-189.105
X-0.441 Y-189.119
X-0.604 Y-189.141
X-0.764 Y-189.173
X-0.922 Y-189.214
X-1.079 Y-189.263
X-1.235 Y-189.323
X-1.387 Y-189.39
X-1.535 Y-189.467
X-1.562 Y-189.481
X-1.624 Y-189.514
X-1.674 Y-189.543
X-1.725 Y-189.58
X-1.79 Y-189.636
X-2.127 Y-189.935
X-2.234 Y-190.039
X-2.329 Y-190.17
X-2.53 Y-190.462
X-2.645 Y-190.643
X-2.731 Y-190.866
X-2.8 Y-191.046
X-2.875 Y-191.247
X-2.899 Y-191.348
X-2.96 Y-191.851
X-2.972 Y-191.952
X-2.971 Y-192.052
X-2.898 Y-192.657
X-2.874 Y-192.757
X-2.836 Y-192.858
X-2.684 Y-193.261
X-2.643 Y-193.361
X-2.583 Y-193.462
X-2.305 Y-193.865
X-2.231 Y-193.965
X-2.126 Y-194.066
X-1.725 Y-194.421
X-1.656 Y-194.469
X-1.523 Y-194.539
X-1.12 Y-194.751
X-1.02 Y-194.792
X-0.919 Y-194.818
X-0.416 Y-194.942
X-0.315 Y-194.955
X-0.114 Y-194.956
X0.289
X0.39 Y-194.947
X0.491 Y-194.924
X0.994 Y-194.799
X1.095 Y-194.763
X1.497 Y-194.553
X1.655 Y-194.469
X1.699 Y-194.44
X1.9 Y-194.266
X2.126 Y-194.066
X2.228 Y-193.967
X2.305 Y-193.865
X2.583 Y-193.462
X2.643 Y-193.361
X2.684 Y-193.261
X2.836 Y-192.858
X2.874 Y-192.757
X2.898 Y-192.657
X2.971 Y-192.052
X2.972 Y-191.952
X2.907 Y-191.416
X2.896 Y-191.332
X2.875 Y-191.247
X2.8 Y-191.046
X2.706 Y-190.798
X2.645 Y-190.643
X2.516 Y-190.442
X2.303 Y-190.132
X2.234 Y-190.039
X2.102 Y-189.912
X1.79 Y-189.636
X1.699 Y-189.56
X1.497 Y-189.447
X1.095 Y-189.237
X1.087 Y-189.233
X0.99 Y-189.2
X0.491 Y-189.076
X0.39 Y-189.053
X0.289 Y-189.044
X-0.315 Y-189.045
X-0.416 Y-189.058
X-0.919 Y-189.182
X-1.087 Y-189.233
X-1.12 Y-189.249
X-1.535 Y-189.467
X-1.612 Y-189.519
X-1.679 Y-189.582
X-1.719 Y-189.644 Z18.005
X-1.757 Y-189.706 Z18.018
X-1.795 Y-189.766 Z18.041
X-1.811 Y-189.843 Z18.079
X-1.825 Y-189.915 Z18.129
X-1.838 Y-189.978 Z18.188
Y-189.988 Z18.199
X-1.831 Y-190.041 Z18.268
X-1.825 Y-190.084 Z18.345
X-1.821 Y-190.115 Z18.427
X-1.819 Y-190.134 Z18.512
X-1.818 Y-190.14 Z18.6
G0 Z36
X-1194 Y-384.001
Z18.6
G1 Z18 F850
Z10 F283.3
X-1193.969 Y-384.022 F850
X-1193.937 Y-384.001
X-1193.938 Y-383.964
X-1193.96 Y-383.934
X-1193.995 Y-383.919
X-1194.032 Y-383.922
X-1194.064 Y-383.942
X-1194.083 Y-383.974
X-1194.088 Y-384.011
X-1194.076 Y-384.047
X-1194.051 Y-384.074
X-1194.017 Y-384.091
X-1193.98 Y-384.098
X-1193.943 Y-384.093
X-1193.91 Y-384.076
X-1193.883 Y-384.049
X-1193.867 Y-384.016
X-1193.86 Y-383.979
X-1193.864 Y-383.941
X-1193.892 Y-383.872
X-1193.95 Y-383.825
X-1194.024 Y-383.809
X-1194.097 Y-383.824
X-1194.159 Y-383.867
X-1194.2 Y-383.929
X-1194.216 Y-384.002
X-1194.205 Y-384.077
X-1194.172 Y-384.144
X-1194.119 Y-384.197
X-1194.052 Y-384.232
X-1193.979 Y-384.245
X-1193.904 Y-384.237
X-1193.835 Y-384.208
X-1193.776 Y-384.162
X-1193.688 Y-384.04
X-1193.67 Y-383.891
X-1193.719 Y-383.75
X-1193.823 Y-383.642
X-1193.961 Y-383.583
X-1194.111 Y-383.579
X-1194.253 Y-383.628
X-1194.369 Y-383.723
X-1194.447 Y-383.851
X-1194.481 Y-383.997
X-1194.468 Y-384.146
X-1194.41 Y-384.285
X-1194.315 Y-384.401
X-1194.191 Y-384.485
X-1194.048 Y-384.531
X-1193.898 Y-384.536
X-1193.752 Y-384.505
X-1193.618 Y-384.437
X-1193.504 Y-384.339
X-1193.417 Y-384.217
X-1193.362 Y-384.077
X-1193.341 Y-383.929
X-1193.353 Y-383.779
X-1193.4 Y-383.637
X-1193.475 Y-383.507
X-1193.576 Y-383.396
X-1193.698 Y-383.309
X-1193.835 Y-383.248
X-1193.982 Y-383.216
X-1194.131 Y-383.212
X-1194.279 Y-383.239
X-1194.419 Y-383.292
X-1194.547 Y-383.371
X-1194.658 Y-383.472
X-1194.75 Y-383.591
X-1194.818 Y-383.724
X-1194.863 Y-383.868
X-1194.881 Y-384.017
X-1194.875 Y-384.166
X-1194.843 Y-384.313
X-1194.787 Y-384.452
X-1194.71 Y-384.581
X-1194.612 Y-384.695
X-1194.498 Y-384.792
X-1194.37 Y-384.87
X-1194.232 Y-384.927
X-1194.086 Y-384.963
X-1193.937 Y-384.976
X-1193.787 Y-384.968
X-1193.64 Y-384.937
X-1193.499 Y-384.886
X-1193.367 Y-384.815
X-1193.246 Y-384.725
X-1193.139 Y-384.62
X-1193.048 Y-384.501
X-1192.974 Y-384.371
X-1192.919 Y-384.231
X-1192.883 Y-384.086
X-1192.866 Y-383.937
X-1192.87 Y-383.787
X-1192.892 Y-383.638
X-1192.934 Y-383.494
X-1192.994 Y-383.357
X-1193.071 Y-383.228
X-1193.163 Y-383.11
X-1193.27 Y-383.004
X-1193.388 Y-382.912
X-1193.517 Y-382.835
X-1193.654 Y-382.775
X-1193.798 Y-382.731
X-1193.945 Y-382.705
X-1194.095 Y-382.696
X-1194.245 Y-382.704
X-1194.393 Y-382.73
X-1194.536 Y-382.773
X-1194.674 Y-382.831
X-1194.805 Y-382.905
X-1194.927 Y-382.993
X-1195.037 Y-383.094
X-1195.137 Y-383.207
X-1195.223 Y-383.329
X-1195.295 Y-383.461
X-1195.353 Y-383.599
X-1195.396 Y-383.743
X-1195.423 Y-383.89
X-1195.435 Y-384.04
X-1195.431 Y-384.19
X-1195.411 Y-384.339
X-1195.377 Y-384.484
X-1195.327 Y-384.626
X-1195.263 Y-384.762
X-1195.186 Y-384.89
X-1195.096 Y-385.011
X-1194.995 Y-385.121
X-1194.884 Y-385.222
X-1194.763 Y-385.31
X-1194.634 Y-385.387
X-1194.498 Y-385.451
X-1194.357 Y-385.501
X-1194.211 Y-385.538
X-1194.063 Y-385.561
X-1193.913 Y-385.569
X-1193.763 Y-385.564
X-1193.614 Y-385.544
X-1193.468 Y-385.511
X-1193.325 Y-385.465
X-1193.188 Y-385.406
X-1193.056 Y-385.334
X-1192.931 Y-385.251
X-1192.814 Y-385.157
X-1192.706 Y-385.053
X-1192.608 Y-384.94
X-1192.52 Y-384.818
X-1192.443 Y-384.689
X-1192.378 Y-384.554
X-1192.324 Y-384.414
X-1192.283 Y-384.27
X-1192.255 Y-384.123
X-1192.239 Y-383.973
X-1192.236 Y-383.824
X-1192.246 Y-383.674
X-1192.268 Y-383.526
X-1192.303 Y-383.38
X-1192.349 Y-383.237
X-1192.407 Y-383.099
X-1192.477 Y-382.966
X-1192.557 Y-382.839
X-1192.647 Y-382.719
X-1192.747 Y-382.607
X-1192.855 Y-382.503
X-1192.972 Y-382.409
X-1193.095 Y-382.324
X-1193.225 Y-382.249
X-1193.361 Y-382.184
X-1193.501 Y-382.131
X-1193.645 Y-382.088
X-1193.791 Y-382.057
X-1193.94 Y-382.037
X-1194.09 Y-382.029
X-1194.24 Y-382.033
X-1194.389 Y-382.048
X-1194.537 Y-382.074
X-1194.682 Y-382.111
X-1194.824 Y-382.16
X-1194.962 Y-382.219
X-1195.095 Y-382.287
X-1195.223 Y-382.366
X-1195.344 Y-382.454
X-1195.459 Y-382.551
X-1195.566 Y-382.656
X-1195.666 Y-382.768
X-1195.756 Y-382.888
X-1195.838 Y-383.013
X-1195.911 Y-383.145
X-1195.974 Y-383.281
X-1196.027 Y-383.421
X-1196.07 Y-383.565
X-1196.102 Y-383.711
X-1196.124 Y-383.86
X-1196.135 Y-384.009
X-1196.137 Y-384.159
X-1196.127 Y-384.309
X-1196.107 Y-384.457
X-1196.077 Y-384.604
X-1196.036 Y-384.749
X-1195.986 Y-384.89
X-1195.926 Y-385.028
X-1195.857 Y-385.161
X-1195.779 Y-385.289
X-1195.693 Y-385.411
X-1195.598 Y-385.528
X-1195.496 Y-385.638
X-1195.386 Y-385.74
X-1195.271 Y-385.836
X-1195.149 Y-385.923
X-1195.021 Y-386.002
X-1194.888 Y-386.072
X-1194.752 Y-386.134
X-1194.611 Y-386.186
X-1194.467 Y-386.229
X-1194.321 Y-386.263
X-1194.173 Y-386.287
X-1194.024 Y-386.301
X-1193.874 Y-386.306
X-1193.724 Y-386.301
X-1193.575 Y-386.286
X-1193.427 Y-386.263
X-1193.28 Y-386.229
X-1193.136 Y-386.187
X-1192.996 Y-386.135
X-1192.858 Y-386.075
X-1192.725 Y-386.007
X-1192.596 Y-385.93
X-1192.472 Y-385.845
X-1192.354 Y-385.753
X-1192.242 Y-385.653
X-1192.136 Y-385.547
X-1192.037 Y-385.434
X-1191.944 Y-385.316
X-1191.86 Y-385.192
X-1191.783 Y-385.064
X-1191.714 Y-384.93
X-1191.653 Y-384.793
X-1191.6 Y-384.653
X-1191.556 Y-384.509
X-1191.521 Y-384.364
X-1191.494 Y-384.216
X-1191.476 Y-384.067
X-1191.468 Y-383.917
Y-383.767
X-1191.476 Y-383.618
X-1191.494 Y-383.469
X-1191.521 Y-383.321
X-1191.555 Y-383.175
X-1191.599 Y-383.032
X-1191.65 Y-382.891
X-1191.71 Y-382.753
X-1191.778 Y-382.619
X-1191.853 Y-382.489
X-1191.935 Y-382.364
X-1192.025 Y-382.244
X-1192.121 Y-382.129
X-1192.224 Y-382.019
X-1192.334 Y-381.915
X-1192.448 Y-381.818
X-1192.568 Y-381.728
X-1192.693 Y-381.643
X-1192.825 Y-381.566
X-1192.958 Y-381.497
X-1193.096 Y-381.435
X-1193.24 Y-381.38
X-1193.386 Y-381.334
X-1193.532 Y-381.296
X-1193.682 Y-381.266
X-1193.837 Y-381.245
X-1193.991 Y-381.232
X-1194.144 Y-381.228
X-1194.299 Y-381.232
X-1194.456 Y-381.246
X-1194.611 Y-381.268
X-1194.762 Y-381.298
X-1194.914 Y-381.338
X-1195.065 Y-381.387
X-1195.213 Y-381.444
X-1195.356 Y-381.508
X-1195.496 Y-381.581
X-1195.634 Y-381.663
X-1195.768 Y-381.753
X-1195.894 Y-381.849
X-1196.015 Y-381.952
X-1196.132 Y-382.064
X-1196.244 Y-382.183
X-1196.347 Y-382.307
X-1196.443 Y-382.436
X-1196.532 Y-382.571
X-1196.615 Y-382.713
X-1196.69 Y-382.86
X-1196.756 Y-383.009
X-1196.813 Y-383.162
X-1196.862 Y-383.319
X-1196.902 Y-383.481
X-1196.934 Y-383.644
X-1196.956 Y-383.809
X-1196.959 Y-383.85
X-1196.965 Y-383.979
X-1196.962 Y-384.109
X-1196.951 Y-384.238
X-1196.914 Y-384.552
X-1196.907 Y-384.608
X-1196.897 Y-384.68
X-1196.878 Y-384.753
X-1196.706 Y-385.202
X-1196.644 Y-385.357
X-1196.514 Y-385.558
X-1196.303 Y-385.865
X-1196.233 Y-385.961
X-1196.102 Y-386.088
X-1195.791 Y-386.364
X-1195.699 Y-386.441
X-1195.497 Y-386.554
X-1195.296 Y-386.659
X-1195.088 Y-386.767
X-1194.991 Y-386.801
X-1194.491 Y-386.923
X-1194.39 Y-386.947
X-1194.289 Y-386.956
X-1193.886
X-1193.685 Y-386.955
X-1193.584 Y-386.942
X-1192.996 Y-386.797
X-1192.911 Y-386.767
X-1192.88 Y-386.752
X-1192.376 Y-386.487
X-1192.326 Y-386.458
X-1192.275 Y-386.421
X-1192.209 Y-386.364
X-1191.873 Y-386.065
X-1191.767 Y-385.961
X-1191.671 Y-385.828
X-1191.47 Y-385.535
X-1191.356 Y-385.357
X-1191.269 Y-385.135
X-1191.122 Y-384.753
X-1191.099 Y-384.652
X-1191.039 Y-384.149
X-1191.027 Y-384.048
Y-383.948
X-1191.075 Y-383.545
X-1191.099 Y-383.343
X-1191.124 Y-383.243
X-1191.317 Y-382.739
X-1191.359 Y-382.639
X-1191.419 Y-382.538
X-1191.697 Y-382.135
X-1191.77 Y-382.035
X-1191.874 Y-381.934
X-1192.275 Y-381.578
X-1192.343 Y-381.531
X-1192.477 Y-381.46
X-1192.88 Y-381.248
X-1192.93 Y-381.225
X-1192.98 Y-381.207
X-1193.081 Y-381.182
X-1193.584 Y-381.059
X-1193.685 Y-381.045
X-1193.886 Y-381.044
X-1194.289
X-1194.39 Y-381.053
X-1194.491 Y-381.077
X-1194.994 Y-381.2
X-1195.044 Y-381.216
X-1195.095 Y-381.236
X-1195.296 Y-381.341
X-1195.497 Y-381.446
X-1195.657 Y-381.531
X-1195.699 Y-381.559
X-1195.9 Y-381.733
X-1196.126 Y-381.934
X-1196.229 Y-382.034
X-1196.303 Y-382.135
X-1196.581 Y-382.538
X-1196.642 Y-382.639
X-1196.683 Y-382.739
X-1196.876 Y-383.243
X-1196.901 Y-383.343
X-1196.907 Y-383.392
X-1196.973 Y-383.948
Y-384.048
X-1196.951 Y-384.238
X-1196.93 Y-384.328
X-1196.895 Y-384.414
X-1196.851 Y-384.473 Z10.005
X-1196.807 Y-384.531 Z10.018
