%
(1001)
(origin bottom left anchor hole stock bottom)
(T1  D=6 CR=0 - ZMIN=7 - flat end mill)
G90 G94
G17
G21

(2D Adaptive2)
M9
T1 M6
S14000 M3
G54
G0 X45.062 Y49.6
Z36
Z28
Z26.6
G1 Z26 F850
Z16 F283.3
X45.089 Y49.573 F850
X45.123 Y49.588
X45.129 Y49.625
X45.113 Y49.658
X45.081 Y49.679
X45.044 Y49.682
X45.009 Y49.668
X44.984 Y49.64
X44.974 Y49.604
X44.979 Y49.567
X44.999 Y49.536
X45.029 Y49.513
X45.065 Y49.5
X45.102 Y49.498
X45.138 Y49.51
X45.168 Y49.531
X45.191 Y49.561
X45.204 Y49.597
X45.206 Y49.634
X45.191 Y49.708
X45.141 Y49.764
X45.072 Y49.793
X44.997 Y49.79
X44.929 Y49.759
X44.877 Y49.705
X44.849 Y49.635
X44.846 Y49.56
X44.868 Y49.488
X44.911 Y49.427
X44.97 Y49.381
X45.04 Y49.355
X45.115 Y49.35
X45.188 Y49.366
X45.254 Y49.402
X45.362 Y49.506
X45.406 Y49.649
X45.382 Y49.797
X45.298 Y49.922
X45.173 Y50.004
X45.026 Y50.034
X44.878 Y50.01
X44.747 Y49.937
X44.648 Y49.825
X44.589 Y49.687
X44.576 Y49.537
X44.608 Y49.391
X44.682 Y49.26
X44.789 Y49.156
X44.922 Y49.086
X45.069 Y49.054
X45.219 Y49.06
X45.362 Y49.103
X45.491 Y49.179
X45.598 Y49.285
X45.677 Y49.413
X45.723 Y49.555
X45.737 Y49.705
X45.716 Y49.853
X45.665 Y49.994
X45.584 Y50.121
X45.48 Y50.228
X45.355 Y50.312
X45.217 Y50.369
X45.07 Y50.398
X44.92
X44.772 Y50.37
X44.633 Y50.314
X44.506 Y50.235
X44.395 Y50.133
X44.304 Y50.014
X44.235 Y49.881
X44.192 Y49.737
X44.172 Y49.589
X44.177 Y49.439
X44.208 Y49.292
X44.261 Y49.152
X44.338 Y49.023
X44.433 Y48.907
X44.546 Y48.808
X44.672 Y48.727
X44.809 Y48.666
X44.954 Y48.627
X45.103 Y48.61
X45.253 Y48.614
X45.401 Y48.64
X45.543 Y48.687
X45.678 Y48.755
X45.801 Y48.839
X45.912 Y48.941
X46.007 Y49.056
X46.086 Y49.184
X46.147 Y49.321
X46.189 Y49.465
X46.212 Y49.613
X46.215 Y49.763
X46.2 Y49.912
X46.164 Y50.058
X46.111 Y50.198
X46.041 Y50.331
X45.955 Y50.453
X45.854 Y50.565
X45.74 Y50.663
X45.616 Y50.746
X45.482 Y50.815
X45.341 Y50.866
X45.195 Y50.901
X45.047 Y50.919
X44.897
X44.747 Y50.902
X44.601 Y50.868
X44.46 Y50.818
X44.325 Y50.753
X44.198 Y50.673
X44.081 Y50.579
X43.974 Y50.473
X43.88 Y50.357
X43.799 Y50.231
X43.732 Y50.096
X43.679 Y49.956
X43.642 Y49.811
X43.62 Y49.662
X43.613 Y49.513
X43.622 Y49.363
X43.646 Y49.215
X43.685 Y49.07
X43.739 Y48.93
X43.806 Y48.796
X43.887 Y48.669
X43.979 Y48.551
X44.083 Y48.443
X44.196 Y48.345
X44.319 Y48.258
X44.449 Y48.184
X44.586 Y48.123
X44.728 Y48.074
X44.874 Y48.04
X45.023 Y48.019
X45.173 Y48.012
X45.322 Y48.019
X45.471 Y48.04
X45.617 Y48.074
X45.759 Y48.122
X45.897 Y48.182
X46.028 Y48.254
X46.153 Y48.338
X46.269 Y48.432
X46.377 Y48.536
X46.475 Y48.65
X46.563 Y48.771
X46.64 Y48.9
X46.705 Y49.035
X46.759 Y49.175
X46.8 Y49.319
X46.83 Y49.467
X46.846 Y49.616
X46.85 Y49.766
X46.841 Y49.915
X46.82 Y50.064
X46.787 Y50.21
X46.742 Y50.353
X46.685 Y50.492
X46.617 Y50.626
X46.538 Y50.753
X46.45 Y50.874
X46.352 Y50.988
X46.245 Y51.093
X46.13 Y51.19
X46.008 Y51.277
X45.879 Y51.354
X45.745 Y51.421
X45.606 Y51.477
X45.463 Y51.522
X45.317 Y51.556
X45.169 Y51.579
X45.019 Y51.59
X44.869
X44.719 Y51.579
X44.571 Y51.556
X44.425 Y51.522
X44.282 Y51.477
X44.142 Y51.422
X44.007 Y51.356
X43.878 Y51.281
X43.754 Y51.197
X43.636 Y51.103
X43.526 Y51.001
X43.424 Y50.892
X43.329 Y50.775
X43.244 Y50.652
X43.167 Y50.523
X43.1 Y50.389
X43.042 Y50.251
X42.995 Y50.108
X42.957 Y49.963
X42.93 Y49.816
X42.914 Y49.666
X42.908 Y49.517
X42.912 Y49.367
X42.926 Y49.217
X42.951 Y49.069
X42.986 Y48.924
X43.031 Y48.78
X43.085 Y48.641
X43.149 Y48.505
X43.222 Y48.374
X43.304 Y48.248
X43.393 Y48.128
X43.491 Y48.014
X43.596 Y47.907
X43.708 Y47.807
X43.826 Y47.714
X43.95 Y47.63
X44.079 Y47.554
X44.213 Y47.487
X44.351 Y47.428
X44.493 Y47.379
X44.638 Y47.338
X44.784 Y47.307
X44.933 Y47.286
X45.082 Y47.274
X45.232 Y47.272
X45.382 Y47.279
X45.531 Y47.296
X45.679 Y47.322
X45.825 Y47.358
X45.968 Y47.402
X46.108 Y47.455
X46.245 Y47.517
X46.377 Y47.588
X46.505 Y47.666
X46.628 Y47.752
X46.745 Y47.845
X46.857 Y47.946
X46.962 Y48.053
X47.06 Y48.166
X47.151 Y48.285
X47.235 Y48.41
X47.311 Y48.539
X47.38 Y48.673
X47.44 Y48.81
X47.492 Y48.951
X47.535 Y49.094
X47.57 Y49.24
X47.596 Y49.388
X47.613 Y49.537
X47.622 Y49.687
Y49.837
X47.613 Y49.986
X47.595 Y50.135
X47.569 Y50.283
X47.534 Y50.429
X47.491 Y50.573
X47.439 Y50.713
X47.38 Y50.851
X47.313 Y50.985
X47.238 Y51.115
X47.156 Y51.241
X47.066 Y51.363
X46.97 Y51.478
X46.868 Y51.588
X46.759 Y51.693
X46.643 Y51.792
X46.524 Y51.884
X46.399 Y51.968
X46.267 Y52.047
X46.131 Y52.119
X45.993 Y52.181
X45.851 Y52.237
X45.703 Y52.285
X45.553 Y52.324
X45.403 Y52.355
X45.25 Y52.378
X45.093 Y52.392
X44.936 Y52.397
X44.782 Y52.393
X44.626 Y52.381
X44.468 Y52.359
X44.312 Y52.329
X44.161 Y52.29
X44.01 Y52.243
X43.86 Y52.186
X43.713 Y52.121
X43.571 Y52.048
X43.434 Y51.968
X43.3 Y51.878
X43.169 Y51.78
X43.045 Y51.676
X42.929 Y51.566
X42.817 Y51.449
X42.711 Y51.323
X42.612 Y51.191
X42.521 Y51.056
X42.438 Y50.915
X42.362 Y50.769
X42.294 Y50.617
X42.235 Y50.461
X42.185 Y50.303
X42.143 Y50.143
X42.111 Y49.98
X42.088 Y49.813
X42.074 Y49.644
X42.069 Y49.475
X42.074 Y49.307
X42.089 Y49.14
X42.113 Y48.972
X42.147 Y48.804
X42.19 Y48.637
X42.243 Y48.474
X42.304 Y48.314
X42.375 Y48.158
X42.454 Y48.006
X42.543 Y47.856
X42.641 Y47.711
X42.747 Y47.572
X42.86 Y47.439
X42.98 Y47.314
X43.108 Y47.194
X43.242 Y47.082
X43.384 Y46.976
X43.533 Y46.878
X43.687 Y46.788
X43.846 Y46.708
X44.008 Y46.636
X44.175 Y46.574
X44.345 Y46.521
X44.519 Y46.477
X44.697 Y46.443
X44.876 Y46.419
X45.058 Y46.405
X45.24 Y46.402
X45.422 Y46.408
X45.603 Y46.425
X45.784 Y46.452
X45.962 Y46.49
X46.139 Y46.537
X46.314 Y46.595
X46.487 Y46.662
X46.655 Y46.74
X46.82 Y46.827
X46.98 Y46.924
X47.134 Y47.029
X47.283 Y47.143
X47.425 Y47.266
X47.56 Y47.397
X47.688 Y47.535
X47.807 Y47.68
X47.919 Y47.833
X48.023 Y47.992
X48.117 Y48.157
X48.203 Y48.327
X48.279 Y48.503
X48.345 Y48.684
X48.401 Y48.868
X48.447 Y49.055
X48.482 Y49.246
X48.506 Y49.438
X48.52 Y49.632
X48.522 Y49.827
X48.514 Y50.022
X48.495 Y50.217
X48.464 Y50.411
X48.423 Y50.604
X48.371 Y50.794
X48.308 Y50.981
X48.234 Y51.165
X48.15 Y51.345
X48.056 Y51.521
X47.951 Y51.691
X47.837 Y51.856
X47.714 Y52.014
X47.581 Y52.165
X47.44 Y52.309
X47.291 Y52.446
X47.133 Y52.573
X46.969 Y52.693
X46.798 Y52.802
X46.62 Y52.903
X46.436 Y52.993
X46.247 Y53.073
X46.054 Y53.143
X45.856 Y53.202
X45.655 Y53.249
X45.451 Y53.286
X45.245 Y53.31
X45.038 Y53.324
X44.829 Y53.325
X44.62 Y53.315
X44.412 Y53.293
X44.205 Y53.259
X43.999 Y53.213
X43.796 Y53.156
X43.596 Y53.087
X43.4 Y53.007
X43.208 Y52.916
X43.021 Y52.814
X42.84 Y52.701
X42.665 Y52.578
X42.496 Y52.446
X42.336 Y52.303
X42.183 Y52.151
X42.038 Y51.991
X41.902 Y51.822
X41.776 Y51.645
X41.66 Y51.462
X41.554 Y51.271
X41.459 Y51.074
X41.375 Y50.872
X41.302 Y50.665
X41.24 Y50.454
X41.191 Y50.239
X41.154 Y50.021
X41.129 Y49.801
X41.116 Y49.579
Y49.357
X41.128 Y49.134
X41.153 Y48.912
X41.191 Y48.691
X41.241 Y48.472
X41.303 Y48.256
X41.378 Y48.043
X41.465 Y47.834
X41.563 Y47.63
X41.673 Y47.431
X41.795 Y47.239
X41.927 Y47.053
X42.07 Y46.874
X42.224 Y46.703
X42.386 Y46.541
X42.558 Y46.388
X42.739 Y46.245
X42.928 Y46.112
X43.125 Y45.989
X43.329 Y45.878
X43.539 Y45.777
X43.755 Y45.689
X43.976 Y45.612
X44.202 Y45.549
X44.431 Y45.497
X44.663 Y45.459
X44.898 Y45.434
X45.134 Y45.422
X45.371 Y45.423
X45.608 Y45.438
X45.845 Y45.466
X46.08 Y45.508
X46.312 Y45.563
X46.542 Y45.63
X46.768 Y45.711
X46.99 Y45.805
X47.206 Y45.911
X47.417 Y46.03
X47.621 Y46.16
X47.817 Y46.302
X48.006 Y46.455
X48.186 Y46.619
X48.357 Y46.793
X48.519 Y46.977
X48.67 Y47.17
X48.81 Y47.372
X48.939 Y47.582
X49.056 Y47.799
X49.161 Y48.023
X49.254 Y48.253
X49.333 Y48.489
X49.4 Y48.729
X49.452 Y48.973
X49.491 Y49.22
X49.517 Y49.469
X49.528 Y49.72
X49.525 Y49.972
X49.507 Y50.223
X49.476 Y50.474
X49.43 Y50.723
X49.371 Y50.97
X49.297 Y51.213
X49.21 Y51.452
X49.109 Y51.687
X48.994 Y51.916
X48.867 Y52.139
X48.727 Y52.354
X48.575 Y52.562
X48.411 Y52.761
X48.236 Y52.951
X48.05 Y53.132
X47.854 Y53.302
X47.648 Y53.461
X47.518 Y53.549
X47.473 Y53.578
X47.43 Y53.605
X47.21 Y53.744
X47.104 Y53.807
X47.009 Y53.847
X46.204 Y54.129
X46.103 Y54.159
X46.002 Y54.175
X45.197 Y54.266
X45.096 Y54.276
X44.995 Y54.273
X44.19 Y54.183
X43.988 Y54.151
X43.787 Y54.082
X43.183 Y53.871
X43.019 Y53.807
X42.981 Y53.786
X42.373 Y53.404
X42.176 Y53.279
X42.086 Y53.203
X41.482 Y52.599
X41.42 Y52.533
X41.37 Y52.468
X40.946 Y51.793
X40.832 Y51.592
X40.69 Y51.189
X40.549 Y50.786
X40.514 Y50.686
X40.492 Y50.585
X40.401 Y49.78
X40.386 Y49.578
X40.406 Y49.377
X40.474 Y48.773
X40.5 Y48.571
X40.565 Y48.368
X40.776 Y47.766
X40.851 Y47.565
X40.974 Y47.363
X41.37 Y46.733
X41.439 Y46.645
X41.975 Y46.109
X42.134 Y45.954
X42.176 Y45.921
X42.442 Y45.752
X42.981 Y45.414
X43.053 Y45.377
X43.125 Y45.35
X43.787 Y45.118
X43.988 Y45.049
X44.19 Y45.017
X44.995 Y44.927
X45.096 Y44.924
X45.197 Y44.934
X46.002 Y45.025
X46.103 Y45.041
X46.204 Y45.071
X47.009 Y45.353
X47.11 Y45.396
X47.21 Y45.456
X47.815 Y45.836
X47.99 Y45.954
X48.016 Y45.977
X48.62 Y46.58
X48.707 Y46.669
X48.771 Y46.759
X49.224 Y47.481
X49.273 Y47.565
X49.348 Y47.766
X49.56 Y48.37
X49.624 Y48.571
X49.627 Y48.587
X49.65 Y48.773
X49.718 Y49.377
X49.738 Y49.578
X49.723 Y49.78
X49.632 Y50.585
X49.627 Y50.614
X49.575 Y50.786
X49.364 Y51.39
X49.292 Y51.592
X49.224 Y51.719
X48.798 Y52.397
X48.732 Y52.498
X48.642 Y52.599
X48.038 Y53.203
X48.016 Y53.223
X47.966 Y53.266
X47.915 Y53.301
X47.473 Y53.578
X47.39 Y53.619
X47.301 Y53.645
X47.236 Y53.653 Z16.004
X47.172 Y53.66 Z16.014
X47.097 Y53.646 Z16.037
X47.025 Y53.633 Z16.07
X46.959 Y53.62 Z16.112
X46.898 Y53.584 Z16.171
X46.847 Y53.552 Z16.24
X46.805 Y53.527 Z16.318
X46.773 Y53.508 Z16.403
X46.76 Y53.495 Z16.467
X46.752 Y53.487 Z16.533
X46.749 Y53.485 Z16.6
G0 Z28
X45.062 Y49.6
Z16.6
G1 Z16 F850
Z7 F283.3
X45.089 Y49.573 F850
X45.123 Y49.588
X45.129 Y49.625
X45.113 Y49.658
X45.081 Y49.679
X45.044 Y49.682
X45.009 Y49.668
X44.984 Y49.64
X44.974 Y49.604
X44.979 Y49.567
X44.999 Y49.536
X45.029 Y49.513
X45.065 Y49.5
X45.102 Y49.498
X45.138 Y49.51
X45.168 Y49.531
X45.191 Y49.561
X45.204 Y49.597
X45.206 Y49.634
X45.191 Y49.708
X45.141 Y49.764
X45.072 Y49.793
X44.997 Y49.79
X44.929 Y49.759
X44.877 Y49.705
X44.849 Y49.635
X44.846 Y49.56
X44.868 Y49.488
X44.911 Y49.427
X44.97 Y49.381
X45.04 Y49.355
X45.115 Y49.35
X45.188 Y49.366
X45.254 Y49.402
X45.362 Y49.506
X45.406 Y49.649
X45.382 Y49.797
X45.298 Y49.922
X45.173 Y50.004
X45.026 Y50.034
X44.878 Y50.01
X44.747 Y49.937
X44.648 Y49.825
X44.589 Y49.687
X44.576 Y49.537
X44.608 Y49.391
X44.682 Y49.26
X44.789 Y49.156
X44.922 Y49.086
X45.069 Y49.054
X45.219 Y49.06
X45.362 Y49.103
X45.491 Y49.179
X45.598 Y49.285
X45.677 Y49.413
X45.723 Y49.555
X45.737 Y49.705
X45.716 Y49.853
X45.665 Y49.994
X45.584 Y50.121
X45.48 Y50.228
X45.355 Y50.312
X45.217 Y50.369
X45.07 Y50.398
X44.92
X44.772 Y50.37
X44.633 Y50.314
X44.506 Y50.235
X44.395 Y50.133
X44.304 Y50.014
X44.235 Y49.881
X44.192 Y49.737
X44.172 Y49.589
X44.177 Y49.439
X44.208 Y49.292
X44.261 Y49.152
X44.338 Y49.023
X44.433 Y48.907
X44.546 Y48.808
X44.672 Y48.727
X44.809 Y48.666
X44.954 Y48.627
X45.103 Y48.61
X45.253 Y48.614
X45.401 Y48.64
X45.543 Y48.687
X45.678 Y48.755
X45.801 Y48.839
X45.912 Y48.941
X46.007 Y49.056
X46.086 Y49.184
X46.147 Y49.321
X46.189 Y49.465
X46.212 Y49.613
X46.215 Y49.763
X46.2 Y49.912
X46.164 Y50.058
X46.111 Y50.198
X46.041 Y50.331
X45.955 Y50.453
X45.854 Y50.565
X45.74 Y50.663
X45.616 Y50.746
X45.482 Y50.815
X45.341 Y50.866
X45.195 Y50.901
X45.047 Y50.919
X44.897
X44.747 Y50.902
X44.601 Y50.868
X44.46 Y50.818
X44.325 Y50.753
X44.198 Y50.673
X44.081 Y50.579
X43.974 Y50.473
X43.88 Y50.357
X43.799 Y50.231
X43.732 Y50.096
X43.679 Y49.956
X43.642 Y49.811
X43.62 Y49.662
X43.613 Y49.513
X43.622 Y49.363
X43.646 Y49.215
X43.685 Y49.07
X43.739 Y48.93
X43.806 Y48.796
X43.887 Y48.669
X43.979 Y48.551
X44.083 Y48.443
X44.196 Y48.345
X44.319 Y48.258
X44.449 Y48.184
X44.586 Y48.123
X44.728 Y48.074
X44.874 Y48.04
X45.023 Y48.019
X45.173 Y48.012
X45.322 Y48.019
X45.471 Y48.04
X45.617 Y48.074
X45.759 Y48.122
X45.897 Y48.182
X46.028 Y48.254
X46.153 Y48.338
X46.269 Y48.432
X46.377 Y48.536
X46.475 Y48.65
X46.563 Y48.771
X46.64 Y48.9
X46.705 Y49.035
X46.759 Y49.175
X46.8 Y49.319
X46.83 Y49.467
X46.846 Y49.616
X46.85 Y49.766
X46.841 Y49.915
X46.82 Y50.064
X46.787 Y50.21
X46.742 Y50.353
X46.685 Y50.492
X46.617 Y50.626
X46.538 Y50.753
X46.45 Y50.874
X46.352 Y50.988
X46.245 Y51.093
X46.13 Y51.19
X46.008 Y51.277
X45.879 Y51.354
X45.745 Y51.421
X45.606 Y51.477
X45.463 Y51.522
X45.317 Y51.556
X45.169 Y51.579
X45.019 Y51.59
X44.869
X44.719 Y51.579
X44.571 Y51.556
X44.425 Y51.522
X44.282 Y51.477
X44.142 Y51.422
X44.007 Y51.356
X43.878 Y51.281
X43.754 Y51.197
X43.636 Y51.103
X43.526 Y51.001
X43.424 Y50.892
X43.329 Y50.775
X43.244 Y50.652
X43.167 Y50.523
X43.1 Y50.389
X43.042 Y50.251
X42.995 Y50.108
X42.957 Y49.963
X42.93 Y49.816
X42.914 Y49.666
X42.908 Y49.517
X42.912 Y49.367
X42.926 Y49.217
X42.951 Y49.069
X42.986 Y48.924
X43.031 Y48.78
X43.085 Y48.641
X43.149 Y48.505
X43.222 Y48.374
X43.304 Y48.248
X43.393 Y48.128
X43.491 Y48.014
X43.596 Y47.907
X43.708 Y47.807
X43.826 Y47.714
X43.95 Y47.63
X44.079 Y47.554
X44.213 Y47.487
X44.351 Y47.428
X44.493 Y47.379
X44.638 Y47.338
X44.784 Y47.307
X44.933 Y47.286
X45.082 Y47.274
X45.232 Y47.272
X45.382 Y47.279
X45.531 Y47.296
X45.679 Y47.322
X45.825 Y47.358
X45.968 Y47.402
X46.108 Y47.455
X46.245 Y47.517
X46.377 Y47.588
X46.505 Y47.666
X46.628 Y47.752
X46.745 Y47.845
X46.857 Y47.946
X46.962 Y48.053
X47.06 Y48.166
X47.151 Y48.285
X47.235 Y48.41
X47.311 Y48.539
X47.38 Y48.673
X47.44 Y48.81
X47.492 Y48.951
X47.535 Y49.094
X47.57 Y49.24
X47.596 Y49.388
X47.613 Y49.537
X47.622 Y49.687
Y49.837
X47.613 Y49.986
X47.595 Y50.135
X47.569 Y50.283
X47.534 Y50.429
X47.491 Y50.573
X47.439 Y50.713
X47.38 Y50.851
X47.313 Y50.985
X47.238 Y51.115
X47.156 Y51.241
X47.066 Y51.363
X46.97 Y51.478
X46.868 Y51.588
X46.759 Y51.693
X46.643 Y51.792
X46.524 Y51.884
X46.399 Y51.968
X46.267 Y52.047
X46.131 Y52.119
X45.993 Y52.181
X45.851 Y52.237
X45.703 Y52.285
X45.553 Y52.324
X45.403 Y52.355
X45.25 Y52.378
X45.093 Y52.392
X44.936 Y52.397
X44.782 Y52.393
X44.626 Y52.381
X44.468 Y52.359
X44.312 Y52.329
X44.161 Y52.29
X44.01 Y52.243
X43.86 Y52.186
X43.713 Y52.121
X43.571 Y52.048
X43.434 Y51.968
X43.3 Y51.878
X43.169 Y51.78
X43.045 Y51.676
X42.929 Y51.566
X42.817 Y51.449
X42.711 Y51.323
X42.612 Y51.191
X42.521 Y51.056
X42.438 Y50.915
X42.362 Y50.769
X42.294 Y50.617
X42.235 Y50.461
X42.185 Y50.303
X42.143 Y50.143
X42.111 Y49.98
X42.088 Y49.813
X42.074 Y49.644
X42.069 Y49.475
X42.074 Y49.307
X42.089 Y49.14
X42.113 Y48.972
X42.147 Y48.804
X42.19 Y48.637
X42.243 Y48.474
X42.304 Y48.314
X42.375 Y48.158
X42.454 Y48.006
X42.543 Y47.856
X42.641 Y47.711
X42.747 Y47.572
X42.86 Y47.439
X42.98 Y47.314
X43.108 Y47.194
X43.242 Y47.082
X43.384 Y46.976
X43.533 Y46.878
X43.687 Y46.788
X43.846 Y46.708
X44.008 Y46.636
X44.175 Y46.574
X44.345 Y46.521
X44.519 Y46.477
X44.697 Y46.443
X44.876 Y46.419
X45.058 Y46.405
X45.24 Y46.402
X45.422 Y46.408
X45.603 Y46.425
X45.784 Y46.452
X45.962 Y46.49
X46.139 Y46.537
X46.314 Y46.595
X46.487 Y46.662
X46.655 Y46.74
X46.82 Y46.827
X46.98 Y46.924
X47.134 Y47.029
X47.283 Y47.143
X47.425 Y47.266
X47.56 Y47.397
X47.688 Y47.535
X47.807 Y47.68
X47.919 Y47.833
X48.023 Y47.992
X48.117 Y48.157
X48.203 Y48.327
X48.279 Y48.503
X48.345 Y48.684
X48.401 Y48.868
X48.447 Y49.055
X48.482 Y49.246
X48.506 Y49.438
X48.52 Y49.632
X48.522 Y49.827
X48.514 Y50.022
X48.495 Y50.217
X48.464 Y50.411
X48.423 Y50.604
X48.371 Y50.794
X48.308 Y50.981
X48.234 Y51.165
X48.15 Y51.345
X48.056 Y51.521
X47.951 Y51.691
X47.837 Y51.856
X47.714 Y52.014
X47.581 Y52.165
X47.44 Y52.309
X47.291 Y52.446
X47.133 Y52.573
X46.969 Y52.693
X46.798 Y52.802
X46.62 Y52.903
X46.436 Y52.993
X46.247 Y53.073
X46.054 Y53.143
X45.856 Y53.202
X45.655 Y53.249
X45.451 Y53.286
X45.245 Y53.31
X45.038 Y53.324
X44.829 Y53.325
X44.62 Y53.315
X44.412 Y53.293
X44.205 Y53.259
X43.999 Y53.213
X43.796 Y53.156
X43.596 Y53.087
X43.4 Y53.007
X43.208 Y52.916
X43.021 Y52.814
X42.84 Y52.701
X42.665 Y52.578
X42.496 Y52.446
X42.336 Y52.303
X42.183 Y52.151
X42.038 Y51.991
X41.902 Y51.822
X41.776 Y51.645
X41.66 Y51.462
X41.554 Y51.271
X41.459 Y51.074
X41.375 Y50.872
X41.302 Y50.665
X41.24 Y50.454
X41.191 Y50.239
X41.154 Y50.021
X41.129 Y49.801
X41.116 Y49.579
Y49.357
X41.128 Y49.134
X41.153 Y48.912
X41.191 Y48.691
X41.241 Y48.472
X41.303 Y48.256
X41.378 Y48.043
X41.465 Y47.834
X41.563 Y47.63
X41.673 Y47.431
X41.795 Y47.239
X41.927 Y47.053
X42.07 Y46.874
X42.224 Y46.703
X42.386 Y46.541
X42.558 Y46.388
X42.739 Y46.245
X42.928 Y46.112
X43.125 Y45.989
X43.329 Y45.878
X43.539 Y45.777
X43.755 Y45.689
X43.976 Y45.612
X44.202 Y45.549
X44.431 Y45.497
X44.663 Y45.459
X44.898 Y45.434
X45.134 Y45.422
X45.371 Y45.423
X45.608 Y45.438
X45.845 Y45.466
X46.08 Y45.508
X46.312 Y45.563
X46.542 Y45.63
X46.768 Y45.711
X46.99 Y45.805
X47.206 Y45.911
X47.417 Y46.03
X47.621 Y46.16
X47.817 Y46.302
X48.006 Y46.455
X48.186 Y46.619
X48.357 Y46.793
X48.519 Y46.977
X48.67 Y47.17
X48.81 Y47.372
X48.939 Y47.582
X49.056 Y47.799
X49.161 Y48.023
X49.254 Y48.253
X49.333 Y48.489
X49.4 Y48.729
X49.452 Y48.973
X49.491 Y49.22
X49.517 Y49.469
X49.528 Y49.72
X49.525 Y49.972
X49.507 Y50.223
X49.476 Y50.474
X49.43 Y50.723
X49.371 Y50.97
X49.297 Y51.213
X49.21 Y51.452
X49.109 Y51.687
X48.994 Y51.916
X48.867 Y52.139
X48.727 Y52.354
X48.575 Y52.562
X48.411 Y52.761
X48.236 Y52.951
X48.05 Y53.132
X47.854 Y53.302
X47.648 Y53.461
X47.518 Y53.549
X47.473 Y53.578
X47.43 Y53.605
X47.21 Y53.744
X47.104 Y53.807
X47.009 Y53.847
X46.204 Y54.129
X46.103 Y54.159
X46.002 Y54.175
X45.197 Y54.266
X45.096 Y54.276
X44.995 Y54.273
X44.19 Y54.183
X43.988 Y54.151
X43.787 Y54.082
X43.183 Y53.871
X43.019 Y53.807
X42.981 Y53.786
X42.373 Y53.404
X42.176 Y53.279
X42.086 Y53.203
X41.482 Y52.599
X41.42 Y52.533
X41.37 Y52.468
X40.946 Y51.793
X40.832 Y51.592
X40.69 Y51.189
X40.549 Y50.786
X40.514 Y50.686
X40.492 Y50.585
X40.401 Y49.78
X40.386 Y49.578
X40.406 Y49.377
X40.474 Y48.773
X40.5 Y48.571
X40.565 Y48.368
X40.776 Y47.766
X40.851 Y47.565
X40.974 Y47.363
X41.37 Y46.733
X41.439 Y46.645
X41.975 Y46.109
X42.134 Y45.954
X42.176 Y45.921
X42.442 Y45.752
X42.981 Y45.414
X43.053 Y45.377
X43.125 Y45.35
X43.787 Y45.118
X43.988 Y45.049
X44.19 Y45.017
X44.995 Y44.927
X45.096 Y44.924
X45.197 Y44.934
X46.002 Y45.025
X46.103 Y45.041
X46.204 Y45.071
X47.009 Y45.353
X47.11 Y45.396
X47.21 Y45.456
X47.815 Y45.836
X47.99 Y45.954
X48.016 Y45.977
X48.62 Y46.58
X48.707 Y46.669
X48.771 Y46.759
X49.224 Y47.481
X49.273 Y47.565
X49.348 Y47.766
X49.56 Y48.37
X49.624 Y48.571
X49.627 Y48.587
X49.65 Y48.773
X49.718 Y49.377
X49.738 Y49.578
X49.723 Y49.78
X49.632 Y50.585
X49.627 Y50.614
X49.575 Y50.786
X49.364 Y51.39
X49.292 Y51.592
X49.224 Y51.719
X48.798 Y52.397
X48.732 Y52.498
X48.642 Y52.599
X48.038 Y53.203
X48.016 Y53.223
X47.966 Y53.266
X47.915 Y53.301
X47.473 Y53.578
G3 X46.749 Y53.485 I-0.301 J-0.519
G1 X46.682 Y53.419 Z7.007
X46.617 Y53.354 Z7.029
X46.556 Y53.293 Z7.065
X46.499 Y53.236 Z7.115
X46.448 Y53.186 Z7.176
X46.405 Y53.142 Z7.247
X46.37 Y53.108 Z7.328
X46.344 Y53.082 Z7.415
X46.329 Y53.067 Z7.506
X46.324 Y53.062 Z7.6
G0 Z36

(2D Adaptive2)
X45.062 Y-25.4
Z36
Z28
Z26.6
G1 Z26 F850
Z16 F283.3
X45.089 Y-25.427 F850
X45.123 Y-25.412
X45.129 Y-25.375
X45.113 Y-25.342
X45.081 Y-25.321
X45.044 Y-25.318
X45.009 Y-25.332
X44.984 Y-25.36
X44.974 Y-25.396
X44.979 Y-25.433
X44.999 Y-25.464
X45.029 Y-25.487
X45.065 Y-25.5
X45.102 Y-25.502
X45.138 Y-25.49
X45.168 Y-25.469
X45.191 Y-25.439
X45.204 Y-25.403
X45.206 Y-25.366
X45.191 Y-25.292
X45.141 Y-25.236
X45.072 Y-25.207
X44.997 Y-25.21
X44.929 Y-25.241
X44.877 Y-25.295
X44.849 Y-25.365
X44.846 Y-25.44
X44.868 Y-25.512
X44.911 Y-25.573
X44.97 Y-25.619
X45.04 Y-25.645
X45.115 Y-25.65
X45.188 Y-25.634
X45.254 Y-25.598
X45.362 Y-25.494
X45.406 Y-25.351
X45.382 Y-25.203
X45.298 Y-25.078
X45.173 Y-24.996
X45.026 Y-24.966
X44.878 Y-24.99
X44.747 Y-25.063
X44.648 Y-25.175
X44.589 Y-25.313
X44.576 Y-25.463
X44.608 Y-25.609
X44.682 Y-25.74
X44.789 Y-25.844
X44.922 Y-25.914
X45.069 Y-25.946
X45.219 Y-25.94
X45.362 Y-25.897
X45.491 Y-25.821
X45.598 Y-25.715
X45.677 Y-25.587
X45.723 Y-25.445
X45.737 Y-25.295
X45.716 Y-25.147
X45.665 Y-25.006
X45.584 Y-24.879
X45.48 Y-24.772
X45.355 Y-24.688
X45.217 Y-24.631
X45.07 Y-24.602
X44.92
X44.772 Y-24.63
X44.633 Y-24.686
X44.506 Y-24.765
X44.395 Y-24.867
X44.304 Y-24.986
X44.235 Y-25.119
X44.192 Y-25.263
X44.172 Y-25.411
X44.177 Y-25.561
X44.208 Y-25.708
X44.261 Y-25.848
X44.338 Y-25.977
X44.433 Y-26.093
X44.546 Y-26.192
X44.672 Y-26.273
X44.809 Y-26.334
X44.954 Y-26.373
X45.103 Y-26.39
X45.253 Y-26.386
X45.401 Y-26.36
X45.543 Y-26.313
X45.678 Y-26.245
X45.801 Y-26.161
X45.912 Y-26.059
X46.007 Y-25.944
X46.086 Y-25.816
X46.147 Y-25.679
X46.189 Y-25.535
X46.212 Y-25.387
X46.215 Y-25.237
X46.2 Y-25.088
X46.164 Y-24.942
X46.111 Y-24.802
X46.041 Y-24.669
X45.955 Y-24.547
X45.854 Y-24.435
X45.74 Y-24.337
X45.616 Y-24.254
X45.482 Y-24.185
X45.341 Y-24.134
X45.195 Y-24.099
X45.047 Y-24.081
X44.897
X44.747 Y-24.098
X44.601 Y-24.132
X44.46 Y-24.182
X44.325 Y-24.247
X44.198 Y-24.327
X44.081 Y-24.421
X43.974 Y-24.527
X43.88 Y-24.643
X43.799 Y-24.769
X43.732 Y-24.904
X43.679 Y-25.044
X43.642 Y-25.189
X43.62 Y-25.338
X43.613 Y-25.487
X43.622 Y-25.637
X43.646 Y-25.785
X43.685 Y-25.93
X43.739 Y-26.07
X43.806 Y-26.204
X43.887 Y-26.331
X43.979 Y-26.449
X44.083 Y-26.557
X44.196 Y-26.655
X44.319 Y-26.742
X44.449 Y-26.816
X44.586 Y-26.877
X44.728 Y-26.926
X44.874 Y-26.96
X45.023 Y-26.981
X45.173 Y-26.988
X45.322 Y-26.981
X45.471 Y-26.96
X45.617 Y-26.926
X45.759 Y-26.878
X45.897 Y-26.818
X46.028 Y-26.746
X46.153 Y-26.662
X46.269 Y-26.568
X46.377 Y-26.464
X46.475 Y-26.35
X46.563 Y-26.229
X46.64 Y-26.1
X46.705 Y-25.965
X46.759 Y-25.825
X46.8 Y-25.681
X46.83 Y-25.533
X46.846 Y-25.384
X46.85 Y-25.234
X46.841 Y-25.085
X46.82 Y-24.936
X46.787 Y-24.79
X46.742 Y-24.647
X46.685 Y-24.508
X46.617 Y-24.374
X46.538 Y-24.247
X46.45 Y-24.126
X46.352 Y-24.012
X46.245 Y-23.907
X46.13 Y-23.81
X46.008 Y-23.723
X45.879 Y-23.646
X45.745 Y-23.579
X45.606 Y-23.523
X45.463 Y-23.478
X45.317 Y-23.444
X45.169 Y-23.421
X45.019 Y-23.41
X44.869
X44.719 Y-23.421
X44.571 Y-23.444
X44.425 Y-23.478
X44.282 Y-23.523
X44.142 Y-23.578
X44.007 Y-23.644
X43.878 Y-23.719
X43.754 Y-23.803
X43.636 Y-23.897
X43.526 Y-23.999
X43.424 Y-24.108
X43.329 Y-24.225
X43.244 Y-24.348
X43.167 Y-24.477
X43.1 Y-24.611
X43.042 Y-24.749
X42.995 Y-24.892
X42.957 Y-25.037
X42.93 Y-25.184
X42.914 Y-25.334
X42.908 Y-25.483
X42.912 Y-25.633
X42.926 Y-25.783
X42.951 Y-25.931
X42.986 Y-26.076
X43.031 Y-26.22
X43.085 Y-26.359
X43.149 Y-26.495
X43.222 Y-26.626
X43.304 Y-26.752
X43.393 Y-26.872
X43.491 Y-26.986
X43.596 Y-27.093
X43.708 Y-27.193
X43.826 Y-27.286
X43.95 Y-27.37
X44.079 Y-27.446
X44.213 Y-27.513
X44.351 Y-27.572
X44.493 Y-27.621
X44.638 Y-27.662
X44.784 Y-27.693
X44.933 Y-27.714
X45.082 Y-27.726
X45.232 Y-27.728
X45.382 Y-27.721
X45.531 Y-27.704
X45.679 Y-27.678
X45.825 Y-27.642
X45.968 Y-27.598
X46.108 Y-27.545
X46.245 Y-27.483
X46.377 Y-27.412
X46.505 Y-27.334
X46.628 Y-27.248
X46.745 Y-27.155
X46.857 Y-27.054
X46.962 Y-26.947
X47.06 Y-26.834
X47.151 Y-26.715
X47.235 Y-26.59
X47.311 Y-26.461
X47.38 Y-26.327
X47.44 Y-26.19
X47.492 Y-26.049
X47.535 Y-25.906
X47.57 Y-25.76
X47.596 Y-25.612
X47.613 Y-25.463
X47.622 Y-25.313
Y-25.163
X47.613 Y-25.014
X47.595 Y-24.865
X47.569 Y-24.717
X47.534 Y-24.571
X47.491 Y-24.427
X47.439 Y-24.287
X47.38 Y-24.149
X47.313 Y-24.015
X47.238 Y-23.885
X47.156 Y-23.759
X47.066 Y-23.637
X46.97 Y-23.522
X46.868 Y-23.412
X46.759 Y-23.307
X46.643 Y-23.208
X46.524 Y-23.116
X46.399 Y-23.032
X46.267 Y-22.953
X46.131 Y-22.881
X45.993 Y-22.819
X45.851 Y-22.763
X45.703 Y-22.715
X45.553 Y-22.676
X45.403 Y-22.645
X45.25 Y-22.622
X45.093 Y-22.608
X44.936 Y-22.603
X44.782 Y-22.607
X44.626 Y-22.619
X44.468 Y-22.641
X44.312 Y-22.671
X44.161 Y-22.71
X44.01 Y-22.757
X43.86 Y-22.814
X43.713 Y-22.879
X43.571 Y-22.952
X43.434 Y-23.032
X43.3 Y-23.122
X43.169 Y-23.22
X43.045 Y-23.324
X42.929 Y-23.434
X42.817 Y-23.551
X42.711 Y-23.677
X42.612 Y-23.809
X42.521 Y-23.944
X42.438 Y-24.085
X42.362 Y-24.231
X42.294 Y-24.383
X42.235 Y-24.539
X42.185 Y-24.697
X42.143 Y-24.857
X42.111 Y-25.02
X42.088 Y-25.187
X42.074 Y-25.356
X42.069 Y-25.525
X42.074 Y-25.693
X42.089 Y-25.86
X42.113 Y-26.028
X42.147 Y-26.196
X42.19 Y-26.363
X42.243 Y-26.526
X42.304 Y-26.686
X42.375 Y-26.842
X42.454 Y-26.994
X42.543 Y-27.144
X42.641 Y-27.289
X42.747 Y-27.428
X42.86 Y-27.561
X42.98 Y-27.686
X43.108 Y-27.806
X43.242 Y-27.918
X43.384 Y-28.024
X43.533 Y-28.122
X43.687 Y-28.212
X43.846 Y-28.292
X44.008 Y-28.364
X44.175 Y-28.426
X44.345 Y-28.479
X44.519 Y-28.523
X44.697 Y-28.557
X44.876 Y-28.581
X45.058 Y-28.595
X45.24 Y-28.598
X45.422 Y-28.592
X45.603 Y-28.575
X45.784 Y-28.548
X45.962 Y-28.51
X46.139 Y-28.463
X46.314 Y-28.405
X46.487 Y-28.338
X46.655 Y-28.26
X46.82 Y-28.173
X46.98 Y-28.076
X47.134 Y-27.971
X47.283 Y-27.857
X47.425 Y-27.734
X47.56 Y-27.603
X47.688 Y-27.465
X47.807 Y-27.32
X47.919 Y-27.167
X48.023 Y-27.008
X48.117 Y-26.843
X48.203 Y-26.673
X48.279 Y-26.497
X48.345 Y-26.316
X48.401 Y-26.132
X48.447 Y-25.945
X48.482 Y-25.754
X48.506 Y-25.562
X48.52 Y-25.368
X48.522 Y-25.173
X48.514 Y-24.978
X48.495 Y-24.783
X48.464 Y-24.589
X48.423 Y-24.396
X48.371 Y-24.206
X48.308 Y-24.019
X48.234 Y-23.835
X48.15 Y-23.655
X48.056 Y-23.479
X47.951 Y-23.309
X47.837 Y-23.144
X47.714 Y-22.986
X47.581 Y-22.835
X47.44 Y-22.691
X47.291 Y-22.554
X47.133 Y-22.427
X46.969 Y-22.307
X46.798 Y-22.198
X46.62 Y-22.097
X46.436 Y-22.007
X46.247 Y-21.927
X46.054 Y-21.857
X45.856 Y-21.798
X45.655 Y-21.751
X45.451 Y-21.714
X45.245 Y-21.69
X45.038 Y-21.676
X44.829 Y-21.675
X44.62 Y-21.685
X44.412 Y-21.707
X44.205 Y-21.741
X43.999 Y-21.787
X43.796 Y-21.844
X43.596 Y-21.913
X43.4 Y-21.993
X43.208 Y-22.084
X43.021 Y-22.186
X42.84 Y-22.299
X42.665 Y-22.422
X42.496 Y-22.554
X42.336 Y-22.697
X42.183 Y-22.849
X42.038 Y-23.009
X41.902 Y-23.178
X41.776 Y-23.355
X41.66 Y-23.538
X41.554 Y-23.729
X41.459 Y-23.926
X41.375 Y-24.128
X41.302 Y-24.335
X41.24 Y-24.546
X41.191 Y-24.761
X41.154 Y-24.979
X41.129 Y-25.199
X41.116 Y-25.421
Y-25.643
X41.128 Y-25.866
X41.153 Y-26.088
X41.191 Y-26.309
X41.241 Y-26.528
X41.303 Y-26.744
X41.378 Y-26.957
X41.465 Y-27.166
X41.563 Y-27.37
X41.673 Y-27.569
X41.795 Y-27.761
X41.927 Y-27.947
X42.07 Y-28.126
X42.224 Y-28.297
X42.386 Y-28.459
X42.558 Y-28.612
X42.739 Y-28.755
X42.928 Y-28.888
X43.125 Y-29.011
X43.329 Y-29.122
X43.539 Y-29.223
X43.755 Y-29.311
X43.976 Y-29.388
X44.202 Y-29.451
X44.431 Y-29.503
X44.663 Y-29.541
X44.898 Y-29.566
X45.134 Y-29.578
X45.371 Y-29.577
X45.608 Y-29.562
X45.845 Y-29.534
X46.08 Y-29.492
X46.312 Y-29.437
X46.542 Y-29.37
X46.768 Y-29.289
X46.99 Y-29.195
X47.206 Y-29.089
X47.417 Y-28.97
X47.621 Y-28.84
X47.817 Y-28.698
X48.006 Y-28.545
X48.186 Y-28.381
X48.357 Y-28.207
X48.519 Y-28.023
X48.67 Y-27.83
X48.81 Y-27.628
X48.939 Y-27.418
X49.056 Y-27.201
X49.161 Y-26.977
X49.254 Y-26.747
X49.333 Y-26.511
X49.4 Y-26.271
X49.452 Y-26.027
X49.491 Y-25.78
X49.517 Y-25.531
X49.528 Y-25.28
X49.525 Y-25.028
X49.507 Y-24.777
X49.476 Y-24.526
X49.43 Y-24.277
X49.371 Y-24.03
X49.297 Y-23.787
X49.21 Y-23.548
X49.109 Y-23.313
X48.994 Y-23.084
X48.867 Y-22.861
X48.727 Y-22.646
X48.575 Y-22.438
X48.411 Y-22.239
X48.236 Y-22.049
X48.05 Y-21.868
X47.854 Y-21.698
X47.648 Y-21.539
X47.518 Y-21.451
X47.473 Y-21.422
X47.43 Y-21.395
X47.21 Y-21.256
X47.104 Y-21.193
X47.009 Y-21.153
X46.204 Y-20.871
X46.103 Y-20.841
X46.002 Y-20.825
X45.197 Y-20.734
X45.096 Y-20.724
X44.995 Y-20.727
X44.19 Y-20.817
X43.988 Y-20.849
X43.787 Y-20.918
X43.183 Y-21.129
X43.019 Y-21.193
X42.981 Y-21.214
X42.373 Y-21.596
X42.176 Y-21.721
X42.086 Y-21.797
X41.482 Y-22.401
X41.42 Y-22.467
X41.37 Y-22.532
X40.946 Y-23.207
X40.832 Y-23.408
X40.69 Y-23.811
X40.549 Y-24.214
X40.514 Y-24.314
X40.492 Y-24.415
X40.401 Y-25.22
X40.386 Y-25.422
X40.406 Y-25.623
X40.474 Y-26.227
X40.5 Y-26.429
X40.565 Y-26.632
X40.776 Y-27.234
X40.851 Y-27.435
X40.974 Y-27.637
X41.37 Y-28.267
X41.439 Y-28.355
X41.975 Y-28.891
X42.134 Y-29.046
X42.176 Y-29.079
X42.442 Y-29.248
X42.981 Y-29.586
X43.053 Y-29.623
X43.125 Y-29.65
X43.787 Y-29.882
X43.988 Y-29.951
X44.19 Y-29.983
X44.995 Y-30.073
X45.096 Y-30.076
X45.197 Y-30.066
X46.002 Y-29.975
X46.103 Y-29.959
X46.204 Y-29.929
X47.009 Y-29.647
X47.11 Y-29.604
X47.21 Y-29.544
X47.815 Y-29.164
X47.99 Y-29.046
X48.016 Y-29.023
X48.62 Y-28.42
X48.707 Y-28.331
X48.771 Y-28.241
X49.224 Y-27.519
X49.273 Y-27.435
X49.348 Y-27.234
X49.56 Y-26.63
X49.624 Y-26.429
X49.627 Y-26.413
X49.65 Y-26.227
X49.718 Y-25.623
X49.738 Y-25.422
X49.723 Y-25.22
X49.632 Y-24.415
X49.627 Y-24.386
X49.575 Y-24.214
X49.364 Y-23.61
X49.292 Y-23.408
X49.224 Y-23.281
X48.798 Y-22.603
X48.732 Y-22.502
X48.642 Y-22.401
X48.038 Y-21.797
X48.016 Y-21.777
X47.966 Y-21.734
X47.915 Y-21.699
X47.473 Y-21.422
X47.39 Y-21.381
X47.301 Y-21.355
X47.236 Y-21.347 Z16.004
X47.172 Y-21.34 Z16.014
X47.097 Y-21.354 Z16.037
X47.025 Y-21.367 Z16.07
X46.959 Y-21.38 Z16.112
X46.898 Y-21.416 Z16.171
X46.847 Y-21.448 Z16.24
X46.805 Y-21.473 Z16.318
X46.773 Y-21.492 Z16.403
X46.76 Y-21.505 Z16.467
X46.752 Y-21.513 Z16.533
X46.749 Y-21.515 Z16.6
G0 Z28
X45.062 Y-25.4
Z16.6
G1 Z16 F850
Z7 F283.3
X45.089 Y-25.427 F850
X45.123 Y-25.412
X45.129 Y-25.375
X45.113 Y-25.342
X45.081 Y-25.321
X45.044 Y-25.318
X45.009 Y-25.332
X44.984 Y-25.36
X44.974 Y-25.396
X44.979 Y-25.433
X44.999 Y-25.464
X45.029 Y-25.487
X45.065 Y-25.5
X45.102 Y-25.502
X45.138 Y-25.49
X45.168 Y-25.469
X45.191 Y-25.439
X45.204 Y-25.403
X45.206 Y-25.366
X45.191 Y-25.292
X45.141 Y-25.236
X45.072 Y-25.207
X44.997 Y-25.21
X44.929 Y-25.241
X44.877 Y-25.295
X44.849 Y-25.365
X44.846 Y-25.44
X44.868 Y-25.512
X44.911 Y-25.573
X44.97 Y-25.619
X45.04 Y-25.645
X45.115 Y-25.65
X45.188 Y-25.634
X45.254 Y-25.598
X45.362 Y-25.494
X45.406 Y-25.351
X45.382 Y-25.203
X45.298 Y-25.078
X45.173 Y-24.996
X45.026 Y-24.966
X44.878 Y-24.99
X44.747 Y-25.063
X44.648 Y-25.175
X44.589 Y-25.313
X44.576 Y-25.463
X44.608 Y-25.609
X44.682 Y-25.74
X44.789 Y-25.844
X44.922 Y-25.914
X45.069 Y-25.946
X45.219 Y-25.94
X45.362 Y-25.897
X45.491 Y-25.821
X45.598 Y-25.715
X45.677 Y-25.587
X45.723 Y-25.445
X45.737 Y-25.295
X45.716 Y-25.147
X45.665 Y-25.006
X45.584 Y-24.879
X45.48 Y-24.772
X45.355 Y-24.688
X45.217 Y-24.631
X45.07 Y-24.602
X44.92
X44.772 Y-24.63
X44.633 Y-24.686
X44.506 Y-24.765
X44.395 Y-24.867
X44.304 Y-24.986
X44.235 Y-25.119
X44.192 Y-25.263
X44.172 Y-25.411
X44.177 Y-25.561
X44.208 Y-25.708
X44.261 Y-25.848
X44.338 Y-25.977
X44.433 Y-26.093
X44.546 Y-26.192
X44.672 Y-26.273
X44.809 Y-26.334
X44.954 Y-26.373
X45.103 Y-26.39
X45.253 Y-26.386
X45.401 Y-26.36
X45.543 Y-26.313
X45.678 Y-26.245
X45.801 Y-26.161
X45.912 Y-26.059
X46.007 Y-25.944
X46.086 Y-25.816
X46.147 Y-25.679
X46.189 Y-25.535
X46.212 Y-25.387
X46.215 Y-25.237
X46.2 Y-25.088
X46.164 Y-24.942
X46.111 Y-24.802
X46.041 Y-24.669
X45.955 Y-24.547
X45.854 Y-24.435
X45.74 Y-24.337
X45.616 Y-24.254
X45.482 Y-24.185
X45.341 Y-24.134
X45.195 Y-24.099
X45.047 Y-24.081
X44.897
X44.747 Y-24.098
X44.601 Y-24.132
X44.46 Y-24.182
X44.325 Y-24.247
X44.198 Y-24.327
X44.081 Y-24.421
X43.974 Y-24.527
X43.88 Y-24.643
X43.799 Y-24.769
X43.732 Y-24.904
X43.679 Y-25.044
X43.642 Y-25.189
X43.62 Y-25.338
X43.613 Y-25.487
X43.622 Y-25.637
X43.646 Y-25.785
X43.685 Y-25.93
X43.739 Y-26.07
X43.806 Y-26.204
X43.887 Y-26.331
X43.979 Y-26.449
X44.083 Y-26.557
X44.196 Y-26.655
X44.319 Y-26.742
X44.449 Y-26.816
X44.586 Y-26.877
X44.728 Y-26.926
X44.874 Y-26.96
X45.023 Y-26.981
X45.173 Y-26.988
X45.322 Y-26.981
X45.471 Y-26.96
X45.617 Y-26.926
X45.759 Y-26.878
X45.897 Y-26.818
X46.028 Y-26.746
X46.153 Y-26.662
X46.269 Y-26.568
X46.377 Y-26.464
X46.475 Y-26.35
X46.563 Y-26.229
X46.64 Y-26.1
X46.705 Y-25.965
X46.759 Y-25.825
X46.8 Y-25.681
X46.83 Y-25.533
X46.846 Y-25.384
X46.85 Y-25.234
X46.841 Y-25.085
X46.82 Y-24.936
X46.787 Y-24.79
X46.742 Y-24.647
X46.685 Y-24.508
X46.617 Y-24.374
X46.538 Y-24.247
X46.45 Y-24.126
X46.352 Y-24.012
X46.245 Y-23.907
X46.13 Y-23.81
X46.008 Y-23.723
X45.879 Y-23.646
X45.745 Y-23.579
X45.606 Y-23.523
X45.463 Y-23.478
X45.317 Y-23.444
X45.169 Y-23.421
X45.019 Y-23.41
X44.869
X44.719 Y-23.421
X44.571 Y-23.444
X44.425 Y-23.478
X44.282 Y-23.523
X44.142 Y-23.578
X44.007 Y-23.644
X43.878 Y-23.719
X43.754 Y-23.803
X43.636 Y-23.897
X43.526 Y-23.999
X43.424 Y-24.108
X43.329 Y-24.225
X43.244 Y-24.348
X43.167 Y-24.477
X43.1 Y-24.611
X43.042 Y-24.749
X42.995 Y-24.892
X42.957 Y-25.037
X42.93 Y-25.184
X42.914 Y-25.334
X42.908 Y-25.483
X42.912 Y-25.633
X42.926 Y-25.783
X42.951 Y-25.931
X42.986 Y-26.076
X43.031 Y-26.22
X43.085 Y-26.359
X43.149 Y-26.495
X43.222 Y-26.626
X43.304 Y-26.752
X43.393 Y-26.872
X43.491 Y-26.986
X43.596 Y-27.093
X43.708 Y-27.193
X43.826 Y-27.286
X43.95 Y-27.37
X44.079 Y-27.446
X44.213 Y-27.513
X44.351 Y-27.572
X44.493 Y-27.621
X44.638 Y-27.662
X44.784 Y-27.693
X44.933 Y-27.714
X45.082 Y-27.726
X45.232 Y-27.728
X45.382 Y-27.721
X45.531 Y-27.704
X45.679 Y-27.678
X45.825 Y-27.642
X45.968 Y-27.598
X46.108 Y-27.545
X46.245 Y-27.483
X46.377 Y-27.412
X46.505 Y-27.334
X46.628 Y-27.248
X46.745 Y-27.155
X46.857 Y-27.054
X46.962 Y-26.947
X47.06 Y-26.834
X47.151 Y-26.715
X47.235 Y-26.59
X47.311 Y-26.461
X47.38 Y-26.327
X47.44 Y-26.19
X47.492 Y-26.049
X47.535 Y-25.906
X47.57 Y-25.76
X47.596 Y-25.612
X47.613 Y-25.463
X47.622 Y-25.313
Y-25.163
X47.613 Y-25.014
X47.595 Y-24.865
X47.569 Y-24.717
X47.534 Y-24.571
X47.491 Y-24.427
X47.439 Y-24.287
X47.38 Y-24.149
X47.313 Y-24.015
X47.238 Y-23.885
X47.156 Y-23.759
X47.066 Y-23.637
X46.97 Y-23.522
X46.868 Y-23.412
X46.759 Y-23.307
X46.643 Y-23.208
X46.524 Y-23.116
X46.399 Y-23.032
X46.267 Y-22.953
X46.131 Y-22.881
X45.993 Y-22.819
X45.851 Y-22.763
X45.703 Y-22.715
X45.553 Y-22.676
X45.403 Y-22.645
X45.25 Y-22.622
X45.093 Y-22.608
X44.936 Y-22.603
X44.782 Y-22.607
X44.626 Y-22.619
X44.468 Y-22.641
X44.312 Y-22.671
X44.161 Y-22.71
X44.01 Y-22.757
X43.86 Y-22.814
X43.713 Y-22.879
X43.571 Y-22.952
X43.434 Y-23.032
X43.3 Y-23.122
X43.169 Y-23.22
X43.045 Y-23.324
X42.929 Y-23.434
X42.817 Y-23.551
X42.711 Y-23.677
X42.612 Y-23.809
X42.521 Y-23.944
X42.438 Y-24.085
X42.362 Y-24.231
X42.294 Y-24.383
X42.235 Y-24.539
X42.185 Y-24.697
X42.143 Y-24.857
X42.111 Y-25.02
X42.088 Y-25.187
X42.074 Y-25.356
X42.069 Y-25.525
X42.074 Y-25.693
X42.089 Y-25.86
X42.113 Y-26.028
X42.147 Y-26.196
X42.19 Y-26.363
X42.243 Y-26.526
X42.304 Y-26.686
X42.375 Y-26.842
X42.454 Y-26.994
X42.543 Y-27.144
X42.641 Y-27.289
X42.747 Y-27.428
X42.86 Y-27.561
X42.98 Y-27.686
X43.108 Y-27.806
X43.242 Y-27.918
X43.384 Y-28.024
X43.533 Y-28.122
X43.687 Y-28.212
X43.846 Y-28.292
X44.008 Y-28.364
X44.175 Y-28.426
X44.345 Y-28.479
X44.519 Y-28.523
X44.697 Y-28.557
X44.876 Y-28.581
X45.058 Y-28.595
X45.24 Y-28.598
X45.422 Y-28.592
X45.603 Y-28.575
X45.784 Y-28.548
X45.962 Y-28.51
X46.139 Y-28.463
X46.314 Y-28.405
X46.487 Y-28.338
X46.655 Y-28.26
X46.82 Y-28.173
X46.98 Y-28.076
X47.134 Y-27.971
X47.283 Y-27.857
X47.425 Y-27.734
X47.56 Y-27.603
X47.688 Y-27.465
X47.807 Y-27.32
X47.919 Y-27.167
X48.023 Y-27.008
X48.117 Y-26.843
X48.203 Y-26.673
X48.279 Y-26.497
X48.345 Y-26.316
X48.401 Y-26.132
X48.447 Y-25.945
X48.482 Y-25.754
X48.506 Y-25.562
X48.52 Y-25.368
X48.522 Y-25.173
X48.514 Y-24.978
X48.495 Y-24.783
X48.464 Y-24.589
X48.423 Y-24.396
X48.371 Y-24.206
X48.308 Y-24.019
X48.234 Y-23.835
X48.15 Y-23.655
X48.056 Y-23.479
X47.951 Y-23.309
X47.837 Y-23.144
X47.714 Y-22.986
X47.581 Y-22.835
X47.44 Y-22.691
X47.291 Y-22.554
X47.133 Y-22.427
X46.969 Y-22.307
X46.798 Y-22.198
X46.62 Y-22.097
X46.436 Y-22.007
X46.247 Y-21.927
X46.054 Y-21.857
X45.856 Y-21.798
X45.655 Y-21.751
X45.451 Y-21.714
X45.245 Y-21.69
X45.038 Y-21.676
X44.829 Y-21.675
X44.62 Y-21.685
X44.412 Y-21.707
X44.205 Y-21.741
X43.999 Y-21.787
X43.796 Y-21.844
X43.596 Y-21.913
X43.4 Y-21.993
X43.208 Y-22.084
X43.021 Y-22.186
X42.84 Y-22.299
X42.665 Y-22.422
X42.496 Y-22.554
X42.336 Y-22.697
X42.183 Y-22.849
X42.038 Y-23.009
X41.902 Y-23.178
X41.776 Y-23.355
X41.66 Y-23.538
X41.554 Y-23.729
X41.459 Y-23.926
X41.375 Y-24.128
X41.302 Y-24.335
X41.24 Y-24.546
X41.191 Y-24.761
X41.154 Y-24.979
X41.129 Y-25.199
X41.116 Y-25.421
Y-25.643
X41.128 Y-25.866
X41.153 Y-26.088
X41.191 Y-26.309
X41.241 Y-26.528
X41.303 Y-26.744
X41.378 Y-26.957
X41.465 Y-27.166
X41.563 Y-27.37
X41.673 Y-27.569
X41.795 Y-27.761
X41.927 Y-27.947
X42.07 Y-28.126
X42.224 Y-28.297
X42.386 Y-28.459
X42.558 Y-28.612
X42.739 Y-28.755
X42.928 Y-28.888
X43.125 Y-29.011
X43.329 Y-29.122
X43.539 Y-29.223
X43.755 Y-29.311
X43.976 Y-29.388
X44.202 Y-29.451
X44.431 Y-29.503
X44.663 Y-29.541
X44.898 Y-29.566
X45.134 Y-29.578
X45.371 Y-29.577
X45.608 Y-29.562
X45.845 Y-29.534
X46.08 Y-29.492
X46.312 Y-29.437
X46.542 Y-29.37
X46.768 Y-29.289
X46.99 Y-29.195
X47.206 Y-29.089
X47.417 Y-28.97
X47.621 Y-28.84
X47.817 Y-28.698
X48.006 Y-28.545
X48.186 Y-28.381
X48.357 Y-28.207
X48.519 Y-28.023
X48.67 Y-27.83
X48.81 Y-27.628
X48.939 Y-27.418
X49.056 Y-27.201
X49.161 Y-26.977
X49.254 Y-26.747
X49.333 Y-26.511
X49.4 Y-26.271
X49.452 Y-26.027
X49.491 Y-25.78
X49.517 Y-25.531
X49.528 Y-25.28
X49.525 Y-25.028
X49.507 Y-24.777
X49.476 Y-24.526
X49.43 Y-24.277
X49.371 Y-24.03
X49.297 Y-23.787
X49.21 Y-23.548
X49.109 Y-23.313
X48.994 Y-23.084
X48.867 Y-22.861
X48.727 Y-22.646
X48.575 Y-22.438
X48.411 Y-22.239
X48.236 Y-22.049
X48.05 Y-21.868
X47.854 Y-21.698
X47.648 Y-21.539
X47.518 Y-21.451
X47.473 Y-21.422
X47.43 Y-21.395
X47.21 Y-21.256
X47.104 Y-21.193
X47.009 Y-21.153
X46.204 Y-20.871
X46.103 Y-20.841
X46.002 Y-20.825
X45.197 Y-20.734
X45.096 Y-20.724
X44.995 Y-20.727
X44.19 Y-20.817
X43.988 Y-20.849
X43.787 Y-20.918
X43.183 Y-21.129
X43.019 Y-21.193
X42.981 Y-21.214
X42.373 Y-21.596
X42.176 Y-21.721
X42.086 Y-21.797
X41.482 Y-22.401
X41.42 Y-22.467
X41.37 Y-22.532
X40.946 Y-23.207
X40.832 Y-23.408
X40.69 Y-23.811
X40.549 Y-24.214
X40.514 Y-24.314
X40.492 Y-24.415
X40.401 Y-25.22
X40.386 Y-25.422
X40.406 Y-25.623
X40.474 Y-26.227
X40.5 Y-26.429
X40.565 Y-26.632
X40.776 Y-27.234
X40.851 Y-27.435
X40.974 Y-27.637
X41.37 Y-28.267
X41.439 Y-28.355
X41.975 Y-28.891
X42.134 Y-29.046
X42.176 Y-29.079
X42.442 Y-29.248
X42.981 Y-29.586
X43.053 Y-29.623
X43.125 Y-29.65
X43.787 Y-29.882
X43.988 Y-29.951
X44.19 Y-29.983
X44.995 Y-30.073
X45.096 Y-30.076
X45.197 Y-30.066
X46.002 Y-29.975
X46.103 Y-29.959
X46.204 Y-29.929
X47.009 Y-29.647
X47.11 Y-29.604
X47.21 Y-29.544
X47.815 Y-29.164
X47.99 Y-29.046
X48.016 Y-29.023
X48.62 Y-28.42
X48.707 Y-28.331
X48.771 Y-28.241
X49.224 Y-27.519
X49.273 Y-27.435
X49.348 Y-27.234
X49.56 Y-26.63
X49.624 Y-26.429
X49.627 Y-26.413
X49.65 Y-26.227
X49.718 Y-25.623
X49.738 Y-25.422
X49.723 Y-25.22
X49.632 Y-24.415
X49.627 Y-24.386
X49.575 Y-24.214
X49.364 Y-23.61
X49.292 Y-23.408
X49.224 Y-23.281
X48.798 Y-22.603
X48.732 Y-22.502
X48.642 Y-22.401
X48.038 Y-21.797
X48.016 Y-21.777
X47.966 Y-21.734
X47.915 Y-21.699
X47.473 Y-21.422
G3 X46.749 Y-21.515 I-0.301 J-0.519
G1 X46.682 Y-21.581 Z7.007
X46.617 Y-21.646 Z7.029
X46.556 Y-21.707 Z7.065
X46.499 Y-21.764 Z7.115
X46.448 Y-21.814 Z7.176
X46.405 Y-21.858 Z7.247
X46.37 Y-21.892 Z7.328
X46.344 Y-21.918 Z7.415
X46.329 Y-21.933 Z7.506
X46.324 Y-21.938 Z7.6
G0 Z36

(2D Adaptive2)
X45.062 Y-100.4
Z36
Z28
Z26.6
G1 Z26 F850
Z16 F283.3
X45.089 Y-100.427 F850
X45.123 Y-100.412
X45.129 Y-100.375
X45.113 Y-100.342
X45.081 Y-100.321
X45.044 Y-100.318
X45.009 Y-100.332
X44.984 Y-100.36
X44.974 Y-100.396
X44.979 Y-100.433
X44.999 Y-100.464
X45.029 Y-100.487
X45.065 Y-100.5
X45.102 Y-100.502
X45.138 Y-100.49
X45.168 Y-100.469
X45.191 Y-100.439
X45.204 Y-100.403
X45.206 Y-100.366
X45.191 Y-100.292
X45.141 Y-100.236
X45.072 Y-100.207
X44.997 Y-100.21
X44.929 Y-100.241
X44.877 Y-100.295
X44.849 Y-100.365
X44.846 Y-100.44
X44.868 Y-100.512
X44.911 Y-100.573
X44.97 Y-100.619
X45.04 Y-100.645
X45.115 Y-100.65
X45.188 Y-100.634
X45.254 Y-100.598
X45.362 Y-100.494
X45.406 Y-100.351
X45.382 Y-100.203
X45.298 Y-100.078
X45.173 Y-99.996
X45.026 Y-99.966
X44.878 Y-99.99
X44.747 Y-100.063
X44.648 Y-100.175
X44.589 Y-100.313
X44.576 Y-100.463
X44.608 Y-100.609
X44.682 Y-100.74
X44.789 Y-100.844
X44.922 Y-100.914
X45.069 Y-100.946
X45.219 Y-100.94
X45.362 Y-100.897
X45.491 Y-100.821
X45.598 Y-100.715
X45.677 Y-100.587
X45.723 Y-100.445
X45.737 Y-100.295
X45.716 Y-100.147
X45.665 Y-100.006
X45.584 Y-99.879
X45.48 Y-99.772
X45.355 Y-99.688
X45.217 Y-99.631
X45.07 Y-99.602
X44.92
X44.772 Y-99.63
X44.633 Y-99.686
X44.506 Y-99.765
X44.395 Y-99.867
X44.304 Y-99.986
X44.235 Y-100.119
X44.192 Y-100.263
X44.172 Y-100.411
X44.177 Y-100.561
X44.208 Y-100.708
X44.261 Y-100.848
X44.338 Y-100.977
X44.433 Y-101.093
X44.546 Y-101.192
X44.672 Y-101.273
X44.809 Y-101.334
X44.954 Y-101.373
X45.103 Y-101.39
X45.253 Y-101.386
X45.401 Y-101.36
X45.543 Y-101.313
X45.678 Y-101.245
X45.801 Y-101.161
X45.912 Y-101.059
X46.007 Y-100.944
X46.086 Y-100.816
X46.147 Y-100.679
X46.189 Y-100.535
X46.212 Y-100.387
X46.215 Y-100.237
X46.2 Y-100.088
X46.164 Y-99.942
X46.111 Y-99.802
X46.041 Y-99.669
X45.955 Y-99.547
X45.854 Y-99.435
X45.74 Y-99.337
X45.616 Y-99.254
X45.482 Y-99.185
X45.341 Y-99.134
X45.195 Y-99.099
X45.047 Y-99.081
X44.897
X44.747 Y-99.098
X44.601 Y-99.132
X44.46 Y-99.182
X44.325 Y-99.247
X44.198 Y-99.327
X44.081 Y-99.421
X43.974 Y-99.527
X43.88 Y-99.643
X43.799 Y-99.769
X43.732 Y-99.904
X43.679 Y-100.044
X43.642 Y-100.189
X43.62 Y-100.338
X43.613 Y-100.487
X43.622 Y-100.637
X43.646 Y-100.785
X43.685 Y-100.93
X43.739 Y-101.07
X43.806 Y-101.204
X43.887 Y-101.331
X43.979 Y-101.449
X44.083 Y-101.557
X44.196 Y-101.655
X44.319 Y-101.742
X44.449 Y-101.816
X44.586 Y-101.877
X44.728 Y-101.926
X44.874 Y-101.96
X45.023 Y-101.981
X45.173 Y-101.988
X45.322 Y-101.981
X45.471 Y-101.96
X45.617 Y-101.926
X45.759 Y-101.878
X45.897 Y-101.818
X46.028 Y-101.746
X46.153 Y-101.662
X46.269 Y-101.568
X46.377 Y-101.464
X46.475 Y-101.35
X46.563 Y-101.229
X46.64 Y-101.1
X46.705 Y-100.965
X46.759 Y-100.825
X46.8 Y-100.681
X46.83 Y-100.533
X46.846 Y-100.384
X46.85 Y-100.234
X46.841 Y-100.085
X46.82 Y-99.936
X46.787 Y-99.79
X46.742 Y-99.647
X46.685 Y-99.508
X46.617 Y-99.374
X46.538 Y-99.247
X46.45 Y-99.126
X46.352 Y-99.012
X46.245 Y-98.907
X46.13 Y-98.81
X46.008 Y-98.723
X45.879 Y-98.646
X45.745 Y-98.579
X45.606 Y-98.523
X45.463 Y-98.478
X45.317 Y-98.444
X45.169 Y-98.421
X45.019 Y-98.41
X44.869
X44.719 Y-98.421
X44.571 Y-98.444
X44.425 Y-98.478
X44.282 Y-98.523
X44.142 Y-98.578
X44.007 Y-98.644
X43.878 Y-98.719
X43.754 Y-98.803
X43.636 Y-98.897
X43.526 Y-98.999
X43.424 Y-99.108
X43.329 Y-99.225
X43.244 Y-99.348
X43.167 Y-99.477
X43.1 Y-99.611
X43.042 Y-99.749
X42.995 Y-99.892
X42.957 Y-100.037
X42.93 Y-100.184
X42.914 Y-100.334
X42.908 Y-100.483
X42.912 Y-100.633
X42.926 Y-100.783
X42.951 Y-100.931
X42.986 Y-101.076
X43.031 Y-101.22
X43.085 Y-101.359
X43.149 Y-101.495
X43.222 Y-101.626
X43.304 Y-101.752
X43.393 Y-101.872
X43.491 Y-101.986
X43.596 Y-102.093
X43.708 Y-102.193
X43.826 Y-102.286
X43.95 Y-102.37
X44.079 Y-102.446
X44.213 Y-102.513
X44.351 Y-102.572
X44.493 Y-102.621
X44.638 Y-102.662
X44.784 Y-102.693
X44.933 Y-102.714
X45.082 Y-102.726
X45.232 Y-102.728
X45.382 Y-102.721
X45.531 Y-102.704
X45.679 Y-102.678
X45.825 Y-102.642
X45.968 Y-102.598
X46.108 Y-102.545
X46.245 Y-102.483
X46.377 Y-102.412
X46.505 Y-102.334
X46.628 Y-102.248
X46.745 Y-102.155
X46.857 Y-102.054
X46.962 Y-101.947
X47.06 Y-101.834
X47.151 Y-101.715
X47.235 Y-101.59
X47.311 Y-101.461
X47.38 Y-101.327
X47.44 Y-101.19
X47.492 Y-101.049
X47.535 Y-100.906
X47.57 Y-100.76
X47.596 Y-100.612
X47.613 Y-100.463
X47.622 Y-100.313
Y-100.163
X47.613 Y-100.014
X47.595 Y-99.865
X47.569 Y-99.717
X47.534 Y-99.571
X47.491 Y-99.427
X47.439 Y-99.287
X47.38 Y-99.149
X47.313 Y-99.015
X47.238 Y-98.885
X47.156 Y-98.759
X47.066 Y-98.637
X46.97 Y-98.522
X46.868 Y-98.412
X46.759 Y-98.307
X46.643 Y-98.208
X46.524 Y-98.116
X46.399 Y-98.032
X46.267 Y-97.953
X46.131 Y-97.881
X45.993 Y-97.819
X45.851 Y-97.763
X45.703 Y-97.715
X45.553 Y-97.676
X45.403 Y-97.645
X45.25 Y-97.622
X45.093 Y-97.608
X44.936 Y-97.603
X44.782 Y-97.607
X44.626 Y-97.619
X44.468 Y-97.641
X44.312 Y-97.671
X44.161 Y-97.71
X44.01 Y-97.757
X43.86 Y-97.814
X43.713 Y-97.879
X43.571 Y-97.952
X43.434 Y-98.032
X43.3 Y-98.122
X43.169 Y-98.22
X43.045 Y-98.324
X42.929 Y-98.434
X42.817 Y-98.551
X42.711 Y-98.677
X42.612 Y-98.809
X42.521 Y-98.944
X42.438 Y-99.085
X42.362 Y-99.231
X42.294 Y-99.383
X42.235 Y-99.539
X42.185 Y-99.697
X42.143 Y-99.857
X42.111 Y-100.02
X42.088 Y-100.187
X42.074 Y-100.356
X42.069 Y-100.525
X42.074 Y-100.693
X42.089 Y-100.86
X42.113 Y-101.028
X42.147 Y-101.196
X42.19 Y-101.363
X42.243 Y-101.526
X42.304 Y-101.686
X42.375 Y-101.842
X42.454 Y-101.994
X42.543 Y-102.144
X42.641 Y-102.289
X42.747 Y-102.428
X42.86 Y-102.561
X42.98 Y-102.686
X43.108 Y-102.806
X43.242 Y-102.918
X43.384 Y-103.024
X43.533 Y-103.122
X43.687 Y-103.212
X43.846 Y-103.292
X44.008 Y-103.364
X44.175 Y-103.426
X44.345 Y-103.479
X44.519 Y-103.523
X44.697 Y-103.557
X44.876 Y-103.581
X45.058 Y-103.595
X45.24 Y-103.598
X45.422 Y-103.592
X45.603 Y-103.575
X45.784 Y-103.548
X45.962 Y-103.51
X46.139 Y-103.463
X46.314 Y-103.405
X46.487 Y-103.338
X46.655 Y-103.26
X46.82 Y-103.173
X46.98 Y-103.076
X47.134 Y-102.971
X47.283 Y-102.857
X47.425 Y-102.734
X47.56 Y-102.603
X47.688 Y-102.465
X47.807 Y-102.32
X47.919 Y-102.167
X48.023 Y-102.008
X48.117 Y-101.843
X48.203 Y-101.673
X48.279 Y-101.497
X48.345 Y-101.316
X48.401 Y-101.132
X48.447 Y-100.945
X48.482 Y-100.754
X48.506 Y-100.562
X48.52 Y-100.368
X48.522 Y-100.173
X48.514 Y-99.978
X48.495 Y-99.783
X48.464 Y-99.589
X48.423 Y-99.396
X48.371 Y-99.206
X48.308 Y-99.019
X48.234 Y-98.835
X48.15 Y-98.655
X48.056 Y-98.479
X47.951 Y-98.309
X47.837 Y-98.144
X47.714 Y-97.986
X47.581 Y-97.835
X47.44 Y-97.691
X47.291 Y-97.554
X47.133 Y-97.427
X46.969 Y-97.307
X46.798 Y-97.198
X46.62 Y-97.097
X46.436 Y-97.007
X46.247 Y-96.927
X46.054 Y-96.857
X45.856 Y-96.798
X45.655 Y-96.751
X45.451 Y-96.714
X45.245 Y-96.69
X45.038 Y-96.676
X44.829 Y-96.675
X44.62 Y-96.685
X44.412 Y-96.707
X44.205 Y-96.741
X43.999 Y-96.787
X43.796 Y-96.844
X43.596 Y-96.913
X43.4 Y-96.993
X43.208 Y-97.084
X43.021 Y-97.186
X42.84 Y-97.299
X42.665 Y-97.422
X42.496 Y-97.554
X42.336 Y-97.697
X42.183 Y-97.849
X42.038 Y-98.009
X41.902 Y-98.178
X41.776 Y-98.355
X41.66 Y-98.538
X41.554 Y-98.729
X41.459 Y-98.926
X41.375 Y-99.128
X41.302 Y-99.335
X41.24 Y-99.546
X41.191 Y-99.761
X41.154 Y-99.979
X41.129 Y-100.199
X41.116 Y-100.421
Y-100.643
X41.128 Y-100.866
X41.153 Y-101.088
X41.191 Y-101.309
X41.241 Y-101.528
X41.303 Y-101.744
X41.378 Y-101.957
X41.465 Y-102.166
X41.563 Y-102.37
X41.673 Y-102.569
X41.795 Y-102.761
X41.927 Y-102.947
X42.07 Y-103.126
X42.224 Y-103.297
X42.386 Y-103.459
X42.558 Y-103.612
X42.739 Y-103.755
X42.928 Y-103.888
X43.125 Y-104.011
X43.329 Y-104.122
X43.539 Y-104.223
X43.755 Y-104.311
X43.976 Y-104.388
X44.202 Y-104.451
X44.431 Y-104.503
X44.663 Y-104.541
X44.898 Y-104.566
X45.134 Y-104.578
X45.371 Y-104.577
X45.608 Y-104.562
X45.845 Y-104.534
X46.08 Y-104.492
X46.312 Y-104.437
X46.542 Y-104.37
X46.768 Y-104.289
X46.99 Y-104.195
X47.206 Y-104.089
X47.417 Y-103.97
X47.621 Y-103.84
X47.817 Y-103.698
X48.006 Y-103.545
X48.186 Y-103.381
X48.357 Y-103.207
X48.519 Y-103.023
X48.67 Y-102.83
X48.81 Y-102.628
X48.939 Y-102.418
X49.056 Y-102.201
X49.161 Y-101.977
X49.254 Y-101.747
X49.333 Y-101.511
X49.4 Y-101.271
X49.452 Y-101.027
X49.491 Y-100.78
X49.517 Y-100.531
X49.528 Y-100.28
X49.525 Y-100.028
X49.507 Y-99.777
X49.476 Y-99.526
X49.43 Y-99.277
X49.371 Y-99.03
X49.297 Y-98.787
X49.21 Y-98.548
X49.109 Y-98.313
X48.994 Y-98.084
X48.867 Y-97.861
X48.727 Y-97.646
X48.575 Y-97.438
X48.411 Y-97.239
X48.236 Y-97.049
X48.05 Y-96.868
X47.854 Y-96.698
X47.648 Y-96.539
X47.518 Y-96.451
X47.473 Y-96.422
X47.43 Y-96.395
X47.21 Y-96.256
X47.104 Y-96.193
X47.009 Y-96.153
X46.204 Y-95.871
X46.103 Y-95.841
X46.002 Y-95.825
X45.197 Y-95.734
X45.096 Y-95.724
X44.995 Y-95.727
X44.19 Y-95.817
X43.988 Y-95.849
X43.787 Y-95.918
X43.183 Y-96.129
X43.019 Y-96.193
X42.981 Y-96.214
X42.373 Y-96.596
X42.176 Y-96.721
X42.086 Y-96.797
X41.482 Y-97.401
X41.42 Y-97.467
X41.37 Y-97.532
X40.946 Y-98.207
X40.832 Y-98.408
X40.69 Y-98.811
X40.549 Y-99.214
X40.514 Y-99.314
X40.492 Y-99.415
X40.401 Y-100.22
X40.386 Y-100.422
X40.406 Y-100.623
X40.474 Y-101.227
X40.5 Y-101.429
X40.565 Y-101.632
X40.776 Y-102.234
X40.851 Y-102.435
X40.974 Y-102.637
X41.37 Y-103.267
X41.439 Y-103.355
X41.975 Y-103.891
X42.134 Y-104.046
X42.176 Y-104.079
X42.442 Y-104.248
X42.981 Y-104.586
X43.053 Y-104.623
X43.125 Y-104.65
X43.787 Y-104.882
X43.988 Y-104.951
X44.19 Y-104.983
X44.995 Y-105.073
X45.096 Y-105.076
X45.197 Y-105.066
X46.002 Y-104.975
X46.103 Y-104.959
X46.204 Y-104.929
X47.009 Y-104.647
X47.11 Y-104.604
X47.21 Y-104.544
X47.815 Y-104.164
X47.99 Y-104.046
X48.016 Y-104.023
X48.62 Y-103.42
X48.707 Y-103.331
X48.771 Y-103.241
X49.224 Y-102.519
X49.273 Y-102.435
X49.348 Y-102.234
X49.56 Y-101.63
X49.624 Y-101.429
X49.627 Y-101.413
X49.65 Y-101.227
X49.718 Y-100.623
X49.738 Y-100.422
X49.723 Y-100.22
X49.632 Y-99.415
X49.627 Y-99.386
X49.575 Y-99.214
X49.364 Y-98.61
X49.292 Y-98.408
X49.224 Y-98.281
X48.798 Y-97.603
X48.732 Y-97.502
X48.642 Y-97.401
X48.038 Y-96.797
X48.016 Y-96.777
X47.966 Y-96.734
X47.915 Y-96.699
X47.473 Y-96.422
X47.39 Y-96.381
X47.301 Y-96.355
X47.236 Y-96.347 Z16.004
X47.172 Y-96.34 Z16.014
X47.097 Y-96.354 Z16.037
X47.025 Y-96.367 Z16.07
X46.959 Y-96.38 Z16.112
X46.898 Y-96.416 Z16.171
X46.847 Y-96.448 Z16.24
X46.805 Y-96.473 Z16.318
X46.773 Y-96.492 Z16.403
X46.76 Y-96.505 Z16.467
X46.752 Y-96.513 Z16.533
X46.749 Y-96.515 Z16.6
G0 Z28
X45.062 Y-100.4
Z16.6
G1 Z16 F850
Z7 F283.3
X45.089 Y-100.427 F850
X45.123 Y-100.412
X45.129 Y-100.375
X45.113 Y-100.342
X45.081 Y-100.321
X45.044 Y-100.318
X45.009 Y-100.332
X44.984 Y-100.36
X44.974 Y-100.396
X44.979 Y-100.433
X44.999 Y-100.464
X45.029 Y-100.487
X45.065 Y-100.5
X45.102 Y-100.502
X45.138 Y-100.49
X45.168 Y-100.469
X45.191 Y-100.439
X45.204 Y-100.403
X45.206 Y-100.366
X45.191 Y-100.292
X45.141 Y-100.236
X45.072 Y-100.207
X44.997 Y-100.21
X44.929 Y-100.241
X44.877 Y-100.295
X44.849 Y-100.365
X44.846 Y-100.44
X44.868 Y-100.512
X44.911 Y-100.573
X44.97 Y-100.619
X45.04 Y-100.645
X45.115 Y-100.65
X45.188 Y-100.634
X45.254 Y-100.598
X45.362 Y-100.494
X45.406 Y-100.351
X45.382 Y-100.203
X45.298 Y-100.078
X45.173 Y-99.996
X45.026 Y-99.966
X44.878 Y-99.99
X44.747 Y-100.063
X44.648 Y-100.175
X44.589 Y-100.313
X44.576 Y-100.463
X44.608 Y-100.609
X44.682 Y-100.74
X44.789 Y-100.844
X44.922 Y-100.914
X45.069 Y-100.946
X45.219 Y-100.94
X45.362 Y-100.897
X45.491 Y-100.821
X45.598 Y-100.715
X45.677 Y-100.587
X45.723 Y-100.445
X45.737 Y-100.295
X45.716 Y-100.147
X45.665 Y-100.006
X45.584 Y-99.879
X45.48 Y-99.772
X45.355 Y-99.688
X45.217 Y-99.631
X45.07 Y-99.602
X44.92
X44.772 Y-99.63
X44.633 Y-99.686
X44.506 Y-99.765
X44.395 Y-99.867
X44.304 Y-99.986
X44.235 Y-100.119
X44.192 Y-100.263
X44.172 Y-100.411
X44.177 Y-100.561
X44.208 Y-100.708
X44.261 Y-100.848
X44.338 Y-100.977
X44.433 Y-101.093
X44.546 Y-101.192
X44.672 Y-101.273
X44.809 Y-101.334
X44.954 Y-101.373
X45.103 Y-101.39
X45.253 Y-101.386
X45.401 Y-101.36
X45.543 Y-101.313
X45.678 Y-101.245
X45.801 Y-101.161
X45.912 Y-101.059
X46.007 Y-100.944
X46.086 Y-100.816
X46.147 Y-100.679
X46.189 Y-100.535
X46.212 Y-100.387
X46.215 Y-100.237
X46.2 Y-100.088
X46.164 Y-99.942
X46.111 Y-99.802
X46.041 Y-99.669
X45.955 Y-99.547
X45.854 Y-99.435
X45.74 Y-99.337
X45.616 Y-99.254
X45.482 Y-99.185
X45.341 Y-99.134
X45.195 Y-99.099
X45.047 Y-99.081
X44.897
X44.747 Y-99.098
X44.601 Y-99.132
X44.46 Y-99.182
X44.325 Y-99.247
X44.198 Y-99.327
X44.081 Y-99.421
X43.974 Y-99.527
X43.88 Y-99.643
X43.799 Y-99.769
X43.732 Y-99.904
X43.679 Y-100.044
X43.642 Y-100.189
X43.62 Y-100.338
X43.613 Y-100.487
X43.622 Y-100.637
X43.646 Y-100.785
X43.685 Y-100.93
X43.739 Y-101.07
X43.806 Y-101.204
X43.887 Y-101.331
X43.979 Y-101.449
X44.083 Y-101.557
X44.196 Y-101.655
X44.319 Y-101.742
X44.449 Y-101.816
X44.586 Y-101.877
X44.728 Y-101.926
X44.874 Y-101.96
X45.023 Y-101.981
X45.173 Y-101.988
X45.322 Y-101.981
X45.471 Y-101.96
X45.617 Y-101.926
X45.759 Y-101.878
X45.897 Y-101.818
X46.028 Y-101.746
X46.153 Y-101.662
X46.269 Y-101.568
X46.377 Y-101.464
X46.475 Y-101.35
X46.563 Y-101.229
X46.64 Y-101.1
X46.705 Y-100.965
X46.759 Y-100.825
X46.8 Y-100.681
X46.83 Y-100.533
X46.846 Y-100.384
X46.85 Y-100.234
X46.841 Y-100.085
X46.82 Y-99.936
X46.787 Y-99.79
X46.742 Y-99.647
X46.685 Y-99.508
X46.617 Y-99.374
X46.538 Y-99.247
X46.45 Y-99.126
X46.352 Y-99.012
X46.245 Y-98.907
X46.13 Y-98.81
X46.008 Y-98.723
X45.879 Y-98.646
X45.745 Y-98.579
X45.606 Y-98.523
X45.463 Y-98.478
X45.317 Y-98.444
X45.169 Y-98.421
X45.019 Y-98.41
X44.869
X44.719 Y-98.421
X44.571 Y-98.444
X44.425 Y-98.478
X44.282 Y-98.523
X44.142 Y-98.578
X44.007 Y-98.644
X43.878 Y-98.719
X43.754 Y-98.803
X43.636 Y-98.897
X43.526 Y-98.999
X43.424 Y-99.108
X43.329 Y-99.225
X43.244 Y-99.348
X43.167 Y-99.477
X43.1 Y-99.611
X43.042 Y-99.749
X42.995 Y-99.892
X42.957 Y-100.037
X42.93 Y-100.184
X42.914 Y-100.334
X42.908 Y-100.483
X42.912 Y-100.633
X42.926 Y-100.783
X42.951 Y-100.931
X42.986 Y-101.076
X43.031 Y-101.22
X43.085 Y-101.359
X43.149 Y-101.495
X43.222 Y-101.626
X43.304 Y-101.752
X43.393 Y-101.872
X43.491 Y-101.986
X43.596 Y-102.093
X43.708 Y-102.193
X43.826 Y-102.286
X43.95 Y-102.37
X44.079 Y-102.446
X44.213 Y-102.513
X44.351 Y-102.572
X44.493 Y-102.621
X44.638 Y-102.662
X44.784 Y-102.693
X44.933 Y-102.714
X45.082 Y-102.726
X45.232 Y-102.728
X45.382 Y-102.721
X45.531 Y-102.704
X45.679 Y-102.678
X45.825 Y-102.642
X45.968 Y-102.598
X46.108 Y-102.545
X46.245 Y-102.483
X46.377 Y-102.412
X46.505 Y-102.334
X46.628 Y-102.248
X46.745 Y-102.155
X46.857 Y-102.054
X46.962 Y-101.947
X47.06 Y-101.834
X47.151 Y-101.715
X47.235 Y-101.59
X47.311 Y-101.461
X47.38 Y-101.327
X47.44 Y-101.19
X47.492 Y-101.049
X47.535 Y-100.906
X47.57 Y-100.76
X47.596 Y-100.612
X47.613 Y-100.463
X47.622 Y-100.313
Y-100.163
X47.613 Y-100.014
X47.595 Y-99.865
X47.569 Y-99.717
X47.534 Y-99.571
X47.491 Y-99.427
X47.439 Y-99.287
X47.38 Y-99.149
X47.313 Y-99.015
X47.238 Y-98.885
X47.156 Y-98.759
X47.066 Y-98.637
X46.97 Y-98.522
X46.868 Y-98.412
X46.759 Y-98.307
X46.643 Y-98.208
X46.524 Y-98.116
X46.399 Y-98.032
X46.267 Y-97.953
X46.131 Y-97.881
X45.993 Y-97.819
X45.851 Y-97.763
X45.703 Y-97.715
X45.553 Y-97.676
X45.403 Y-97.645
X45.25 Y-97.622
X45.093 Y-97.608
X44.936 Y-97.603
X44.782 Y-97.607
X44.626 Y-97.619
X44.468 Y-97.641
X44.312 Y-97.671
X44.161 Y-97.71
X44.01 Y-97.757
X43.86 Y-97.814
X43.713 Y-97.879
X43.571 Y-97.952
X43.434 Y-98.032
X43.3 Y-98.122
X43.169 Y-98.22
X43.045 Y-98.324
X42.929 Y-98.434
X42.817 Y-98.551
X42.711 Y-98.677
X42.612 Y-98.809
X42.521 Y-98.944
X42.438 Y-99.085
X42.362 Y-99.231
X42.294 Y-99.383
X42.235 Y-99.539
X42.185 Y-99.697
X42.143 Y-99.857
X42.111 Y-100.02
X42.088 Y-100.187
X42.074 Y-100.356
X42.069 Y-100.525
X42.074 Y-100.693
X42.089 Y-100.86
X42.113 Y-101.028
X42.147 Y-101.196
X42.19 Y-101.363
X42.243 Y-101.526
X42.304 Y-101.686
X42.375 Y-101.842
X42.454 Y-101.994
X42.543 Y-102.144
X42.641 Y-102.289
X42.747 Y-102.428
X42.86 Y-102.561
X42.98 Y-102.686
X43.108 Y-102.806
X43.242 Y-102.918
X43.384 Y-103.024
X43.533 Y-103.122
X43.687 Y-103.212
X43.846 Y-103.292
X44.008 Y-103.364
X44.175 Y-103.426
X44.345 Y-103.479
X44.519 Y-103.523
X44.697 Y-103.557
X44.876 Y-103.581
X45.058 Y-103.595
X45.24 Y-103.598
X45.422 Y-103.592
X45.603 Y-103.575
X45.784 Y-103.548
X45.962 Y-103.51
X46.139 Y-103.463
X46.314 Y-103.405
X46.487 Y-103.338
X46.655 Y-103.26
X46.82 Y-103.173
X46.98 Y-103.076
X47.134 Y-102.971
X47.283 Y-102.857
X47.425 Y-102.734
X47.56 Y-102.603
X47.688 Y-102.465
X47.807 Y-102.32
X47.919 Y-102.167
X48.023 Y-102.008
X48.117 Y-101.843
X48.203 Y-101.673
X48.279 Y-101.497
X48.345 Y-101.316
X48.401 Y-101.132
X48.447 Y-100.945
X48.482 Y-100.754
X48.506 Y-100.562
X48.52 Y-100.368
X48.522 Y-100.173
X48.514 Y-99.978
X48.495 Y-99.783
X48.464 Y-99.589
X48.423 Y-99.396
X48.371 Y-99.206
X48.308 Y-99.019
X48.234 Y-98.835
X48.15 Y-98.655
X48.056 Y-98.479
X47.951 Y-98.309
X47.837 Y-98.144
X47.714 Y-97.986
X47.581 Y-97.835
X47.44 Y-97.691
X47.291 Y-97.554
X47.133 Y-97.427
X46.969 Y-97.307
X46.798 Y-97.198
X46.62 Y-97.097
X46.436 Y-97.007
X46.247 Y-96.927
X46.054 Y-96.857
X45.856 Y-96.798
X45.655 Y-96.751
X45.451 Y-96.714
X45.245 Y-96.69
X45.038 Y-96.676
X44.829 Y-96.675
X44.62 Y-96.685
X44.412 Y-96.707
X44.205 Y-96.741
X43.999 Y-96.787
X43.796 Y-96.844
X43.596 Y-96.913
X43.4 Y-96.993
X43.208 Y-97.084
X43.021 Y-97.186
X42.84 Y-97.299
X42.665 Y-97.422
X42.496 Y-97.554
X42.336 Y-97.697
X42.183 Y-97.849
X42.038 Y-98.009
X41.902 Y-98.178
X41.776 Y-98.355
X41.66 Y-98.538
X41.554 Y-98.729
X41.459 Y-98.926
X41.375 Y-99.128
X41.302 Y-99.335
X41.24 Y-99.546
X41.191 Y-99.761
X41.154 Y-99.979
X41.129 Y-100.199
X41.116 Y-100.421
Y-100.643
X41.128 Y-100.866
X41.153 Y-101.088
X41.191 Y-101.309
X41.241 Y-101.528
X41.303 Y-101.744
X41.378 Y-101.957
X41.465 Y-102.166
X41.563 Y-102.37
X41.673 Y-102.569
X41.795 Y-102.761
X41.927 Y-102.947
X42.07 Y-103.126
X42.224 Y-103.297
X42.386 Y-103.459
X42.558 Y-103.612
X42.739 Y-103.755
X42.928 Y-103.888
X43.125 Y-104.011
X43.329 Y-104.122
X43.539 Y-104.223
X43.755 Y-104.311
X43.976 Y-104.388
X44.202 Y-104.451
X44.431 Y-104.503
X44.663 Y-104.541
X44.898 Y-104.566
X45.134 Y-104.578
X45.371 Y-104.577
X45.608 Y-104.562
X45.845 Y-104.534
X46.08 Y-104.492
X46.312 Y-104.437
X46.542 Y-104.37
X46.768 Y-104.289
X46.99 Y-104.195
X47.206 Y-104.089
X47.417 Y-103.97
X47.621 Y-103.84
X47.817 Y-103.698
X48.006 Y-103.545
X48.186 Y-103.381
X48.357 Y-103.207
X48.519 Y-103.023
X48.67 Y-102.83
X48.81 Y-102.628
X48.939 Y-102.418
X49.056 Y-102.201
X49.161 Y-101.977
X49.254 Y-101.747
X49.333 Y-101.511
X49.4 Y-101.271
X49.452 Y-101.027
X49.491 Y-100.78
X49.517 Y-100.531
X49.528 Y-100.28
X49.525 Y-100.028
X49.507 Y-99.777
X49.476 Y-99.526
X49.43 Y-99.277
X49.371 Y-99.03
X49.297 Y-98.787
X49.21 Y-98.548
X49.109 Y-98.313
X48.994 Y-98.084
X48.867 Y-97.861
X48.727 Y-97.646
X48.575 Y-97.438
X48.411 Y-97.239
X48.236 Y-97.049
X48.05 Y-96.868
X47.854 Y-96.698
X47.648 Y-96.539
X47.518 Y-96.451
X47.473 Y-96.422
X47.43 Y-96.395
X47.21 Y-96.256
X47.104 Y-96.193
X47.009 Y-96.153
X46.204 Y-95.871
X46.103 Y-95.841
X46.002 Y-95.825
X45.197 Y-95.734
X45.096 Y-95.724
X44.995 Y-95.727
X44.19 Y-95.817
X43.988 Y-95.849
X43.787 Y-95.918
X43.183 Y-96.129
X43.019 Y-96.193
X42.981 Y-96.214
X42.373 Y-96.596
X42.176 Y-96.721
X42.086 Y-96.797
X41.482 Y-97.401
X41.42 Y-97.467
X41.37 Y-97.532
X40.946 Y-98.207
X40.832 Y-98.408
X40.69 Y-98.811
X40.549 Y-99.214
X40.514 Y-99.314
X40.492 Y-99.415
X40.401 Y-100.22
X40.386 Y-100.422
X40.406 Y-100.623
X40.474 Y-101.227
X40.5 Y-101.429
X40.565 Y-101.632
X40.776 Y-102.234
X40.851 Y-102.435
X40.974 Y-102.637
X41.37 Y-103.267
X41.439 Y-103.355
X41.975 Y-103.891
X42.134 Y-104.046
X42.176 Y-104.079
X42.442 Y-104.248
X42.981 Y-104.586
X43.053 Y-104.623
X43.125 Y-104.65
X43.787 Y-104.882
X43.988 Y-104.951
X44.19 Y-104.983
X44.995 Y-105.073
X45.096 Y-105.076
X45.197 Y-105.066
X46.002 Y-104.975
X46.103 Y-104.959
X46.204 Y-104.929
X47.009 Y-104.647
X47.11 Y-104.604
X47.21 Y-104.544
X47.815 Y-104.164
X47.99 Y-104.046
X48.016 Y-104.023
X48.62 Y-103.42
X48.707 Y-103.331
X48.771 Y-103.241
X49.224 Y-102.519
X49.273 Y-102.435
X49.348 Y-102.234
X49.56 Y-101.63
X49.624 Y-101.429
X49.627 Y-101.413
X49.65 Y-101.227
X49.718 Y-100.623
X49.738 Y-100.422
X49.723 Y-100.22
X49.632 Y-99.415
X49.627 Y-99.386
X49.575 Y-99.214
X49.364 Y-98.61
X49.292 Y-98.408
X49.224 Y-98.281
X48.798 Y-97.603
X48.732 Y-97.502
X48.642 Y-97.401
X48.038 Y-96.797
X48.016 Y-96.777
X47.966 Y-96.734
X47.915 Y-96.699
X47.473 Y-96.422
G3 X46.749 Y-96.515 I-0.301 J-0.519
G1 X46.682 Y-96.581 Z7.007
X46.617 Y-96.646 Z7.029
X46.556 Y-96.707 Z7.065
X46.499 Y-96.764 Z7.115
X46.448 Y-96.814 Z7.176
X46.405 Y-96.858 Z7.247
X46.37 Y-96.892 Z7.328
X46.344 Y-96.918 Z7.415
X46.329 Y-96.933 Z7.506
X46.324 Y-96.938 Z7.6
G0 Z36

(2D Adaptive2)
X45.062 Y-175.4
Z36
Z28
Z26.6
G1 Z26 F850
Z16 F283.3
X45.089 Y-175.427 F850
X45.123 Y-175.412
X45.129 Y-175.375
X45.113 Y-175.342
X45.081 Y-175.321
X45.044 Y-175.318
X45.009 Y-175.332
X44.984 Y-175.36
X44.974 Y-175.396
X44.979 Y-175.433
X44.999 Y-175.464
X45.029 Y-175.487
X45.065 Y-175.5
X45.102 Y-175.502
X45.138 Y-175.49
X45.168 Y-175.469
X45.191 Y-175.439
X45.204 Y-175.403
X45.206 Y-175.366
X45.191 Y-175.292
X45.141 Y-175.236
X45.072 Y-175.207
X44.997 Y-175.21
X44.929 Y-175.241
X44.877 Y-175.295
X44.849 Y-175.365
X44.846 Y-175.44
X44.868 Y-175.512
X44.911 Y-175.573
X44.97 Y-175.619
X45.04 Y-175.645
X45.115 Y-175.65
X45.188 Y-175.634
X45.254 Y-175.598
X45.362 Y-175.494
X45.406 Y-175.351
X45.382 Y-175.203
X45.298 Y-175.078
X45.173 Y-174.996
X45.026 Y-174.966
X44.878 Y-174.99
X44.747 Y-175.063
X44.648 Y-175.175
X44.589 Y-175.313
X44.576 Y-175.463
X44.608 Y-175.609
X44.682 Y-175.74
X44.789 Y-175.844
X44.922 Y-175.914
X45.069 Y-175.946
X45.219 Y-175.94
X45.362 Y-175.897
X45.491 Y-175.821
X45.598 Y-175.715
X45.677 Y-175.587
X45.723 Y-175.445
X45.737 Y-175.295
X45.716 Y-175.147
X45.665 Y-175.006
X45.584 Y-174.879
X45.48 Y-174.772
X45.355 Y-174.688
X45.217 Y-174.631
X45.07 Y-174.602
X44.92
X44.772 Y-174.63
X44.633 Y-174.686
X44.506 Y-174.765
X44.395 Y-174.867
X44.304 Y-174.986
X44.235 Y-175.119
X44.192 Y-175.263
X44.172 Y-175.411
X44.177 Y-175.561
X44.208 Y-175.708
X44.261 Y-175.848
X44.338 Y-175.977
X44.433 Y-176.093
X44.546 Y-176.192
X44.672 Y-176.273
X44.809 Y-176.334
X44.954 Y-176.373
X45.103 Y-176.39
X45.253 Y-176.386
X45.401 Y-176.36
X45.543 Y-176.313
X45.678 Y-176.245
X45.801 Y-176.161
X45.912 Y-176.059
X46.007 Y-175.944
X46.086 Y-175.816
X46.147 Y-175.679
X46.189 Y-175.535
X46.212 Y-175.387
X46.215 Y-175.237
X46.2 Y-175.088
X46.164 Y-174.942
X46.111 Y-174.802
X46.041 Y-174.669
X45.955 Y-174.547
X45.854 Y-174.435
X45.74 Y-174.337
X45.616 Y-174.254
X45.482 Y-174.185
X45.341 Y-174.134
X45.195 Y-174.099
X45.047 Y-174.081
X44.897
X44.747 Y-174.098
X44.601 Y-174.132
X44.46 Y-174.182
X44.325 Y-174.247
X44.198 Y-174.327
X44.081 Y-174.421
X43.974 Y-174.527
X43.88 Y-174.643
X43.799 Y-174.769
X43.732 Y-174.904
X43.679 Y-175.044
X43.642 Y-175.189
X43.62 Y-175.338
X43.613 Y-175.487
X43.622 Y-175.637
X43.646 Y-175.785
X43.685 Y-175.93
X43.739 Y-176.07
X43.806 Y-176.204
X43.887 Y-176.331
X43.979 Y-176.449
X44.083 Y-176.557
X44.196 Y-176.655
X44.319 Y-176.742
X44.449 Y-176.816
X44.586 Y-176.877
X44.728 Y-176.926
X44.874 Y-176.96
X45.023 Y-176.981
X45.173 Y-176.988
X45.322 Y-176.981
X45.471 Y-176.96
X45.617 Y-176.926
X45.759 Y-176.878
X45.897 Y-176.818
X46.028 Y-176.746
X46.153 Y-176.662
X46.269 Y-176.568
X46.377 Y-176.464
X46.475 Y-176.35
X46.563 Y-176.229
X46.64 Y-176.1
X46.705 Y-175.965
X46.759 Y-175.825
X46.8 Y-175.681
X46.83 Y-175.533
X46.846 Y-175.384
X46.85 Y-175.234
X46.841 Y-175.085
X46.82 Y-174.936
X46.787 Y-174.79
X46.742 Y-174.647
X46.685 Y-174.508
X46.617 Y-174.374
X46.538 Y-174.247
X46.45 Y-174.126
X46.352 Y-174.012
X46.245 Y-173.907
X46.13 Y-173.81
X46.008 Y-173.723
X45.879 Y-173.646
X45.745 Y-173.579
X45.606 Y-173.523
X45.463 Y-173.478
X45.317 Y-173.444
X45.169 Y-173.421
X45.019 Y-173.41
X44.869
X44.719 Y-173.421
X44.571 Y-173.444
X44.425 Y-173.478
X44.282 Y-173.523
X44.142 Y-173.578
X44.007 Y-173.644
X43.878 Y-173.719
X43.754 Y-173.803
X43.636 Y-173.897
X43.526 Y-173.999
X43.424 Y-174.108
X43.329 Y-174.225
X43.244 Y-174.348
X43.167 Y-174.477
X43.1 Y-174.611
X43.042 Y-174.749
X42.995 Y-174.892
X42.957 Y-175.037
X42.93 Y-175.184
X42.914 Y-175.334
X42.908 Y-175.483
X42.912 Y-175.633
X42.926 Y-175.783
X42.951 Y-175.931
X42.986 Y-176.076
X43.031 Y-176.22
X43.085 Y-176.359
X43.149 Y-176.495
X43.222 Y-176.626
X43.304 Y-176.752
X43.393 Y-176.872
X43.491 Y-176.986
X43.596 Y-177.093
X43.708 Y-177.193
X43.826 Y-177.286
X43.95 Y-177.37
X44.079 Y-177.446
X44.213 Y-177.513
X44.351 Y-177.572
X44.493 Y-177.621
X44.638 Y-177.662
X44.784 Y-177.693
X44.933 Y-177.714
X45.082 Y-177.726
X45.232 Y-177.728
X45.382 Y-177.721
X45.531 Y-177.704
X45.679 Y-177.678
X45.825 Y-177.642
X45.968 Y-177.598
X46.108 Y-177.545
X46.245 Y-177.483
X46.377 Y-177.412
X46.505 Y-177.334
X46.628 Y-177.248
X46.745 Y-177.155
X46.857 Y-177.054
X46.962 Y-176.947
X47.06 Y-176.834
X47.151 Y-176.715
X47.235 Y-176.59
X47.311 Y-176.461
X47.38 Y-176.327
X47.44 Y-176.19
X47.492 Y-176.049
X47.535 Y-175.906
X47.57 Y-175.76
X47.596 Y-175.612
X47.613 Y-175.463
X47.622 Y-175.313
Y-175.163
X47.613 Y-175.014
X47.595 Y-174.865
X47.569 Y-174.717
X47.534 Y-174.571
X47.491 Y-174.427
X47.439 Y-174.287
X47.38 Y-174.149
X47.313 Y-174.015
X47.238 Y-173.885
X47.156 Y-173.759
X47.066 Y-173.637
X46.97 Y-173.522
X46.868 Y-173.412
X46.759 Y-173.307
X46.643 Y-173.208
X46.524 Y-173.116
X46.399 Y-173.032
X46.267 Y-172.953
X46.131 Y-172.881
X45.993 Y-172.819
X45.851 Y-172.763
X45.703 Y-172.715
X45.553 Y-172.676
X45.403 Y-172.645
X45.25 Y-172.622
X45.093 Y-172.608
X44.936 Y-172.603
X44.782 Y-172.607
X44.626 Y-172.619
X44.468 Y-172.641
X44.312 Y-172.671
X44.161 Y-172.71
X44.01 Y-172.757
X43.86 Y-172.814
X43.713 Y-172.879
X43.571 Y-172.952
X43.434 Y-173.032
X43.3 Y-173.122
X43.169 Y-173.22
X43.045 Y-173.324
X42.929 Y-173.434
X42.817 Y-173.551
X42.711 Y-173.677
X42.612 Y-173.809
X42.521 Y-173.944
X42.438 Y-174.085
X42.362 Y-174.231
X42.294 Y-174.383
X42.235 Y-174.539
X42.185 Y-174.697
X42.143 Y-174.857
X42.111 Y-175.02
X42.088 Y-175.187
X42.074 Y-175.356
X42.069 Y-175.525
X42.074 Y-175.693
X42.089 Y-175.86
X42.113 Y-176.028
X42.147 Y-176.196
X42.19 Y-176.363
X42.243 Y-176.526
X42.304 Y-176.686
X42.375 Y-176.842
X42.454 Y-176.994
X42.543 Y-177.144
X42.641 Y-177.289
X42.747 Y-177.428
X42.86 Y-177.561
X42.98 Y-177.686
X43.108 Y-177.806
X43.242 Y-177.918
X43.384 Y-178.024
X43.533 Y-178.122
X43.687 Y-178.212
X43.846 Y-178.292
X44.008 Y-178.364
X44.175 Y-178.426
X44.345 Y-178.479
X44.519 Y-178.523
X44.697 Y-178.557
X44.876 Y-178.581
X45.058 Y-178.595
X45.24 Y-178.598
X45.422 Y-178.592
X45.603 Y-178.575
X45.784 Y-178.548
X45.962 Y-178.51
X46.139 Y-178.463
X46.314 Y-178.405
X46.487 Y-178.338
X46.655 Y-178.26
X46.82 Y-178.173
X46.98 Y-178.076
X47.134 Y-177.971
X47.283 Y-177.857
X47.425 Y-177.734
X47.56 Y-177.603
X47.688 Y-177.465
X47.807 Y-177.32
X47.919 Y-177.167
X48.023 Y-177.008
X48.117 Y-176.843
X48.203 Y-176.673
X48.279 Y-176.497
X48.345 Y-176.316
X48.401 Y-176.132
X48.447 Y-175.945
X48.482 Y-175.754
X48.506 Y-175.562
X48.52 Y-175.368
X48.522 Y-175.173
X48.514 Y-174.978
X48.495 Y-174.783
X48.464 Y-174.589
X48.423 Y-174.396
X48.371 Y-174.206
X48.308 Y-174.019
X48.234 Y-173.835
X48.15 Y-173.655
X48.056 Y-173.479
X47.951 Y-173.309
X47.837 Y-173.144
X47.714 Y-172.986
X47.581 Y-172.835
X47.44 Y-172.691
X47.291 Y-172.554
X47.133 Y-172.427
X46.969 Y-172.307
X46.798 Y-172.198
X46.62 Y-172.097
X46.436 Y-172.007
X46.247 Y-171.927
X46.054 Y-171.857
X45.856 Y-171.798
X45.655 Y-171.751
X45.451 Y-171.714
X45.245 Y-171.69
X45.038 Y-171.676
X44.829 Y-171.675
X44.62 Y-171.685
X44.412 Y-171.707
X44.205 Y-171.741
X43.999 Y-171.787
X43.796 Y-171.844
X43.596 Y-171.913
X43.4 Y-171.993
X43.208 Y-172.084
X43.021 Y-172.186
X42.84 Y-172.299
X42.665 Y-172.422
X42.496 Y-172.554
X42.336 Y-172.697
X42.183 Y-172.849
X42.038 Y-173.009
X41.902 Y-173.178
X41.776 Y-173.355
X41.66 Y-173.538
X41.554 Y-173.729
X41.459 Y-173.926
X41.375 Y-174.128
X41.302 Y-174.335
X41.24 Y-174.546
X41.191 Y-174.761
X41.154 Y-174.979
X41.129 Y-175.199
X41.116 Y-175.421
Y-175.643
X41.128 Y-175.866
X41.153 Y-176.088
X41.191 Y-176.309
X41.241 Y-176.528
X41.303 Y-176.744
X41.378 Y-176.957
X41.465 Y-177.166
X41.563 Y-177.37
X41.673 Y-177.569
X41.795 Y-177.761
X41.927 Y-177.947
X42.07 Y-178.126
X42.224 Y-178.297
X42.386 Y-178.459
X42.558 Y-178.612
X42.739 Y-178.755
X42.928 Y-178.888
X43.125 Y-179.011
X43.329 Y-179.122
X43.539 Y-179.223
X43.755 Y-179.311
X43.976 Y-179.388
X44.202 Y-179.451
X44.431 Y-179.503
X44.663 Y-179.541
X44.898 Y-179.566
X45.134 Y-179.578
X45.371 Y-179.577
X45.608 Y-179.562
X45.845 Y-179.534
X46.08 Y-179.492
X46.312 Y-179.437
X46.542 Y-179.37
X46.768 Y-179.289
X46.99 Y-179.195
X47.206 Y-179.089
X47.417 Y-178.97
X47.621 Y-178.84
X47.817 Y-178.698
X48.006 Y-178.545
X48.186 Y-178.381
X48.357 Y-178.207
X48.519 Y-178.023
X48.67 Y-177.83
X48.81 Y-177.628
X48.939 Y-177.418
X49.056 Y-177.201
X49.161 Y-176.977
X49.254 Y-176.747
X49.333 Y-176.511
X49.4 Y-176.271
X49.452 Y-176.027
X49.491 Y-175.78
X49.517 Y-175.531
X49.528 Y-175.28
X49.525 Y-175.028
X49.507 Y-174.777
X49.476 Y-174.526
X49.43 Y-174.277
X49.371 Y-174.03
X49.297 Y-173.787
X49.21 Y-173.548
X49.109 Y-173.313
X48.994 Y-173.084
X48.867 Y-172.861
X48.727 Y-172.646
X48.575 Y-172.438
X48.411 Y-172.239
X48.236 Y-172.049
X48.05 Y-171.868
X47.854 Y-171.698
X47.648 Y-171.539
X47.518 Y-171.451
X47.473 Y-171.422
X47.43 Y-171.395
X47.21 Y-171.256
X47.104 Y-171.193
X47.009 Y-171.153
X46.204 Y-170.871
X46.103 Y-170.841
X46.002 Y-170.825
X45.197 Y-170.734
X45.096 Y-170.724
X44.995 Y-170.727
X44.19 Y-170.817
X43.988 Y-170.849
X43.787 Y-170.918
X43.183 Y-171.129
X43.019 Y-171.193
X42.981 Y-171.214
X42.373 Y-171.596
X42.176 Y-171.721
X42.086 Y-171.797
X41.482 Y-172.401
X41.42 Y-172.467
X41.37 Y-172.532
X40.946 Y-173.207
X40.832 Y-173.408
X40.69 Y-173.811
X40.549 Y-174.214
X40.514 Y-174.314
X40.492 Y-174.415
X40.401 Y-175.22
X40.386 Y-175.422
X40.406 Y-175.623
X40.474 Y-176.227
X40.5 Y-176.429
X40.565 Y-176.632
X40.776 Y-177.234
X40.851 Y-177.435
X40.974 Y-177.637
X41.37 Y-178.267
X41.439 Y-178.355
X41.975 Y-178.891
X42.134 Y-179.046
X42.176 Y-179.079
X42.442 Y-179.248
X42.981 Y-179.586
X43.053 Y-179.623
X43.125 Y-179.65
X43.787 Y-179.882
X43.988 Y-179.951
X44.19 Y-179.983
X44.995 Y-180.073
X45.096 Y-180.076
X45.197 Y-180.066
X46.002 Y-179.975
X46.103 Y-179.959
X46.204 Y-179.929
X47.009 Y-179.647
X47.11 Y-179.604
X47.21 Y-179.544
X47.815 Y-179.164
X47.99 Y-179.046
X48.016 Y-179.023
X48.62 Y-178.42
X48.707 Y-178.331
X48.771 Y-178.241
X49.224 Y-177.519
X49.273 Y-177.435
X49.348 Y-177.234
X49.56 Y-176.63
X49.624 Y-176.429
X49.627 Y-176.413
X49.65 Y-176.227
X49.718 Y-175.623
X49.738 Y-175.422
X49.723 Y-175.22
X49.632 Y-174.415
X49.627 Y-174.386
X49.575 Y-174.214
X49.364 Y-173.61
X49.292 Y-173.408
X49.224 Y-173.281
X48.798 Y-172.603
X48.732 Y-172.502
X48.642 Y-172.401
X48.038 Y-171.797
X48.016 Y-171.777
X47.966 Y-171.734
X47.915 Y-171.699
X47.473 Y-171.422
X47.39 Y-171.381
X47.301 Y-171.355
X47.236 Y-171.347 Z16.004
X47.172 Y-171.34 Z16.014
X47.097 Y-171.354 Z16.037
X47.025 Y-171.367 Z16.07
X46.959 Y-171.38 Z16.112
X46.898 Y-171.416 Z16.171
X46.847 Y-171.448 Z16.24
X46.805 Y-171.473 Z16.318
X46.773 Y-171.492 Z16.403
X46.76 Y-171.505 Z16.467
X46.752 Y-171.513 Z16.533
X46.749 Y-171.515 Z16.6
G0 Z28
X45.062 Y-175.4
Z16.6
G1 Z16 F850
Z7 F283.3
X45.089 Y-175.427 F850
X45.123 Y-175.412
X45.129 Y-175.375
X45.113 Y-175.342
X45.081 Y-175.321
X45.044 Y-175.318
X45.009 Y-175.332
X44.984 Y-175.36
X44.974 Y-175.396
X44.979 Y-175.433
X44.999 Y-175.464
X45.029 Y-175.487
X45.065 Y-175.5
X45.102 Y-175.502
X45.138 Y-175.49
X45.168 Y-175.469
X45.191 Y-175.439
X45.204 Y-175.403
X45.206 Y-175.366
X45.191 Y-175.292
X45.141 Y-175.236
X45.072 Y-175.207
X44.997 Y-175.21
X44.929 Y-175.241
X44.877 Y-175.295
X44.849 Y-175.365
X44.846 Y-175.44
X44.868 Y-175.512
X44.911 Y-175.573
X44.97 Y-175.619
X45.04 Y-175.645
X45.115 Y-175.65
X45.188 Y-175.634
X45.254 Y-175.598
X45.362 Y-175.494
X45.406 Y-175.351
X45.382 Y-175.203
X45.298 Y-175.078
X45.173 Y-174.996
X45.026 Y-174.966
X44.878 Y-174.99
X44.747 Y-175.063
X44.648 Y-175.175
X44.589 Y-175.313
X44.576 Y-175.463
X44.608 Y-175.609
X44.682 Y-175.74
X44.789 Y-175.844
X44.922 Y-175.914
X45.069 Y-175.946
X45.219 Y-175.94
X45.362 Y-175.897
X45.491 Y-175.821
X45.598 Y-175.715
X45.677 Y-175.587
X45.723 Y-175.445
X45.737 Y-175.295
X45.716 Y-175.147
X45.665 Y-175.006
X45.584 Y-174.879
X45.48 Y-174.772
X45.355 Y-174.688
X45.217 Y-174.631
X45.07 Y-174.602
X44.92
X44.772 Y-174.63
X44.633 Y-174.686
X44.506 Y-174.765
X44.395 Y-174.867
X44.304 Y-174.986
X44.235 Y-175.119
X44.192 Y-175.263
X44.172 Y-175.411
X44.177 Y-175.561
X44.208 Y-175.708
X44.261 Y-175.848
X44.338 Y-175.977
X44.433 Y-176.093
X44.546 Y-176.192
X44.672 Y-176.273
X44.809 Y-176.334
X44.954 Y-176.373
X45.103 Y-176.39
X45.253 Y-176.386
X45.401 Y-176.36
X45.543 Y-176.313
X45.678 Y-176.245
X45.801 Y-176.161
X45.912 Y-176.059
X46.007 Y-175.944
X46.086 Y-175.816
X46.147 Y-175.679
X46.189 Y-175.535
X46.212 Y-175.387
X46.215 Y-175.237
X46.2 Y-175.088
X46.164 Y-174.942
X46.111 Y-174.802
X46.041 Y-174.669
X45.955 Y-174.547
X45.854 Y-174.435
X45.74 Y-174.337
X45.616 Y-174.254
X45.482 Y-174.185
X45.341 Y-174.134
X45.195 Y-174.099
X45.047 Y-174.081
X44.897
X44.747 Y-174.098
X44.601 Y-174.132
X44.46 Y-174.182
X44.325 Y-174.247
X44.198 Y-174.327
X44.081 Y-174.421
X43.974 Y-174.527
X43.88 Y-174.643
X43.799 Y-174.769
X43.732 Y-174.904
X43.679 Y-175.044
X43.642 Y-175.189
X43.62 Y-175.338
X43.613 Y-175.487
X43.622 Y-175.637
X43.646 Y-175.785
X43.685 Y-175.93
X43.739 Y-176.07
X43.806 Y-176.204
X43.887 Y-176.331
X43.979 Y-176.449
X44.083 Y-176.557
X44.196 Y-176.655
X44.319 Y-176.742
X44.449 Y-176.816
X44.586 Y-176.877
X44.728 Y-176.926
X44.874 Y-176.96
X45.023 Y-176.981
X45.173 Y-176.988
X45.322 Y-176.981
X45.471 Y-176.96
X45.617 Y-176.926
X45.759 Y-176.878
X45.897 Y-176.818
X46.028 Y-176.746
X46.153 Y-176.662
X46.269 Y-176.568
X46.377 Y-176.464
X46.475 Y-176.35
X46.563 Y-176.229
X46.64 Y-176.1
X46.705 Y-175.965
X46.759 Y-175.825
X46.8 Y-175.681
X46.83 Y-175.533
X46.846 Y-175.384
X46.85 Y-175.234
X46.841 Y-175.085
X46.82 Y-174.936
X46.787 Y-174.79
X46.742 Y-174.647
X46.685 Y-174.508
X46.617 Y-174.374
X46.538 Y-174.247
X46.45 Y-174.126
X46.352 Y-174.012
X46.245 Y-173.907
X46.13 Y-173.81
X46.008 Y-173.723
X45.879 Y-173.646
X45.745 Y-173.579
X45.606 Y-173.523
X45.463 Y-173.478
X45.317 Y-173.444
X45.169 Y-173.421
X45.019 Y-173.41
X44.869
X44.719 Y-173.421
X44.571 Y-173.444
X44.425 Y-173.478
X44.282 Y-173.523
X44.142 Y-173.578
X44.007 Y-173.644
X43.878 Y-173.719
X43.754 Y-173.803
X43.636 Y-173.897
X43.526 Y-173.999
X43.424 Y-174.108
X43.329 Y-174.225
X43.244 Y-174.348
X43.167 Y-174.477
X43.1 Y-174.611
X43.042 Y-174.749
X42.995 Y-174.892
X42.957 Y-175.037
X42.93 Y-175.184
X42.914 Y-175.334
X42.908 Y-175.483
X42.912 Y-175.633
X42.926 Y-175.783
X42.951 Y-175.931
X42.986 Y-176.076
X43.031 Y-176.22
X43.085 Y-176.359
X43.149 Y-176.495
X43.222 Y-176.626
X43.304 Y-176.752
X43.393 Y-176.872
X43.491 Y-176.986
X43.596 Y-177.093
X43.708 Y-177.193
X43.826 Y-177.286
X43.95 Y-177.37
X44.079 Y-177.446
X44.213 Y-177.513
X44.351 Y-177.572
X44.493 Y-177.621
X44.638 Y-177.662
X44.784 Y-177.693
X44.933 Y-177.714
X45.082 Y-177.726
X45.232 Y-177.728
X45.382 Y-177.721
X45.531 Y-177.704
X45.679 Y-177.678
X45.825 Y-177.642
X45.968 Y-177.598
X46.108 Y-177.545
X46.245 Y-177.483
X46.377 Y-177.412
X46.505 Y-177.334
X46.628 Y-177.248
X46.745 Y-177.155
X46.857 Y-177.054
X46.962 Y-176.947
X47.06 Y-176.834
X47.151 Y-176.715
X47.235 Y-176.59
X47.311 Y-176.461
X47.38 Y-176.327
X47.44 Y-176.19
X47.492 Y-176.049
X47.535 Y-175.906
X47.57 Y-175.76
X47.596 Y-175.612
X47.613 Y-175.463
X47.622 Y-175.313
Y-175.163
X47.613 Y-175.014
X47.595 Y-174.865
X47.569 Y-174.717
X47.534 Y-174.571
X47.491 Y-174.427
X47.439 Y-174.287
X47.38 Y-174.149
X47.313 Y-174.015
X47.238 Y-173.885
X47.156 Y-173.759
X47.066 Y-173.637
X46.97 Y-173.522
X46.868 Y-173.412
X46.759 Y-173.307
X46.643 Y-173.208
X46.524 Y-173.116
X46.399 Y-173.032
X46.267 Y-172.953
X46.131 Y-172.881
X45.993 Y-172.819
X45.851 Y-172.763
X45.703 Y-172.715
X45.553 Y-172.676
X45.403 Y-172.645
X45.25 Y-172.622
X45.093 Y-172.608
X44.936 Y-172.603
X44.782 Y-172.607
X44.626 Y-172.619
X44.468 Y-172.641
X44.312 Y-172.671
X44.161 Y-172.71
X44.01 Y-172.757
X43.86 Y-172.814
X43.713 Y-172.879
X43.571 Y-172.952
X43.434 Y-173.032
X43.3 Y-173.122
X43.169 Y-173.22
X43.045 Y-173.324
X42.929 Y-173.434
X42.817 Y-173.551
X42.711 Y-173.677
X42.612 Y-173.809
X42.521 Y-173.944
X42.438 Y-174.085
X42.362 Y-174.231
X42.294 Y-174.383
X42.235 Y-174.539
X42.185 Y-174.697
X42.143 Y-174.857
X42.111 Y-175.02
X42.088 Y-175.187
X42.074 Y-175.356
X42.069 Y-175.525
X42.074 Y-175.693
X42.089 Y-175.86
X42.113 Y-176.028
X42.147 Y-176.196
X42.19 Y-176.363
X42.243 Y-176.526
X42.304 Y-176.686
X42.375 Y-176.842
X42.454 Y-176.994
X42.543 Y-177.144
X42.641 Y-177.289
X42.747 Y-177.428
X42.86 Y-177.561
X42.98 Y-177.686
X43.108 Y-177.806
X43.242 Y-177.918
X43.384 Y-178.024
X43.533 Y-178.122
X43.687 Y-178.212
X43.846 Y-178.292
X44.008 Y-178.364
X44.175 Y-178.426
X44.345 Y-178.479
X44.519 Y-178.523
X44.697 Y-178.557
X44.876 Y-178.581
X45.058 Y-178.595
X45.24 Y-178.598
X45.422 Y-178.592
X45.603 Y-178.575
X45.784 Y-178.548
X45.962 Y-178.51
X46.139 Y-178.463
X46.314 Y-178.405
X46.487 Y-178.338
X46.655 Y-178.26
X46.82 Y-178.173
X46.98 Y-178.076
X47.134 Y-177.971
X47.283 Y-177.857
X47.425 Y-177.734
X47.56 Y-177.603
X47.688 Y-177.465
X47.807 Y-177.32
X47.919 Y-177.167
X48.023 Y-177.008
X48.117 Y-176.843
X48.203 Y-176.673
X48.279 Y-176.497
X48.345 Y-176.316
X48.401 Y-176.132
X48.447 Y-175.945
X48.482 Y-175.754
X48.506 Y-175.562
X48.52 Y-175.368
X48.522 Y-175.173
X48.514 Y-174.978
X48.495 Y-174.783
X48.464 Y-174.589
X48.423 Y-174.396
X48.371 Y-174.206
X48.308 Y-174.019
X48.234 Y-173.835
X48.15 Y-173.655
X48.056 Y-173.479
X47.951 Y-173.309
X47.837 Y-173.144
X47.714 Y-172.986
X47.581 Y-172.835
X47.44 Y-172.691
X47.291 Y-172.554
X47.133 Y-172.427
X46.969 Y-172.307
X46.798 Y-172.198
X46.62 Y-172.097
X46.436 Y-172.007
X46.247 Y-171.927
X46.054 Y-171.857
X45.856 Y-171.798
X45.655 Y-171.751
X45.451 Y-171.714
X45.245 Y-171.69
X45.038 Y-171.676
X44.829 Y-171.675
X44.62 Y-171.685
X44.412 Y-171.707
X44.205 Y-171.741
X43.999 Y-171.787
X43.796 Y-171.844
X43.596 Y-171.913
X43.4 Y-171.993
X43.208 Y-172.084
X43.021 Y-172.186
X42.84 Y-172.299
X42.665 Y-172.422
X42.496 Y-172.554
X42.336 Y-172.697
X42.183 Y-172.849
X42.038 Y-173.009
X41.902 Y-173.178
X41.776 Y-173.355
X41.66 Y-173.538
X41.554 Y-173.729
X41.459 Y-173.926
X41.375 Y-174.128
X41.302 Y-174.335
X41.24 Y-174.546
X41.191 Y-174.761
X41.154 Y-174.979
X41.129 Y-175.199
X41.116 Y-175.421
Y-175.643
X41.128 Y-175.866
X41.153 Y-176.088
X41.191 Y-176.309
X41.241 Y-176.528
X41.303 Y-176.744
X41.378 Y-176.957
X41.465 Y-177.166
X41.563 Y-177.37
X41.673 Y-177.569
X41.795 Y-177.761
X41.927 Y-177.947
X42.07 Y-178.126
X42.224 Y-178.297
X42.386 Y-178.459
X42.558 Y-178.612
X42.739 Y-178.755
X42.928 Y-178.888
X43.125 Y-179.011
X43.329 Y-179.122
X43.539 Y-179.223
X43.755 Y-179.311
X43.976 Y-179.388
X44.202 Y-179.451
X44.431 Y-179.503
X44.663 Y-179.541
X44.898 Y-179.566
X45.134 Y-179.578
X45.371 Y-179.577
X45.608 Y-179.562
X45.845 Y-179.534
X46.08 Y-179.492
X46.312 Y-179.437
X46.542 Y-179.37
X46.768 Y-179.289
X46.99 Y-179.195
X47.206 Y-179.089
X47.417 Y-178.97
X47.621 Y-178.84
X47.817 Y-178.698
X48.006 Y-178.545
X48.186 Y-178.381
X48.357 Y-178.207
X48.519 Y-178.023
X48.67 Y-177.83
X48.81 Y-177.628
X48.939 Y-177.418
X49.056 Y-177.201
X49.161 Y-176.977
X49.254 Y-176.747
X49.333 Y-176.511
X49.4 Y-176.271
X49.452 Y-176.027
X49.491 Y-175.78
X49.517 Y-175.531
X49.528 Y-175.28
X49.525 Y-175.028
X49.507 Y-174.777
X49.476 Y-174.526
X49.43 Y-174.277
X49.371 Y-174.03
X49.297 Y-173.787
X49.21 Y-173.548
X49.109 Y-173.313
X48.994 Y-173.084
X48.867 Y-172.861
X48.727 Y-172.646
X48.575 Y-172.438
X48.411 Y-172.239
X48.236 Y-172.049
X48.05 Y-171.868
X47.854 Y-171.698
X47.648 Y-171.539
X47.518 Y-171.451
X47.473 Y-171.422
X47.43 Y-171.395
X47.21 Y-171.256
X47.104 Y-171.193
X47.009 Y-171.153
X46.204 Y-170.871
X46.103 Y-170.841
X46.002 Y-170.825
X45.197 Y-170.734
X45.096 Y-170.724
X44.995 Y-170.727
X44.19 Y-170.817
X43.988 Y-170.849
X43.787 Y-170.918
X43.183 Y-171.129
X43.019 Y-171.193
X42.981 Y-171.214
X42.373 Y-171.596
X42.176 Y-171.721
X42.086 Y-171.797
X41.482 Y-172.401
X41.42 Y-172.467
X41.37 Y-172.532
X40.946 Y-173.207
X40.832 Y-173.408
X40.69 Y-173.811
X40.549 Y-174.214
X40.514 Y-174.314
X40.492 Y-174.415
X40.401 Y-175.22
X40.386 Y-175.422
X40.406 Y-175.623
X40.474 Y-176.227
X40.5 Y-176.429
X40.565 Y-176.632
X40.776 Y-177.234
X40.851 Y-177.435
X40.974 Y-177.637
X41.37 Y-178.267
X41.439 Y-178.355
X41.975 Y-178.891
X42.134 Y-179.046
X42.176 Y-179.079
X42.442 Y-179.248
X42.981 Y-179.586
X43.053 Y-179.623
X43.125 Y-179.65
X43.787 Y-179.882
X43.988 Y-179.951
X44.19 Y-179.983
X44.995 Y-180.073
X45.096 Y-180.076
X45.197 Y-180.066
X46.002 Y-179.975
X46.103 Y-179.959
X46.204 Y-179.929
X47.009 Y-179.647
X47.11 Y-179.604
X47.21 Y-179.544
X47.815 Y-179.164
X47.99 Y-179.046
X48.016 Y-179.023
X48.62 Y-178.42
X48.707 Y-178.331
X48.771 Y-178.241
X49.224 Y-177.519
X49.273 Y-177.435
X49.348 Y-177.234
X49.56 Y-176.63
X49.624 Y-176.429
X49.627 Y-176.413
X49.65 Y-176.227
X49.718 Y-175.623
X49.738 Y-175.422
X49.723 Y-175.22
X49.632 Y-174.415
X49.627 Y-174.386
X49.575 Y-174.214
X49.364 Y-173.61
X49.292 Y-173.408
X49.224 Y-173.281
X48.798 Y-172.603
X48.732 Y-172.502
X48.642 Y-172.401
X48.038 Y-171.797
X48.016 Y-171.777
X47.966 Y-171.734
X47.915 Y-171.699
X47.473 Y-171.422
G3 X46.749 Y-171.515 I-0.301 J-0.519
G1 X46.682 Y-171.581 Z7.007
X46.617 Y-171.646 Z7.029
X46.556 Y-171.707 Z7.065
X46.499 Y-171.764 Z7.115
X46.448 Y-171.814 Z7.176
X46.405 Y-171.858 Z7.247
X46.37 Y-171.892 Z7.328
X46.344 Y-171.918 Z7.415
X46.329 Y-171.933 Z7.506
X46.324 Y-171.938 Z7.6
G0 Z36

(2D Adaptive2)
X45.062 Y-250.4
Z36
Z28
Z26.6
G1 Z26 F850
Z16 F283.3
X45.089 Y-250.427 F850
X45.123 Y-250.412
X45.129 Y-250.375
X45.113 Y-250.342
X45.081 Y-250.321
X45.044 Y-250.318
X45.009 Y-250.332
X44.984 Y-250.36
X44.974 Y-250.396
X44.979 Y-250.433
X44.999 Y-250.464
X45.029 Y-250.487
X45.065 Y-250.5
X45.102 Y-250.502
X45.138 Y-250.49
X45.168 Y-250.469
X45.191 Y-250.439
X45.204 Y-250.403
X45.206 Y-250.366
X45.191 Y-250.292
X45.141 Y-250.236
X45.072 Y-250.207
X44.997 Y-250.21
X44.929 Y-250.241
X44.877 Y-250.295
X44.849 Y-250.365
X44.846 Y-250.44
X44.868 Y-250.512
X44.911 Y-250.573
X44.97 Y-250.619
X45.04 Y-250.645
X45.115 Y-250.65
X45.188 Y-250.634
X45.254 Y-250.598
X45.362 Y-250.494
X45.406 Y-250.351
X45.382 Y-250.203
X45.298 Y-250.078
X45.173 Y-249.996
X45.026 Y-249.966
X44.878 Y-249.99
X44.747 Y-250.063
X44.648 Y-250.175
X44.589 Y-250.313
X44.576 Y-250.463
X44.608 Y-250.609
X44.682 Y-250.74
X44.789 Y-250.844
X44.922 Y-250.914
X45.069 Y-250.946
X45.219 Y-250.94
X45.362 Y-250.897
X45.491 Y-250.821
X45.598 Y-250.715
X45.677 Y-250.587
X45.723 Y-250.445
X45.737 Y-250.295
X45.716 Y-250.147
X45.665 Y-250.006
X45.584 Y-249.879
X45.48 Y-249.772
X45.355 Y-249.688
X45.217 Y-249.631
X45.07 Y-249.602
X44.92
X44.772 Y-249.63
X44.633 Y-249.686
X44.506 Y-249.765
X44.395 Y-249.867
X44.304 Y-249.986
X44.235 Y-250.119
X44.192 Y-250.263
X44.172 Y-250.411
X44.177 Y-250.561
X44.208 Y-250.708
X44.261 Y-250.848
X44.338 Y-250.977
X44.433 Y-251.093
X44.546 Y-251.192
X44.672 Y-251.273
X44.809 Y-251.334
X44.954 Y-251.373
X45.103 Y-251.39
X45.253 Y-251.386
X45.401 Y-251.36
X45.543 Y-251.313
X45.678 Y-251.245
X45.801 Y-251.161
X45.912 Y-251.059
X46.007 Y-250.944
X46.086 Y-250.816
X46.147 Y-250.679
X46.189 Y-250.535
X46.212 Y-250.387
X46.215 Y-250.237
X46.2 Y-250.088
X46.164 Y-249.942
X46.111 Y-249.802
X46.041 Y-249.669
X45.955 Y-249.547
X45.854 Y-249.435
X45.74 Y-249.337
X45.616 Y-249.254
X45.482 Y-249.185
X45.341 Y-249.134
X45.195 Y-249.099
X45.047 Y-249.081
X44.897
X44.747 Y-249.098
X44.601 Y-249.132
X44.46 Y-249.182
X44.325 Y-249.247
X44.198 Y-249.327
X44.081 Y-249.421
X43.974 Y-249.527
X43.88 Y-249.643
X43.799 Y-249.769
X43.732 Y-249.904
X43.679 Y-250.044
X43.642 Y-250.189
X43.62 Y-250.338
X43.613 Y-250.487
X43.622 Y-250.637
X43.646 Y-250.785
X43.685 Y-250.93
X43.739 Y-251.07
X43.806 Y-251.204
X43.887 Y-251.331
X43.979 Y-251.449
X44.083 Y-251.557
X44.196 Y-251.655
X44.319 Y-251.742
X44.449 Y-251.816
X44.586 Y-251.877
X44.728 Y-251.926
X44.874 Y-251.96
X45.023 Y-251.981
X45.173 Y-251.988
X45.322 Y-251.981
X45.471 Y-251.96
X45.617 Y-251.926
X45.759 Y-251.878
X45.897 Y-251.818
X46.028 Y-251.746
X46.153 Y-251.662
X46.269 Y-251.568
X46.377 Y-251.464
X46.475 Y-251.35
X46.563 Y-251.229
X46.64 Y-251.1
X46.705 Y-250.965
X46.759 Y-250.825
X46.8 Y-250.681
X46.83 Y-250.533
X46.846 Y-250.384
X46.85 Y-250.234
X46.841 Y-250.085
X46.82 Y-249.936
X46.787 Y-249.79
X46.742 Y-249.647
X46.685 Y-249.508
X46.617 Y-249.374
X46.538 Y-249.247
X46.45 Y-249.126
X46.352 Y-249.012
X46.245 Y-248.907
X46.13 Y-248.81
X46.008 Y-248.723
X45.879 Y-248.646
X45.745 Y-248.579
X45.606 Y-248.523
X45.463 Y-248.478
X45.317 Y-248.444
X45.169 Y-248.421
X45.019 Y-248.41
X44.869
X44.719 Y-248.421
X44.571 Y-248.444
X44.425 Y-248.478
X44.282 Y-248.523
X44.142 Y-248.578
X44.007 Y-248.644
X43.878 Y-248.719
X43.754 Y-248.803
X43.636 Y-248.897
X43.526 Y-248.999
X43.424 Y-249.108
X43.329 Y-249.225
X43.244 Y-249.348
X43.167 Y-249.477
X43.1 Y-249.611
X43.042 Y-249.749
X42.995 Y-249.892
X42.957 Y-250.037
X42.93 Y-250.184
X42.914 Y-250.334
X42.908 Y-250.483
X42.912 Y-250.633
X42.926 Y-250.783
X42.951 Y-250.931
X42.986 Y-251.076
X43.031 Y-251.22
X43.085 Y-251.359
X43.149 Y-251.495
X43.222 Y-251.626
X43.304 Y-251.752
X43.393 Y-251.872
X43.491 Y-251.986
X43.596 Y-252.093
X43.708 Y-252.193
X43.826 Y-252.286
X43.95 Y-252.37
X44.079 Y-252.446
X44.213 Y-252.513
X44.351 Y-252.572
X44.493 Y-252.621
X44.638 Y-252.662
X44.784 Y-252.693
X44.933 Y-252.714
X45.082 Y-252.726
X45.232 Y-252.728
X45.382 Y-252.721
X45.531 Y-252.704
X45.679 Y-252.678
X45.825 Y-252.642
X45.968 Y-252.598
X46.108 Y-252.545
X46.245 Y-252.483
X46.377 Y-252.412
X46.505 Y-252.334
X46.628 Y-252.248
X46.745 Y-252.155
X46.857 Y-252.054
X46.962 Y-251.947
X47.06 Y-251.834
X47.151 Y-251.715
X47.235 Y-251.59
X47.311 Y-251.461
X47.38 Y-251.327
X47.44 Y-251.19
X47.492 Y-251.049
X47.535 Y-250.906
X47.57 Y-250.76
X47.596 Y-250.612
X47.613 Y-250.463
X47.622 Y-250.313
Y-250.163
X47.613 Y-250.014
X47.595 Y-249.865
X47.569 Y-249.717
X47.534 Y-249.571
X47.491 Y-249.427
X47.439 Y-249.287
X47.38 Y-249.149
X47.313 Y-249.015
X47.238 Y-248.885
X47.156 Y-248.759
X47.066 Y-248.637
X46.97 Y-248.522
X46.868 Y-248.412
X46.759 Y-248.307
X46.643 Y-248.208
X46.524 Y-248.116
X46.399 Y-248.032
X46.267 Y-247.953
X46.131 Y-247.881
X45.993 Y-247.819
X45.851 Y-247.763
X45.703 Y-247.715
X45.553 Y-247.676
X45.403 Y-247.645
X45.25 Y-247.622
X45.093 Y-247.608
X44.936 Y-247.603
X44.782 Y-247.607
X44.626 Y-247.619
X44.468 Y-247.641
X44.312 Y-247.671
X44.161 Y-247.71
X44.01 Y-247.757
X43.86 Y-247.814
X43.713 Y-247.879
X43.571 Y-247.952
X43.434 Y-248.032
X43.3 Y-248.122
X43.169 Y-248.22
X43.045 Y-248.324
X42.929 Y-248.434
X42.817 Y-248.551
X42.711 Y-248.677
X42.612 Y-248.809
X42.521 Y-248.944
X42.438 Y-249.085
X42.362 Y-249.231
X42.294 Y-249.383
X42.235 Y-249.539
X42.185 Y-249.697
X42.143 Y-249.857
X42.111 Y-250.02
X42.088 Y-250.187
X42.074 Y-250.356
X42.069 Y-250.525
X42.074 Y-250.693
X42.089 Y-250.86
X42.113 Y-251.028
X42.147 Y-251.196
X42.19 Y-251.363
X42.243 Y-251.526
X42.304 Y-251.686
X42.375 Y-251.842
X42.454 Y-251.994
X42.543 Y-252.144
X42.641 Y-252.289
X42.747 Y-252.428
X42.86 Y-252.561
X42.98 Y-252.686
X43.108 Y-252.806
X43.242 Y-252.918
X43.384 Y-253.024
X43.533 Y-253.122
X43.687 Y-253.212
X43.846 Y-253.292
X44.008 Y-253.364
X44.175 Y-253.426
X44.345 Y-253.479
X44.519 Y-253.523
X44.697 Y-253.557
X44.876 Y-253.581
X45.058 Y-253.595
X45.24 Y-253.598
X45.422 Y-253.592
X45.603 Y-253.575
X45.784 Y-253.548
X45.962 Y-253.51
X46.139 Y-253.463
X46.314 Y-253.405
X46.487 Y-253.338
X46.655 Y-253.26
X46.82 Y-253.173
X46.98 Y-253.076
X47.134 Y-252.971
X47.283 Y-252.857
X47.425 Y-252.734
X47.56 Y-252.603
X47.688 Y-252.465
X47.807 Y-252.32
X47.919 Y-252.167
X48.023 Y-252.008
X48.117 Y-251.843
X48.203 Y-251.673
X48.279 Y-251.497
X48.345 Y-251.316
X48.401 Y-251.132
X48.447 Y-250.945
X48.482 Y-250.754
X48.506 Y-250.562
X48.52 Y-250.368
X48.522 Y-250.173
X48.514 Y-249.978
X48.495 Y-249.783
X48.464 Y-249.589
X48.423 Y-249.396
X48.371 Y-249.206
X48.308 Y-249.019
X48.234 Y-248.835
X48.15 Y-248.655
X48.056 Y-248.479
X47.951 Y-248.309
X47.837 Y-248.144
X47.714 Y-247.986
X47.581 Y-247.835
X47.44 Y-247.691
X47.291 Y-247.554
X47.133 Y-247.427
X46.969 Y-247.307
X46.798 Y-247.198
X46.62 Y-247.097
X46.436 Y-247.007
X46.247 Y-246.927
X46.054 Y-246.857
X45.856 Y-246.798
X45.655 Y-246.751
X45.451 Y-246.714
X45.245 Y-246.69
X45.038 Y-246.676
X44.829 Y-246.675
X44.62 Y-246.685
X44.412 Y-246.707
X44.205 Y-246.741
X43.999 Y-246.787
X43.796 Y-246.844
X43.596 Y-246.913
X43.4 Y-246.993
X43.208 Y-247.084
X43.021 Y-247.186
X42.84 Y-247.299
X42.665 Y-247.422
X42.496 Y-247.554
X42.336 Y-247.697
X42.183 Y-247.849
X42.038 Y-248.009
X41.902 Y-248.178
X41.776 Y-248.355
X41.66 Y-248.538
X41.554 Y-248.729
X41.459 Y-248.926
X41.375 Y-249.128
X41.302 Y-249.335
X41.24 Y-249.546
X41.191 Y-249.761
X41.154 Y-249.979
X41.129 Y-250.199
X41.116 Y-250.421
Y-250.643
X41.128 Y-250.866
X41.153 Y-251.088
X41.191 Y-251.309
X41.241 Y-251.528
X41.303 Y-251.744
X41.378 Y-251.957
X41.465 Y-252.166
X41.563 Y-252.37
X41.673 Y-252.569
X41.795 Y-252.761
X41.927 Y-252.947
X42.07 Y-253.126
X42.224 Y-253.297
X42.386 Y-253.459
X42.558 Y-253.612
X42.739 Y-253.755
X42.928 Y-253.888
X43.125 Y-254.011
X43.329 Y-254.122
X43.539 Y-254.223
X43.755 Y-254.311
X43.976 Y-254.388
X44.202 Y-254.451
X44.431 Y-254.503
X44.663 Y-254.541
X44.898 Y-254.566
X45.134 Y-254.578
X45.371 Y-254.577
X45.608 Y-254.562
X45.845 Y-254.534
X46.08 Y-254.492
X46.312 Y-254.437
X46.542 Y-254.37
X46.768 Y-254.289
X46.99 Y-254.195
X47.206 Y-254.089
X47.417 Y-253.97
X47.621 Y-253.84
X47.817 Y-253.698
X48.006 Y-253.545
X48.186 Y-253.381
X48.357 Y-253.207
X48.519 Y-253.023
X48.67 Y-252.83
X48.81 Y-252.628
X48.939 Y-252.418
X49.056 Y-252.201
X49.161 Y-251.977
X49.254 Y-251.747
X49.333 Y-251.511
X49.4 Y-251.271
X49.452 Y-251.027
X49.491 Y-250.78
X49.517 Y-250.531
X49.528 Y-250.28
X49.525 Y-250.028
X49.507 Y-249.777
X49.476 Y-249.526
X49.43 Y-249.277
X49.371 Y-249.03
X49.297 Y-248.787
X49.21 Y-248.548
X49.109 Y-248.313
X48.994 Y-248.084
X48.867 Y-247.861
X48.727 Y-247.646
X48.575 Y-247.438
X48.411 Y-247.239
X48.236 Y-247.049
X48.05 Y-246.868
X47.854 Y-246.698
X47.648 Y-246.539
X47.518 Y-246.451
X47.473 Y-246.422
X47.43 Y-246.395
X47.21 Y-246.256
X47.104 Y-246.193
X47.009 Y-246.153
X46.204 Y-245.871
X46.103 Y-245.841
X46.002 Y-245.825
X45.197 Y-245.734
X45.096 Y-245.724
X44.995 Y-245.727
X44.19 Y-245.817
X43.988 Y-245.849
X43.787 Y-245.918
X43.183 Y-246.129
X43.019 Y-246.193
X42.981 Y-246.214
X42.373 Y-246.596
X42.176 Y-246.721
X42.086 Y-246.797
X41.482 Y-247.401
X41.42 Y-247.467
X41.37 Y-247.532
X40.946 Y-248.207
X40.832 Y-248.408
X40.69 Y-248.811
X40.549 Y-249.214
X40.514 Y-249.314
X40.492 Y-249.415
X40.401 Y-250.22
X40.386 Y-250.422
X40.406 Y-250.623
X40.474 Y-251.227
X40.5 Y-251.429
X40.565 Y-251.632
X40.776 Y-252.234
X40.851 Y-252.435
X40.974 Y-252.637
X41.37 Y-253.267
X41.439 Y-253.355
X41.975 Y-253.891
X42.134 Y-254.046
X42.176 Y-254.079
X42.442 Y-254.248
X42.981 Y-254.586
X43.053 Y-254.623
X43.125 Y-254.65
X43.787 Y-254.882
X43.988 Y-254.951
X44.19 Y-254.983
X44.995 Y-255.073
X45.096 Y-255.076
X45.197 Y-255.066
X46.002 Y-254.975
X46.103 Y-254.959
X46.204 Y-254.929
X47.009 Y-254.647
X47.11 Y-254.604
X47.21 Y-254.544
X47.815 Y-254.164
X47.99 Y-254.046
X48.016 Y-254.023
X48.62 Y-253.42
X48.707 Y-253.331
X48.771 Y-253.241
X49.224 Y-252.519
X49.273 Y-252.435
X49.348 Y-252.234
X49.56 Y-251.63
X49.624 Y-251.429
X49.627 Y-251.413
X49.65 Y-251.227
X49.718 Y-250.623
X49.738 Y-250.422
X49.723 Y-250.22
X49.632 Y-249.415
X49.627 Y-249.386
X49.575 Y-249.214
X49.364 Y-248.61
X49.292 Y-248.408
X49.224 Y-248.281
X48.798 Y-247.603
X48.732 Y-247.502
X48.642 Y-247.401
X48.038 Y-246.797
X48.016 Y-246.777
X47.966 Y-246.734
X47.915 Y-246.699
X47.473 Y-246.422
X47.39 Y-246.381
X47.301 Y-246.355
X47.236 Y-246.347 Z16.004
X47.172 Y-246.34 Z16.014
X47.097 Y-246.354 Z16.037
X47.025 Y-246.367 Z16.07
X46.959 Y-246.38 Z16.112
X46.898 Y-246.416 Z16.171
X46.847 Y-246.448 Z16.24
X46.805 Y-246.473 Z16.318
X46.773 Y-246.492 Z16.403
X46.76 Y-246.505 Z16.467
X46.752 Y-246.513 Z16.533
X46.749 Y-246.515 Z16.6
G0 Z28
X45.062 Y-250.4
Z16.6
G1 Z16 F850
Z7 F283.3
X45.089 Y-250.427 F850
X45.123 Y-250.412
X45.129 Y-250.375
X45.113 Y-250.342
X45.081 Y-250.321
X45.044 Y-250.318
X45.009 Y-250.332
X44.984 Y-250.36
X44.974 Y-250.396
X44.979 Y-250.433
X44.999 Y-250.464
X45.029 Y-250.487
X45.065 Y-250.5
X45.102 Y-250.502
X45.138 Y-250.49
X45.168 Y-250.469
X45.191 Y-250.439
X45.204 Y-250.403
X45.206 Y-250.366
X45.191 Y-250.292
X45.141 Y-250.236
X45.072 Y-250.207
X44.997 Y-250.21
X44.929 Y-250.241
X44.877 Y-250.295
X44.849 Y-250.365
X44.846 Y-250.44
X44.868 Y-250.512
X44.911 Y-250.573
X44.97 Y-250.619
X45.04 Y-250.645
X45.115 Y-250.65
X45.188 Y-250.634
X45.254 Y-250.598
X45.362 Y-250.494
X45.406 Y-250.351
X45.382 Y-250.203
X45.298 Y-250.078
X45.173 Y-249.996
X45.026 Y-249.966
X44.878 Y-249.99
X44.747 Y-250.063
X44.648 Y-250.175
X44.589 Y-250.313
X44.576 Y-250.463
X44.608 Y-250.609
X44.682 Y-250.74
X44.789 Y-250.844
X44.922 Y-250.914
X45.069 Y-250.946
X45.219 Y-250.94
X45.362 Y-250.897
X45.491 Y-250.821
X45.598 Y-250.715
X45.677 Y-250.587
X45.723 Y-250.445
X45.737 Y-250.295
X45.716 Y-250.147
X45.665 Y-250.006
X45.584 Y-249.879
X45.48 Y-249.772
X45.355 Y-249.688
X45.217 Y-249.631
X45.07 Y-249.602
X44.92
X44.772 Y-249.63
X44.633 Y-249.686
X44.506 Y-249.765
X44.395 Y-249.867
X44.304 Y-249.986
X44.235 Y-250.119
X44.192 Y-250.263
X44.172 Y-250.411
X44.177 Y-250.561
X44.208 Y-250.708
X44.261 Y-250.848
X44.338 Y-250.977
X44.433 Y-251.093
X44.546 Y-251.192
X44.672 Y-251.273
X44.809 Y-251.334
X44.954 Y-251.373
X45.103 Y-251.39
X45.253 Y-251.386
X45.401 Y-251.36
X45.543 Y-251.313
X45.678 Y-251.245
X45.801 Y-251.161
X45.912 Y-251.059
X46.007 Y-250.944
X46.086 Y-250.816
X46.147 Y-250.679
X46.189 Y-250.535
X46.212 Y-250.387
X46.215 Y-250.237
X46.2 Y-250.088
X46.164 Y-249.942
X46.111 Y-249.802
X46.041 Y-249.669
X45.955 Y-249.547
X45.854 Y-249.435
X45.74 Y-249.337
X45.616 Y-249.254
X45.482 Y-249.185
X45.341 Y-249.134
X45.195 Y-249.099
X45.047 Y-249.081
X44.897
X44.747 Y-249.098
X44.601 Y-249.132
X44.46 Y-249.182
X44.325 Y-249.247
X44.198 Y-249.327
X44.081 Y-249.421
X43.974 Y-249.527
X43.88 Y-249.643
X43.799 Y-249.769
X43.732 Y-249.904
X43.679 Y-250.044
X43.642 Y-250.189
X43.62 Y-250.338
X43.613 Y-250.487
X43.622 Y-250.637
X43.646 Y-250.785
X43.685 Y-250.93
X43.739 Y-251.07
X43.806 Y-251.204
X43.887 Y-251.331
X43.979 Y-251.449
X44.083 Y-251.557
X44.196 Y-251.655
X44.319 Y-251.742
X44.449 Y-251.816
X44.586 Y-251.877
X44.728 Y-251.926
X44.874 Y-251.96
X45.023 Y-251.981
X45.173 Y-251.988
X45.322 Y-251.981
X45.471 Y-251.96
X45.617 Y-251.926
X45.759 Y-251.878
X45.897 Y-251.818
X46.028 Y-251.746
X46.153 Y-251.662
X46.269 Y-251.568
X46.377 Y-251.464
X46.475 Y-251.35
X46.563 Y-251.229
X46.64 Y-251.1
X46.705 Y-250.965
X46.759 Y-250.825
X46.8 Y-250.681
X46.83 Y-250.533
X46.846 Y-250.384
X46.85 Y-250.234
X46.841 Y-250.085
X46.82 Y-249.936
X46.787 Y-249.79
X46.742 Y-249.647
X46.685 Y-249.508
X46.617 Y-249.374
X46.538 Y-249.247
X46.45 Y-249.126
X46.352 Y-249.012
X46.245 Y-248.907
X46.13 Y-248.81
X46.008 Y-248.723
X45.879 Y-248.646
X45.745 Y-248.579
X45.606 Y-248.523
X45.463 Y-248.478
X45.317 Y-248.444
X45.169 Y-248.421
X45.019 Y-248.41
X44.869
X44.719 Y-248.421
X44.571 Y-248.444
X44.425 Y-248.478
X44.282 Y-248.523
X44.142 Y-248.578
X44.007 Y-248.644
X43.878 Y-248.719
X43.754 Y-248.803
X43.636 Y-248.897
X43.526 Y-248.999
X43.424 Y-249.108
X43.329 Y-249.225
X43.244 Y-249.348
X43.167 Y-249.477
X43.1 Y-249.611
X43.042 Y-249.749
X42.995 Y-249.892
X42.957 Y-250.037
X42.93 Y-250.184
X42.914 Y-250.334
X42.908 Y-250.483
X42.912 Y-250.633
X42.926 Y-250.783
X42.951 Y-250.931
X42.986 Y-251.076
X43.031 Y-251.22
X43.085 Y-251.359
X43.149 Y-251.495
X43.222 Y-251.626
X43.304 Y-251.752
X43.393 Y-251.872
X43.491 Y-251.986
X43.596 Y-252.093
X43.708 Y-252.193
X43.826 Y-252.286
X43.95 Y-252.37
X44.079 Y-252.446
X44.213 Y-252.513
X44.351 Y-252.572
X44.493 Y-252.621
X44.638 Y-252.662
X44.784 Y-252.693
X44.933 Y-252.714
X45.082 Y-252.726
X45.232 Y-252.728
X45.382 Y-252.721
X45.531 Y-252.704
X45.679 Y-252.678
X45.825 Y-252.642
X45.968 Y-252.598
X46.108 Y-252.545
X46.245 Y-252.483
X46.377 Y-252.412
X46.505 Y-252.334
X46.628 Y-252.248
X46.745 Y-252.155
X46.857 Y-252.054
X46.962 Y-251.947
X47.06 Y-251.834
X47.151 Y-251.715
X47.235 Y-251.59
X47.311 Y-251.461
X47.38 Y-251.327
X47.44 Y-251.19
X47.492 Y-251.049
X47.535 Y-250.906
X47.57 Y-250.76
X47.596 Y-250.612
X47.613 Y-250.463
X47.622 Y-250.313
Y-250.163
X47.613 Y-250.014
X47.595 Y-249.865
X47.569 Y-249.717
X47.534 Y-249.571
X47.491 Y-249.427
X47.439 Y-249.287
X47.38 Y-249.149
X47.313 Y-249.015
X47.238 Y-248.885
X47.156 Y-248.759
X47.066 Y-248.637
X46.97 Y-248.522
X46.868 Y-248.412
X46.759 Y-248.307
X46.643 Y-248.208
X46.524 Y-248.116
X46.399 Y-248.032
X46.267 Y-247.953
X46.131 Y-247.881
X45.993 Y-247.819
X45.851 Y-247.763
X45.703 Y-247.715
X45.553 Y-247.676
X45.403 Y-247.645
X45.25 Y-247.622
X45.093 Y-247.608
X44.936 Y-247.603
X44.782 Y-247.607
X44.626 Y-247.619
X44.468 Y-247.641
X44.312 Y-247.671
X44.161 Y-247.71
X44.01 Y-247.757
X43.86 Y-247.814
X43.713 Y-247.879
X43.571 Y-247.952
X43.434 Y-248.032
X43.3 Y-248.122
X43.169 Y-248.22
X43.045 Y-248.324
X42.929 Y-248.434
X42.817 Y-248.551
X42.711 Y-248.677
X42.612 Y-248.809
X42.521 Y-248.944
X42.438 Y-249.085
X42.362 Y-249.231
X42.294 Y-249.383
X42.235 Y-249.539
X42.185 Y-249.697
X42.143 Y-249.857
X42.111 Y-250.02
X42.088 Y-250.187
X42.074 Y-250.356
X42.069 Y-250.525
X42.074 Y-250.693
X42.089 Y-250.86
X42.113 Y-251.028
X42.147 Y-251.196
X42.19 Y-251.363
X42.243 Y-251.526
X42.304 Y-251.686
X42.375 Y-251.842
X42.454 Y-251.994
X42.543 Y-252.144
X42.641 Y-252.289
X42.747 Y-252.428
X42.86 Y-252.561
X42.98 Y-252.686
X43.108 Y-252.806
X43.242 Y-252.918
X43.384 Y-253.024
X43.533 Y-253.122
X43.687 Y-253.212
X43.846 Y-253.292
X44.008 Y-253.364
X44.175 Y-253.426
X44.345 Y-253.479
X44.519 Y-253.523
X44.697 Y-253.557
X44.876 Y-253.581
X45.058 Y-253.595
X45.24 Y-253.598
X45.422 Y-253.592
X45.603 Y-253.575
X45.784 Y-253.548
X45.962 Y-253.51
X46.139 Y-253.463
X46.314 Y-253.405
X46.487 Y-253.338
X46.655 Y-253.26
X46.82 Y-253.173
X46.98 Y-253.076
X47.134 Y-252.971
X47.283 Y-252.857
X47.425 Y-252.734
X47.56 Y-252.603
X47.688 Y-252.465
X47.807 Y-252.32
X47.919 Y-252.167
X48.023 Y-252.008
X48.117 Y-251.843
X48.203 Y-251.673
X48.279 Y-251.497
X48.345 Y-251.316
X48.401 Y-251.132
X48.447 Y-250.945
X48.482 Y-250.754
X48.506 Y-250.562
X48.52 Y-250.368
X48.522 Y-250.173
X48.514 Y-249.978
X48.495 Y-249.783
X48.464 Y-249.589
X48.423 Y-249.396
X48.371 Y-249.206
X48.308 Y-249.019
X48.234 Y-248.835
X48.15 Y-248.655
X48.056 Y-248.479
X47.951 Y-248.309
X47.837 Y-248.144
X47.714 Y-247.986
X47.581 Y-247.835
X47.44 Y-247.691
X47.291 Y-247.554
X47.133 Y-247.427
X46.969 Y-247.307
X46.798 Y-247.198
X46.62 Y-247.097
X46.436 Y-247.007
X46.247 Y-246.927
X46.054 Y-246.857
X45.856 Y-246.798
X45.655 Y-246.751
X45.451 Y-246.714
X45.245 Y-246.69
X45.038 Y-246.676
X44.829 Y-246.675
X44.62 Y-246.685
X44.412 Y-246.707
X44.205 Y-246.741
X43.999 Y-246.787
X43.796 Y-246.844
X43.596 Y-246.913
X43.4 Y-246.993
X43.208 Y-247.084
X43.021 Y-247.186
X42.84 Y-247.299
X42.665 Y-247.422
X42.496 Y-247.554
X42.336 Y-247.697
X42.183 Y-247.849
X42.038 Y-248.009
X41.902 Y-248.178
X41.776 Y-248.355
X41.66 Y-248.538
X41.554 Y-248.729
X41.459 Y-248.926
X41.375 Y-249.128
X41.302 Y-249.335
X41.24 Y-249.546
X41.191 Y-249.761
X41.154 Y-249.979
X41.129 Y-250.199
X41.116 Y-250.421
Y-250.643
X41.128 Y-250.866
X41.153 Y-251.088
X41.191 Y-251.309
X41.241 Y-251.528
X41.303 Y-251.744
X41.378 Y-251.957
X41.465 Y-252.166
X41.563 Y-252.37
X41.673 Y-252.569
X41.795 Y-252.761
X41.927 Y-252.947
X42.07 Y-253.126
X42.224 Y-253.297
X42.386 Y-253.459
X42.558 Y-253.612
X42.739 Y-253.755
X42.928 Y-253.888
X43.125 Y-254.011
X43.329 Y-254.122
X43.539 Y-254.223
X43.755 Y-254.311
X43.976 Y-254.388
X44.202 Y-254.451
X44.431 Y-254.503
X44.663 Y-254.541
X44.898 Y-254.566
X45.134 Y-254.578
X45.371 Y-254.577
X45.608 Y-254.562
X45.845 Y-254.534
X46.08 Y-254.492
X46.312 Y-254.437
X46.542 Y-254.37
X46.768 Y-254.289
X46.99 Y-254.195
X47.206 Y-254.089
X47.417 Y-253.97
X47.621 Y-253.84
X47.817 Y-253.698
X48.006 Y-253.545
X48.186 Y-253.381
X48.357 Y-253.207
X48.519 Y-253.023
X48.67 Y-252.83
X48.81 Y-252.628
X48.939 Y-252.418
X49.056 Y-252.201
X49.161 Y-251.977
X49.254 Y-251.747
X49.333 Y-251.511
X49.4 Y-251.271
X49.452 Y-251.027
X49.491 Y-250.78
X49.517 Y-250.531
X49.528 Y-250.28
X49.525 Y-250.028
X49.507 Y-249.777
X49.476 Y-249.526
X49.43 Y-249.277
X49.371 Y-249.03
X49.297 Y-248.787
X49.21 Y-248.548
X49.109 Y-248.313
X48.994 Y-248.084
X48.867 Y-247.861
X48.727 Y-247.646
X48.575 Y-247.438
X48.411 Y-247.239
X48.236 Y-247.049
X48.05 Y-246.868
X47.854 Y-246.698
