%
(1001)
(origin bottom left anchor hole stock bottom)
(T1  D=6 CR=0 - ZMIN=10 - flat end mill)
G90 G94
G17
G21

(anchor_adaptive_outer)
M9
T1 M6
S14000 M3
G54
G0 X-1194 Y-576
Z47
Z36
Z26.6
G1 Z26 F850
Z18 F283.3
X-1194.037 Y-575.996 F850
X-1194.056 Y-576.028
X-1194.038 Y-576.061
X-1194.004 Y-576.077
X-1193.967 Y-576.074
X-1193.935 Y-576.054
X-1193.917 Y-576.021
X-1193.914 Y-575.984
X-1193.928 Y-575.949
X-1193.955 Y-575.923
X-1193.991 Y-575.911
X-1194.028 Y-575.912
X-1194.064 Y-575.923
X-1194.094 Y-575.945
X-1194.115 Y-575.976
X-1194.126 Y-576.012
X-1194.125 Y-576.05
X-1194.113 Y-576.085
X-1194.092 Y-576.116
X-1194.034 Y-576.164
X-1193.961 Y-576.178
X-1193.888 Y-576.157
X-1193.831 Y-576.109
X-1193.797 Y-576.042
X-1193.79 Y-575.967
X-1193.811 Y-575.895
X-1193.856 Y-575.835
X-1193.917 Y-575.792
X-1193.989 Y-575.77
X-1194.064 Y-575.771
X-1194.135 Y-575.794
X-1194.197 Y-575.837
X-1194.244 Y-575.895
X-1194.274 Y-575.964
X-1194.294 Y-576.113
X-1194.239 Y-576.252
X-1194.128 Y-576.353
X-1193.985 Y-576.399
X-1193.836 Y-576.386
X-1193.702 Y-576.318
X-1193.601 Y-576.207
X-1193.544 Y-576.069
X-1193.536 Y-575.919
X-1193.576 Y-575.774
X-1193.658 Y-575.649
X-1193.774 Y-575.554
X-1193.913 Y-575.498
X-1194.063 Y-575.483
X-1194.21 Y-575.51
X-1194.344 Y-575.577
X-1194.458 Y-575.674
X-1194.544 Y-575.797
X-1194.598 Y-575.937
X-1194.615 Y-576.086
X-1194.598 Y-576.235
X-1194.546 Y-576.376
X-1194.464 Y-576.502
X-1194.355 Y-576.605
X-1194.228 Y-576.684
X-1194.086 Y-576.733
X-1193.937 Y-576.752
X-1193.787 Y-576.74
X-1193.643 Y-576.699
X-1193.51 Y-576.63
X-1193.393 Y-576.536
X-1193.295 Y-576.423
X-1193.22 Y-576.293
X-1193.17 Y-576.151
X-1193.146 Y-576.003
X-1193.149 Y-575.853
X-1193.178 Y-575.706
X-1193.233 Y-575.567
X-1193.31 Y-575.438
X-1193.407 Y-575.324
X-1193.522 Y-575.228
X-1193.652 Y-575.151
X-1193.792 Y-575.098
X-1193.938 Y-575.066
X-1194.088 Y-575.059
X-1194.237 Y-575.074
X-1194.383 Y-575.112
X-1194.52 Y-575.171
X-1194.648 Y-575.25
X-1194.763 Y-575.347
X-1194.862 Y-575.459
X-1194.944 Y-575.584
X-1195.008 Y-575.72
X-1195.052 Y-575.864
X-1195.075 Y-576.012
X-1195.078 Y-576.162
X-1195.061 Y-576.311
X-1195.023 Y-576.456
X-1194.967 Y-576.595
X-1194.893 Y-576.726
X-1194.802 Y-576.845
X-1194.697 Y-576.952
X-1194.579 Y-577.044
X-1194.45 Y-577.121
X-1194.313 Y-577.181
X-1194.169 Y-577.223
X-1194.021 Y-577.248
X-1193.871 Y-577.254
X-1193.721 Y-577.242
X-1193.574 Y-577.213
X-1193.432 Y-577.165
X-1193.296 Y-577.102
X-1193.168 Y-577.023
X-1193.051 Y-576.93
X-1192.944 Y-576.824
X-1192.851 Y-576.707
X-1192.771 Y-576.58
X-1192.706 Y-576.445
X-1192.657 Y-576.303
X-1192.623 Y-576.157
X-1192.605 Y-576.008
X-1192.604 Y-575.858
X-1192.619 Y-575.709
X-1192.65 Y-575.562
X-1192.696 Y-575.419
X-1192.757 Y-575.282
X-1192.832 Y-575.152
X-1192.92 Y-575.031
X-1193.02 Y-574.919
X-1193.131 Y-574.818
X-1193.251 Y-574.729
X-1193.38 Y-574.653
X-1193.517 Y-574.59
X-1193.658 Y-574.54
X-1193.804 Y-574.505
X-1193.953 Y-574.485
X-1194.103 Y-574.479
X-1194.252 Y-574.487
X-1194.401 Y-574.51
X-1194.546 Y-574.547
X-1194.687 Y-574.598
X-1194.823 Y-574.661
X-1194.952 Y-574.737
X-1195.074 Y-574.825
X-1195.187 Y-574.924
X-1195.29 Y-575.032
X-1195.383 Y-575.15
X-1195.465 Y-575.276
X-1195.536 Y-575.408
X-1195.594 Y-575.547
X-1195.639 Y-575.69
X-1195.672 Y-575.836
X-1195.691 Y-575.985
X-1195.697 Y-576.134
X-1195.691 Y-576.284
X-1195.671 Y-576.433
X-1195.638 Y-576.579
X-1195.593 Y-576.723
X-1195.536 Y-576.861
X-1195.467 Y-576.995
X-1195.388 Y-577.122
X-1195.297 Y-577.241
X-1195.198 Y-577.353
X-1195.089 Y-577.457
X-1194.972 Y-577.55
X-1194.847 Y-577.634
X-1194.717 Y-577.708
X-1194.58 Y-577.77
X-1194.439 Y-577.821
X-1194.295 Y-577.861
X-1194.147 Y-577.889
X-1193.998 Y-577.905
X-1193.848 Y-577.909
X-1193.698 Y-577.901
X-1193.55 Y-577.882
X-1193.403 Y-577.851
X-1193.259 Y-577.808
X-1193.119 Y-577.755
X-1192.983 Y-577.691
X-1192.853 Y-577.616
X-1192.729 Y-577.532
X-1192.612 Y-577.439
X-1192.502 Y-577.337
X-1192.4 Y-577.227
X-1192.306 Y-577.109
X-1192.222 Y-576.985
X-1192.147 Y-576.855
X-1192.082 Y-576.72
X-1192.027 Y-576.58
X-1191.983 Y-576.437
X-1191.949 Y-576.291
X-1191.926 Y-576.143
X-1191.914 Y-575.993
X-1191.912 Y-575.843
X-1191.922 Y-575.693
X-1191.942 Y-575.545
X-1191.973 Y-575.398
X-1192.014 Y-575.254
X-1192.065 Y-575.113
X-1192.126 Y-574.976
X-1192.197 Y-574.843
X-1192.276 Y-574.716
X-1192.365 Y-574.595
X-1192.461 Y-574.48
X-1192.565 Y-574.372
X-1192.677 Y-574.272
X-1192.795 Y-574.18
X-1192.919 Y-574.095
X-1193.049 Y-574.02
X-1193.183 Y-573.953
X-1193.322 Y-573.896
X-1193.464 Y-573.848
X-1193.609 Y-573.81
X-1193.756 Y-573.781
X-1193.905 Y-573.762
X-1194.055 Y-573.754
X-1194.205 Y-573.755
X-1194.354 Y-573.766
X-1194.503 Y-573.787
X-1194.65 Y-573.817
X-1194.794 Y-573.857
X-1194.936 Y-573.907
X-1195.074 Y-573.965
X-1195.208 Y-574.032
X-1195.338 Y-574.108
X-1195.462 Y-574.191
X-1195.581 Y-574.283
X-1195.694 Y-574.382
X-1195.8 Y-574.488
X-1195.9 Y-574.6
X-1195.992 Y-574.718
X-1196.076 Y-574.842
X-1196.153 Y-574.971
X-1196.221 Y-575.104
X-1196.282 Y-575.242
X-1196.333 Y-575.383
X-1196.376 Y-575.527
X-1196.409 Y-575.673
X-1196.434 Y-575.821
X-1196.45 Y-575.97
X-1196.456 Y-576.12
X-1196.454 Y-576.27
X-1196.442 Y-576.419
X-1196.421 Y-576.568
X-1196.392 Y-576.715
X-1196.354 Y-576.86
X-1196.307 Y-577.002
X-1196.251 Y-577.142
X-1196.188 Y-577.278
X-1196.117 Y-577.41
X-1196.037 Y-577.537
X-1195.951 Y-577.66
X-1195.858 Y-577.777
X-1195.757 Y-577.889
X-1195.651 Y-577.995
X-1195.539 Y-578.094
X-1195.421 Y-578.186
X-1195.297 Y-578.272
X-1195.17 Y-578.35
X-1195.037 Y-578.421
X-1194.901 Y-578.484
X-1194.762 Y-578.54
X-1194.62 Y-578.587
X-1194.473 Y-578.627
X-1194.327 Y-578.658
X-1194.178 Y-578.68
X-1194.028 Y-578.694
X-1193.875 Y-578.7
X-1193.725 Y-578.697
X-1193.575 Y-578.686
X-1193.422 Y-578.666
X-1193.271 Y-578.637
X-1193.125 Y-578.601
X-1192.979 Y-578.556
X-1192.832 Y-578.501
X-1192.69 Y-578.439
X-1192.554 Y-578.37
X-1192.42 Y-578.292
X-1192.288 Y-578.206
X-1192.163 Y-578.112
X-1192.044 Y-578.013
X-1191.93 Y-577.907
X-1191.819 Y-577.792
X-1191.716 Y-577.671
X-1191.621 Y-577.546
X-1191.533 Y-577.416
X-1191.451 Y-577.278
X-1191.376 Y-577.135
X-1191.31 Y-576.99
X-1191.253 Y-576.842
X-1191.203 Y-576.689
X-1191.162 Y-576.531
X-1191.13 Y-576.372
X-1191.107 Y-576.213
X-1191.093 Y-576.052
X-1191.087 Y-575.888
X-1191.092 Y-575.723
X-1191.105 Y-575.56
X-1191.127 Y-575.398
X-1191.159 Y-575.237
X-1191.2 Y-575.076
X-1191.25 Y-574.917
X-1191.309 Y-574.761
X-1191.377 Y-574.61
X-1191.453 Y-574.463
X-1191.538 Y-574.318
X-1191.632 Y-574.177
X-1191.734 Y-574.042
X-1191.843 Y-573.913
X-1191.958 Y-573.791
X-1192.081 Y-573.674
X-1192.212 Y-573.564
X-1192.35 Y-573.46
X-1192.492 Y-573.365
X-1192.64 Y-573.278
X-1192.792 Y-573.2
X-1192.949 Y-573.13
X-1193.112 Y-573.068
X-1193.278 Y-573.016
X-1193.448 Y-572.972
X-1193.619 Y-572.939
X-1193.791 Y-572.915
X-1193.965 Y-572.901
X-1194.141 Y-572.896
X-1194.318 Y-572.902
X-1194.495 Y-572.917
X-1194.671 Y-572.943
X-1194.846 Y-572.979
X-1195.018 Y-573.024
X-1195.187 Y-573.078
X-1195.354 Y-573.143
X-1195.517 Y-573.217
X-1195.677 Y-573.301
X-1195.832 Y-573.394
X-1195.983 Y-573.496
X-1196.128 Y-573.606
X-1196.266 Y-573.724
X-1196.398 Y-573.85
X-1196.522 Y-573.984
X-1196.639 Y-574.124
X-1196.748 Y-574.271
X-1196.85 Y-574.425
X-1196.943 Y-574.585
X-1197.026 Y-574.751
X-1197.101 Y-574.922
X-1197.166 Y-575.097
X-1197.222 Y-575.275
X-1197.267 Y-575.457
X-1197.302 Y-575.641
X-1197.326 Y-575.828
X-1197.34 Y-576.015
X-1197.344 Y-576.204
X-1197.337 Y-576.393
X-1197.319 Y-576.582
X-1197.29 Y-576.77
X-1197.251 Y-576.956
X-1197.201 Y-577.141
X-1197.141 Y-577.324
X-1197.07 Y-577.503
X-1196.99 Y-577.678
X-1196.899 Y-577.849
X-1196.798 Y-578.015
X-1196.688 Y-578.175
X-1196.569 Y-578.33
X-1196.441 Y-578.477
X-1196.305 Y-578.618
X-1196.16 Y-578.751
X-1196.008 Y-578.876
X-1195.849 Y-578.992
X-1195.683 Y-579.1
X-1195.511 Y-579.198
X-1195.333 Y-579.287
X-1195.15 Y-579.366
X-1194.963 Y-579.434
X-1194.771 Y-579.492
X-1194.576 Y-579.539
X-1194.378 Y-579.576
X-1194.178 Y-579.601
X-1193.976 Y-579.614
X-1193.773 Y-579.617
X-1193.571 Y-579.608
X-1193.368 Y-579.587
X-1193.166 Y-579.555
X-1192.966 Y-579.512
X-1192.769 Y-579.458
X-1192.574 Y-579.392
X-1192.383 Y-579.315
X-1192.195 Y-579.227
X-1192.013 Y-579.129
X-1191.837 Y-579.02
X-1191.666 Y-578.901
X-1191.501 Y-578.773
X-1191.344 Y-578.635
X-1191.195 Y-578.488
X-1191.054 Y-578.333
X-1190.921 Y-578.169
X-1190.797 Y-577.998
X-1190.683 Y-577.82
X-1190.58 Y-577.635
X-1190.486 Y-577.444
X-1190.403 Y-577.248
X-1190.331 Y-577.047
X-1190.271 Y-576.842
X-1190.221 Y-576.633
X-1190.184 Y-576.422
X-1190.159 Y-576.208
X-1190.145 Y-575.992
X-1190.144 Y-575.776
X-1190.155 Y-575.559
X-1190.178 Y-575.343
X-1190.214 Y-575.128
X-1190.261 Y-574.914
X-1190.321 Y-574.704
X-1190.393 Y-574.496
X-1190.476 Y-574.293
X-1190.571 Y-574.094
X-1190.677 Y-573.9
X-1190.795 Y-573.712
X-1190.923 Y-573.53
X-1191.061 Y-573.356
X-1191.209 Y-573.189
X-1191.367 Y-573.031
X-1191.533 Y-572.881
X-1191.709 Y-572.741
X-1191.892 Y-572.61
X-1192.083 Y-572.49
X-1192.281 Y-572.38
X-1192.485 Y-572.282
X-1192.695 Y-572.195
X-1192.91 Y-572.119
X-1193.129 Y-572.056
X-1193.352 Y-572.005
X-1193.578 Y-571.967
X-1193.807 Y-571.941
X-1194.036 Y-571.928
X-1194.267
X-1194.498 Y-571.942
X-1194.728 Y-571.968
X-1194.957 Y-572.007
X-1195.185 Y-572.059
X-1195.409 Y-572.124
X-1195.629 Y-572.202
X-1195.846 Y-572.292
X-1196.057 Y-572.395
X-1196.263 Y-572.509
X-1196.462 Y-572.635
X-1196.654 Y-572.773
X-1196.839 Y-572.921
X-1197.016 Y-573.08
X-1197.183 Y-573.249
X-1197.342 Y-573.428
X-1197.49 Y-573.616
X-1197.628 Y-573.812
X-1197.754 Y-574.016
X-1197.87 Y-574.227
X-1197.973 Y-574.445
X-1198.064 Y-574.668
X-1198.143 Y-574.897
X-1198.209 Y-575.131
X-1198.261 Y-575.368
X-1198.3 Y-575.608
X-1198.326 Y-575.851
X-1198.338 Y-576.096
X-1198.336 Y-576.341
X-1198.321 Y-576.586
X-1198.291 Y-576.831
X-1198.248 Y-577.074
X-1198.191 Y-577.314
X-1198.12 Y-577.552
X-1198.036 Y-577.786
X-1197.939 Y-578.015
X-1197.828 Y-578.239
X-1197.705 Y-578.457
X-1197.582 Y-578.649
X-1197.501 Y-578.765
X-1197.413 Y-578.875
X-1197.318 Y-578.979
X-1197.032 Y-579.266
X-1196.832 Y-579.467
X-1196.769 Y-579.518
X-1196.706 Y-579.56
X-1196.102 Y-579.937
X-1195.9 Y-580.051
X-1195.844 Y-580.071
X-1195.095 Y-580.334
X-1194.994 Y-580.365
X-1194.893 Y-580.38
X-1194.064 Y-580.474
X-1194 Y-580.477
X-1193.936 Y-580.474
X-1193.081 Y-580.378
X-1192.98 Y-580.359
X-1192.88 Y-580.325
X-1192.156 Y-580.071
X-1192.074 Y-580.04
X-1191.873 Y-579.921
X-1191.269 Y-579.544
X-1191.218 Y-579.51
X-1191.168 Y-579.467
X-1190.568 Y-578.863
X-1190.509 Y-578.8
X-1190.463 Y-578.737
X-1190.033 Y-578.057
X-1189.973 Y-577.957
X-1189.93 Y-577.856
X-1189.651 Y-577.051
X-1189.628 Y-576.95
X-1189.547 Y-576.245
X-1189.525 Y-576.044
X-1189.526 Y-575.943
X-1189.606 Y-575.238
X-1189.63 Y-575.037
X-1189.657 Y-574.93
X-1189.9 Y-574.232
X-1189.979 Y-574.03
X-1190.06 Y-573.9
X-1190.463 Y-573.263
X-1190.49 Y-573.225
X-1190.664 Y-573.04
X-1191.08 Y-572.621
X-1191.174 Y-572.527
X-1191.269 Y-572.456
X-1191.972 Y-572.017
X-1192.074 Y-571.96
X-1192.275 Y-571.887
X-1192.88 Y-571.675
X-1192.98 Y-571.641
X-1193.081 Y-571.622
X-1193.886 Y-571.532
X-1193.987 Y-571.523
X-1194.088 Y-571.529
X-1194.893 Y-571.62
X-1194.994 Y-571.635
X-1195.095 Y-571.666
X-1195.9 Y-571.949
X-1195.964 Y-571.979
X-1196.028 Y-572.017
X-1196.706 Y-572.44
X-1196.806 Y-572.511
X-1196.92 Y-572.621
X-1197.32 Y-573.023
X-1197.511 Y-573.226
X-1197.64 Y-573.426
X-1197.914 Y-573.859
X-1198.02 Y-574.03
X-1198.1 Y-574.232
X-1198.317 Y-574.856
X-1198.37 Y-575.037
X-1198.417 Y-575.44
X-1198.474 Y-575.943
X-1198.475 Y-576.044
X-1198.43 Y-576.447
X-1198.372 Y-576.95
X-1198.349 Y-577.051
X-1198.07 Y-577.856
X-1198.027 Y-577.957
X-1197.967 Y-578.057
X-1197.585 Y-578.662
X-1197.511 Y-578.774
X-1197.432 Y-578.863
X-1197.318 Y-578.979
X-1197.245 Y-579.037
X-1197.165 Y-579.083
X-1197.094 Y-579.102 Z18.005
X-1197.024 Y-579.121 Z18.018
X-1196.956 Y-579.139 Z18.041
X-1196.907 Y-579.141 Z18.063
X-1196.826 Y-579.126 Z18.112
X-1196.755 Y-579.113 Z18.174
X-1196.693 Y-579.102 Z18.247
X-1196.649 Y-579.08 Z18.327
X-1196.617 Y-579.064 Z18.414
X-1196.597 Y-579.054 Z18.506
X-1196.591 Y-579.051 Z18.6
G0 Z36
X-1194 Y0
Z26.6
G1 Z26 F850
Z18 F283.3
X-1194.038 Y-0.005 F850
X-1194.047 Y-0.041
X-1194.022 Y-0.068
X-1193.985 Y-0.076
X-1193.95 Y-0.064
X-1193.924 Y-0.036
X-1193.914 Y0
X-1193.921 Y0.037
X-1193.942 Y0.067
X-1193.975 Y0.086
X-1194.012 Y0.089
X-1194.048 Y0.079
X-1194.08 Y0.059
X-1194.105 Y0.031
X-1194.118 Y-0.004
X-1194.12 Y-0.042
X-1194.109 Y-0.078
X-1194.089 Y-0.11
X-1194.061 Y-0.134
X-1193.994 Y-0.168
X-1193.919 Y-0.163
X-1193.854 Y-0.126
X-1193.81 Y-0.065
X-1193.793 Y0.008
X-1193.804 Y0.082
X-1193.842 Y0.147
X-1193.899 Y0.195
X-1193.969 Y0.222
X-1194.044 Y0.226
X-1194.117 Y0.207
X-1194.181 Y0.167
X-1194.23 Y0.111
X-1194.262 Y0.044
X-1194.275 Y-0.03
X-1194.258 Y-0.18
X-1194.172 Y-0.302
X-1194.04 Y-0.374
X-1193.891 Y-0.384
X-1193.749 Y-0.335
X-1193.635 Y-0.238
X-1193.563 Y-0.106
X-1193.54 Y0.042
X-1193.568 Y0.19
X-1193.642 Y0.32
X-1193.752 Y0.422
X-1193.887 Y0.487
X-1194.036 Y0.509
X-1194.184 Y0.487
X-1194.321 Y0.426
X-1194.436 Y0.329
X-1194.523 Y0.207
X-1194.577 Y0.067
X-1194.596 Y-0.082
X-1194.577 Y-0.231
X-1194.525 Y-0.371
X-1194.44 Y-0.495
X-1194.331 Y-0.598
X-1194.201 Y-0.672
X-1194.058 Y-0.718
X-1193.909 Y-0.732
X-1193.76 Y-0.715
X-1193.617 Y-0.668
X-1193.487 Y-0.593
X-1193.374 Y-0.495
X-1193.282 Y-0.376
X-1193.214 Y-0.243
X-1193.173 Y-0.098
X-1193.158 Y0.051
X-1193.17 Y0.2
X-1193.209 Y0.345
X-1193.272 Y0.481
X-1193.359 Y0.604
X-1193.464 Y0.711
X-1193.586 Y0.798
X-1193.72 Y0.864
X-1193.864 Y0.907
X-1194.013 Y0.926
X-1194.163 Y0.921
X-1194.31 Y0.893
X-1194.451 Y0.843
X-1194.583 Y0.771
X-1194.703 Y0.681
X-1194.808 Y0.574
X-1194.896 Y0.452
X-1194.966 Y0.32
X-1195.016 Y0.178
X-1195.045 Y0.031
X-1195.054 Y-0.119
X-1195.042 Y-0.268
X-1195.009 Y-0.414
X-1194.956 Y-0.555
X-1194.885 Y-0.687
X-1194.797 Y-0.809
X-1194.694 Y-0.917
X-1194.578 Y-1.012
X-1194.45 Y-1.091
X-1194.313 Y-1.152
X-1194.17 Y-1.196
X-1194.022 Y-1.222
X-1193.872 Y-1.228
X-1193.723 Y-1.217
X-1193.576 Y-1.187
X-1193.433 Y-1.14
X-1193.297 Y-1.076
X-1193.17 Y-0.996
X-1193.053 Y-0.902
X-1192.948 Y-0.796
X-1192.856 Y-0.677
X-1192.778 Y-0.549
X-1192.715 Y-0.413
X-1192.668 Y-0.27
X-1192.637 Y-0.124
X-1192.623 Y0.026
X-1192.625 Y0.176
X-1192.643 Y0.325
X-1192.678 Y0.471
X-1192.728 Y0.612
X-1192.793 Y0.747
X-1192.872 Y0.875
X-1192.964 Y0.994
X-1193.067 Y1.102
X-1193.182 Y1.199
X-1193.306 Y1.284
X-1193.438 Y1.355
X-1193.576 Y1.413
X-1193.719 Y1.456
X-1193.867 Y1.485
X-1194.016 Y1.499
X-1194.166 Y1.498
X-1194.315 Y1.483
X-1194.462 Y1.453
X-1194.606 Y1.409
X-1194.744 Y1.351
X-1194.876 Y1.281
X-1195.002 Y1.198
X-1195.118 Y1.104
X-1195.226 Y0.999
X-1195.323 Y0.885
X-1195.409 Y0.762
X-1195.484 Y0.632
X-1195.546 Y0.496
X-1195.596 Y0.354
X-1195.633 Y0.209
X-1195.656 Y0.061
X-1195.666 Y-0.089
X-1195.663 Y-0.239
X-1195.646 Y-0.388
X-1195.616 Y-0.535
X-1195.574 Y-0.679
X-1195.52 Y-0.819
X-1195.453 Y-0.953
X-1195.375 Y-1.081
X-1195.287 Y-1.202
X-1195.188 Y-1.316
X-1195.081 Y-1.42
X-1194.964 Y-1.515
X-1194.841 Y-1.6
X-1194.71 Y-1.674
X-1194.574 Y-1.737
X-1194.434 Y-1.789
X-1194.289 Y-1.829
X-1194.142 Y-1.857
X-1193.993 Y-1.874
X-1193.843 Y-1.878
X-1193.693 Y-1.87
X-1193.544 Y-1.85
X-1193.398 Y-1.818
X-1193.254 Y-1.775
X-1193.114 Y-1.72
X-1192.979 Y-1.655
X-1192.849 Y-1.58
X-1192.726 Y-1.494
X-1192.61 Y-1.4
X-1192.501 Y-1.296
X-1192.401 Y-1.185
X-1192.309 Y-1.066
X-1192.226 Y-0.941
X-1192.154 Y-0.81
X-1192.091 Y-0.674
X-1192.038 Y-0.533
X-1191.997 Y-0.389
X-1191.966 Y-0.242
X-1191.946 Y-0.093
X-1191.937 Y0.056
X-1191.939 Y0.206
X-1191.952 Y0.356
X-1191.975 Y0.504
X-1192.01 Y0.65
X-1192.055 Y0.793
X-1192.11 Y0.932
X-1192.175 Y1.068
X-1192.249 Y1.198
X-1192.332 Y1.323
X-1192.424 Y1.441
X-1192.524 Y1.553
X-1192.632 Y1.658
X-1192.746 Y1.754
X-1192.868 Y1.843
X-1192.995 Y1.923
X-1193.127 Y1.993
X-1193.263 Y2.055
X-1193.404 Y2.108
X-1193.548 Y2.15
X-1193.694 Y2.183
X-1193.843 Y2.205
X-1193.992 Y2.218
X-1194.142 Y2.221
X-1194.292 Y2.213
X-1194.441 Y2.196
X-1194.588 Y2.169
X-1194.734 Y2.132
X-1194.876 Y2.085
X-1195.016 Y2.03
X-1195.151 Y1.965
X-1195.282 Y1.892
X-1195.408 Y1.81
X-1195.528 Y1.72
X-1195.642 Y1.623
X-1195.75 Y1.519
X-1195.851 Y1.408
X-1195.945 Y1.291
X-1196.031 Y1.168
X-1196.109 Y1.04
X-1196.178 Y0.907
X-1196.24 Y0.77
X-1196.292 Y0.63
X-1196.336 Y0.486
X-1196.371 Y0.34
X-1196.396 Y0.193
X-1196.413 Y0.043
X-1196.42 Y-0.106
X-1196.418 Y-0.256
X-1196.407 Y-0.406
X-1196.386 Y-0.555
X-1196.357 Y-0.702
X-1196.319 Y-0.847
X-1196.272 Y-0.989
X-1196.216 Y-1.129
X-1196.153 Y-1.264
X-1196.081 Y-1.396
X-1196.001 Y-1.523
X-1195.915 Y-1.646
X-1195.82 Y-1.762
X-1195.72 Y-1.873
X-1195.613 Y-1.978
X-1195.499 Y-2.077
X-1195.381 Y-2.169
X-1195.257 Y-2.253
X-1195.128 Y-2.33
X-1194.995 Y-2.4
X-1194.859 Y-2.462
X-1194.719 Y-2.516
X-1194.576 Y-2.561
X-1194.431 Y-2.599
X-1194.283 Y-2.628
X-1194.135 Y-2.648
X-1193.985 Y-2.66
X-1193.834 Y-2.664
X-1193.684 Y-2.659
X-1193.535 Y-2.646
X-1193.385 Y-2.623
X-1193.235 Y-2.593
X-1193.09 Y-2.554
X-1192.947 Y-2.508
X-1192.804 Y-2.452
X-1192.664 Y-2.388
X-1192.53 Y-2.317
X-1192.399 Y-2.239
X-1192.27 Y-2.151
X-1192.147 Y-2.057
X-1192.031 Y-1.957
X-1191.92 Y-1.85
X-1191.812 Y-1.734
X-1191.712 Y-1.614
X-1191.62 Y-1.489
X-1191.535 Y-1.358
X-1191.455 Y-1.22
X-1191.384 Y-1.079
X-1191.321 Y-0.935
X-1191.267 Y-0.787
X-1191.22 Y-0.633
X-1191.181 Y-0.477
X-1191.152 Y-0.321
X-1191.132 Y-0.163
X-1191.12 Y-0.002
X-1191.117 Y0.161
X-1191.124 Y0.323
X-1191.139 Y0.482
X-1191.164 Y0.642
X-1191.198 Y0.803
X-1191.241 Y0.962
X-1191.293 Y1.117
X-1191.353 Y1.269
X-1191.422 Y1.418
X-1191.501 Y1.565
X-1191.588 Y1.707
X-1191.682 Y1.844
X-1191.784 Y1.975
X-1191.893 Y2.1
X-1192.01 Y2.221
X-1192.135 Y2.335
X-1192.266 Y2.442
X-1192.402 Y2.541
X-1192.543 Y2.632
X-1192.691 Y2.716
X-1192.844 Y2.792
X-1193.002 Y2.86
X-1193.164 Y2.918
X-1193.328 Y2.967
X-1193.494 Y3.007
X-1193.663 Y3.038
X-1193.836 Y3.059
X-1194.01 Y3.07
X-1194.185 Y3.072
X-1194.359 Y3.064
X-1194.533 Y3.046
X-1194.705 Y3.018
X-1194.877 Y2.981
X-1195.047 Y2.933
X-1195.215 Y2.876
X-1195.38 Y2.809
X-1195.542 Y2.733
X-1195.698 Y2.648
X-1195.849 Y2.555
X-1195.995 Y2.452
X-1196.136 Y2.341
X-1196.272 Y2.222
X-1196.401 Y2.095
X-1196.523 Y1.96
X-1196.637 Y1.818
X-1196.743 Y1.67
X-1196.841 Y1.517
X-1196.93 Y1.357
X-1197.01 Y1.193
X-1197.081 Y1.024
X-1197.143 Y0.851
X-1197.195 Y0.673
X-1197.237 Y0.492
X-1197.269 Y0.309
X-1197.29 Y0.123
X-1197.302 Y-0.064
Y-0.251
X-1197.292 Y-0.438
X-1197.272 Y-0.625
X-1197.24 Y-0.811
X-1197.199 Y-0.995
X-1197.147 Y-1.177
X-1197.085 Y-1.356
X-1197.012 Y-1.532
X-1196.93 Y-1.704
X-1196.837 Y-1.871
X-1196.735 Y-2.034
X-1196.624 Y-2.191
X-1196.504 Y-2.342
X-1196.375 Y-2.486
X-1196.237 Y-2.624
X-1196.092 Y-2.753
X-1195.94 Y-2.875
X-1195.78 Y-2.988
X-1195.614 Y-3.092
X-1195.443 Y-3.186
X-1195.265 Y-3.272
X-1195.083 Y-3.347
X-1194.896 Y-3.412
X-1194.705 Y-3.466
X-1194.511 Y-3.51
X-1194.315 Y-3.543
X-1194.117 Y-3.565
X-1193.917 Y-3.575
X-1193.716
X-1193.515 Y-3.563
X-1193.315 Y-3.539
X-1193.115 Y-3.505
X-1192.918 Y-3.459
X-1192.723 Y-3.402
X-1192.531 Y-3.333
X-1192.343 Y-3.254
X-1192.159 Y-3.165
X-1191.98 Y-3.065
X-1191.807 Y-2.954
X-1191.639 Y-2.834
X-1191.479 Y-2.704
X-1191.325 Y-2.565
X-1191.179 Y-2.417
X-1191.042 Y-2.261
X-1190.913 Y-2.097
X-1190.793 Y-1.926
X-1190.683 Y-1.748
X-1190.583 Y-1.563
X-1190.493 Y-1.373
X-1190.414 Y-1.177
X-1190.345 Y-0.977
X-1190.288 Y-0.773
X-1190.243 Y-0.565
X-1190.209 Y-0.355
X-1190.187 Y-0.143
X-1190.177 Y0.071
X-1190.179 Y0.285
X-1190.194 Y0.5
X-1190.22 Y0.714
X-1190.258 Y0.926
X-1190.309 Y1.137
X-1190.371 Y1.344
X-1190.445 Y1.549
X-1190.531 Y1.749
X-1190.628 Y1.945
X-1190.736 Y2.136
X-1190.855 Y2.32
X-1190.984 Y2.498
X-1191.124 Y2.668
X-1191.273 Y2.831
X-1191.432 Y2.986
X-1191.6 Y3.132
X-1191.776 Y3.268
X-1191.959 Y3.395
X-1192.15 Y3.511
X-1192.348 Y3.617
X-1192.552 Y3.711
X-1192.761 Y3.795
X-1192.975 Y3.866
X-1193.193 Y3.925
X-1193.415 Y3.972
X-1193.639 Y4.007
X-1193.866 Y4.029
X-1194.094 Y4.038
X-1194.323 Y4.034
X-1194.552 Y4.018
X-1194.779 Y3.988
X-1195.006 Y3.946
X-1195.23 Y3.891
X-1195.451 Y3.823
X-1195.668 Y3.743
X-1195.881 Y3.65
X-1196.089 Y3.545
X-1196.292 Y3.428
X-1196.488 Y3.3
X-1196.676 Y3.161
X-1196.857 Y3.011
X-1197.029 Y2.851
X-1197.193 Y2.681
X-1197.347 Y2.502
X-1197.491 Y2.314
X-1197.625 Y2.117
X-1197.747 Y1.913
X-1197.858 Y1.702
X-1197.958 Y1.484
X-1198.045 Y1.261
X-1198.119 Y1.033
X-1198.181 Y0.8
X-1198.229 Y0.564
X-1198.265 Y0.325
X-1198.286 Y0.084
X-1198.295 Y-0.159
X-1198.289 Y-0.402
X-1198.27 Y-0.644
X-1198.237 Y-0.886
X-1198.19 Y-1.127
X-1198.13 Y-1.364
X-1198.057 Y-1.599
X-1197.97 Y-1.829
X-1197.87 Y-2.055
X-1197.757 Y-2.275
X-1197.632 Y-2.489
X-1197.494 Y-2.696
X-1197.345 Y-2.896
X-1197.185 Y-3.087
X-1197.013 Y-3.269
X-1196.832 Y-3.441
X-1196.764 Y-3.499
X-1196.689 Y-3.559
X-1196.611 Y-3.616
X-1196.531 Y-3.669
X-1196.102 Y-3.937
X-1196.028 Y-3.983
X-1195.964 Y-4.022
X-1195.9 Y-4.051
X-1195.296 Y-4.264
X-1195.095 Y-4.334
X-1194.994 Y-4.365
X-1194.893 Y-4.38
X-1194.088 Y-4.471
X-1193.987 Y-4.477
X-1193.886 Y-4.468
X-1193.081 Y-4.378
X-1192.98 Y-4.359
X-1192.88 Y-4.325
X-1192.275 Y-4.113
X-1192.074 Y-4.04
X-1191.972 Y-3.983
X-1191.269 Y-3.544
X-1191.174 Y-3.473
X-1191.067 Y-3.366
X-1190.664 Y-2.96
X-1190.49 Y-2.775
X-1190.463 Y-2.737
X-1190.06 Y-2.101
X-1189.979 Y-1.97
X-1189.9 Y-1.768
X-1189.657 Y-1.07
X-1189.63 Y-0.963
X-1189.583 Y-0.56
X-1189.526 Y-0.057
X-1189.525 Y0.044
X-1189.57 Y0.447
X-1189.628 Y0.95
X-1189.651 Y1.051
X-1189.93 Y1.856
X-1189.973 Y1.957
X-1190.033 Y2.057
X-1190.463 Y2.737
X-1190.509 Y2.8
X-1190.568 Y2.863
X-1191.168 Y3.467
X-1191.218 Y3.51
X-1191.269 Y3.544
X-1191.873 Y3.921
X-1192.074 Y4.04
X-1192.155 Y4.071
X-1192.88 Y4.325
X-1192.98 Y4.359
X-1193.081 Y4.378
X-1193.936 Y4.474
X-1194 Y4.477
X-1194.064 Y4.474
X-1194.893 Y4.38
X-1194.994 Y4.365
X-1195.095 Y4.334
X-1195.845 Y4.071
X-1195.9 Y4.051
X-1196.102 Y3.937
X-1196.706 Y3.56
X-1196.769 Y3.518
X-1196.831 Y3.467
X-1197.109 Y3.189
X-1197.432 Y2.863
X-1197.511 Y2.774
X-1197.585 Y2.662
X-1197.967 Y2.057
X-1198.027 Y1.957
X-1198.07 Y1.856
X-1198.349 Y1.051
X-1198.372 Y0.95
X-1198.453 Y0.245
X-1198.475 Y0.044
X-1198.474 Y-0.057
X-1198.394 Y-0.762
X-1198.37 Y-0.963
X-1198.317 Y-1.144
X-1198.1 Y-1.768
X-1198.02 Y-1.97
X-1197.895 Y-2.171
X-1197.64 Y-2.574
X-1197.51 Y-2.775
X-1197.31 Y-2.986
X-1196.907 Y-3.392
X-1196.806 Y-3.488
X-1196.706 Y-3.56
X-1196.531 Y-3.669
X-1196.447 Y-3.709
X-1196.358 Y-3.736
X-1196.294 Y-3.743 Z18.004
X-1196.23 Y-3.75 Z18.014
X-1196.155 Y-3.736 Z18.036
X-1196.084 Y-3.723 Z18.069
X-1196.017 Y-3.71 Z18.11
X-1195.957 Y-3.674 Z18.169
X-1195.905 Y-3.643 Z18.238
X-1195.863 Y-3.617 Z18.315
X-1195.832 Y-3.598 Z18.398
X-1195.818 Y-3.585 Z18.464
X-1195.809 Y-3.577 Z18.532
X-1195.806 Y-3.574 Z18.6
G0 Z36
X0 Y-576
Z26.6
G1 Z26 F850
Z18 F283.3
X0.012 Y-576.035 F850
X0.05 Y-576.038
X0.072 Y-576.007
X0.071 Y-575.97
X0.052 Y-575.937
X0.02 Y-575.918
X-0.018 Y-575.916
X-0.052 Y-575.93
X-0.078 Y-575.958
X-0.089 Y-575.994
X-0.084 Y-576.031
X-0.067 Y-576.064
X-0.041 Y-576.091
X-0.008 Y-576.109
X0.029 Y-576.114
X0.066 Y-576.108
X0.099 Y-576.09
X0.126 Y-576.064
X0.144 Y-576.031
X0.163 Y-575.959
X0.143 Y-575.886
X0.092 Y-575.831
X0.024 Y-575.8
X-0.051 Y-575.799
X-0.121 Y-575.826
X-0.177 Y-575.876
X-0.212 Y-575.943
X-0.223 Y-576.017
X-0.211 Y-576.091
X-0.178 Y-576.158
X-0.125 Y-576.212
X-0.06 Y-576.249
X0.013 Y-576.266
X0.088 Y-576.262
X0.23 Y-576.214
X0.332 Y-576.104
X0.374 Y-575.96
X0.352 Y-575.812
X0.275 Y-575.683
X0.155 Y-575.593
X0.011 Y-575.55
X-0.139 Y-575.56
X-0.277 Y-575.618
X-0.389 Y-575.718
X-0.465 Y-575.847
X-0.499 Y-575.993
X-0.49 Y-576.143
X-0.437 Y-576.283
X-0.348 Y-576.404
X-0.229 Y-576.495
X-0.092 Y-576.555
X0.057 Y-576.578
X0.206 Y-576.565
X0.348 Y-576.515
X0.474 Y-576.434
X0.577 Y-576.325
X0.654 Y-576.197
X0.699 Y-576.054
X0.714 Y-575.904
X0.696 Y-575.756
X0.648 Y-575.613
X0.572 Y-575.484
X0.471 Y-575.373
X0.351 Y-575.283
X0.216 Y-575.219
X0.071 Y-575.181
X-0.079 Y-575.171
X-0.228 Y-575.188
X-0.372 Y-575.231
X-0.505 Y-575.3
X-0.625 Y-575.39
X-0.726 Y-575.501
X-0.808 Y-575.626
X-0.868 Y-575.764
X-0.904 Y-575.91
X-0.915 Y-576.059
X-0.902 Y-576.209
X-0.866 Y-576.354
X-0.807 Y-576.492
X-0.728 Y-576.62
X-0.63 Y-576.734
X-0.516 Y-576.831
X-0.39 Y-576.911
X-0.252 Y-576.972
X-0.108 Y-577.012
X0.041 Y-577.031
X0.191 Y-577.028
X0.339 Y-577.005
X0.483 Y-576.961
X0.619 Y-576.898
X0.745 Y-576.817
X0.859 Y-576.719
X0.959 Y-576.608
X1.044 Y-576.484
X1.111 Y-576.35
X1.161 Y-576.209
X1.192 Y-576.062
X1.205 Y-575.912
X1.199 Y-575.763
X1.173 Y-575.615
X1.131 Y-575.471
X1.07 Y-575.333
X0.994 Y-575.204
X0.903 Y-575.085
X0.798 Y-574.978
X0.681 Y-574.884
X0.555 Y-574.803
X0.419 Y-574.739
X0.278 Y-574.69
X0.131 Y-574.657
X-0.018 Y-574.641
X-0.168 Y-574.642
X-0.317 Y-574.66
X-0.463 Y-574.694
X-0.605 Y-574.743
X-0.74 Y-574.808
X-0.868 Y-574.887
X-0.986 Y-574.979
X-1.094 Y-575.083
X-1.191 Y-575.198
X-1.275 Y-575.322
X-1.345 Y-575.454
X-1.402 Y-575.593
X-1.443 Y-575.737
X-1.47 Y-575.885
X-1.483 Y-576.034
X-1.479 Y-576.184
X-1.462 Y-576.333
X-1.429 Y-576.48
X-1.382 Y-576.622
X-1.322 Y-576.76
X-1.249 Y-576.891
X-1.163 Y-577.014
X-1.066 Y-577.128
X-0.959 Y-577.233
X-0.842 Y-577.327
X-0.717 Y-577.41
X-0.585 Y-577.481
X-0.446 Y-577.539
X-0.303 Y-577.584
X-0.157 Y-577.616
X-0.008 Y-577.635
X0.142 Y-577.64
X0.292 Y-577.631
X0.44 Y-577.609
X0.586 Y-577.574
X0.728 Y-577.526
X0.866 Y-577.466
X0.997 Y-577.395
X1.122 Y-577.311
X1.24 Y-577.218
X1.348 Y-577.115
X1.448 Y-577.002
X1.538 Y-576.882
X1.617 Y-576.755
X1.685 Y-576.621
X1.742 Y-576.482
X1.787 Y-576.339
X1.82 Y-576.193
X1.84 Y-576.044
X1.849 Y-575.895
X1.845 Y-575.745
X1.829 Y-575.596
X1.802 Y-575.448
X1.762 Y-575.303
X1.711 Y-575.162
X1.649 Y-575.026
X1.576 Y-574.895
X1.493 Y-574.77
X1.401 Y-574.651
X1.3 Y-574.541
X1.19 Y-574.438
X1.073 Y-574.345
X0.949 Y-574.26
X0.819 Y-574.186
X0.683 Y-574.121
X0.544 Y-574.067
X0.4 Y-574.024
X0.253 Y-573.991
X0.105 Y-573.97
X-0.045 Y-573.96
X-0.195 Y-573.961
X-0.344 Y-573.973
X-0.492 Y-573.996
X-0.639 Y-574.029
X-0.782 Y-574.074
X-0.922 Y-574.128
X-1.057 Y-574.193
X-1.187 Y-574.267
X-1.312 Y-574.35
X-1.43 Y-574.442
X-1.542 Y-574.543
X-1.646 Y-574.65
X-1.743 Y-574.766
X-1.831 Y-574.887
X-1.91 Y-575.014
X-1.98 Y-575.147
X-2.041 Y-575.284
X-2.092 Y-575.425
X-2.133 Y-575.569
X-2.165 Y-575.716
X-2.186 Y-575.864
X-2.197 Y-576.014
X-2.198 Y-576.164
X-2.189 Y-576.314
X-2.169 Y-576.462
X-2.14 Y-576.61
X-2.101 Y-576.754
X-2.052 Y-576.896
X-1.994 Y-577.035
X-1.928 Y-577.169
X-1.852 Y-577.299
X-1.768 Y-577.423
X-1.676 Y-577.541
X-1.577 Y-577.654
X-1.47 Y-577.76
X-1.357 Y-577.858
X-1.238 Y-577.949
X-1.113 Y-578.032
X-0.984 Y-578.107
X-0.849 Y-578.174
X-0.711 Y-578.232
X-0.569 Y-578.281
X-0.425 Y-578.321
X-0.278 Y-578.352
X-0.129 Y-578.374
X0.02 Y-578.386
X0.17 Y-578.389
X0.32 Y-578.383
X0.469 Y-578.367
X0.617 Y-578.342
X0.763 Y-578.309
X0.907 Y-578.266
X1.048 Y-578.214
X1.185 Y-578.155
X1.319 Y-578.086
X1.448 Y-578.01
X1.573 Y-577.927
X1.692 Y-577.836
X1.806 Y-577.738
X1.913 Y-577.633
X2.014 Y-577.522
X2.108 Y-577.405
X2.195 Y-577.283
X2.275 Y-577.156
X2.348 Y-577.025
X2.412 Y-576.889
X2.468 Y-576.75
X2.517 Y-576.608
X2.557 Y-576.464
X2.588 Y-576.317
X2.611 Y-576.169
X2.625 Y-576.02
X2.631 Y-575.87
X2.628 Y-575.72
X2.617 Y-575.57
X2.597 Y-575.421
X2.568 Y-575.273
X2.531 Y-575.127
X2.487 Y-574.984
X2.433 Y-574.843
X2.372 Y-574.703
X2.303 Y-574.569
X2.227 Y-574.439
X2.142 Y-574.311
X2.05 Y-574.188
X1.953 Y-574.072
X1.848 Y-573.961
X1.735 Y-573.853
X1.617 Y-573.753
X1.495 Y-573.661
X1.367 Y-573.575
X1.231 Y-573.494
X1.092 Y-573.422
X0.951 Y-573.359
X0.805 Y-573.303
X0.653 Y-573.254
X0.499 Y-573.215
X0.346 Y-573.184
X0.19 Y-573.162
X0.029 Y-573.149
X-0.131 Y-573.144
X-0.29 Y-573.149
X-0.449 Y-573.162
X-0.608 Y-573.185
X-0.768 Y-573.217
X-0.925 Y-573.258
X-1.078 Y-573.307
X-1.229 Y-573.365
X-1.379 Y-573.432
X-1.525 Y-573.508
X-1.666 Y-573.592
X-1.801 Y-573.683
X-1.932 Y-573.782
X-2.059 Y-573.89
X-2.18 Y-574.005
X-2.294 Y-574.126
X-2.4 Y-574.253
X-2.499 Y-574.386
X-2.592 Y-574.526
X-2.677 Y-574.673
X-2.754 Y-574.823
X-2.822 Y-574.977
X-2.881 Y-575.134
X-2.932 Y-575.296
X-2.974 Y-575.463
X-3.006 Y-575.632
X-3.029 Y-575.801
X-3.042 Y-575.972
X-3.046 Y-576.143
X-3.04 Y-576.315
X-3.024 Y-576.488
X-2.998 Y-576.661
X-2.963 Y-576.832
X-2.918 Y-577.001
X-2.864 Y-577.166
X-2.8 Y-577.329
X-2.727 Y-577.489
X-2.644 Y-577.645
X-2.553 Y-577.797
X-2.452 Y-577.945
X-2.344 Y-578.086
X-2.228 Y-578.221
X-2.104 Y-578.349
X-1.973 Y-578.47
X-1.835 Y-578.584
X-1.69 Y-578.691
X-1.538 Y-578.79
X-1.38 Y-578.881
X-1.217 Y-578.963
X-1.051 Y-579.035
X-0.88 Y-579.098
X-0.705 Y-579.151
X-0.528 Y-579.195
X-0.348 Y-579.228
X-0.165 Y-579.252
X0.02 Y-579.265
X0.206 Y-579.268
X0.392 Y-579.26
X0.578 Y-579.242
X0.763 Y-579.213
X0.946 Y-579.174
X1.126 Y-579.124
X1.305 Y-579.065
X1.48 Y-578.995
X1.65 Y-578.915
X1.817 Y-578.826
X1.979 Y-578.727
X2.136 Y-578.619
X2.286 Y-578.502
X2.43 Y-578.376
X2.568 Y-578.242
X2.698 Y-578.1
X2.82 Y-577.95
X2.933 Y-577.793
X3.038 Y-577.63
X3.134 Y-577.461
X3.221 Y-577.286
X3.297 Y-577.106
X3.364 Y-576.922
X3.42 Y-576.734
X3.465 Y-576.543
X3.5 Y-576.348
X3.524 Y-576.152
X3.537 Y-575.954
X3.539 Y-575.755
X3.529 Y-575.557
X3.508 Y-575.358
X3.476 Y-575.16
X3.433 Y-574.964
X3.379 Y-574.771
X3.313 Y-574.58
X3.237 Y-574.392
X3.151 Y-574.209
X3.054 Y-574.031
X2.946 Y-573.858
X2.829 Y-573.691
X2.702 Y-573.53
X2.567 Y-573.376
X2.422 Y-573.23
X2.269 Y-573.092
X2.108 Y-572.962
X1.94 Y-572.842
X1.764 Y-572.731
X1.583 Y-572.629
X1.395 Y-572.538
X1.202 Y-572.457
X1.005 Y-572.388
X0.803 Y-572.329
X0.598 Y-572.281
X0.39 Y-572.245
X0.18 Y-572.221
X-0.032 Y-572.209
X-0.244
X-0.457 Y-572.22
X-0.669 Y-572.244
X-0.88 Y-572.279
X-1.089 Y-572.327
X-1.296 Y-572.386
X-1.499 Y-572.457
X-1.699 Y-572.54
X-1.894 Y-572.634
X-2.083 Y-572.739
X-2.267 Y-572.854
X-2.445 Y-572.981
X-2.616 Y-573.117
X-2.779 Y-573.263
X-2.934 Y-573.418
X-3.08 Y-573.583
X-3.218 Y-573.755
X-3.345 Y-573.936
X-3.463 Y-574.124
X-3.57 Y-574.318
X-3.666 Y-574.519
X-3.75 Y-574.725
X-3.824 Y-574.936
X-3.885 Y-575.152
X-3.934 Y-575.371
X-3.971 Y-575.594
X-3.995 Y-575.818
X-4.007 Y-576.044
X-4.006 Y-576.27
X-3.992 Y-576.497
X-3.966 Y-576.723
X-3.926 Y-576.948
X-3.874 Y-577.171
X-3.809 Y-577.391
X-3.732 Y-577.607
X-3.643 Y-577.819
X-3.541 Y-578.027
X-3.428 Y-578.228
X-3.304 Y-578.424
X-3.168 Y-578.612
X-3.021 Y-578.794
X-2.864 Y-578.966
X-2.698 Y-579.131
X-2.522 Y-579.285
X-2.337 Y-579.43
X-2.144 Y-579.565
X-1.943 Y-579.689
X-1.735 Y-579.801
X-1.521 Y-579.902
X-1.3 Y-579.991
X-1.075 Y-580.067
X-0.845 Y-580.131
X-0.611 Y-580.182
X-0.375 Y-580.22
X-0.136 Y-580.244
X0.105 Y-580.255
X0.346 Y-580.253
X0.587 Y-580.236
X0.827 Y-580.207
X1.066 Y-580.163
X1.302 Y-580.106
X1.535 Y-580.036
X1.765 Y-579.953
X1.989 Y-579.856
X2.209 Y-579.747
X2.423 Y-579.625
X2.629 Y-579.492
X2.829 Y-579.346
X3.02 Y-579.189
X3.203 Y-579.021
X3.376 Y-578.843
X3.539 Y-578.655
X3.692 Y-578.458
X3.833 Y-578.252
X3.964 Y-578.038
X4.011 Y-577.949
X4.057 Y-577.858
X4.097 Y-577.764
X4.134 Y-577.669
X4.279 Y-577.252
X4.35 Y-577.051
X4.373 Y-576.95
X4.453 Y-576.245
X4.475 Y-576.044
Y-575.943
X4.395 Y-575.238
X4.372 Y-575.037
X4.317 Y-574.855
X4.099 Y-574.232
X4.019 Y-574.03
X3.895 Y-573.829
X3.642 Y-573.426
X3.511 Y-573.223
X3.31 Y-573.013
X2.907 Y-572.61
X2.806 Y-572.513
X2.706 Y-572.441
X2.03 Y-572.017
X1.965 Y-571.978
X1.9 Y-571.948
X1.095 Y-571.666
X0.994 Y-571.635
X0.893 Y-571.62
X0.088 Y-571.529
X-0.013 Y-571.523
X-0.114 Y-571.532
X-0.919 Y-571.622
X-1.02 Y-571.641
X-1.12 Y-571.675
X-1.725 Y-571.886
X-1.926 Y-571.959
X-2.03 Y-572.017
X-2.731 Y-572.457
X-2.825 Y-572.529
X-2.933 Y-572.635
X-3.336 Y-573.038
X-3.512 Y-573.225
X-3.537 Y-573.26
X-3.94 Y-573.901
X-4.019 Y-574.03
X-4.099 Y-574.232
X-4.343 Y-574.928
X-4.372 Y-575.037
X-4.395 Y-575.238
X-4.475 Y-575.943
Y-576.044
X-4.408 Y-576.648
X-4.373 Y-576.95
X-4.35 Y-577.051
X-4.068 Y-577.856
X-4.026 Y-577.957
X-3.966 Y-578.057
X-3.537 Y-578.74
X-3.492 Y-578.801
X-3.434 Y-578.863
X-2.83 Y-579.467
X-2.781 Y-579.509
X-2.731 Y-579.543
X-2.127 Y-579.922
X-1.926 Y-580.041
X-1.847 Y-580.071
X-1.12 Y-580.325
X-1.02 Y-580.359
X-0.919 Y-580.378
X-0.063 Y-580.474
X0 Y-580.477
X0.064 Y-580.474
X0.893 Y-580.38
X0.994 Y-580.365
X1.095 Y-580.334
X1.847 Y-580.071
X1.9 Y-580.052
X2.001 Y-580.001
X2.706 Y-579.559
X2.768 Y-579.518
X2.829 Y-579.467
X3.109 Y-579.189
X3.434 Y-578.863
X3.511 Y-578.777
X3.586 Y-578.662
X3.966 Y-578.057
X4.026 Y-577.957
X4.068 Y-577.856
X4.134 Y-577.669
X4.154 Y-577.579
X4.161 Y-577.486
X4.147 Y-577.414 Z18.005
X4.133 Y-577.342 Z18.018
X4.12 Y-577.273 Z18.041
X4.078 Y-577.206 Z18.079
X4.04 Y-577.144 Z18.129
X4.006 Y-577.088 Z18.188
X3.962 Y-577.052 Z18.259
X3.928 Y-577.022 Z18.337
X3.902 Y-577.001 Z18.421
X3.886 Y-576.988 Z18.509
X3.881 Y-576.983 Z18.6
G0 Z36
X0 Y0
Z26.6
G1 Z26 F850
Z18 F283.3
X-0.036 Y0.013 F850
X-0.061 Y-0.016
X-0.05 Y-0.052
X-0.021 Y-0.075
X0.017 Y-0.08
X0.052 Y-0.066
X0.077 Y-0.039
X0.087 Y-0.003
X0.081 Y0.034
X0.061 Y0.066
X0.029 Y0.085
X-0.008 Y0.092
X-0.046 Y0.089
X-0.08 Y0.074
X-0.108 Y0.048
X-0.126 Y0.016
X-0.133 Y-0.021
X-0.129 Y-0.059
X-0.115 Y-0.093
X-0.069 Y-0.153
X0 Y-0.182
X0.075 Y-0.178
X0.141 Y-0.143
X0.189 Y-0.085
X0.212 Y-0.014
X0.207 Y0.061
X0.177 Y0.129
X0.126 Y0.185
X0.061 Y0.222
X-0.012 Y0.237
X-0.087 Y0.23
X-0.157 Y0.202
X-0.216 Y0.156
X-0.259 Y0.095
X-0.311 Y-0.046
X-0.289 Y-0.194
X-0.202 Y-0.317
X-0.073 Y-0.393
X0.076 Y-0.412
X0.221 Y-0.375
X0.344 Y-0.29
X0.43 Y-0.167
X0.471 Y-0.022
X0.463 Y0.127
X0.41 Y0.268
X0.318 Y0.386
X0.194 Y0.471
X0.052 Y0.518
X-0.098 Y0.524
X-0.244 Y0.488
X-0.376 Y0.418
X-0.487 Y0.317
X-0.57 Y0.192
X-0.619 Y0.05
X-0.635 Y-0.099
X-0.615 Y-0.247
X-0.562 Y-0.388
X-0.479 Y-0.512
X-0.372 Y-0.617
X-0.244 Y-0.696
X-0.103 Y-0.747
X0.045 Y-0.769
X0.195 Y-0.76
X0.34 Y-0.722
X0.475 Y-0.656
X0.596 Y-0.567
X0.697 Y-0.456
X0.777 Y-0.329
X0.832 Y-0.19
X0.862 Y-0.043
X0.866 Y0.107
X0.843 Y0.255
X0.797 Y0.398
X0.726 Y0.53
X0.635 Y0.649
X0.526 Y0.752
X0.401 Y0.835
X0.264 Y0.898
X0.12 Y0.938
X-0.029 Y0.955
X-0.179 Y0.95
X-0.326 Y0.922
X-0.468 Y0.874
X-0.601 Y0.804
X-0.723 Y0.716
X-0.831 Y0.612
X-0.922 Y0.493
X-0.997 Y0.363
X-1.052 Y0.224
X-1.088 Y0.078
X-1.103 Y-0.071
X-1.098 Y-0.221
X-1.074 Y-0.369
X-1.03 Y-0.513
X-0.968 Y-0.649
X-0.888 Y-0.776
X-0.793 Y-0.892
X-0.684 Y-0.995
X-0.563 Y-1.084
X-0.432 Y-1.157
X-0.293 Y-1.213
X-0.148 Y-1.252
X0 Y-1.273
X0.15 Y-1.276
X0.299 Y-1.261
X0.446 Y-1.229
X0.588 Y-1.181
X0.723 Y-1.115
X0.85 Y-1.035
X0.967 Y-0.941
X1.072 Y-0.835
X1.165 Y-0.717
X1.244 Y-0.59
X1.309 Y-0.455
X1.359 Y-0.313
X1.393 Y-0.167
X1.411 Y-0.018
X1.414 Y0.132
X1.4 Y0.281
X1.37 Y0.428
X1.326 Y0.572
X1.266 Y0.709
X1.193 Y0.84
X1.107 Y0.963
X1.009 Y1.076
X0.899 Y1.179
X0.78 Y1.27
X0.653 Y1.35
X0.518 Y1.416
X0.378 Y1.468
X0.233 Y1.507
X0.085 Y1.531
X-0.065 Y1.541
X-0.215 Y1.537
X-0.364 Y1.519
X-0.51 Y1.486
X-0.653 Y1.441
X-0.791 Y1.382
X-0.923 Y1.31
X-1.047 Y1.227
X-1.164 Y1.132
X-1.271 Y1.027
X-1.369 Y0.914
X-1.456 Y0.791
X-1.531 Y0.662
X-1.595 Y0.526
X-1.647 Y0.385
X-1.686 Y0.24
X-1.712 Y0.093
X-1.725 Y-0.057
Y-0.207
X-1.713 Y-0.356
X-1.687 Y-0.504
X-1.65 Y-0.649
X-1.6 Y-0.791
X-1.538 Y-0.927
X-1.465 Y-1.058
X-1.381 Y-1.183
X-1.288 Y-1.3
X-1.185 Y-1.409
X-1.073 Y-1.509
X-0.954 Y-1.6
X-0.827 Y-1.681
X-0.695 Y-1.752
X-0.557 Y-1.811
X-0.415 Y-1.859
X-0.27 Y-1.896
X-0.122 Y-1.921
X0.028 Y-1.935
X0.177 Y-1.937
X0.327 Y-1.927
X0.476 Y-1.905
X0.622 Y-1.872
X0.765 Y-1.828
X0.905 Y-1.773
X1.04 Y-1.708
X1.17 Y-1.632
X1.293 Y-1.547
X1.41 Y-1.453
X1.519 Y-1.351
X1.621 Y-1.24
X1.714 Y-1.122
X1.798 Y-0.998
X1.873 Y-0.868
X1.938 Y-0.733
X1.993 Y-0.593
X2.037 Y-0.45
X2.071 Y-0.304
X2.095 Y-0.156
X2.108 Y-0.006
X2.11 Y0.144
X2.102 Y0.293
X2.082 Y0.442
X2.053 Y0.589
X2.013 Y0.734
X1.963 Y0.875
X1.903 Y1.013
X1.834 Y1.146
X1.756 Y1.274
X1.669 Y1.396
X1.574 Y1.512
X1.472 Y1.622
X1.362 Y1.724
X1.245 Y1.818
X1.123 Y1.905
X0.994 Y1.983
X0.861 Y2.052
X0.724 Y2.112
X0.583 Y2.163
X0.438 Y2.204
X0.292 Y2.235
X0.144 Y2.257
X-0.006 Y2.27
X-0.156 Y2.272
X-0.306 Y2.265
X-0.455 Y2.248
X-0.602 Y2.221
X-0.748 Y2.185
X-0.891 Y2.139
X-1.031 Y2.085
X-1.167 Y2.022
X-1.299 Y1.95
X-1.425 Y1.87
X-1.547 Y1.782
X-1.663 Y1.687
X-1.772 Y1.584
X-1.875 Y1.475
X-1.972 Y1.36
X-2.06 Y1.239
X-2.141 Y1.113
X-2.214 Y0.982
X-2.279 Y0.847
X-2.336 Y0.708
X-2.384 Y0.566
X-2.423 Y0.421
X-2.453 Y0.274
X-2.475 Y0.125
X-2.487 Y-0.024
X-2.49 Y-0.174
X-2.485 Y-0.324
X-2.47 Y-0.473
X-2.447 Y-0.621
X-2.415 Y-0.768
X-2.374 Y-0.912
X-2.325 Y-1.054
X-2.267 Y-1.192
X-2.202 Y-1.327
X-2.128 Y-1.458
X-2.048 Y-1.585
X-1.96 Y-1.706
X-1.865 Y-1.822
X-1.763 Y-1.933
X-1.656 Y-2.037
X-1.542 Y-2.135
X-1.423 Y-2.227
X-1.299 Y-2.311
X-1.171 Y-2.389
X-1.037 Y-2.459
X-0.901 Y-2.522
X-0.761 Y-2.576
X-0.617 Y-2.623
X-0.469 Y-2.662
X-0.322 Y-2.692
X-0.173 Y-2.714
X-0.02 Y-2.728
X0.134 Y-2.733
X0.285 Y-2.729
X0.437 Y-2.717
X0.592 Y-2.696
X0.744 Y-2.667
X0.892 Y-2.629
X1.04 Y-2.583
X1.187 Y-2.527
X1.33 Y-2.463
X1.468 Y-2.393
X1.603 Y-2.314
X1.736 Y-2.225
X1.862 Y-2.13
X1.982 Y-2.03
X2.097 Y-1.921
X2.208 Y-1.805
X2.312 Y-1.682
X2.408 Y-1.555
X2.496 Y-1.423
X2.578 Y-1.284
X2.653 Y-1.139
X2.719 Y-0.991
X2.776 Y-0.841
X2.826 Y-0.687
X2.867 Y-0.528
X2.899 Y-0.366
X2.921 Y-0.204
X2.935 Y-0.042
X2.939 Y0.122
X2.934 Y0.289
X2.92 Y0.455
X2.896 Y0.619
X2.864 Y0.782
X2.822 Y0.943
X2.77 Y1.103
X2.709 Y1.261
X2.64 Y1.415
X2.562 Y1.564
X2.476 Y1.708
X2.381 Y1.849
X2.278 Y1.986
X2.166 Y2.117
X2.048 Y2.241
X1.923 Y2.358
X1.792 Y2.468
X1.654 Y2.57
X1.509 Y2.666
X1.357 Y2.754
X1.202 Y2.833
X1.042 Y2.904
X0.879 Y2.965
X0.712 Y3.017
X0.542 Y3.059
X0.368 Y3.093
X0.192 Y3.116
X0.014 Y3.13
X-0.164 Y3.133
X-0.342 Y3.127
X-0.519 Y3.111
X-0.695 Y3.084
X-0.871 Y3.048
X-1.045 Y3.001
X-1.217 Y2.944
X-1.387 Y2.878
X-1.552 Y2.802
X-1.713 Y2.717
X-1.869 Y2.623
X-2.02 Y2.52
X-2.164 Y2.408
X-2.303 Y2.289
X-2.436 Y2.161
X-2.561 Y2.025
X-2.68 Y1.881
X-2.79 Y1.731
X-2.892 Y1.575
X-2.985 Y1.412
X-3.069 Y1.245
X-3.143 Y1.073
X-3.208 Y0.896
X-3.263 Y0.716
X-3.307 Y0.533
X-3.342 Y0.347
X-3.366 Y0.159
X-3.379 Y-0.031
X-3.382 Y-0.222
X-3.374 Y-0.413
X-3.355 Y-0.604
X-3.325 Y-0.794
X-3.284 Y-0.983
X-3.233 Y-1.169
X-3.171 Y-1.353
X-3.099 Y-1.534
X-3.017 Y-1.711
X-2.924 Y-1.883
X-2.822 Y-2.05
X-2.71 Y-2.211
X-2.589 Y-2.366
X-2.459 Y-2.515
X-2.321 Y-2.656
X-2.174 Y-2.79
X-2.02 Y-2.915
X-1.859 Y-3.032
X-1.691 Y-3.14
X-1.517 Y-3.239
X-1.337 Y-3.327
X-1.152 Y-3.406
X-0.962 Y-3.474
X-0.768 Y-3.532
X-0.571 Y-3.579
X-0.371 Y-3.614
X-0.169 Y-3.639
X0.035 Y-3.652
X0.24 Y-3.653
X0.445 Y-3.643
X0.649 Y-3.622
X0.853 Y-3.588
X1.054 Y-3.544
X1.254 Y-3.488
X1.45 Y-3.42
X1.643 Y-3.342
X1.831 Y-3.252
X2.015 Y-3.152
X2.192 Y-3.042
X2.364 Y-2.921
X2.53 Y-2.79
X2.688 Y-2.65
X2.838 Y-2.502
X2.979 Y-2.344
X3.113 Y-2.179
X3.237 Y-2.005
X3.351 Y-1.825
X3.455 Y-1.638
X3.548 Y-1.445
X3.631 Y-1.247
X3.703 Y-1.043
X3.763 Y-0.836
X3.812 Y-0.625
X3.848 Y-0.411
X3.873 Y-0.195
X3.885 Y0.022
X3.886 Y0.241
X3.873 Y0.46
X3.849 Y0.678
X3.812 Y0.894
X3.763 Y1.109
X3.702 Y1.322
X3.629 Y1.531
X3.543 Y1.736
X3.447 Y1.936
X3.339 Y2.131
X3.22 Y2.321
X3.09 Y2.503
X2.949 Y2.679
X2.799 Y2.846
X2.639 Y3.006
X2.47 Y3.156
X2.292 Y3.297
X2.107 Y3.427
X1.914 Y3.548
X1.713 Y3.658
X1.507 Y3.756
X1.294 Y3.843
X1.077 Y3.918
X0.856 Y3.981
X0.631 Y4.031
X0.403 Y4.069
X0.172 Y4.094
X-0.06 Y4.106
X-0.293 Y4.104
X-0.526 Y4.09
X-0.759 Y4.062
X-0.989 Y4.022
X-1.218 Y3.968
X-1.444 Y3.901
X-1.666 Y3.822
X-1.883 Y3.73
X-2.096 Y3.626
X-2.303 Y3.509
X-2.504 Y3.381
X-2.697 Y3.241
X-2.883 Y3.091
X-3.061 Y2.929
X-3.229 Y2.758
X-3.388 Y2.577
X-3.536 Y2.387
X-3.674 Y2.189
X-3.801 Y1.983
X-3.916 Y1.77
X-4.019 Y1.549
X-4.11 Y1.324
X-4.189 Y1.092
X-4.254 Y0.856
X-4.306 Y0.617
X-4.344 Y0.374
X-4.369 Y0.129
X-4.38 Y-0.118
X-4.377 Y-0.365
X-4.36 Y-0.612
X-4.329 Y-0.859
X-4.284 Y-1.104
X-4.226 Y-1.346
X-4.153 Y-1.586
X-4.068 Y-1.821
X-4.027 Y-1.916
X-3.984 Y-2.01
X-3.936 Y-2.101
X-3.883 Y-2.19
X-3.642 Y-2.574
X-3.537 Y-2.74
X-3.513 Y-2.775
X-3.336 Y-2.962
X-2.918 Y-3.379
X-2.825 Y-3.471
X-2.731 Y-3.543
X-2.03 Y-3.983
X-1.926 Y-4.041
X-1.725 Y-4.114
X-1.12 Y-4.326
X-1.02 Y-4.359
X-0.919 Y-4.377
X-0.114 Y-4.468
X-0.013 Y-4.477
X0.088 Y-4.471
X0.893 Y-4.38
X0.994 Y-4.365
X1.095 Y-4.335
X1.9 Y-4.052
X1.965 Y-4.022
X2.03 Y-3.983
X2.706 Y-3.559
X2.806 Y-3.487
X2.918 Y-3.379
X3.321 Y-2.976
X3.512 Y-2.775
X3.642 Y-2.574
X3.914 Y-2.14
X4.019 Y-1.97
X4.099 Y-1.768
X4.317 Y-1.145
X4.372 Y-0.963
X4.395 Y-0.762
X4.474 Y-0.057
X4.475 Y0.044
X4.408 Y0.648
X4.373 Y0.95
X4.35 Y1.051
X4.068 Y1.856
X4.026 Y1.957
X3.966 Y2.057
X3.587 Y2.662
X3.511 Y2.777
X3.434 Y2.863
X2.907 Y3.39
X2.829 Y3.467
X2.768 Y3.518
X2.706 Y3.559
X2.001 Y4.002
X1.9 Y4.052
X1.497 Y4.194
X1.095 Y4.335
X0.994 Y4.365
X0.893 Y4.38
X0.064 Y4.474
X0 Y4.477
X-0.063 Y4.474
X-0.919 Y4.377
X-1.02 Y4.359
X-1.12 Y4.326
X-1.848 Y4.071
X-1.926 Y4.041
X-2.127 Y3.922
X-2.731 Y3.543
X-2.781 Y3.509
X-2.83 Y3.467
X-3.434 Y2.863
X-3.492 Y2.802
X-3.537 Y2.74
X-3.966 Y2.057
X-4.026 Y1.957
X-4.068 Y1.856
X-4.35 Y1.051
X-4.373 Y0.95
X-4.453 Y0.245
X-4.475 Y0.044
X-4.474 Y-0.057
X-4.395 Y-0.762
X-4.372 Y-0.963
X-4.343 Y-1.072
X-4.099 Y-1.768
X-4.019 Y-1.97
X-3.94 Y-2.099
X-3.883 Y-2.19
X-3.825 Y-2.262
X-3.757 Y-2.325
X-3.692 Y-2.359 Z18.005
X-3.627 Y-2.393 Z18.018
X-3.565 Y-2.426 Z18.041
X-3.501 Y-2.436 Z18.071
X-3.441 Y-2.445 Z18.108
X-3.386 Y-2.453 Z18.152
X-3.329 Y-2.443 Z18.213
X-3.28 Y-2.435 Z18.281
X-3.241 Y-2.429 Z18.355
X-3.213 Y-2.424 Z18.434
X-3.195 Y-2.421 Z18.516
X-3.19 Y-2.42 Z18.599
G0 Z36
X-1194 Y-576
Z18.6
G1 Z18 F850
Z10 F283.3
X-1194.037 Y-575.996 F850
X-1194.056 Y-576.028
X-1194.038 Y-576.061
X-1194.004 Y-576.077
X-1193.967 Y-576.074
X-1193.935 Y-576.054
X-1193.917 Y-576.021
X-1193.914 Y-575.984
X-1193.928 Y-575.949
X-1193.955 Y-575.923
X-1193.991 Y-575.911
X-1194.028 Y-575.912
X-1194.064 Y-575.923
X-1194.094 Y-575.945
X-1194.115 Y-575.976
X-1194.126 Y-576.012
X-1194.125 Y-576.05
X-1194.113 Y-576.085
X-1194.092 Y-576.116
X-1194.034 Y-576.164
X-1193.961 Y-576.178
X-1193.888 Y-576.157
X-1193.831 Y-576.109
X-1193.797 Y-576.042
X-1193.79 Y-575.967
X-1193.811 Y-575.895
X-1193.856 Y-575.835
X-1193.917 Y-575.792
X-1193.989 Y-575.77
X-1194.064 Y-575.771
X-1194.135 Y-575.794
X-1194.197 Y-575.837
X-1194.244 Y-575.895
X-1194.274 Y-575.964
X-1194.294 Y-576.113
X-1194.239 Y-576.252
X-1194.128 Y-576.353
X-1193.985 Y-576.399
X-1193.836 Y-576.386
X-1193.702 Y-576.318
X-1193.601 Y-576.207
X-1193.544 Y-576.069
X-1193.536 Y-575.919
X-1193.576 Y-575.774
X-1193.658 Y-575.649
X-1193.774 Y-575.554
X-1193.913 Y-575.498
X-1194.063 Y-575.483
X-1194.21 Y-575.51
X-1194.344 Y-575.577
X-1194.458 Y-575.674
X-1194.544 Y-575.797
X-1194.598 Y-575.937
X-1194.615 Y-576.086
X-1194.598 Y-576.235
X-1194.546 Y-576.376
X-1194.464 Y-576.502
X-1194.355 Y-576.605
X-1194.228 Y-576.684
X-1194.086 Y-576.733
X-1193.937 Y-576.752
X-1193.787 Y-576.74
X-1193.643 Y-576.699
X-1193.51 Y-576.63
X-1193.393 Y-576.536
X-1193.295 Y-576.423
X-1193.22 Y-576.293
X-1193.17 Y-576.151
X-1193.146 Y-576.003
X-1193.149 Y-575.853
X-1193.178 Y-575.706
X-1193.233 Y-575.567
X-1193.31 Y-575.438
X-1193.407 Y-575.324
X-1193.522 Y-575.228
X-1193.652 Y-575.151
X-1193.792 Y-575.098
X-1193.938 Y-575.066
X-1194.088 Y-575.059
X-1194.237 Y-575.074
X-1194.383 Y-575.112
X-1194.52 Y-575.171
X-1194.648 Y-575.25
X-1194.763 Y-575.347
X-1194.862 Y-575.459
X-1194.944 Y-575.584
X-1195.008 Y-575.72
X-1195.052 Y-575.864
X-1195.075 Y-576.012
X-1195.078 Y-576.162
X-1195.061 Y-576.311
X-1195.023 Y-576.456
X-1194.967 Y-576.595
X-1194.893 Y-576.726
X-1194.802 Y-576.845
X-1194.697 Y-576.952
X-1194.579 Y-577.044
X-1194.45 Y-577.121
X-1194.313 Y-577.181
X-1194.169 Y-577.223
X-1194.021 Y-577.248
X-1193.871 Y-577.254
X-1193.721 Y-577.242
X-1193.574 Y-577.213
X-1193.432 Y-577.165
X-1193.296 Y-577.102
X-1193.168 Y-577.023
X-1193.051 Y-576.93
X-1192.944 Y-576.824
X-1192.851 Y-576.707
X-1192.771 Y-576.58
X-1192.706 Y-576.445
X-1192.657 Y-576.303
X-1192.623 Y-576.157
X-1192.605 Y-576.008
X-1192.604 Y-575.858
X-1192.619 Y-575.709
X-1192.65 Y-575.562
X-1192.696 Y-575.419
X-1192.757 Y-575.282
X-1192.832 Y-575.152
X-1192.92 Y-575.031
X-1193.02 Y-574.919
X-1193.131 Y-574.818
X-1193.251 Y-574.729
X-1193.38 Y-574.653
X-1193.517 Y-574.59
X-1193.658 Y-574.54
X-1193.804 Y-574.505
X-1193.953 Y-574.485
X-1194.103 Y-574.479
X-1194.252 Y-574.487
X-1194.401 Y-574.51
X-1194.546 Y-574.547
X-1194.687 Y-574.598
X-1194.823 Y-574.661
X-1194.952 Y-574.737
X-1195.074 Y-574.825
X-1195.187 Y-574.924
X-1195.29 Y-575.032
X-1195.383 Y-575.15
X-1195.465 Y-575.276
X-1195.536 Y-575.408
X-1195.594 Y-575.547
X-1195.639 Y-575.69
X-1195.672 Y-575.836
X-1195.691 Y-575.985
X-1195.697 Y-576.134
X-1195.691 Y-576.284
X-1195.671 Y-576.433
X-1195.638 Y-576.579
X-1195.593 Y-576.723
X-1195.536 Y-576.861
X-1195.467 Y-576.995
X-1195.388 Y-577.122
X-1195.297 Y-577.241
X-1195.198 Y-577.353
X-1195.089 Y-577.457
X-1194.972 Y-577.55
X-1194.847 Y-577.634
X-1194.717 Y-577.708
X-1194.58 Y-577.77
X-1194.439 Y-577.821
X-1194.295 Y-577.861
X-1194.147 Y-577.889
X-1193.998 Y-577.905
X-1193.848 Y-577.909
X-1193.698 Y-577.901
X-1193.55 Y-577.882
X-1193.403 Y-577.851
X-1193.259 Y-577.808
X-1193.119 Y-577.755
X-1192.983 Y-577.691
X-1192.853 Y-577.616
X-1192.729 Y-577.532
X-1192.612 Y-577.439
X-1192.502 Y-577.337
X-1192.4 Y-577.227
X-1192.306 Y-577.109
X-1192.222 Y-576.985
X-1192.147 Y-576.855
X-1192.082 Y-576.72
X-1192.027 Y-576.58
X-1191.983 Y-576.437
X-1191.949 Y-576.291
X-1191.926 Y-576.143
X-1191.914 Y-575.993
X-1191.912 Y-575.843
X-1191.922 Y-575.693
X-1191.942 Y-575.545
X-1191.973 Y-575.398
X-1192.014 Y-575.254
X-1192.065 Y-575.113
X-1192.126 Y-574.976
X-1192.197 Y-574.843
X-1192.276 Y-574.716
X-1192.365 Y-574.595
X-1192.461 Y-574.48
X-1192.565 Y-574.372
X-1192.677 Y-574.272
X-1192.795 Y-574.18
X-1192.919 Y-574.095
X-1193.049 Y-574.02
X-1193.183 Y-573.953
X-1193.322 Y-573.896
X-1193.464 Y-573.848
X-1193.609 Y-573.81
X-1193.756 Y-573.781
X-1193.905 Y-573.762
X-1194.055 Y-573.754
X-1194.205 Y-573.755
X-1194.354 Y-573.766
X-1194.503 Y-573.787
X-1194.65 Y-573.817
X-1194.794 Y-573.857
X-1194.936 Y-573.907
X-1195.074 Y-573.965
X-1195.208 Y-574.032
X-1195.338 Y-574.108
X-1195.462 Y-574.191
X-1195.581 Y-574.283
X-1195.694 Y-574.382
X-1195.8 Y-574.488
X-1195.9 Y-574.6
X-1195.992 Y-574.718
X-1196.076 Y-574.842
X-1196.153 Y-574.971
X-1196.221 Y-575.104
X-1196.282 Y-575.242
X-1196.333 Y-575.383
X-1196.376 Y-575.527
X-1196.409 Y-575.673
X-1196.434 Y-575.821
X-1196.45 Y-575.97
X-1196.456 Y-576.12
X-1196.454 Y-576.27
X-1196.442 Y-576.419
X-1196.421 Y-576.568
X-1196.392 Y-576.715
X-1196.354 Y-576.86
X-1196.307 Y-577.002
X-1196.251 Y-577.142
X-1196.188 Y-577.278
X-1196.117 Y-577.41
X-1196.037 Y-577.537
X-1195.951 Y-577.66
X-1195.858 Y-577.777
X-1195.757 Y-577.889
X-1195.651 Y-577.995
X-1195.539 Y-578.094
X-1195.421 Y-578.186
X-1195.297 Y-578.272
X-1195.17 Y-578.35
X-1195.037 Y-578.421
X-1194.901 Y-578.484
X-1194.762 Y-578.54
X-1194.62 Y-578.587
X-1194.473 Y-578.627
X-1194.327 Y-578.658
X-1194.178 Y-578.68
X-1194.028 Y-578.694
X-1193.875 Y-578.7
X-1193.725 Y-578.697
X-1193.575 Y-578.686
X-1193.422 Y-578.666
X-1193.271 Y-578.637
X-1193.125 Y-578.601
X-1192.979 Y-578.556
X-1192.832 Y-578.501
X-1192.69 Y-578.439
X-1192.554 Y-578.37
X-1192.42 Y-578.292
X-1192.288 Y-578.206
X-1192.163 Y-578.112
X-1192.044 Y-578.013
X-1191.93 Y-577.907
X-1191.819 Y-577.792
X-1191.716 Y-577.671
X-1191.621 Y-577.546
X-1191.533 Y-577.416
X-1191.451 Y-577.278
X-1191.376 Y-577.135
X-1191.31 Y-576.99
X-1191.253 Y-576.842
X-1191.203 Y-576.689
X-1191.162 Y-576.531
X-1191.13 Y-576.372
X-1191.107 Y-576.213
X-1191.093 Y-576.052
X-1191.087 Y-575.888
X-1191.092 Y-575.723
X-1191.105 Y-575.56
X-1191.127 Y-575.398
X-1191.159 Y-575.237
X-1191.2 Y-575.076
X-1191.25 Y-574.917
X-1191.309 Y-574.761
X-1191.377 Y-574.61
X-1191.453 Y-574.463
X-1191.538 Y-574.318
X-1191.632 Y-574.177
X-1191.734 Y-574.042
X-1191.843 Y-573.913
X-1191.958 Y-573.791
X-1192.081 Y-573.674
X-1192.212 Y-573.564
X-1192.35 Y-573.46
X-1192.492 Y-573.365
X-1192.64 Y-573.278
X-1192.792 Y-573.2
X-1192.949 Y-573.13
X-1193.112 Y-573.068
X-1193.278 Y-573.016
X-1193.448 Y-572.972
X-1193.619 Y-572.939
X-1193.791 Y-572.915
X-1193.965 Y-572.901
X-1194.141 Y-572.896
X-1194.318 Y-572.902
X-1194.495 Y-572.917
X-1194.671 Y-572.943
X-1194.846 Y-572.979
X-1195.018 Y-573.024
X-1195.187 Y-573.078
X-1195.354 Y-573.143
X-1195.517 Y-573.217
X-1195.677 Y-573.301
X-1195.832 Y-573.394
X-1195.983 Y-573.496
X-1196.128 Y-573.606
X-1196.266 Y-573.724
X-1196.398 Y-573.85
X-1196.522 Y-573.984
X-1196.639 Y-574.124
X-1196.748 Y-574.271
X-1196.85 Y-574.425
X-1196.943 Y-574.585
X-1197.026 Y-574.751
X-1197.101 Y-574.922
X-1197.166 Y-575.097
X-1197.222 Y-575.275
X-1197.267 Y-575.457
X-1197.302 Y-575.641
X-1197.326 Y-575.828
X-1197.34 Y-576.015
X-1197.344 Y-576.204
X-1197.337 Y-576.393
X-1197.319 Y-576.582
X-1197.29 Y-576.77
X-1197.251 Y-576.956
X-1197.201 Y-577.141
X-1197.141 Y-577.324
X-1197.07 Y-577.503
X-1196.99 Y-577.678
X-1196.899 Y-577.849
X-1196.798 Y-578.015
X-1196.688 Y-578.175
X-1196.569 Y-578.33
X-1196.441 Y-578.477
X-1196.305 Y-578.618
X-1196.16 Y-578.751
X-1196.008 Y-578.876
X-1195.849 Y-578.992
X-1195.683 Y-579.1
X-1195.511 Y-579.198
X-1195.333 Y-579.287
X-1195.15 Y-579.366
X-1194.963 Y-579.434
X-1194.771 Y-579.492
X-1194.576 Y-579.539
X-1194.378 Y-579.576
X-1194.178 Y-579.601
X-1193.976 Y-579.614
X-1193.773 Y-579.617
X-1193.571 Y-579.608
X-1193.368 Y-579.587
X-1193.166 Y-579.555
X-1192.966 Y-579.512
X-1192.769 Y-579.458
X-1192.574 Y-579.392
X-1192.383 Y-579.315
X-1192.195 Y-579.227
X-1192.013 Y-579.129
X-1191.837 Y-579.02
X-1191.666 Y-578.901
X-1191.501 Y-578.773
X-1191.344 Y-578.635
X-1191.195 Y-578.488
X-1191.054 Y-578.333
X-1190.921 Y-578.169
X-1190.797 Y-577.998
X-1190.683 Y-577.82
X-1190.58 Y-577.635
X-1190.486 Y-577.444
X-1190.403 Y-577.248
X-1190.331 Y-577.047
X-1190.271 Y-576.842
X-1190.221 Y-576.633
X-1190.184 Y-576.422
X-1190.159 Y-576.208
X-1190.145 Y-575.992
X-1190.144 Y-575.776
X-1190.155 Y-575.559
X-1190.178 Y-575.343
X-1190.214 Y-575.128
X-1190.261 Y-574.914
X-1190.321 Y-574.704
X-1190.393 Y-574.496
X-1190.476 Y-574.293
X-1190.571 Y-574.094
X-1190.677 Y-573.9
X-1190.795 Y-573.712
X-1190.923 Y-573.53
X-1191.061 Y-573.356
X-1191.209 Y-573.189
X-1191.367 Y-573.031
X-1191.533 Y-572.881
X-1191.709 Y-572.741
X-1191.892 Y-572.61
X-1192.083 Y-572.49
X-1192.281 Y-572.38
X-1192.485 Y-572.282
X-1192.695 Y-572.195
X-1192.91 Y-572.119
X-1193.129 Y-572.056
X-1193.352 Y-572.005
X-1193.578 Y-571.967
X-1193.807 Y-571.941
X-1194.036 Y-571.928
X-1194.267
X-1194.498 Y-571.942
X-1194.728 Y-571.968
X-1194.957 Y-572.007
X-1195.185 Y-572.059
X-1195.409 Y-572.124
X-1195.629 Y-572.202
X-1195.846 Y-572.292
X-1196.057 Y-572.395
X-1196.263 Y-572.509
X-1196.462 Y-572.635
X-1196.654 Y-572.773
X-1196.839 Y-572.921
X-1197.016 Y-573.08
X-1197.183 Y-573.249
X-1197.342 Y-573.428
X-1197.49 Y-573.616
X-1197.628 Y-573.812
X-1197.754 Y-574.016
X-1197.87 Y-574.227
X-1197.973 Y-574.445
X-1198.064 Y-574.668
X-1198.143 Y-574.897
X-1198.209 Y-575.131
X-1198.261 Y-575.368
X-1198.3 Y-575.608
X-1198.326 Y-575.851
X-1198.338 Y-576.096
X-1198.336 Y-576.341
X-1198.321 Y-576.586
X-1198.291 Y-576.831
X-1198.248 Y-577.074
X-1198.191 Y-577.314
X-1198.12 Y-577.552
X-1198.036 Y-577.786
X-1197.939 Y-578.015
X-1197.828 Y-578.239
X-1197.705 Y-578.457
X-1197.582 Y-578.649
X-1197.501 Y-578.765
X-1197.413 Y-578.875
X-1197.318 Y-578.979
X-1197.032 Y-579.266
X-1196.832 Y-579.467
X-1196.769 Y-579.518
X-1196.706 Y-579.56
X-1196.102 Y-579.937
X-1195.9 Y-580.051
X-1195.844 Y-580.071
X-1195.095 Y-580.334
X-1194.994 Y-580.365
X-1194.893 Y-580.38
X-1194.064 Y-580.474
X-1194 Y-580.477
X-1193.936 Y-580.474
X-1193.081 Y-580.378
X-1192.98 Y-580.359
X-1192.88 Y-580.325
X-1192.156 Y-580.071
X-1192.074 Y-580.04
X-1191.873 Y-579.921
X-1191.269 Y-579.544
X-1191.218 Y-579.51
X-1191.168 Y-579.467
X-1190.568 Y-578.863
X-1190.509 Y-578.8
X-1190.463 Y-578.737
X-1190.033 Y-578.057
X-1189.973 Y-577.957
X-1189.93 Y-577.856
X-1189.651 Y-577.051
X-1189.628 Y-576.95
X-1189.547 Y-576.245
X-1189.525 Y-576.044
X-1189.526 Y-575.943
X-1189.606 Y-575.238
X-1189.63 Y-575.037
X-1189.657 Y-574.93
X-1189.9 Y-574.232
X-1189.979 Y-574.03
X-1190.06 Y-573.9
X-1190.463 Y-573.263
X-1190.49 Y-573.225
X-1190.664 Y-573.04
X-1191.08 Y-572.621
X-1191.174 Y-572.527
X-1191.269 Y-572.456
X-1191.972 Y-572.017
X-1192.074 Y-571.96
X-1192.275 Y-571.887
X-1192.88 Y-571.675
X-1192.98 Y-571.641
X-1193.081 Y-571.622
X-1193.886 Y-571.532
X-1193.987 Y-571.523
X-1194.088 Y-571.529
X-1194.893 Y-571.62
X-1194.994 Y-571.635
X-1195.095 Y-571.666
X-1195.9 Y-571.949
X-1195.964 Y-571.979
X-1196.028 Y-572.017
X-1196.706 Y-572.44
X-1196.806 Y-572.511
X-1196.92 Y-572.621
X-1197.32 Y-573.023
X-1197.511 Y-573.226
X-1197.64 Y-573.426
X-1197.914 Y-573.859
X-1198.02 Y-574.03
X-1198.1 Y-574.232
X-1198.317 Y-574.856
X-1198.37 Y-575.037
X-1198.417 Y-575.44
X-1198.474 Y-575.943
X-1198.475 Y-576.044
X-1198.43 Y-576.447
X-1198.372 Y-576.95
X-1198.349 Y-577.051
X-1198.07 Y-577.856
X-1198.027 Y-577.957
X-1197.967 Y-578.057
X-1197.585 Y-578.662
X-1197.511 Y-578.774
X-1197.432 Y-578.863
X-1197.318 Y-578.979
X-1197.245 Y-579.037
X-1197.165 Y-579.083
X-1197.094 Y-579.102 Z10.005
X-1197.024 Y-579.121 Z10.018
X-1196.956 Y-579.139 Z10.041
X-1196.907 Y-579.141 Z10.063
X-1196.826 Y-579.126 Z10.112
X-1196.755 Y-579.113 Z10.174
X-1196.693 Y-579.102 Z10.247
X-1196.649 Y-579.08 Z10.327
X-1196.617 Y-579.064 Z10.414
X-1196.597 Y-579.054 Z10.506
X-1196.591 Y-579.051 Z10.6
G0 Z36
X-1194 Y0
Z18.6
G1 Z18 F850
Z10 F283.3
X-1194.038 Y-0.005 F850
X-1194.047 Y-0.041
X-1194.022 Y-0.068
X-1193.985 Y-0.076
X-1193.95 Y-0.064
X-1193.924 Y-0.036
X-1193.914 Y0
X-1193.921 Y0.037
X-1193.942 Y0.067
X-1193.975 Y0.086
X-1194.012 Y0.089
X-1194.048 Y0.079
X-1194.08 Y0.059
X-1194.105 Y0.031
X-1194.118 Y-0.004
X-1194.12 Y-0.042
X-1194.109 Y-0.078
X-1194.089 Y-0.11
X-1194.061 Y-0.134
X-1193.994 Y-0.168
X-1193.919 Y-0.163
X-1193.854 Y-0.126
X-1193.81 Y-0.065
X-1193.793 Y0.008
X-1193.804 Y0.082
X-1193.842 Y0.147
X-1193.899 Y0.195
X-1193.969 Y0.222
X-1194.044 Y0.226
X-1194.117 Y0.207
X-1194.181 Y0.167
X-1194.23 Y0.111
X-1194.262 Y0.044
X-1194.275 Y-0.03
X-1194.258 Y-0.18
X-1194.172 Y-0.302
X-1194.04 Y-0.374
X-1193.891 Y-0.384
X-1193.749 Y-0.335
X-1193.635 Y-0.238
X-1193.563 Y-0.106
X-1193.54 Y0.042
X-1193.568 Y0.19
X-1193.642 Y0.32
X-1193.752 Y0.422
X-1193.887 Y0.487
X-1194.036 Y0.509
X-1194.184 Y0.487
X-1194.321 Y0.426
X-1194.436 Y0.329
X-1194.523 Y0.207
X-1194.577 Y0.067
X-1194.596 Y-0.082
X-1194.577 Y-0.231
X-1194.525 Y-0.371
X-1194.44 Y-0.495
X-1194.331 Y-0.598
X-1194.201 Y-0.672
X-1194.058 Y-0.718
X-1193.909 Y-0.732
X-1193.76 Y-0.715
X-1193.617 Y-0.668
X-1193.487 Y-0.593
X-1193.374 Y-0.495
X-1193.282 Y-0.376
X-1193.214 Y-0.243
X-1193.173 Y-0.098
X-1193.158 Y0.051
X-1193.17 Y0.2
X-1193.209 Y0.345
X-1193.272 Y0.481
X-1193.359 Y0.604
X-1193.464 Y0.711
X-1193.586 Y0.798
X-1193.72 Y0.864
X-1193.864 Y0.907
X-1194.013 Y0.926
X-1194.163 Y0.921
X-1194.31 Y0.893
X-1194.451 Y0.843
X-1194.583 Y0.771
X-1194.703 Y0.681
X-1194.808 Y0.574
X-1194.896 Y0.452
X-1194.966 Y0.32
X-1195.016 Y0.178
X-1195.045 Y0.031
X-1195.054 Y-0.119
X-1195.042 Y-0.268
X-1195.009 Y-0.414
X-1194.956 Y-0.555
X-1194.885 Y-0.687
X-1194.797 Y-0.809
X-1194.694 Y-0.917
X-1194.578 Y-1.012
X-1194.45 Y-1.091
X-1194.313 Y-1.152
X-1194.17 Y-1.196
X-1194.022 Y-1.222
X-1193.872 Y-1.228
X-1193.723 Y-1.217
X-1193.576 Y-1.187
X-1193.433 Y-1.14
X-1193.297 Y-1.076
X-1193.17 Y-0.996
X-1193.053 Y-0.902
X-1192.948 Y-0.796
X-1192.856 Y-0.677
X-1192.778 Y-0.549
X-1192.715 Y-0.413
X-1192.668 Y-0.27
X-1192.637 Y-0.124
X-1192.623 Y0.026
X-1192.625 Y0.176
X-1192.643 Y0.325
X-1192.678 Y0.471
X-1192.728 Y0.612
X-1192.793 Y0.747
X-1192.872 Y0.875
X-1192.964 Y0.994
X-1193.067 Y1.102
X-1193.182 Y1.199
X-1193.306 Y1.284
X-1193.438 Y1.355
X-1193.576 Y1.413
X-1193.719 Y1.456
X-1193.867 Y1.485
X-1194.016 Y1.499
X-1194.166 Y1.498
X-1194.315 Y1.483
X-1194.462 Y1.453
X-1194.606 Y1.409
X-1194.744 Y1.351
X-1194.876 Y1.281
X-1195.002 Y1.198
X-1195.118 Y1.104
X-1195.226 Y0.999
X-1195.323 Y0.885
X-1195.409 Y0.762
X-1195.484 Y0.632
X-1195.546 Y0.496
X-1195.596 Y0.354
X-1195.633 Y0.209
X-1195.656 Y0.061
X-1195.666 Y-0.089
X-1195.663 Y-0.239
X-1195.646 Y-0.388
X-1195.616 Y-0.535
X-1195.574 Y-0.679
X-1195.52 Y-0.819
X-1195.453 Y-0.953
X-1195.375 Y-1.081
X-1195.287 Y-1.202
X-1195.188 Y-1.316
X-1195.081 Y-1.42
X-1194.964 Y-1.515
X-1194.841 Y-1.6
X-1194.71 Y-1.674
X-1194.574 Y-1.737
X-1194.434 Y-1.789
X-1194.289 Y-1.829
X-1194.142 Y-1.857
X-1193.993 Y-1.874
X-1193.843 Y-1.878
X-1193.693 Y-1.87
X-1193.544 Y-1.85
X-1193.398 Y-1.818
X-1193.254 Y-1.775
X-1193.114 Y-1.72
X-1192.979 Y-1.655
X-1192.849 Y-1.58
X-1192.726 Y-1.494
X-1192.61 Y-1.4
X-1192.501 Y-1.296
X-1192.401 Y-1.185
X-1192.309 Y-1.066
X-1192.226 Y-0.941
X-1192.154 Y-0.81
X-1192.091 Y-0.674
X-1192.038 Y-0.533
X-1191.997 Y-0.389
X-1191.966 Y-0.242
X-1191.946 Y-0.093
X-1191.937 Y0.056
X-1191.939 Y0.206
X-1191.952 Y0.356
X-1191.975 Y0.504
X-1192.01 Y0.65
X-1192.055 Y0.793
X-1192.11 Y0.932
X-1192.175 Y1.068
X-1192.249 Y1.198
X-1192.332 Y1.323
X-1192.424 Y1.441
X-1192.524 Y1.553
X-1192.632 Y1.658
X-1192.746 Y1.754
X-1192.868 Y1.843
X-1192.995 Y1.923
X-1193.127 Y1.993
X-1193.263 Y2.055
X-1193.404 Y2.108
X-1193.548 Y2.15
X-1193.694 Y2.183
X-1193.843 Y2.205
X-1193.992 Y2.218
X-1194.142 Y2.221
X-1194.292 Y2.213
X-1194.441 Y2.196
X-1194.588 Y2.169
X-1194.734 Y2.132
X-1194.876 Y2.085
X-1195.016 Y2.03
X-1195.151 Y1.965
X-1195.282 Y1.892
X-1195.408 Y1.81
X-1195.528 Y1.72
X-1195.642 Y1.623
X-1195.75 Y1.519
X-1195.851 Y1.408
X-1195.945 Y1.291
X-1196.031 Y1.168
X-1196.109 Y1.04
X-1196.178 Y0.907
X-1196.24 Y0.77
X-1196.292 Y0.63
X-1196.336 Y0.486
X-1196.371 Y0.34
X-1196.396 Y0.193
X-1196.413 Y0.043
X-1196.42 Y-0.106
X-1196.418 Y-0.256
X-1196.407 Y-0.406
X-1196.386 Y-0.555
X-1196.357 Y-0.702
X-1196.319 Y-0.847
X-1196.272 Y-0.989
X-1196.216 Y-1.129
X-1196.153 Y-1.264
X-1196.081 Y-1.396
X-1196.001 Y-1.523
X-1195.915 Y-1.646
X-1195.82 Y-1.762
X-1195.72 Y-1.873
X-1195.613 Y-1.978
X-1195.499 Y-2.077
X-1195.381 Y-2.169
X-1195.257 Y-2.253
X-1195.128 Y-2.33
X-1194.995 Y-2.4
X-1194.859 Y-2.462
X-1194.719 Y-2.516
X-1194.576 Y-2.561
X-1194.431 Y-2.599
X-1194.283 Y-2.628
X-1194.135 Y-2.648
X-1193.985 Y-2.66
X-1193.834 Y-2.664
X-1193.684 Y-2.659
X-1193.535 Y-2.646
X-1193.385 Y-2.623
X-1193.235 Y-2.593
X-1193.09 Y-2.554
X-1192.947 Y-2.508
X-1192.804 Y-2.452
X-1192.664 Y-2.388
X-1192.53 Y-2.317
X-1192.399 Y-2.239
X-1192.27 Y-2.151
X-1192.147 Y-2.057
X-1192.031 Y-1.957
X-1191.92 Y-1.85
X-1191.812 Y-1.734
X-1191.712 Y-1.614
X-1191.62 Y-1.489
X-1191.535 Y-1.358
X-1191.455 Y-1.22
X-1191.384 Y-1.079
X-1191.321 Y-0.935
X-1191.267 Y-0.787
X-1191.22 Y-0.633
X-1191.181 Y-0.477
X-1191.152 Y-0.321
X-1191.132 Y-0.163
X-1191.12 Y-0.002
X-1191.117 Y0.161
X-1191.124 Y0.323
X-1191.139 Y0.482
X-1191.164 Y0.642
X-1191.198 Y0.803
X-1191.241 Y0.962
X-1191.293 Y1.117
X-1191.353 Y1.269
X-1191.422 Y1.418
X-1191.501 Y1.565
X-1191.588 Y1.707
X-1191.682 Y1.844
X-1191.784 Y1.975
X-1191.893 Y2.1
X-1192.01 Y2.221
X-1192.135 Y2.335
X-1192.266 Y2.442
X-1192.402 Y2.541
X-1192.543 Y2.632
X-1192.691 Y2.716
X-1192.844 Y2.792
X-1193.002 Y2.86
X-1193.164 Y2.918
X-1193.328 Y2.967
X-1193.494 Y3.007
X-1193.663 Y3.038
X-1193.836 Y3.059
X-1194.01 Y3.07
X-1194.185 Y3.072
X-1194.359 Y3.064
X-1194.533 Y3.046
X-1194.705 Y3.018
X-1194.877 Y2.981
X-1195.047 Y2.933
X-1195.215 Y2.876
X-1195.38 Y2.809
X-1195.542 Y2.733
X-1195.698 Y2.648
X-1195.849 Y2.555
X-1195.995 Y2.452
X-1196.136 Y2.341
X-1196.272 Y2.222
X-1196.401 Y2.095
X-1196.523 Y1.96
X-1196.637 Y1.818
X-1196.743 Y1.67
X-1196.841 Y1.517
X-1196.93 Y1.357
X-1197.01 Y1.193
X-1197.081 Y1.024
X-1197.143 Y0.851
X-1197.195 Y0.673
X-1197.237 Y0.492
X-1197.269 Y0.309
X-1197.29 Y0.123
X-1197.302 Y-0.064
Y-0.251
X-1197.292 Y-0.438
X-1197.272 Y-0.625
X-1197.24 Y-0.811
X-1197.199 Y-0.995
X-1197.147 Y-1.177
X-1197.085 Y-1.356
X-1197.012 Y-1.532
X-1196.93 Y-1.704
X-1196.837 Y-1.871
X-1196.735 Y-2.034
X-1196.624 Y-2.191
X-1196.504 Y-2.342
X-1196.375 Y-2.486
X-1196.237 Y-2.624
X-1196.092 Y-2.753
X-1195.94 Y-2.875
X-1195.78 Y-2.988
X-1195.614 Y-3.092
X-1195.443 Y-3.186
X-1195.265 Y-3.272
X-1195.083 Y-3.347
X-1194.896 Y-3.412
X-1194.705 Y-3.466
X-1194.511 Y-3.51
X-1194.315 Y-3.543
X-1194.117 Y-3.565
X-1193.917 Y-3.575
X-1193.716
X-1193.515 Y-3.563
X-1193.315 Y-3.539
X-1193.115 Y-3.505
X-1192.918 Y-3.459
X-1192.723 Y-3.402
X-1192.531 Y-3.333
X-1192.343 Y-3.254
X-1192.159 Y-3.165
X-1191.98 Y-3.065
X-1191.807 Y-2.954
X-1191.639 Y-2.834
X-1191.479 Y-2.704
X-1191.325 Y-2.565
X-1191.179 Y-2.417
X-1191.042 Y-2.261
X-1190.913 Y-2.097
X-1190.793 Y-1.926
X-1190.683 Y-1.748
X-1190.583 Y-1.563
X-1190.493 Y-1.373
X-1190.414 Y-1.177
X-1190.345 Y-0.977
X-1190.288 Y-0.773
X-1190.243 Y-0.565
X-1190.209 Y-0.355
X-1190.187 Y-0.143
X-1190.177 Y0.071
X-1190.179 Y0.285
X-1190.194 Y0.5
X-1190.22 Y0.714
X-1190.258 Y0.926
X-1190.309 Y1.137
X-1190.371 Y1.344
X-1190.445 Y1.549
X-1190.531 Y1.749
X-1190.628 Y1.945
X-1190.736 Y2.136
X-1190.855 Y2.32
X-1190.984 Y2.498
X-1191.124 Y2.668
X-1191.273 Y2.831
X-1191.432 Y2.986
X-1191.6 Y3.132
X-1191.776 Y3.268
X-1191.959 Y3.395
X-1192.15 Y3.511
X-1192.348 Y3.617
X-1192.552 Y3.711
X-1192.761 Y3.795
X-1192.975 Y3.866
X-1193.193 Y3.925
X-1193.415 Y3.972
X-1193.639 Y4.007
X-1193.866 Y4.029
X-1194.094 Y4.038
X-1194.323 Y4.034
X-1194.552 Y4.018
X-1194.779 Y3.988
X-1195.006 Y3.946
X-1195.23 Y3.891
X-1195.451 Y3.823
X-1195.668 Y3.743
X-1195.881 Y3.65
X-1196.089 Y3.545
X-1196.292 Y3.428
X-1196.488 Y3.3
X-1196.676 Y3.161
X-1196.857 Y3.011
X-1197.029 Y2.851
X-1197.193 Y2.681
X-1197.347 Y2.502
X-1197.491 Y2.314
X-1197.625 Y2.117
X-1197.747 Y1.913
X-1197.858 Y1.702
X-1197.958 Y1.484
X-1198.045 Y1.261
X-1198.119 Y1.033
X-1198.181 Y0.8
X-1198.229 Y0.564
X-1198.265 Y0.325
X-1198.286 Y0.084
X-1198.295 Y-0.159
X-1198.289 Y-0.402
X-1198.27 Y-0.644
X-1198.237 Y-0.886
X-1198.19 Y-1.127
X-1198.13 Y-1.364
X-1198.057 Y-1.599
X-1197.97 Y-1.829
X-1197.87 Y-2.055
X-1197.757 Y-2.275
X-1197.632 Y-2.489
X-1197.494 Y-2.696
X-1197.345 Y-2.896
X-1197.185 Y-3.087
X-1197.013 Y-3.269
X-1196.832 Y-3.441
X-1196.764 Y-3.499
X-1196.689 Y-3.559
X-1196.611 Y-3.616
X-1196.531 Y-3.669
X-1196.102 Y-3.937
X-1196.028 Y-3.983
X-1195.964 Y-4.022
X-1195.9 Y-4.051
X-1195.296 Y-4.264
X-1195.095 Y-4.334
X-1194.994 Y-4.365
X-1194.893 Y-4.38
X-1194.088 Y-4.471
X-1193.987 Y-4.477
X-1193.886 Y-4.468
X-1193.081 Y-4.378
X-1192.98 Y-4.359
X-1192.88 Y-4.325
X-1192.275 Y-4.113
X-1192.074 Y-4.04
X-1191.972 Y-3.983
X-1191.269 Y-3.544
X-1191.174 Y-3.473
X-1191.067 Y-3.366
X-1190.664 Y-2.96
X-1190.49 Y-2.775
X-1190.463 Y-2.737
X-1190.06 Y-2.101
X-1189.979 Y-1.97
X-1189.9 Y-1.768
X-1189.657 Y-1.07
X-1189.63 Y-0.963
X-1189.583 Y-0.56
X-1189.526 Y-0.057
X-1189.525 Y0.044
X-1189.57 Y0.447
X-1189.628 Y0.95
X-1189.651 Y1.051
X-1189.93 Y1.856
X-1189.973 Y1.957
X-1190.033 Y2.057
X-1190.463 Y2.737
X-1190.509 Y2.8
X-1190.568 Y2.863
X-1191.168 Y3.467
X-1191.218 Y3.51
X-1191.269 Y3.544
X-1191.873 Y3.921
X-1192.074 Y4.04
X-1192.155 Y4.071
X-1192.88 Y4.325
X-1192.98 Y4.359
X-1193.081 Y4.378
X-1193.936 Y4.474
X-1194 Y4.477
X-1194.064 Y4.474
X-1194.893 Y4.38
X-1194.994 Y4.365
X-1195.095 Y4.334
X-1195.845 Y4.071
X-1195.9 Y4.051
X-1196.102 Y3.937
X-1196.706 Y3.56
X-1196.769 Y3.518
X-1196.831 Y3.467
X-1197.109 Y3.189
X-1197.432 Y2.863
X-1197.511 Y2.774
X-1197.585 Y2.662
X-1197.967 Y2.057
X-1198.027 Y1.957
X-1198.07 Y1.856
X-1198.349 Y1.051
X-1198.372 Y0.95
X-1198.453 Y0.245
X-1198.475 Y0.044
X-1198.474 Y-0.057
X-1198.394 Y-0.762
X-1198.37 Y-0.963
X-1198.317 Y-1.144
X-1198.1 Y-1.768
X-1198.02 Y-1.97
X-1197.895 Y-2.171
X-1197.64 Y-2.574
X-1197.51 Y-2.775
X-1197.31 Y-2.986
X-1196.907 Y-3.392
X-1196.806 Y-3.488
X-1196.706 Y-3.56
X-1196.531 Y-3.669
X-1196.447 Y-3.709
X-1196.358 Y-3.736
X-1196.294 Y-3.743 Z10.004
X-1196.23 Y-3.75 Z10.014
X-1196.155 Y-3.736 Z10.036
X-1196.084 Y-3.723 Z10.069
X-1196.017 Y-3.71 Z10.11
X-1195.957 Y-3.674 Z10.169
X-1195.905 Y-3.643 Z10.238
X-1195.863 Y-3.617 Z10.315
X-1195.832 Y-3.598 Z10.398
X-1195.818 Y-3.585 Z10.464
X-1195.809 Y-3.577 Z10.532
X-1195.806 Y-3.574 Z10.6
G0 Z36
X0 Y-576
Z18.6
G1 Z18 F850
Z10 F283.3
X0.012 Y-576.035 F850
X0.05 Y-576.038
X0.072 Y-576.007
X0.071 Y-575.97
X0.052 Y-575.937
X0.02 Y-575.918
X-0.018 Y-575.916
X-0.052 Y-575.93
X-0.078 Y-575.958
X-0.089 Y-575.994
X-0.084 Y-576.031
X-0.067 Y-576.064
X-0.041 Y-576.091
X-0.008 Y-576.109
X0.029 Y-576.114
X0.066 Y-576.108
X0.099 Y-576.09
X0.126 Y-576.064
X0.144 Y-576.031
X0.163 Y-575.959
X0.143 Y-575.886
X0.092 Y-575.831
X0.024 Y-575.8
X-0.051 Y-575.799
X-0.121 Y-575.826
X-0.177 Y-575.876
X-0.212 Y-575.943
X-0.223 Y-576.017
X-0.211 Y-576.091
X-0.178 Y-576.158
X-0.125 Y-576.212
X-0.06 Y-576.249
X0.013 Y-576.266
X0.088 Y-576.262
X0.23 Y-576.214
X0.332 Y-576.104
X0.374 Y-575.96
X0.352 Y-575.812
X0.275 Y-575.683
X0.155 Y-575.593
X0.011 Y-575.55
X-0.139 Y-575.56
X-0.277 Y-575.618
X-0.389 Y-575.718
X-0.465 Y-575.847
X-0.499 Y-575.993
X-0.49 Y-576.143
X-0.437 Y-576.283
X-0.348 Y-576.404
X-0.229 Y-576.495
X-0.092 Y-576.555
X0.057 Y-576.578
X0.206 Y-576.565
X0.348 Y-576.515
X0.474 Y-576.434
X0.577 Y-576.325
X0.654 Y-576.197
X0.699 Y-576.054
X0.714 Y-575.904
X0.696 Y-575.756
X0.648 Y-575.613
X0.572 Y-575.484
X0.471 Y-575.373
X0.351 Y-575.283
X0.216 Y-575.219
X0.071 Y-575.181
X-0.079 Y-575.171
X-0.228 Y-575.188
X-0.372 Y-575.231
X-0.505 Y-575.3
X-0.625 Y-575.39
X-0.726 Y-575.501
X-0.808 Y-575.626
X-0.868 Y-575.764
X-0.904 Y-575.91
X-0.915 Y-576.059
X-0.902 Y-576.209
X-0.866 Y-576.354
X-0.807 Y-576.492
X-0.728 Y-576.62
X-0.63 Y-576.734
X-0.516 Y-576.831
X-0.39 Y-576.911
X-0.252 Y-576.972
X-0.108 Y-577.012
X0.041 Y-577.031
X0.191 Y-577.028
X0.339 Y-577.005
X0.483 Y-576.961
X0.619 Y-576.898
X0.745 Y-576.817
X0.859 Y-576.719
X0.959 Y-576.608
X1.044 Y-576.484
X1.111 Y-576.35
X1.161 Y-576.209
X1.192 Y-576.062
X1.205 Y-575.912
X1.199 Y-575.763
X1.173 Y-575.615
X1.131 Y-575.471
X1.07 Y-575.333
X0.994 Y-575.204
X0.903 Y-575.085
X0.798 Y-574.978
X0.681 Y-574.884
X0.555 Y-574.803
X0.419 Y-574.739
X0.278 Y-574.69
X0.131 Y-574.657
X-0.018 Y-574.641
X-0.168 Y-574.642
X-0.317 Y-574.66
X-0.463 Y-574.694
X-0.605 Y-574.743
X-0.74 Y-574.808
X-0.868 Y-574.887
X-0.986 Y-574.979
X-1.094 Y-575.083
X-1.191 Y-575.198
X-1.275 Y-575.322
X-1.345 Y-575.454
X-1.402 Y-575.593
X-1.443 Y-575.737
X-1.47 Y-575.885
X-1.483 Y-576.034
X-1.479 Y-576.184
X-1.462 Y-576.333
X-1.429 Y-576.48
X-1.382 Y-576.622
X-1.322 Y-576.76
X-1.249 Y-576.891
X-1.163 Y-577.014
X-1.066 Y-577.128
X-0.959 Y-577.233
X-0.842 Y-577.327
X-0.717 Y-577.41
X-0.585 Y-577.481
X-0.446 Y-577.539
X-0.303 Y-577.584
X-0.157 Y-577.616
X-0.008 Y-577.635
X0.142 Y-577.64
X0.292 Y-577.631
X0.44 Y-577.609
X0.586 Y-577.574
X0.728 Y-577.526
X0.866 Y-577.466
X0.997 Y-577.395
X1.122 Y-577.311
X1.24 Y-577.218
X1.348 Y-577.115
X1.448 Y-577.002
X1.538 Y-576.882
X1.617 Y-576.755
X1.685 Y-576.621
X1.742 Y-576.482
X1.787 Y-576.339
X1.82 Y-576.193
X1.84 Y-576.044
X1.849 Y-575.895
X1.845 Y-575.745
X1.829 Y-575.596
X1.802 Y-575.448
X1.762 Y-575.303
X1.711 Y-575.162
X1.649 Y-575.026
X1.576 Y-574.895
X1.493 Y-574.77
X1.401 Y-574.651
X1.3 Y-574.541
X1.19 Y-574.438
X1.073 Y-574.345
X0.949 Y-574.26
X0.819 Y-574.186
X0.683 Y-574.121
X0.544 Y-574.067
X0.4 Y-574.024
X0.253 Y-573.991
X0.105 Y-573.97
X-0.045 Y-573.96
X-0.195 Y-573.961
X-0.344 Y-573.973
X-0.492 Y-573.996
X-0.639 Y-574.029
X-0.782 Y-574.074
X-0.922 Y-574.128
X-1.057 Y-574.193
X-1.187 Y-574.267
X-1.312 Y-574.35
X-1.43 Y-574.442
X-1.542 Y-574.543
X-1.646 Y-574.65
X-1.743 Y-574.766
X-1.831 Y-574.887
X-1.91 Y-575.014
X-1.98 Y-575.147
X-2.041 Y-575.284
X-2.092 Y-575.425
X-2.133 Y-575.569
X-2.165 Y-575.716
X-2.186 Y-575.864
X-2.197 Y-576.014
X-2.198 Y-576.164
X-2.189 Y-576.314
X-2.169 Y-576.462
X-2.14 Y-576.61
X-2.101 Y-576.754
X-2.052 Y-576.896
X-1.994 Y-577.035
X-1.928 Y-577.169
X-1.852 Y-577.299
X-1.768 Y-577.423
X-1.676 Y-577.541
X-1.577 Y-577.654
X-1.47 Y-577.76
X-1.357 Y-577.858
X-1.238 Y-577.949
X-1.113 Y-578.032
X-0.984 Y-578.107
X-0.849 Y-578.174
X-0.711 Y-578.232
X-0.569 Y-578.281
X-0.425 Y-578.321
X-0.278 Y-578.352
X-0.129 Y-578.374
X0.02 Y-578.386
X0.17 Y-578.389
X0.32 Y-578.383
X0.469 Y-578.367
X0.617 Y-578.342
X0.763 Y-578.309
X0.907 Y-578.266
X1.048 Y-578.214
X1.185 Y-578.155
X1.319 Y-578.086
X1.448 Y-578.01
X1.573 Y-577.927
X1.692 Y-577.836
X1.806 Y-577.738
X1.913 Y-577.633
X2.014 Y-577.522
X2.108 Y-577.405
X2.195 Y-577.283
X2.275 Y-577.156
X2.348 Y-577.025
X2.412 Y-576.889
X2.468 Y-576.75
X2.517 Y-576.608
X2.557 Y-576.464
X2.588 Y-576.317
X2.611 Y-576.169
X2.625 Y-576.02
X2.631 Y-575.87
X2.628 Y-575.72
X2.617 Y-575.57
X2.597 Y-575.421
X2.568 Y-575.273
X2.531 Y-575.127
X2.487 Y-574.984
X2.433 Y-574.843
X2.372 Y-574.703
X2.303 Y-574.569
X2.227 Y-574.439
X2.142 Y-574.311
X2.05 Y-574.188
X1.953 Y-574.072
X1.848 Y-573.961
X1.735 Y-573.853
X1.617 Y-573.753
X1.495 Y-573.661
X1.367 Y-573.575
X1.231 Y-573.494
X1.092 Y-573.422
X0.951 Y-573.359
X0.805 Y-573.303
X0.653 Y-573.254
X0.499 Y-573.215
X0.346 Y-573.184
X0.19 Y-573.162
X0.029 Y-573.149
X-0.131 Y-573.144
X-0.29 Y-573.149
X-0.449 Y-573.162
X-0.608 Y-573.185
X-0.768 Y-573.217
X-0.925 Y-573.258
X-1.078 Y-573.307
X-1.229 Y-573.365
X-1.379 Y-573.432
X-1.525 Y-573.508
X-1.666 Y-573.592
X-1.801 Y-573.683
X-1.932 Y-573.782
X-2.059 Y-573.89
X-2.18 Y-574.005
X-2.294 Y-574.126
X-2.4 Y-574.253
X-2.499 Y-574.386
X-2.592 Y-574.526
X-2.677 Y-574.673
X-2.754 Y-574.823
X-2.822 Y-574.977
X-2.881 Y-575.134
X-2.932 Y-575.296
X-2.974 Y-575.463
X-3.006 Y-575.632
X-3.029 Y-575.801
X-3.042 Y-575.972
X-3.046 Y-576.143
X-3.04 Y-576.315
X-3.024 Y-576.488
X-2.998 Y-576.661
X-2.963 Y-576.832
X-2.918 Y-577.001
X-2.864 Y-577.166
X-2.8 Y-577.329
X-2.727 Y-577.489
X-2.644 Y-577.645
X-2.553 Y-577.797
X-2.452 Y-577.945
X-2.344 Y-578.086
X-2.228 Y-578.221
X-2.104 Y-578.349
X-1.973 Y-578.47
X-1.835 Y-578.584
X-1.69 Y-578.691
X-1.538 Y-578.79
X-1.38 Y-578.881
X-1.217 Y-578.963
X-1.051 Y-579.035
X-0.88 Y-579.098
X-0.705 Y-579.151
X-0.528 Y-579.195
X-0.348 Y-579.228
X-0.165 Y-579.252
X0.02 Y-579.265
X0.206 Y-579.268
X0.392 Y-579.26
X0.578 Y-579.242
X0.763 Y-579.213
X0.946 Y-579.174
X1.126 Y-579.124
X1.305 Y-579.065
X1.48 Y-578.995
X1.65 Y-578.915
X1.817 Y-578.826
X1.979 Y-578.727
X2.136 Y-578.619
X2.286 Y-578.502
X2.43 Y-578.376
X2.568 Y-578.242
X2.698 Y-578.1
X2.82 Y-577.95
X2.933 Y-577.793
X3.038 Y-577.63
X3.134 Y-577.461
X3.221 Y-577.286
X3.297 Y-577.106
X3.364 Y-576.922
X3.42 Y-576.734
X3.465 Y-576.543
X3.5 Y-576.348
X3.524 Y-576.152
X3.537 Y-575.954
X3.539 Y-575.755
X3.529 Y-575.557
X3.508 Y-575.358
X3.476 Y-575.16
X3.433 Y-574.964
X3.379 Y-574.771
X3.313 Y-574.58
X3.237 Y-574.392
X3.151 Y-574.209
X3.054 Y-574.031
X2.946 Y-573.858
X2.829 Y-573.691
X2.702 Y-573.53
X2.567 Y-573.376
X2.422 Y-573.23
X2.269 Y-573.092
X2.108 Y-572.962
X1.94 Y-572.842
X1.764 Y-572.731
X1.583 Y-572.629
X1.395 Y-572.538
X1.202 Y-572.457
X1.005 Y-572.388
X0.803 Y-572.329
X0.598 Y-572.281
X0.39 Y-572.245
X0.18 Y-572.221
X-0.032 Y-572.209
X-0.244
X-0.457 Y-572.22
X-0.669 Y-572.244
X-0.88 Y-572.279
X-1.089 Y-572.327
X-1.296 Y-572.386
X-1.499 Y-572.457
X-1.699 Y-572.54
X-1.894 Y-572.634
X-2.083 Y-572.739
X-2.267 Y-572.854
X-2.445 Y-572.981
X-2.616 Y-573.117
X-2.779 Y-573.263
X-2.934 Y-573.418
X-3.08 Y-573.583
X-3.218 Y-573.755
X-3.345 Y-573.936
X-3.463 Y-574.124
X-3.57 Y-574.318
X-3.666 Y-574.519
X-3.75 Y-574.725
X-3.824 Y-574.936
X-3.885 Y-575.152
X-3.934 Y-575.371
X-3.971 Y-575.594
X-3.995 Y-575.818
X-4.007 Y-576.044
X-4.006 Y-576.27
X-3.992 Y-576.497
X-3.966 Y-576.723
X-3.926 Y-576.948
X-3.874 Y-577.171
X-3.809 Y-577.391
X-3.732 Y-577.607
X-3.643 Y-577.819
X-3.541 Y-578.027
X-3.428 Y-578.228
X-3.304 Y-578.424
X-3.168 Y-578.612
X-3.021 Y-578.794
X-2.864 Y-578.966
X-2.698 Y-579.131
X-2.522 Y-579.285
X-2.337 Y-579.43
X-2.144 Y-579.565
X-1.943 Y-579.689
X-1.735 Y-579.801
X-1.521 Y-579.902
X-1.3 Y-579.991
X-1.075 Y-580.067
X-0.845 Y-580.131
X-0.611 Y-580.182
X-0.375 Y-580.22
X-0.136 Y-580.244
X0.105 Y-580.255
X0.346 Y-580.253
X0.587 Y-580.236
X0.827 Y-580.207
X1.066 Y-580.163
X1.302 Y-580.106
X1.535 Y-580.036
X1.765 Y-579.953
X1.989 Y-579.856
X2.209 Y-579.747
X2.423 Y-579.625
X2.629 Y-579.492
X2.829 Y-579.346
X3.02 Y-579.189
X3.203 Y-579.021
X3.376 Y-578.843
X3.539 Y-578.655
X3.692 Y-578.458
X3.833 Y-578.252
X3.964 Y-578.038
X4.011 Y-577.949
X4.057 Y-577.858
X4.097 Y-577.764
X4.134 Y-577.669
X4.279 Y-577.252
X4.35 Y-577.051
X4.373 Y-576.95
X4.453 Y-576.245
X4.475 Y-576.044
Y-575.943
X4.395 Y-575.238
X4.372 Y-575.037
X4.317 Y-574.855
X4.099 Y-574.232
X4.019 Y-574.03
X3.895 Y-573.829
X3.642 Y-573.426
X3.511 Y-573.223
X3.31 Y-573.013
X2.907 Y-572.61
X2.806 Y-572.513
X2.706 Y-572.441
X2.03 Y-572.017
X1.965 Y-571.978
X1.9 Y-571.948
X1.095 Y-571.666
X0.994 Y-571.635
X0.893 Y-571.62
X0.088 Y-571.529
X-0.013 Y-571.523
X-0.114 Y-571.532
X-0.919 Y-571.622
X-1.02 Y-571.641
X-1.12 Y-571.675
X-1.725 Y-571.886
X-1.926 Y-571.959
X-2.03 Y-572.017
X-2.731 Y-572.457
X-2.825 Y-572.529
X-2.933 Y-572.635
X-3.336 Y-573.038
X-3.512 Y-573.225
X-3.537 Y-573.26
X-3.94 Y-573.901
X-4.019 Y-574.03
X-4.099 Y-574.232
X-4.343 Y-574.928
X-4.372 Y-575.037
X-4.395 Y-575.238
X-4.475 Y-575.943
Y-576.044
X-4.408 Y-576.648
X-4.373 Y-576.95
X-4.35 Y-577.051
X-4.068 Y-577.856
X-4.026 Y-577.957
X-3.966 Y-578.057
X-3.537 Y-578.74
X-3.492 Y-578.801
X-3.434 Y-578.863
X-2.83 Y-579.467
X-2.781 Y-579.509
X-2.731 Y-579.543
X-2.127 Y-579.922
X-1.926 Y-580.041
X-1.847 Y-580.071
X-1.12 Y-580.325
X-1.02 Y-580.359
X-0.919 Y-580.378
X-0.063 Y-580.474
X0 Y-580.477
X0.064 Y-580.474
X0.893 Y-580.38
X0.994 Y-580.365
X1.095 Y-580.334
X1.847 Y-580.071
X1.9 Y-580.052
X2.001 Y-580.001
X2.706 Y-579.559
X2.768 Y-579.518
X2.829 Y-579.467
X3.109 Y-579.189
X3.434 Y-578.863
X3.511 Y-578.777
X3.586 Y-578.662
X3.966 Y-578.057
X4.026 Y-577.957
X4.068 Y-577.856
X4.134 Y-577.669
X4.154 Y-577.579
X4.161 Y-577.486
X4.147 Y-577.414 Z10.005
X4.133 Y-577.342 Z10.018
X4.12 Y-577.273 Z10.041
X4.078 Y-577.206 Z10.079
X4.04 Y-577.144 Z10.129
X4.006 Y-577.088 Z10.188
X3.962 Y-577.052 Z10.259
X3.928 Y-577.022 Z10.337
X3.902 Y-577.001 Z10.421
X3.886 Y-576.988 Z10.509
X3.881 Y-576.983 Z10.6
G0 Z36
X0 Y0
Z18.6
G1 Z18 F850
Z10 F283.3
X-0.036 Y0.013 F850
X-0.061 Y-0.016
X-0.05 Y-0.052
X-0.021 Y-0.075
X0.017 Y-0.08
X0.052 Y-0.066
X0.077 Y-0.039
X0.087 Y-0.003
X0.081 Y0.034
X0.061 Y0.066
X0.029 Y0.085
X-0.008 Y0.092
X-0.046 Y0.089
X-0.08 Y0.074
X-0.108 Y0.048
X-0.126 Y0.016
X-0.133 Y-0.021
X-0.129 Y-0.059
X-0.115 Y-0.093
X-0.069 Y-0.153
X0 Y-0.182
X0.075 Y-0.178
X0.141 Y-0.143
X0.189 Y-0.085
X0.212 Y-0.014
X0.207 Y0.061
X0.177 Y0.129
X0.126 Y0.185
X0.061 Y0.222
X-0.012 Y0.237
X-0.087 Y0.23
X-0.157 Y0.202
X-0.216 Y0.156
X-0.259 Y0.095
X-0.311 Y-0.046
X-0.289 Y-0.194
X-0.202 Y-0.317
X-0.073 Y-0.393
X0.076 Y-0.412
X0.221 Y-0.375
X0.344 Y-0.29
X0.43 Y-0.167
X0.471 Y-0.022
X0.463 Y0.127
X0.41 Y0.268
X0.318 Y0.386
X0.194 Y0.471
X0.052 Y0.518
X-0.098 Y0.524
X-0.244 Y0.488
X-0.376 Y0.418
X-0.487 Y0.317
X-0.57 Y0.192
X-0.619 Y0.05
X-0.635 Y-0.099
X-0.615 Y-0.247
X-0.562 Y-0.388
X-0.479 Y-0.512
X-0.372 Y-0.617
X-0.244 Y-0.696
X-0.103 Y-0.747
X0.045 Y-0.769
X0.195 Y-0.76
X0.34 Y-0.722
X0.475 Y-0.656
X0.596 Y-0.567
X0.697 Y-0.456
X0.777 Y-0.329
X0.832 Y-0.19
X0.862 Y-0.043
X0.866 Y0.107
X0.843 Y0.255
X0.797 Y0.398
X0.726 Y0.53
X0.635 Y0.649
X0.526 Y0.752
X0.401 Y0.835
X0.264 Y0.898
X0.12 Y0.938
X-0.029 Y0.955
X-0.179 Y0.95
X-0.326 Y0.922
X-0.468 Y0.874
X-0.601 Y0.804
X-0.723 Y0.716
X-0.831 Y0.612
X-0.922 Y0.493
X-0.997 Y0.363
X-1.052 Y0.224
X-1.088 Y0.078
X-1.103 Y-0.071
X-1.098 Y-0.221
X-1.074 Y-0.369
X-1.03 Y-0.513
X-0.968 Y-0.649
X-0.888 Y-0.776
X-0.793 Y-0.892
X-0.684 Y-0.995
X-0.563 Y-1.084
X-0.432 Y-1.157
X-0.293 Y-1.213
X-0.148 Y-1.252
X0 Y-1.273
X0.15 Y-1.276
X0.299 Y-1.261
X0.446 Y-1.229
X0.588 Y-1.181
X0.723 Y-1.115
X0.85 Y-1.035
X0.967 Y-0.941
X1.072 Y-0.835
X1.165 Y-0.717
X1.244 Y-0.59
X1.309 Y-0.455
X1.359 Y-0.313
X1.393 Y-0.167
X1.411 Y-0.018
X1.414 Y0.132
X1.4 Y0.281
X1.37 Y0.428
X1.326 Y0.572
X1.266 Y0.709
X1.193 Y0.84
X1.107 Y0.963
X1.009 Y1.076
X0.899 Y1.179
X0.78 Y1.27
X0.653 Y1.35
X0.518 Y1.416
X0.378 Y1.468
X0.233 Y1.507
X0.085 Y1.531
X-0.065 Y1.541
X-0.215 Y1.537
X-0.364 Y1.519
X-0.51 Y1.486
X-0.653 Y1.441
X-0.791 Y1.382
X-0.923 Y1.31
X-1.047 Y1.227
X-1.164 Y1.132
X-1.271 Y1.027
X-1.369 Y0.914
X-1.456 Y0.791
X-1.531 Y0.662
X-1.595 Y0.526
X-1.647 Y0.385
X-1.686 Y0.24
X-1.712 Y0.093
X-1.725 Y-0.057
Y-0.207
X-1.713 Y-0.356
X-1.687 Y-0.504
X-1.65 Y-0.649
X-1.6 Y-0.791
X-1.538 Y-0.927
X-1.465 Y-1.058
X-1.381 Y-1.183
X-1.288 Y-1.3
X-1.185 Y-1.409
X-1.073 Y-1.509
X-0.954 Y-1.6
X-0.827 Y-1.681
X-0.695 Y-1.752
X-0.557 Y-1.811
X-0.415 Y-1.859
X-0.27 Y-1.896
X-0.122 Y-1.921
X0.028 Y-1.935
X0.177 Y-1.937
X0.327 Y-1.927
X0.476 Y-1.905
X0.622 Y-1.872
X0.765 Y-1.828
X0.905 Y-1.773
X1.04 Y-1.708
X1.17 Y-1.632
X1.293 Y-1.547
X1.41 Y-1.453
X1.519 Y-1.351
X1.621 Y-1.24
X1.714 Y-1.122
X1.798 Y-0.998
X1.873 Y-0.868
X1.938 Y-0.733
X1.993 Y-0.593
X2.037 Y-0.45
X2.071 Y-0.304
X2.095 Y-0.156
X2.108 Y-0.006
X2.11 Y0.144
X2.102 Y0.293
X2.082 Y0.442
X2.053 Y0.589
X2.013 Y0.734
X1.963 Y0.875
X1.903 Y1.013
X1.834 Y1.146
X1.756 Y1.274
X1.669 Y1.396
X1.574 Y1.512
X1.472 Y1.622
X1.362 Y1.724
X1.245 Y1.818
X1.123 Y1.905
X0.994 Y1.983
X0.861 Y2.052
X0.724 Y2.112
X0.583 Y2.163
X0.438 Y2.204
X0.292 Y2.235
X0.144 Y2.257
X-0.006 Y2.27
X-0.156 Y2.272
X-0.306 Y2.265
X-0.455 Y2.248
X-0.602 Y2.221
X-0.748 Y2.185
X-0.891 Y2.139
X-1.031 Y2.085
X-1.167 Y2.022
X-1.299 Y1.95
X-1.425 Y1.87
X-1.547 Y1.782
X-1.663 Y1.687
X-1.772 Y1.584
X-1.875 Y1.475
X-1.972 Y1.36
X-2.06 Y1.239
X-2.141 Y1.113
X-2.214 Y0.982
X-2.279 Y0.847
X-2.336 Y0.708
X-2.384 Y0.566
X-2.423 Y0.421
X-2.453 Y0.274
X-2.475 Y0.125
X-2.487 Y-0.024
X-2.49 Y-0.174
X-2.485 Y-0.324
X-2.47 Y-0.473
X-2.447 Y-0.621
X-2.415 Y-0.768
X-2.374 Y-0.912
X-2.325 Y-1.054
X-2.267 Y-1.192
X-2.202 Y-1.327
X-2.128 Y-1.458
X-2.048 Y-1.585
X-1.96 Y-1.706
X-1.865 Y-1.822
X-1.763 Y-1.933
X-1.656 Y-2.037
X-1.542 Y-2.135
X-1.423 Y-2.227
X-1.299 Y-2.311
X-1.171 Y-2.389
X-1.037 Y-2.459
X-0.901 Y-2.522
X-0.761 Y-2.576
X-0.617 Y-2.623
X-0.469 Y-2.662
X-0.322 Y-2.692
X-0.173 Y-2.714
X-0.02 Y-2.728
X0.134 Y-2.733
X0.285 Y-2.729
X0.437 Y-2.717
X0.592 Y-2.696
X0.744 Y-2.667
X0.892 Y-2.629
X1.04 Y-2.583
X1.187 Y-2.527
X1.33 Y-2.463
X1.468 Y-2.393
X1.603 Y-2.314
X1.736 Y-2.225
X1.862 Y-2.13
X1.982 Y-2.03
X2.097 Y-1.921
X2.208 Y-1.805
X2.312 Y-1.682
X2.408 Y-1.555
X2.496 Y-1.423
X2.578 Y-1.284
X2.653 Y-1.139
X2.719 Y-0.991
X2.776 Y-0.841
X2.826 Y-0.687
X2.867 Y-0.528
X2.899 Y-0.366
X2.921 Y-0.204
X2.935 Y-0.042
X2.939 Y0.122
X2.934 Y0.289
X2.92 Y0.455
X2.896 Y0.619
X2.864 Y0.782
X2.822 Y0.943
X2.77 Y1.103
X2.709 Y1.261
X2.64 Y1.415
X2.562 Y1.564
X2.476 Y1.708
X2.381 Y1.849
X2.278 Y1.986
X2.166 Y2.117
X2.048 Y2.241
X1.923 Y2.358
X1.792 Y2.468
X1.654 Y2.57
X1.509 Y2.666
X1.357 Y2.754
X1.202 Y2.833
X1.042 Y2.904
X0.879 Y2.965
X0.712 Y3.017
X0.542 Y3.059
X0.368 Y3.093
X0.192 Y3.116
X0.014 Y3.13
X-0.164 Y3.133
X-0.342 Y3.127
X-0.519 Y3.111
X-0.695 Y3.084
X-0.871 Y3.048
X-1.045 Y3.001
X-1.217 Y2.944
X-1.387 Y2.878
X-1.552 Y2.802
X-1.713 Y2.717
X-1.869 Y2.623
X-2.02 Y2.52
X-2.164 Y2.408
X-2.303 Y2.289
X-2.436 Y2.161
X-2.561 Y2.025
X-2.68 Y1.881
X-2.79 Y1.731
X-2.892 Y1.575
X-2.985 Y1.412
X-3.069 Y1.245
X-3.143 Y1.073
X-3.208 Y0.896
X-3.263 Y0.716
X-3.307 Y0.533
X-3.342 Y0.347
X-3.366 Y0.159
X-3.379 Y-0.031
X-3.382 Y-0.222
X-3.374 Y-0.413
X-3.355 Y-0.604
X-3.325 Y-0.794
X-3.284 Y-0.983
X-3.233 Y-1.169
X-3.171 Y-1.353
X-3.099 Y-1.534
X-3.017 Y-1.711
X-2.924 Y-1.883
X-2.822 Y-2.05
X-2.71 Y-2.211
X-2.589 Y-2.366
X-2.459 Y-2.515
X-2.321 Y-2.656
X-2.174 Y-2.79
X-2.02 Y-2.915
X-1.859 Y-3.032
X-1.691 Y-3.14
X-1.517 Y-3.239
X-1.337 Y-3.327
X-1.152 Y-3.406
X-0.962 Y-3.474
X-0.768 Y-3.532
X-0.571 Y-3.579
X-0.371 Y-3.614
X-0.169 Y-3.639
X0.035 Y-3.652
X0.24 Y-3.653
X0.445 Y-3.643
X0.649 Y-3.622
X0.853 Y-3.588
X1.054 Y-3.544
X1.254 Y-3.488
X1.45 Y-3.42
X1.643 Y-3.342
X1.831 Y-3.252
X2.015 Y-3.152
X2.192 Y-3.042
X2.364 Y-2.921
X2.53 Y-2.79
X2.688 Y-2.65
X2.838 Y-2.502
X2.979 Y-2.344
X3.113 Y-2.179
X3.237 Y-2.005
X3.351 Y-1.825
X3.455 Y-1.638
X3.548 Y-1.445
X3.631 Y-1.247
X3.703 Y-1.043
X3.763 Y-0.836
X3.812 Y-0.625
X3.848 Y-0.411
X3.873 Y-0.195
X3.885 Y0.022
X3.886 Y0.241
X3.873 Y0.46
X3.849 Y0.678
X3.812 Y0.894
X3.763 Y1.109
X3.702 Y1.322
X3.629 Y1.531
X3.543 Y1.736
X3.447 Y1.936
X3.339 Y2.131
X3.22 Y2.321
X3.09 Y2.503
X2.949 Y2.679
X2.799 Y2.846
X2.639 Y3.006
X2.47 Y3.156
X2.292 Y3.297
X2.107 Y3.427
X1.914 Y3.548
X1.713 Y3.658
X1.507 Y3.756
X1.294 Y3.843
X1.077 Y3.918
X0.856 Y3.981
X0.631 Y4.031
X0.403 Y4.069
X0.172 Y4.094
X-0.06 Y4.106
X-0.293 Y4.104
X-0.526 Y4.09
X-0.759 Y4.062
X-0.989 Y4.022
X-1.218 Y3.968
X-1.444 Y3.901
X-1.666 Y3.822
X-1.883 Y3.73
X-2.096 Y3.626
X-2.303 Y3.509
X-2.504 Y3.381
X-2.697 Y3.241
X-2.883 Y3.091
X-3.061 Y2.929
X-3.229 Y2.758
X-3.388 Y2.577
X-3.536 Y2.387
X-3.674 Y2.189
X-3.801 Y1.983
X-3.916 Y1.77
X-4.019 Y1.549
X-4.11 Y1.324
X-4.189 Y1.092
X-4.254 Y0.856
X-4.306 Y0.617
X-4.344 Y0.374
X-4.369 Y0.129
X-4.38 Y-0.118
X-4.377 Y-0.365
X-4.36 Y-0.612
X-4.329 Y-0.859
X-4.284 Y-1.104
X-4.226 Y-1.346
X-4.153 Y-1.586
X-4.068 Y-1.821
X-4.027 Y-1.916
X-3.984 Y-2.01
X-3.936 Y-2.101
X-3.883 Y-2.19
X-3.642 Y-2.574
X-3.537 Y-2.74
X-3.513 Y-2.775
X-3.336 Y-2.962
X-2.918 Y-3.379
X-2.825 Y-3.471
X-2.731 Y-3.543
X-2.03 Y-3.983
X-1.926 Y-4.041
X-1.725 Y-4.114
X-1.12 Y-4.326
X-1.02 Y-4.359
X-0.919 Y-4.377
X-0.114 Y-4.468
X-0.013 Y-4.477
X0.088 Y-4.471
X0.893 Y-4.38
X0.994 Y-4.365
X1.095 Y-4.335
X1.9 Y-4.052
X1.965 Y-4.022
X2.03 Y-3.983
X2.706 Y-3.559
X2.806 Y-3.487
X2.918 Y-3.379
X3.321 Y-2.976
X3.512 Y-2.775
X3.642 Y-2.574
X3.914 Y-2.14
X4.019 Y-1.97
X4.099 Y-1.768
X4.317 Y-1.145
X4.372 Y-0.963
X4.395 Y-0.762
X4.474 Y-0.057
X4.475 Y0.044
X4.408 Y0.648
X4.373 Y0.95
X4.35 Y1.051
X4.068 Y1.856
X4.026 Y1.957
X3.966 Y2.057
X3.587 Y2.662
X3.511 Y2.777
X3.434 Y2.863
X2.907 Y3.39
X2.829 Y3.467
X2.768 Y3.518
X2.706 Y3.559
X2.001 Y4.002
X1.9 Y4.052
X1.497 Y4.194
X1.095 Y4.335
X0.994 Y4.365
X0.893 Y4.38
X0.064 Y4.474
X0 Y4.477
X-0.063 Y4.474
X-0.919 Y4.377
X-1.02 Y4.359
X-1.12 Y4.326
X-1.848 Y4.071
X-1.926 Y4.041
X-2.127 Y3.922
X-2.731 Y3.543
X-2.781 Y3.509
X-2.83 Y3.467
X-3.434 Y2.863
X-3.492 Y2.802
X-3.537 Y2.74
X-3.966 Y2.057
X-4.026 Y1.957
X-4.068 Y1.856
X-4.35 Y1.051
X-4.373 Y0.95
X-4.453 Y0.245
X-4.475 Y0.044
X-4.474 Y-0.057
X-4.395 Y-0.762
X-4.372 Y-0.963
X-4.343 Y-1.072
X-4.099 Y-1.768
X-4.019 Y-1.97
X-3.94 Y-2.099
X-3.883 Y-2.19
G3 X-3.19 Y-2.42 I0.497 J0.337
G1 X-3.101 Y-2.389 Z10.007
X-3.014 Y-2.359 Z10.029
X-2.932 Y-2.331 Z10.065
X-2.856 Y-2.304 Z10.115
X-2.789 Y-2.281 Z10.176
X-2.731 Y-2.261 Z10.247
X-2.685 Y-2.245 Z10.328
X-2.651 Y-2.233 Z10.415
X-2.63 Y-2.225 Z10.506
X-2.623 Y-2.223 Z10.6
G0 Z47
M30
%
