%
(1001)
(origin bottom left anchor hole stock bottom)
(T1  D=6 CR=0 - ZMIN=7 - flat end mill)
G90 G94
G17
G21

(2D Adaptive2 2)
M9
T1 M6
S14000 M3
G54
G0 X-1154.94 Y49.6
Z36
Z28
Z26
G1 Z16 F283.3
X-1154.953 Y49.564 F850
X-1154.916 Y49.571
X-1154.904 Y49.607
X-1154.928 Y49.635
X-1154.965 Y49.628
X-1154.993 Y49.603
X-1155.001 Y49.566
X-1154.983 Y49.533
X-1154.951 Y49.515
X-1154.913 Y49.514
X-1154.879 Y49.53
X-1154.854 Y49.558
X-1154.845 Y49.594
X-1154.848 Y49.631
X-1154.865 Y49.664
X-1154.895 Y49.688
X-1154.93 Y49.7
X-1154.968 Y49.701
X-1155.004 Y49.69
X-1155.035 Y49.67
X-1155.06 Y49.642
X-1155.075 Y49.608
X-1155.08 Y49.571
X-1155.075 Y49.533
X-1155.046 Y49.464
X-1154.987 Y49.418
X-1154.914 Y49.402
X-1154.84 Y49.416
X-1154.777 Y49.456
X-1154.733 Y49.517
X-1154.712 Y49.589
X-1154.717 Y49.664
X-1154.745 Y49.733
X-1154.794 Y49.79
X-1154.857 Y49.83
X-1154.929 Y49.851
X-1155.004 Y49.85
X-1155.076 Y49.829
X-1155.14 Y49.79
X-1155.243 Y49.681
X-1155.282 Y49.536
X-1155.253 Y49.389
X-1155.166 Y49.266
X-1155.038 Y49.187
X-1154.891 Y49.16
X-1154.743 Y49.186
X-1154.612 Y49.259
X-1154.513 Y49.372
X-1154.454 Y49.51
X-1154.44 Y49.659
X-1154.471 Y49.806
X-1154.543 Y49.937
X-1154.65 Y50.043
X-1154.781 Y50.115
X-1154.927 Y50.15
X-1155.077 Y50.146
X-1155.222 Y50.107
X-1155.352 Y50.033
X-1155.462 Y49.931
X-1155.545 Y49.805
X-1155.596 Y49.664
X-1155.615 Y49.516
X-1155.599 Y49.366
X-1155.553 Y49.224
X-1155.477 Y49.095
X-1155.376 Y48.983
X-1155.255 Y48.895
X-1155.119 Y48.832
X-1154.973 Y48.797
X-1154.823 Y48.791
X-1154.674 Y48.813
X-1154.533 Y48.862
X-1154.402 Y48.936
X-1154.287 Y49.032
X-1154.19 Y49.147
X-1154.115 Y49.276
X-1154.064 Y49.417
X-1154.037 Y49.565
X-1154.035 Y49.715
X-1154.058 Y49.863
X-1154.104 Y50.006
X-1154.173 Y50.139
X-1154.262 Y50.26
X-1154.37 Y50.364
X-1154.491 Y50.452
X-1154.625 Y50.52
X-1154.768 Y50.567
X-1154.915 Y50.593
X-1155.065 Y50.597
X-1155.214 Y50.579
X-1155.359 Y50.541
X-1155.497 Y50.482
X-1155.626 Y50.405
X-1155.742 Y50.31
X-1155.845 Y50.2
X-1155.931 Y50.078
X-1156 Y49.945
X-1156.052 Y49.804
X-1156.084 Y49.657
X-1156.096 Y49.508
X-1156.09 Y49.358
X-1156.064 Y49.21
X-1156.02 Y49.067
X-1155.958 Y48.93
X-1155.88 Y48.802
X-1155.787 Y48.685
X-1155.68 Y48.58
X-1155.561 Y48.488
X-1155.432 Y48.411
X-1155.295 Y48.35
X-1155.152 Y48.306
X-1155.004 Y48.278
X-1154.855 Y48.268
X-1154.705 Y48.275
X-1154.557 Y48.298
X-1154.412 Y48.339
X-1154.273 Y48.394
X-1154.141 Y48.466
X-1154.018 Y48.551
X-1153.904 Y48.649
X-1153.802 Y48.759
X-1153.712 Y48.879
X-1153.635 Y49.008
X-1153.573 Y49.144
X-1153.525 Y49.286
X-1153.493 Y49.433
X-1153.475 Y49.582
X-1153.473 Y49.732
X-1153.487 Y49.881
X-1153.516 Y50.028
X-1153.559 Y50.172
X-1153.617 Y50.31
X-1153.687 Y50.443
X-1153.771 Y50.567
X-1153.866 Y50.683
X-1153.973 Y50.789
X-1154.089 Y50.884
X-1154.213 Y50.968
X-1154.345 Y51.039
X-1154.483 Y51.098
X-1154.626 Y51.143
X-1154.773 Y51.175
X-1154.922 Y51.193
X-1155.071 Y51.197
X-1155.221 Y51.188
X-1155.369 Y51.164
X-1155.515 Y51.128
X-1155.656 Y51.079
X-1155.793 Y51.016
X-1155.923 Y50.943
X-1156.047 Y50.857
X-1156.162 Y50.761
X-1156.269 Y50.656
X-1156.366 Y50.542
X-1156.452 Y50.419
X-1156.528 Y50.29
X-1156.593 Y50.154
X-1156.645 Y50.014
X-1156.686 Y49.869
X-1156.714 Y49.722
X-1156.729 Y49.573
X-1156.732 Y49.423
X-1156.723 Y49.273
X-1156.701 Y49.125
X-1156.667 Y48.978
X-1156.621 Y48.836
X-1156.564 Y48.697
X-1156.496 Y48.563
X-1156.417 Y48.436
X-1156.328 Y48.315
X-1156.23 Y48.201
X-1156.123 Y48.096
X-1156.008 Y48
X-1155.886 Y47.913
X-1155.758 Y47.835
X-1155.624 Y47.768
X-1155.484 Y47.712
X-1155.342 Y47.666
X-1155.196 Y47.632
X-1155.047 Y47.608
X-1154.898 Y47.596
X-1154.748
X-1154.598 Y47.607
X-1154.45 Y47.629
X-1154.304 Y47.662
X-1154.16 Y47.705
X-1154.02 Y47.76
X-1153.885 Y47.824
X-1153.755 Y47.898
X-1153.63 Y47.982
X-1153.512 Y48.074
X-1153.401 Y48.175
X-1153.297 Y48.284
X-1153.202 Y48.399
X-1153.115 Y48.521
X-1153.037 Y48.65
X-1152.968 Y48.783
X-1152.909 Y48.921
X-1152.86 Y49.062
X-1152.821 Y49.207
X-1152.792 Y49.354
X-1152.773 Y49.503
X-1152.765 Y49.653
X-1152.767 Y49.803
X-1152.78 Y49.953
X-1152.802 Y50.101
X-1152.835 Y50.247
X-1152.878 Y50.391
X-1152.93 Y50.532
X-1152.992 Y50.668
X-1153.063 Y50.8
X-1153.142 Y50.928
X-1153.23 Y51.049
X-1153.326 Y51.165
X-1153.429 Y51.274
X-1153.539 Y51.376
X-1153.656 Y51.47
X-1153.778 Y51.557
X-1153.906 Y51.635
X-1154.039 Y51.705
X-1154.176 Y51.766
X-1154.316 Y51.818
X-1154.46 Y51.862
X-1154.606 Y51.895
X-1154.754 Y51.92
X-1154.903 Y51.935
X-1155.053 Y51.94
X-1155.203 Y51.936
X-1155.352 Y51.923
X-1155.501 Y51.9
X-1155.647 Y51.868
X-1155.791 Y51.826
X-1155.933 Y51.776
X-1156.071 Y51.717
X-1156.205 Y51.65
X-1156.335 Y51.575
X-1156.46 Y51.492
X-1156.579 Y51.401
X-1156.693 Y51.303
X-1156.801 Y51.199
X-1156.902 Y51.088
X-1156.996 Y50.971
X-1157.083 Y50.849
X-1157.162 Y50.722
X-1157.234 Y50.59
X-1157.298 Y50.455
X-1157.353 Y50.315
X-1157.401 Y50.173
X-1157.439 Y50.028
X-1157.469 Y49.881
X-1157.491 Y49.733
X-1157.503 Y49.583
X-1157.507 Y49.433
X-1157.503 Y49.283
X-1157.489 Y49.134
X-1157.467 Y48.985
X-1157.436 Y48.839
X-1157.397 Y48.694
X-1157.35 Y48.551
X-1157.295 Y48.412
X-1157.232 Y48.276
X-1157.161 Y48.144
X-1157.082 Y48.015
X-1156.996 Y47.891
X-1156.904 Y47.773
X-1156.804 Y47.658
X-1156.698 Y47.55
X-1156.587 Y47.449
X-1156.469 Y47.353
X-1156.344 Y47.262
X-1156.215 Y47.18
X-1156.084 Y47.106
X-1155.946 Y47.038
X-1155.802 Y46.977
X-1155.657 Y46.924
X-1155.51 Y46.881
X-1155.358 Y46.845
X-1155.203 Y46.817
X-1155.048 Y46.799
X-1154.894 Y46.789
X-1154.736 Y46.788
X-1154.577 Y46.796
X-1154.42 Y46.812
X-1154.266 Y46.838
X-1154.11 Y46.872
X-1153.955 Y46.916
X-1153.804 Y46.968
X-1153.657 Y47.028
X-1153.513 Y47.096
X-1153.37 Y47.174
X-1153.232 Y47.26
X-1153.1 Y47.353
X-1152.974 Y47.452
X-1152.852 Y47.56
X-1152.735 Y47.677
X-1152.625 Y47.799
X-1152.523 Y47.926
X-1152.428 Y48.059
X-1152.34 Y48.198
X-1152.258 Y48.344
X-1152.186 Y48.494
X-1152.122 Y48.647
X-1152.067 Y48.803
X-1152.021 Y48.963
X-1151.983 Y49.128
X-1151.954 Y49.295
X-1151.935 Y49.463
X-1151.926 Y49.63
X-1151.925 Y49.799
X-1151.935 Y49.969
X-1151.954 Y50.139
X-1151.983 Y50.309
X-1152.021 Y50.476
X-1152.069 Y50.64
X-1152.125 Y50.802
X-1152.192 Y50.961
X-1152.267 Y51.118
X-1152.352 Y51.271
X-1152.445 Y51.419
X-1152.546 Y51.561
X-1152.655 Y51.697
X-1152.772 Y51.827
X-1152.897 Y51.951
X-1153.03 Y52.069
X-1153.169 Y52.179
X-1153.315 Y52.282
X-1153.466 Y52.376
X-1153.622 Y52.462
X-1153.782 Y52.538
X-1153.948 Y52.606
X-1154.118 Y52.665
X-1154.292 Y52.714
X-1154.469 Y52.753
X-1154.649 Y52.783
X-1154.83 Y52.802
X-1155.011 Y52.812
X-1155.194 Y52.811
X-1155.376 Y52.799
X-1155.557 Y52.778
X-1155.738 Y52.746
X-1155.918 Y52.703
X-1156.096 Y52.651
X-1156.271 Y52.588
X-1156.443 Y52.516
X-1156.61 Y52.433
X-1156.773 Y52.341
X-1156.931 Y52.24
X-1157.083 Y52.131
X-1157.229 Y52.012
X-1157.369 Y51.885
X-1157.501 Y51.751
X-1157.626 Y51.608
X-1157.743 Y51.459
X-1157.851 Y51.303
X-1157.951 Y51.14
X-1158.042 Y50.971
X-1158.124 Y50.797
X-1158.196 Y50.618
X-1158.257 Y50.435
X-1158.309 Y50.249
X-1158.35 Y50.059
X-1158.38 Y49.867
X-1158.4 Y49.673
X-1158.409 Y49.477
X-1158.406 Y49.281
X-1158.393 Y49.085
X-1158.368 Y48.89
X-1158.333 Y48.695
X-1158.286 Y48.503
X-1158.229 Y48.313
X-1158.16 Y48.126
X-1158.082 Y47.943
X-1157.992 Y47.765
X-1157.893 Y47.591
X-1157.784 Y47.422
X-1157.665 Y47.26
X-1157.536 Y47.104
X-1157.399 Y46.955
X-1157.254 Y46.814
X-1157.1 Y46.681
X-1156.939 Y46.556
X-1156.77 Y46.441
X-1156.595 Y46.334
X-1156.414 Y46.238
X-1156.227 Y46.152
X-1156.035 Y46.076
X-1155.839 Y46.011
X-1155.639 Y45.958
X-1155.435 Y45.915
X-1155.229 Y45.884
X-1155.021 Y45.864
X-1154.812 Y45.856
X-1154.603 Y45.86
X-1154.393 Y45.876
X-1154.184 Y45.904
X-1153.977 Y45.943
X-1153.771 Y45.994
X-1153.569 Y46.057
X-1153.369 Y46.131
X-1153.174 Y46.217
X-1152.984 Y46.313
X-1152.798 Y46.421
X-1152.619 Y46.539
X-1152.446 Y46.667
X-1152.281 Y46.805
X-1152.123 Y46.952
X-1151.973 Y47.109
X-1151.832 Y47.274
X-1151.7 Y47.447
X-1151.578 Y47.628
X-1151.466 Y47.815
X-1151.364 Y48.01
X-1151.274 Y48.21
X-1151.194 Y48.415
X-1151.126 Y48.625
X-1151.07 Y48.839
X-1151.026 Y49.056
X-1150.994 Y49.276
X-1150.975 Y49.498
X-1150.968 Y49.721
X-1150.973 Y49.944
X-1150.992 Y50.168
X-1151.022 Y50.391
X-1151.066 Y50.612
X-1151.122 Y50.831
X-1151.19 Y51.046
X-1151.271 Y51.258
X-1151.363 Y51.466
X-1151.468 Y51.669
X-1151.584 Y51.865
X-1151.711 Y52.056
X-1151.849 Y52.239
X-1151.997 Y52.415
X-1152.155 Y52.582
X-1152.323 Y52.741
X-1152.5 Y52.89
X-1152.685 Y53.03
X-1152.879 Y53.159
X-1153.08 Y53.277
X-1153.288 Y53.384
X-1153.502 Y53.479
X-1153.721 Y53.563
X-1153.945 Y53.633
X-1154.173 Y53.692
X-1154.405 Y53.737
X-1154.639 Y53.77
X-1154.876 Y53.789
X-1155.113 Y53.795
X-1155.351 Y53.787
X-1155.589 Y53.766
X-1155.826 Y53.732
X-1156.061 Y53.684
X-1156.294 Y53.623
X-1156.523 Y53.549
X-1156.748 Y53.462
X-1156.968 Y53.362
X-1157.182 Y53.25
X-1157.391 Y53.125
X-1157.592 Y52.989
X-1157.786 Y52.841
X-1157.972 Y52.682
X-1158.149 Y52.513
X-1158.316 Y52.334
X-1158.473 Y52.145
X-1158.62 Y51.947
X-1158.756 Y51.74
X-1158.88 Y51.526
X-1158.992 Y51.305
X-1159.092 Y51.077
X-1159.179 Y50.843
X-1159.253 Y50.605
X-1159.313 Y50.362
X-1159.36 Y50.116
X-1159.393 Y49.866
X-1159.411 Y49.615
X-1159.416 Y49.363
X-1159.406 Y49.11
X-1159.383 Y48.858
X-1159.344 Y48.607
X-1159.292 Y48.358
X-1159.226 Y48.112
X-1159.146 Y47.869
X-1159.052 Y47.631
X-1158.944 Y47.398
X-1158.823 Y47.171
X-1158.69 Y46.951
X-1158.544 Y46.738
X-1158.386 Y46.533
X-1158.216 Y46.337
X-1158.035 Y46.151
X-1157.843 Y45.974
X-1157.719 Y45.872
X-1157.653 Y45.82
X-1157.584 Y45.771
X-1157.514 Y45.724
X-1157.238 Y45.551
X-1157.034 Y45.423
X-1156.955 Y45.38
X-1156.875 Y45.35
X-1156.027 Y45.054
X-1155.927 Y45.031
X-1155.02 Y44.928
X-1154.92 Y44.923
X-1154.819 Y44.932
X-1154.013 Y45.023
X-1153.913 Y45.037
X-1153.812 Y45.065
X-1153.002 Y45.35
X-1152.904 Y45.39
X-1152.805 Y45.448
X-1152.201 Y45.828
X-1152.012 Y45.954
X-1152 Y45.964
X-1151.798 Y46.164
X-1151.396 Y46.566
X-1151.301 Y46.663
X-1151.231 Y46.759
X-1150.791 Y47.457
X-1150.727 Y47.565
X-1150.651 Y47.766
X-1150.389 Y48.517
X-1150.375 Y48.571
X-1150.35 Y48.773
X-1150.283 Y49.377
X-1150.263 Y49.578
X-1150.278 Y49.78
X-1150.368 Y50.585
X-1150.389 Y50.683
X-1150.636 Y51.39
X-1150.707 Y51.592
X-1150.791 Y51.743
X-1151.203 Y52.397
X-1151.269 Y52.498
X-1151.36 Y52.599
X-1151.965 Y53.203
X-1152 Y53.236
X-1152.201 Y53.372
X-1152.805 Y53.752
X-1152.897 Y53.807
X-1153.007 Y53.852
X-1153.812 Y54.135
X-1153.913 Y54.163
X-1154.013 Y54.177
X-1154.819 Y54.268
X-1154.92 Y54.277
X-1155.02 Y54.272
X-1155.927 Y54.169
X-1156.027 Y54.146
X-1156.833 Y53.865
X-1156.982 Y53.807
X-1157.034 Y53.777
X-1157.638 Y53.398
X-1157.84 Y53.269
X-1157.915 Y53.203
X-1158.52 Y52.599
X-1158.591 Y52.523
X-1158.645 Y52.447
X-1159.057 Y51.793
X-1159.173 Y51.592
X-1159.249 Y51.376
X-1159.456 Y50.786
X-1159.49 Y50.686
X-1159.512 Y50.585
X-1159.602 Y49.78
X-1159.617 Y49.578
X-1159.597 Y49.377
X-1159.53 Y48.773
X-1159.505 Y48.571
X-1159.451 Y48.399
X-1159.229 Y47.766
X-1159.153 Y47.565
X-1159.03 Y47.363
X-1158.645 Y46.753
X-1158.572 Y46.655
X-1158.444 Y46.526
X-1158.041 Y46.123
X-1157.868 Y45.954
X-1157.84 Y45.932
X-1157.638 Y45.802
X-1157.514 Y45.724
X-1157.43 Y45.684
X-1157.342 Y45.657
X-1157.277 Y45.65 Z16.004
X-1157.212 Y45.643 Z16.014
X-1157.137 Y45.657 Z16.037
X-1157.066 Y45.67 Z16.07
X-1156.999 Y45.682 Z16.112
X-1156.939 Y45.719 Z16.171
X-1156.887 Y45.75 Z16.24
X-1156.845 Y45.776 Z16.318
X-1156.813 Y45.795 Z16.403
X-1156.8 Y45.807 Z16.467
X-1156.792 Y45.815 Z16.533
X-1156.789 Y45.818 Z16.6
G0 Z28
X-1154.94 Y49.6
Z16
G1 Z7 F283.3
X-1154.953 Y49.564 F850
X-1154.916 Y49.571
X-1154.904 Y49.607
X-1154.928 Y49.635
X-1154.965 Y49.628
X-1154.993 Y49.603
X-1155.001 Y49.566
X-1154.983 Y49.533
X-1154.951 Y49.515
X-1154.913 Y49.514
X-1154.879 Y49.53
X-1154.854 Y49.558
X-1154.845 Y49.594
X-1154.848 Y49.631
X-1154.865 Y49.664
X-1154.895 Y49.688
X-1154.93 Y49.7
X-1154.968 Y49.701
X-1155.004 Y49.69
X-1155.035 Y49.67
X-1155.06 Y49.642
X-1155.075 Y49.608
X-1155.08 Y49.571
X-1155.075 Y49.533
X-1155.046 Y49.464
X-1154.987 Y49.418
X-1154.914 Y49.402
X-1154.84 Y49.416
X-1154.777 Y49.456
X-1154.733 Y49.517
X-1154.712 Y49.589
X-1154.717 Y49.664
X-1154.745 Y49.733
X-1154.794 Y49.79
X-1154.857 Y49.83
X-1154.929 Y49.851
X-1155.004 Y49.85
X-1155.076 Y49.829
X-1155.14 Y49.79
X-1155.243 Y49.681
X-1155.282 Y49.536
X-1155.253 Y49.389
X-1155.166 Y49.266
X-1155.038 Y49.187
X-1154.891 Y49.16
X-1154.743 Y49.186
X-1154.612 Y49.259
X-1154.513 Y49.372
X-1154.454 Y49.51
X-1154.44 Y49.659
X-1154.471 Y49.806
X-1154.543 Y49.937
X-1154.65 Y50.043
X-1154.781 Y50.115
X-1154.927 Y50.15
X-1155.077 Y50.146
X-1155.222 Y50.107
X-1155.352 Y50.033
X-1155.462 Y49.931
X-1155.545 Y49.805
X-1155.596 Y49.664
X-1155.615 Y49.516
X-1155.599 Y49.366
X-1155.553 Y49.224
X-1155.477 Y49.095
X-1155.376 Y48.983
X-1155.255 Y48.895
X-1155.119 Y48.832
X-1154.973 Y48.797
X-1154.823 Y48.791
X-1154.674 Y48.813
X-1154.533 Y48.862
X-1154.402 Y48.936
X-1154.287 Y49.032
X-1154.19 Y49.147
X-1154.115 Y49.276
X-1154.064 Y49.417
X-1154.037 Y49.565
X-1154.035 Y49.715
X-1154.058 Y49.863
X-1154.104 Y50.006
X-1154.173 Y50.139
X-1154.262 Y50.26
X-1154.37 Y50.364
X-1154.491 Y50.452
X-1154.625 Y50.52
X-1154.768 Y50.567
X-1154.915 Y50.593
X-1155.065 Y50.597
X-1155.214 Y50.579
X-1155.359 Y50.541
X-1155.497 Y50.482
X-1155.626 Y50.405
X-1155.742 Y50.31
X-1155.845 Y50.2
X-1155.931 Y50.078
X-1156 Y49.945
X-1156.052 Y49.804
X-1156.084 Y49.657
X-1156.096 Y49.508
X-1156.09 Y49.358
X-1156.064 Y49.21
X-1156.02 Y49.067
X-1155.958 Y48.93
X-1155.88 Y48.802
X-1155.787 Y48.685
X-1155.68 Y48.58
X-1155.561 Y48.488
X-1155.432 Y48.411
X-1155.295 Y48.35
X-1155.152 Y48.306
X-1155.004 Y48.278
X-1154.855 Y48.268
X-1154.705 Y48.275
X-1154.557 Y48.298
X-1154.412 Y48.339
X-1154.273 Y48.394
X-1154.141 Y48.466
X-1154.018 Y48.551
X-1153.904 Y48.649
X-1153.802 Y48.759
X-1153.712 Y48.879
X-1153.635 Y49.008
X-1153.573 Y49.144
X-1153.525 Y49.286
X-1153.493 Y49.433
X-1153.475 Y49.582
X-1153.473 Y49.732
X-1153.487 Y49.881
X-1153.516 Y50.028
X-1153.559 Y50.172
X-1153.617 Y50.31
X-1153.687 Y50.443
X-1153.771 Y50.567
X-1153.866 Y50.683
X-1153.973 Y50.789
X-1154.089 Y50.884
X-1154.213 Y50.968
X-1154.345 Y51.039
X-1154.483 Y51.098
X-1154.626 Y51.143
X-1154.773 Y51.175
X-1154.922 Y51.193
X-1155.071 Y51.197
X-1155.221 Y51.188
X-1155.369 Y51.164
X-1155.515 Y51.128
X-1155.656 Y51.079
X-1155.793 Y51.016
X-1155.923 Y50.943
X-1156.047 Y50.857
X-1156.162 Y50.761
X-1156.269 Y50.656
X-1156.366 Y50.542
X-1156.452 Y50.419
X-1156.528 Y50.29
X-1156.593 Y50.154
X-1156.645 Y50.014
X-1156.686 Y49.869
X-1156.714 Y49.722
X-1156.729 Y49.573
X-1156.732 Y49.423
X-1156.723 Y49.273
X-1156.701 Y49.125
X-1156.667 Y48.978
X-1156.621 Y48.836
X-1156.564 Y48.697
X-1156.496 Y48.563
X-1156.417 Y48.436
X-1156.328 Y48.315
X-1156.23 Y48.201
X-1156.123 Y48.096
X-1156.008 Y48
X-1155.886 Y47.913
X-1155.758 Y47.835
X-1155.624 Y47.768
X-1155.484 Y47.712
X-1155.342 Y47.666
X-1155.196 Y47.632
X-1155.047 Y47.608
X-1154.898 Y47.596
X-1154.748
X-1154.598 Y47.607
X-1154.45 Y47.629
X-1154.304 Y47.662
X-1154.16 Y47.705
X-1154.02 Y47.76
X-1153.885 Y47.824
X-1153.755 Y47.898
X-1153.63 Y47.982
X-1153.512 Y48.074
X-1153.401 Y48.175
X-1153.297 Y48.284
X-1153.202 Y48.399
X-1153.115 Y48.521
X-1153.037 Y48.65
X-1152.968 Y48.783
X-1152.909 Y48.921
X-1152.86 Y49.062
X-1152.821 Y49.207
X-1152.792 Y49.354
X-1152.773 Y49.503
X-1152.765 Y49.653
X-1152.767 Y49.803
X-1152.78 Y49.953
X-1152.802 Y50.101
X-1152.835 Y50.247
X-1152.878 Y50.391
X-1152.93 Y50.532
X-1152.992 Y50.668
X-1153.063 Y50.8
X-1153.142 Y50.928
X-1153.23 Y51.049
X-1153.326 Y51.165
X-1153.429 Y51.274
X-1153.539 Y51.376
X-1153.656 Y51.47
X-1153.778 Y51.557
X-1153.906 Y51.635
X-1154.039 Y51.705
X-1154.176 Y51.766
X-1154.316 Y51.818
X-1154.46 Y51.862
X-1154.606 Y51.895
X-1154.754 Y51.92
X-1154.903 Y51.935
X-1155.053 Y51.94
X-1155.203 Y51.936
X-1155.352 Y51.923
X-1155.501 Y51.9
X-1155.647 Y51.868
X-1155.791 Y51.826
X-1155.933 Y51.776
X-1156.071 Y51.717
X-1156.205 Y51.65
X-1156.335 Y51.575
X-1156.46 Y51.492
X-1156.579 Y51.401
X-1156.693 Y51.303
X-1156.801 Y51.199
X-1156.902 Y51.088
X-1156.996 Y50.971
X-1157.083 Y50.849
X-1157.162 Y50.722
X-1157.234 Y50.59
X-1157.298 Y50.455
X-1157.353 Y50.315
X-1157.401 Y50.173
X-1157.439 Y50.028
X-1157.469 Y49.881
X-1157.491 Y49.733
X-1157.503 Y49.583
X-1157.507 Y49.433
X-1157.503 Y49.283
X-1157.489 Y49.134
X-1157.467 Y48.985
X-1157.436 Y48.839
X-1157.397 Y48.694
X-1157.35 Y48.551
X-1157.295 Y48.412
X-1157.232 Y48.276
X-1157.161 Y48.144
X-1157.082 Y48.015
X-1156.996 Y47.891
X-1156.904 Y47.773
X-1156.804 Y47.658
X-1156.698 Y47.55
X-1156.587 Y47.449
X-1156.469 Y47.353
X-1156.344 Y47.262
X-1156.215 Y47.18
X-1156.084 Y47.106
X-1155.946 Y47.038
X-1155.802 Y46.977
X-1155.657 Y46.924
X-1155.51 Y46.881
X-1155.358 Y46.845
X-1155.203 Y46.817
X-1155.048 Y46.799
X-1154.894 Y46.789
X-1154.736 Y46.788
X-1154.577 Y46.796
X-1154.42 Y46.812
X-1154.266 Y46.838
X-1154.11 Y46.872
X-1153.955 Y46.916
X-1153.804 Y46.968
X-1153.657 Y47.028
X-1153.513 Y47.096
X-1153.37 Y47.174
X-1153.232 Y47.26
X-1153.1 Y47.353
X-1152.974 Y47.452
X-1152.852 Y47.56
X-1152.735 Y47.677
X-1152.625 Y47.799
X-1152.523 Y47.926
X-1152.428 Y48.059
X-1152.34 Y48.198
X-1152.258 Y48.344
X-1152.186 Y48.494
X-1152.122 Y48.647
X-1152.067 Y48.803
X-1152.021 Y48.963
X-1151.983 Y49.128
X-1151.954 Y49.295
X-1151.935 Y49.463
X-1151.926 Y49.63
X-1151.925 Y49.799
X-1151.935 Y49.969
X-1151.954 Y50.139
X-1151.983 Y50.309
X-1152.021 Y50.476
X-1152.069 Y50.64
X-1152.125 Y50.802
X-1152.192 Y50.961
X-1152.267 Y51.118
X-1152.352 Y51.271
X-1152.445 Y51.419
X-1152.546 Y51.561
X-1152.655 Y51.697
X-1152.772 Y51.827
X-1152.897 Y51.951
X-1153.03 Y52.069
X-1153.169 Y52.179
X-1153.315 Y52.282
X-1153.466 Y52.376
X-1153.622 Y52.462
X-1153.782 Y52.538
X-1153.948 Y52.606
X-1154.118 Y52.665
X-1154.292 Y52.714
X-1154.469 Y52.753
X-1154.649 Y52.783
X-1154.83 Y52.802
X-1155.011 Y52.812
X-1155.194 Y52.811
X-1155.376 Y52.799
X-1155.557 Y52.778
X-1155.738 Y52.746
X-1155.918 Y52.703
X-1156.096 Y52.651
X-1156.271 Y52.588
X-1156.443 Y52.516
X-1156.61 Y52.433
X-1156.773 Y52.341
X-1156.931 Y52.24
X-1157.083 Y52.131
X-1157.229 Y52.012
X-1157.369 Y51.885
X-1157.501 Y51.751
X-1157.626 Y51.608
X-1157.743 Y51.459
X-1157.851 Y51.303
X-1157.951 Y51.14
X-1158.042 Y50.971
X-1158.124 Y50.797
X-1158.196 Y50.618
X-1158.257 Y50.435
X-1158.309 Y50.249
X-1158.35 Y50.059
X-1158.38 Y49.867
X-1158.4 Y49.673
X-1158.409 Y49.477
X-1158.406 Y49.281
X-1158.393 Y49.085
X-1158.368 Y48.89
X-1158.333 Y48.695
X-1158.286 Y48.503
X-1158.229 Y48.313
X-1158.16 Y48.126
X-1158.082 Y47.943
X-1157.992 Y47.765
X-1157.893 Y47.591
X-1157.784 Y47.422
X-1157.665 Y47.26
X-1157.536 Y47.104
X-1157.399 Y46.955
X-1157.254 Y46.814
X-1157.1 Y46.681
X-1156.939 Y46.556
X-1156.77 Y46.441
X-1156.595 Y46.334
X-1156.414 Y46.238
X-1156.227 Y46.152
X-1156.035 Y46.076
X-1155.839 Y46.011
X-1155.639 Y45.958
X-1155.435 Y45.915
X-1155.229 Y45.884
X-1155.021 Y45.864
X-1154.812 Y45.856
X-1154.603 Y45.86
X-1154.393 Y45.876
X-1154.184 Y45.904
X-1153.977 Y45.943
X-1153.771 Y45.994
X-1153.569 Y46.057
X-1153.369 Y46.131
X-1153.174 Y46.217
X-1152.984 Y46.313
X-1152.798 Y46.421
X-1152.619 Y46.539
X-1152.446 Y46.667
X-1152.281 Y46.805
X-1152.123 Y46.952
X-1151.973 Y47.109
X-1151.832 Y47.274
X-1151.7 Y47.447
X-1151.578 Y47.628
X-1151.466 Y47.815
X-1151.364 Y48.01
X-1151.274 Y48.21
X-1151.194 Y48.415
X-1151.126 Y48.625
X-1151.07 Y48.839
X-1151.026 Y49.056
X-1150.994 Y49.276
X-1150.975 Y49.498
X-1150.968 Y49.721
X-1150.973 Y49.944
X-1150.992 Y50.168
X-1151.022 Y50.391
X-1151.066 Y50.612
X-1151.122 Y50.831
X-1151.19 Y51.046
X-1151.271 Y51.258
X-1151.363 Y51.466
X-1151.468 Y51.669
X-1151.584 Y51.865
X-1151.711 Y52.056
X-1151.849 Y52.239
X-1151.997 Y52.415
X-1152.155 Y52.582
X-1152.323 Y52.741
X-1152.5 Y52.89
X-1152.685 Y53.03
X-1152.879 Y53.159
X-1153.08 Y53.277
X-1153.288 Y53.384
X-1153.502 Y53.479
X-1153.721 Y53.563
X-1153.945 Y53.633
X-1154.173 Y53.692
X-1154.405 Y53.737
X-1154.639 Y53.77
X-1154.876 Y53.789
X-1155.113 Y53.795
X-1155.351 Y53.787
X-1155.589 Y53.766
X-1155.826 Y53.732
X-1156.061 Y53.684
X-1156.294 Y53.623
X-1156.523 Y53.549
X-1156.748 Y53.462
X-1156.968 Y53.362
X-1157.182 Y53.25
X-1157.391 Y53.125
X-1157.592 Y52.989
X-1157.786 Y52.841
X-1157.972 Y52.682
X-1158.149 Y52.513
X-1158.316 Y52.334
X-1158.473 Y52.145
X-1158.62 Y51.947
X-1158.756 Y51.74
X-1158.88 Y51.526
X-1158.992 Y51.305
X-1159.092 Y51.077
X-1159.179 Y50.843
X-1159.253 Y50.605
X-1159.313 Y50.362
X-1159.36 Y50.116
X-1159.393 Y49.866
X-1159.411 Y49.615
X-1159.416 Y49.363
X-1159.406 Y49.11
X-1159.383 Y48.858
X-1159.344 Y48.607
X-1159.292 Y48.358
X-1159.226 Y48.112
X-1159.146 Y47.869
X-1159.052 Y47.631
X-1158.944 Y47.398
X-1158.823 Y47.171
X-1158.69 Y46.951
X-1158.544 Y46.738
X-1158.386 Y46.533
X-1158.216 Y46.337
X-1158.035 Y46.151
X-1157.843 Y45.974
X-1157.719 Y45.872
X-1157.653 Y45.82
X-1157.584 Y45.771
X-1157.514 Y45.724
X-1157.238 Y45.551
X-1157.034 Y45.423
X-1156.955 Y45.38
X-1156.875 Y45.35
X-1156.027 Y45.054
X-1155.927 Y45.031
X-1155.02 Y44.928
X-1154.92 Y44.923
X-1154.819 Y44.932
X-1154.013 Y45.023
X-1153.913 Y45.037
X-1153.812 Y45.065
X-1153.002 Y45.35
X-1152.904 Y45.39
X-1152.805 Y45.448
X-1152.201 Y45.828
X-1152.012 Y45.954
X-1152 Y45.964
X-1151.798 Y46.164
X-1151.396 Y46.566
X-1151.301 Y46.663
X-1151.231 Y46.759
X-1150.791 Y47.457
X-1150.727 Y47.565
X-1150.651 Y47.766
X-1150.389 Y48.517
X-1150.375 Y48.571
X-1150.35 Y48.773
X-1150.283 Y49.377
X-1150.263 Y49.578
X-1150.278 Y49.78
X-1150.368 Y50.585
X-1150.389 Y50.683
X-1150.636 Y51.39
X-1150.707 Y51.592
X-1150.791 Y51.743
X-1151.203 Y52.397
X-1151.269 Y52.498
X-1151.36 Y52.599
X-1151.965 Y53.203
X-1152 Y53.236
X-1152.201 Y53.372
X-1152.805 Y53.752
X-1152.897 Y53.807
X-1153.007 Y53.852
X-1153.812 Y54.135
X-1153.913 Y54.163
X-1154.013 Y54.177
X-1154.819 Y54.268
X-1154.92 Y54.277
X-1155.02 Y54.272
X-1155.927 Y54.169
X-1156.027 Y54.146
X-1156.833 Y53.865
X-1156.982 Y53.807
X-1157.034 Y53.777
X-1157.638 Y53.398
X-1157.84 Y53.269
X-1157.915 Y53.203
X-1158.52 Y52.599
X-1158.591 Y52.523
X-1158.645 Y52.447
X-1159.057 Y51.793
X-1159.173 Y51.592
X-1159.249 Y51.376
X-1159.456 Y50.786
X-1159.49 Y50.686
X-1159.512 Y50.585
X-1159.602 Y49.78
X-1159.617 Y49.578
X-1159.597 Y49.377
X-1159.53 Y48.773
X-1159.505 Y48.571
X-1159.451 Y48.399
X-1159.229 Y47.766
X-1159.153 Y47.565
X-1159.03 Y47.363
X-1158.645 Y46.753
X-1158.572 Y46.655
X-1158.444 Y46.526
X-1158.041 Y46.123
X-1157.868 Y45.954
X-1157.84 Y45.932
X-1157.638 Y45.802
X-1157.514 Y45.724
G3 X-1156.789 Y45.818 I0.301 J0.519
G1 X-1156.723 Y45.884 Z7.007
X-1156.658 Y45.948 Z7.029
X-1156.596 Y46.01 Z7.065
X-1156.539 Y46.066 Z7.115
X-1156.488 Y46.117 Z7.176
X-1156.445 Y46.16 Z7.247
X-1156.41 Y46.195 Z7.328
X-1156.385 Y46.22 Z7.415
X-1156.369 Y46.236 Z7.506
X-1156.364 Y46.241 Z7.6
G0 Z36

(2D Adaptive2 2)
X-1154.94 Y-25.4
Z36
Z28
Z26
G1 Z16 F283.3
X-1154.953 Y-25.436 F850
X-1154.916 Y-25.429
X-1154.904 Y-25.393
X-1154.928 Y-25.365
X-1154.965 Y-25.372
X-1154.993 Y-25.397
X-1155.001 Y-25.434
X-1154.983 Y-25.467
X-1154.951 Y-25.485
X-1154.913 Y-25.486
X-1154.879 Y-25.47
X-1154.854 Y-25.442
X-1154.845 Y-25.406
X-1154.848 Y-25.369
X-1154.865 Y-25.336
X-1154.895 Y-25.312
X-1154.93 Y-25.3
X-1154.968 Y-25.299
X-1155.004 Y-25.31
X-1155.035 Y-25.33
X-1155.06 Y-25.358
X-1155.075 Y-25.392
X-1155.08 Y-25.429
X-1155.075 Y-25.467
X-1155.046 Y-25.536
X-1154.987 Y-25.582
X-1154.914 Y-25.598
X-1154.84 Y-25.584
X-1154.777 Y-25.544
X-1154.733 Y-25.483
X-1154.712 Y-25.411
X-1154.717 Y-25.336
X-1154.745 Y-25.267
X-1154.794 Y-25.21
X-1154.857 Y-25.17
X-1154.929 Y-25.149
X-1155.004 Y-25.15
X-1155.076 Y-25.171
X-1155.14 Y-25.21
X-1155.243 Y-25.319
X-1155.282 Y-25.464
X-1155.253 Y-25.611
X-1155.166 Y-25.734
X-1155.038 Y-25.813
X-1154.891 Y-25.84
X-1154.743 Y-25.814
X-1154.612 Y-25.741
X-1154.513 Y-25.628
X-1154.454 Y-25.49
X-1154.44 Y-25.341
X-1154.471 Y-25.194
X-1154.543 Y-25.063
X-1154.65 Y-24.957
X-1154.781 Y-24.885
X-1154.927 Y-24.85
X-1155.077 Y-24.854
X-1155.222 Y-24.893
X-1155.352 Y-24.967
X-1155.462 Y-25.069
X-1155.545 Y-25.195
X-1155.596 Y-25.336
X-1155.615 Y-25.484
X-1155.599 Y-25.634
X-1155.553 Y-25.776
X-1155.477 Y-25.905
X-1155.376 Y-26.017
X-1155.255 Y-26.105
X-1155.119 Y-26.168
X-1154.973 Y-26.203
X-1154.823 Y-26.209
X-1154.674 Y-26.187
X-1154.533 Y-26.138
X-1154.402 Y-26.064
X-1154.287 Y-25.968
X-1154.19 Y-25.853
X-1154.115 Y-25.724
X-1154.064 Y-25.583
X-1154.037 Y-25.435
X-1154.035 Y-25.285
X-1154.058 Y-25.137
X-1154.104 Y-24.994
X-1154.173 Y-24.861
X-1154.262 Y-24.74
X-1154.37 Y-24.636
X-1154.491 Y-24.548
X-1154.625 Y-24.48
X-1154.768 Y-24.433
X-1154.915 Y-24.407
X-1155.065 Y-24.403
X-1155.214 Y-24.421
X-1155.359 Y-24.459
X-1155.497 Y-24.518
X-1155.626 Y-24.595
X-1155.742 Y-24.69
X-1155.845 Y-24.8
X-1155.931 Y-24.922
X-1156 Y-25.055
X-1156.052 Y-25.196
X-1156.084 Y-25.343
X-1156.096 Y-25.492
X-1156.09 Y-25.642
X-1156.064 Y-25.79
X-1156.02 Y-25.933
X-1155.958 Y-26.07
X-1155.88 Y-26.198
X-1155.787 Y-26.315
X-1155.68 Y-26.42
X-1155.561 Y-26.512
X-1155.432 Y-26.589
X-1155.295 Y-26.65
X-1155.152 Y-26.694
X-1155.004 Y-26.722
X-1154.855 Y-26.732
X-1154.705 Y-26.725
X-1154.557 Y-26.702
X-1154.412 Y-26.661
X-1154.273 Y-26.606
X-1154.141 Y-26.534
X-1154.018 Y-26.449
X-1153.904 Y-26.351
X-1153.802 Y-26.241
X-1153.712 Y-26.121
X-1153.635 Y-25.992
X-1153.573 Y-25.856
X-1153.525 Y-25.714
X-1153.493 Y-25.567
X-1153.475 Y-25.418
X-1153.473 Y-25.268
X-1153.487 Y-25.119
X-1153.516 Y-24.972
X-1153.559 Y-24.828
X-1153.617 Y-24.69
X-1153.687 Y-24.557
X-1153.771 Y-24.433
X-1153.866 Y-24.317
X-1153.973 Y-24.211
X-1154.089 Y-24.116
X-1154.213 Y-24.032
X-1154.345 Y-23.961
X-1154.483 Y-23.902
X-1154.626 Y-23.857
X-1154.773 Y-23.825
X-1154.922 Y-23.807
X-1155.071 Y-23.803
X-1155.221 Y-23.812
X-1155.369 Y-23.836
X-1155.515 Y-23.872
X-1155.656 Y-23.921
X-1155.793 Y-23.984
X-1155.923 Y-24.057
X-1156.047 Y-24.143
X-1156.162 Y-24.239
X-1156.269 Y-24.344
X-1156.366 Y-24.458
X-1156.452 Y-24.581
X-1156.528 Y-24.71
X-1156.593 Y-24.846
X-1156.645 Y-24.986
X-1156.686 Y-25.131
X-1156.714 Y-25.278
X-1156.729 Y-25.427
X-1156.732 Y-25.577
X-1156.723 Y-25.727
X-1156.701 Y-25.875
X-1156.667 Y-26.022
X-1156.621 Y-26.164
X-1156.564 Y-26.303
X-1156.496 Y-26.437
X-1156.417 Y-26.564
X-1156.328 Y-26.685
X-1156.23 Y-26.799
X-1156.123 Y-26.904
X-1156.008 Y-27
X-1155.886 Y-27.087
X-1155.758 Y-27.165
X-1155.624 Y-27.232
X-1155.484 Y-27.288
X-1155.342 Y-27.334
X-1155.196 Y-27.368
X-1155.047 Y-27.392
X-1154.898 Y-27.404
X-1154.748
X-1154.598 Y-27.393
X-1154.45 Y-27.371
X-1154.304 Y-27.338
X-1154.16 Y-27.295
X-1154.02 Y-27.24
X-1153.885 Y-27.176
X-1153.755 Y-27.102
X-1153.63 Y-27.018
X-1153.512 Y-26.926
X-1153.401 Y-26.825
X-1153.297 Y-26.716
X-1153.202 Y-26.601
X-1153.115 Y-26.479
X-1153.037 Y-26.35
X-1152.968 Y-26.217
X-1152.909 Y-26.079
X-1152.86 Y-25.938
X-1152.821 Y-25.793
X-1152.792 Y-25.646
X-1152.773 Y-25.497
X-1152.765 Y-25.347
X-1152.767 Y-25.197
X-1152.78 Y-25.047
X-1152.802 Y-24.899
X-1152.835 Y-24.753
X-1152.878 Y-24.609
X-1152.93 Y-24.468
X-1152.992 Y-24.332
X-1153.063 Y-24.2
X-1153.142 Y-24.072
X-1153.23 Y-23.951
X-1153.326 Y-23.835
X-1153.429 Y-23.726
X-1153.539 Y-23.624
X-1153.656 Y-23.53
X-1153.778 Y-23.443
X-1153.906 Y-23.365
X-1154.039 Y-23.295
X-1154.176 Y-23.234
X-1154.316 Y-23.182
X-1154.46 Y-23.138
X-1154.606 Y-23.105
X-1154.754 Y-23.08
X-1154.903 Y-23.065
X-1155.053 Y-23.06
X-1155.203 Y-23.064
X-1155.352 Y-23.077
X-1155.501 Y-23.1
X-1155.647 Y-23.132
X-1155.791 Y-23.174
X-1155.933 Y-23.224
X-1156.071 Y-23.283
X-1156.205 Y-23.35
X-1156.335 Y-23.425
X-1156.46 Y-23.508
X-1156.579 Y-23.599
X-1156.693 Y-23.697
X-1156.801 Y-23.801
X-1156.902 Y-23.912
X-1156.996 Y-24.029
X-1157.083 Y-24.151
X-1157.162 Y-24.278
X-1157.234 Y-24.41
X-1157.298 Y-24.545
X-1157.353 Y-24.685
X-1157.401 Y-24.827
X-1157.439 Y-24.972
X-1157.469 Y-25.119
X-1157.491 Y-25.267
X-1157.503 Y-25.417
X-1157.507 Y-25.567
X-1157.503 Y-25.717
X-1157.489 Y-25.866
X-1157.467 Y-26.015
X-1157.436 Y-26.161
X-1157.397 Y-26.306
X-1157.35 Y-26.449
X-1157.295 Y-26.588
X-1157.232 Y-26.724
X-1157.161 Y-26.856
X-1157.082 Y-26.985
X-1156.996 Y-27.109
X-1156.904 Y-27.227
X-1156.804 Y-27.342
X-1156.698 Y-27.45
X-1156.587 Y-27.551
X-1156.469 Y-27.647
X-1156.344 Y-27.738
X-1156.215 Y-27.82
X-1156.084 Y-27.894
X-1155.946 Y-27.962
X-1155.802 Y-28.023
X-1155.657 Y-28.076
X-1155.51 Y-28.119
X-1155.358 Y-28.155
X-1155.203 Y-28.183
X-1155.048 Y-28.201
X-1154.894 Y-28.211
X-1154.736 Y-28.212
X-1154.577 Y-28.204
X-1154.42 Y-28.188
X-1154.266 Y-28.162
X-1154.11 Y-28.128
X-1153.955 Y-28.084
X-1153.804 Y-28.032
X-1153.657 Y-27.972
X-1153.513 Y-27.904
X-1153.37 Y-27.826
X-1153.232 Y-27.74
X-1153.1 Y-27.647
X-1152.974 Y-27.548
X-1152.852 Y-27.44
X-1152.735 Y-27.323
X-1152.625 Y-27.201
X-1152.523 Y-27.074
X-1152.428 Y-26.941
X-1152.34 Y-26.802
X-1152.258 Y-26.656
X-1152.186 Y-26.506
X-1152.122 Y-26.353
X-1152.067 Y-26.197
X-1152.021 Y-26.037
X-1151.983 Y-25.872
X-1151.954 Y-25.705
X-1151.935 Y-25.537
X-1151.926 Y-25.37
X-1151.925 Y-25.201
X-1151.935 Y-25.031
X-1151.954 Y-24.861
X-1151.983 Y-24.691
X-1152.021 Y-24.524
X-1152.069 Y-24.36
X-1152.125 Y-24.198
X-1152.192 Y-24.039
X-1152.267 Y-23.882
X-1152.352 Y-23.729
X-1152.445 Y-23.581
X-1152.546 Y-23.439
X-1152.655 Y-23.303
X-1152.772 Y-23.173
X-1152.897 Y-23.049
X-1153.03 Y-22.931
X-1153.169 Y-22.821
X-1153.315 Y-22.718
X-1153.466 Y-22.624
X-1153.622 Y-22.538
X-1153.782 Y-22.462
X-1153.948 Y-22.394
X-1154.118 Y-22.335
X-1154.292 Y-22.286
X-1154.469 Y-22.247
X-1154.649 Y-22.217
X-1154.83 Y-22.198
X-1155.011 Y-22.188
X-1155.194 Y-22.189
X-1155.376 Y-22.201
X-1155.557 Y-22.222
X-1155.738 Y-22.254
X-1155.918 Y-22.297
X-1156.096 Y-22.349
X-1156.271 Y-22.412
X-1156.443 Y-22.484
X-1156.61 Y-22.567
X-1156.773 Y-22.659
X-1156.931 Y-22.76
X-1157.083 Y-22.869
X-1157.229 Y-22.988
X-1157.369 Y-23.115
X-1157.501 Y-23.249
X-1157.626 Y-23.392
X-1157.743 Y-23.541
X-1157.851 Y-23.697
X-1157.951 Y-23.86
X-1158.042 Y-24.029
X-1158.124 Y-24.203
X-1158.196 Y-24.382
X-1158.257 Y-24.565
X-1158.309 Y-24.751
X-1158.35 Y-24.941
X-1158.38 Y-25.133
X-1158.4 Y-25.327
X-1158.409 Y-25.523
X-1158.406 Y-25.719
X-1158.393 Y-25.915
X-1158.368 Y-26.11
X-1158.333 Y-26.305
X-1158.286 Y-26.497
X-1158.229 Y-26.687
X-1158.16 Y-26.874
X-1158.082 Y-27.057
X-1157.992 Y-27.235
X-1157.893 Y-27.409
X-1157.784 Y-27.578
X-1157.665 Y-27.74
X-1157.536 Y-27.896
X-1157.399 Y-28.045
X-1157.254 Y-28.186
X-1157.1 Y-28.319
X-1156.939 Y-28.444
X-1156.77 Y-28.559
X-1156.595 Y-28.666
X-1156.414 Y-28.762
X-1156.227 Y-28.848
X-1156.035 Y-28.924
X-1155.839 Y-28.989
X-1155.639 Y-29.042
X-1155.435 Y-29.085
X-1155.229 Y-29.116
X-1155.021 Y-29.136
X-1154.812 Y-29.144
X-1154.603 Y-29.14
X-1154.393 Y-29.124
X-1154.184 Y-29.096
X-1153.977 Y-29.057
X-1153.771 Y-29.006
X-1153.569 Y-28.943
X-1153.369 Y-28.869
X-1153.174 Y-28.783
X-1152.984 Y-28.687
X-1152.798 Y-28.579
X-1152.619 Y-28.461
X-1152.446 Y-28.333
X-1152.281 Y-28.195
X-1152.123 Y-28.048
X-1151.973 Y-27.891
X-1151.832 Y-27.726
X-1151.7 Y-27.553
X-1151.578 Y-27.372
X-1151.466 Y-27.185
X-1151.364 Y-26.99
X-1151.274 Y-26.79
X-1151.194 Y-26.585
X-1151.126 Y-26.375
X-1151.07 Y-26.161
X-1151.026 Y-25.944
X-1150.994 Y-25.724
X-1150.975 Y-25.502
X-1150.968 Y-25.279
X-1150.973 Y-25.056
X-1150.992 Y-24.832
X-1151.022 Y-24.609
X-1151.066 Y-24.388
X-1151.122 Y-24.169
X-1151.19 Y-23.954
X-1151.271 Y-23.742
X-1151.363 Y-23.534
X-1151.468 Y-23.331
X-1151.584 Y-23.135
X-1151.711 Y-22.944
X-1151.849 Y-22.761
X-1151.997 Y-22.585
X-1152.155 Y-22.418
X-1152.323 Y-22.259
X-1152.5 Y-22.11
X-1152.685 Y-21.97
X-1152.879 Y-21.841
X-1153.08 Y-21.723
X-1153.288 Y-21.616
X-1153.502 Y-21.521
X-1153.721 Y-21.437
X-1153.945 Y-21.367
X-1154.173 Y-21.308
X-1154.405 Y-21.263
X-1154.639 Y-21.23
X-1154.876 Y-21.211
X-1155.113 Y-21.205
X-1155.351 Y-21.213
X-1155.589 Y-21.234
X-1155.826 Y-21.268
X-1156.061 Y-21.316
X-1156.294 Y-21.377
X-1156.523 Y-21.451
X-1156.748 Y-21.538
X-1156.968 Y-21.638
X-1157.182 Y-21.75
X-1157.391 Y-21.875
X-1157.592 Y-22.011
X-1157.786 Y-22.159
X-1157.972 Y-22.318
X-1158.149 Y-22.487
X-1158.316 Y-22.666
X-1158.473 Y-22.855
X-1158.62 Y-23.053
X-1158.756 Y-23.26
X-1158.88 Y-23.474
X-1158.992 Y-23.695
X-1159.092 Y-23.923
X-1159.179 Y-24.157
X-1159.253 Y-24.395
X-1159.313 Y-24.638
X-1159.36 Y-24.884
X-1159.393 Y-25.134
X-1159.411 Y-25.385
X-1159.416 Y-25.637
X-1159.406 Y-25.89
X-1159.383 Y-26.142
X-1159.344 Y-26.393
X-1159.292 Y-26.642
X-1159.226 Y-26.888
X-1159.146 Y-27.131
X-1159.052 Y-27.369
X-1158.944 Y-27.602
X-1158.823 Y-27.829
X-1158.69 Y-28.049
X-1158.544 Y-28.262
X-1158.386 Y-28.467
X-1158.216 Y-28.663
X-1158.035 Y-28.849
X-1157.843 Y-29.026
X-1157.719 Y-29.128
X-1157.653 Y-29.18
X-1157.584 Y-29.229
X-1157.514 Y-29.276
X-1157.238 Y-29.449
X-1157.034 Y-29.577
X-1156.955 Y-29.62
X-1156.875 Y-29.65
X-1156.027 Y-29.946
X-1155.927 Y-29.969
X-1155.02 Y-30.072
X-1154.92 Y-30.077
X-1154.819 Y-30.068
X-1154.013 Y-29.977
X-1153.913 Y-29.963
X-1153.812 Y-29.935
X-1153.002 Y-29.65
X-1152.904 Y-29.61
X-1152.805 Y-29.552
X-1152.201 Y-29.172
X-1152.012 Y-29.046
X-1152 Y-29.036
X-1151.798 Y-28.836
X-1151.396 Y-28.434
X-1151.301 Y-28.337
X-1151.231 Y-28.241
X-1150.791 Y-27.543
X-1150.727 Y-27.435
X-1150.651 Y-27.234
X-1150.389 Y-26.483
X-1150.375 Y-26.429
X-1150.35 Y-26.227
X-1150.283 Y-25.623
X-1150.263 Y-25.422
X-1150.278 Y-25.22
X-1150.368 Y-24.415
X-1150.389 Y-24.317
X-1150.636 Y-23.61
X-1150.707 Y-23.408
X-1150.791 Y-23.257
X-1151.203 Y-22.603
X-1151.269 Y-22.502
X-1151.36 Y-22.401
X-1151.965 Y-21.797
X-1152 Y-21.764
X-1152.201 Y-21.628
X-1152.805 Y-21.248
X-1152.897 Y-21.193
X-1153.007 Y-21.148
X-1153.812 Y-20.865
X-1153.913 Y-20.837
X-1154.013 Y-20.823
X-1154.819 Y-20.732
X-1154.92 Y-20.723
X-1155.02 Y-20.728
X-1155.927 Y-20.831
X-1156.027 Y-20.854
X-1156.833 Y-21.135
X-1156.982 Y-21.193
X-1157.034 Y-21.223
X-1157.638 Y-21.602
X-1157.84 Y-21.731
X-1157.915 Y-21.797
X-1158.52 Y-22.401
X-1158.591 Y-22.477
X-1158.645 Y-22.553
X-1159.057 Y-23.207
X-1159.173 Y-23.408
X-1159.249 Y-23.624
X-1159.456 Y-24.214
X-1159.49 Y-24.314
X-1159.512 Y-24.415
X-1159.602 Y-25.22
X-1159.617 Y-25.422
X-1159.597 Y-25.623
X-1159.53 Y-26.227
X-1159.505 Y-26.429
X-1159.451 Y-26.601
X-1159.229 Y-27.234
X-1159.153 Y-27.435
X-1159.03 Y-27.637
X-1158.645 Y-28.247
X-1158.572 Y-28.345
X-1158.444 Y-28.474
X-1158.041 Y-28.877
X-1157.868 Y-29.046
X-1157.84 Y-29.068
X-1157.638 Y-29.198
X-1157.514 Y-29.276
X-1157.43 Y-29.316
X-1157.342 Y-29.343
X-1157.277 Y-29.35 Z16.004
X-1157.212 Y-29.357 Z16.014
X-1157.137 Y-29.343 Z16.037
X-1157.066 Y-29.33 Z16.07
X-1156.999 Y-29.318 Z16.112
X-1156.939 Y-29.281 Z16.171
X-1156.887 Y-29.25 Z16.24
X-1156.845 Y-29.224 Z16.318
X-1156.813 Y-29.205 Z16.403
X-1156.8 Y-29.193 Z16.467
X-1156.792 Y-29.185 Z16.533
X-1156.789 Y-29.182 Z16.6
G0 Z28
X-1154.94 Y-25.4
Z16
G1 Z7 F283.3
X-1154.953 Y-25.436 F850
X-1154.916 Y-25.429
X-1154.904 Y-25.393
X-1154.928 Y-25.365
X-1154.965 Y-25.372
X-1154.993 Y-25.397
X-1155.001 Y-25.434
X-1154.983 Y-25.467
X-1154.951 Y-25.485
X-1154.913 Y-25.486
X-1154.879 Y-25.47
X-1154.854 Y-25.442
X-1154.845 Y-25.406
X-1154.848 Y-25.369
X-1154.865 Y-25.336
X-1154.895 Y-25.312
X-1154.93 Y-25.3
X-1154.968 Y-25.299
X-1155.004 Y-25.31
X-1155.035 Y-25.33
X-1155.06 Y-25.358
X-1155.075 Y-25.392
X-1155.08 Y-25.429
X-1155.075 Y-25.467
X-1155.046 Y-25.536
X-1154.987 Y-25.582
X-1154.914 Y-25.598
X-1154.84 Y-25.584
X-1154.777 Y-25.544
X-1154.733 Y-25.483
X-1154.712 Y-25.411
X-1154.717 Y-25.336
X-1154.745 Y-25.267
X-1154.794 Y-25.21
X-1154.857 Y-25.17
X-1154.929 Y-25.149
X-1155.004 Y-25.15
X-1155.076 Y-25.171
X-1155.14 Y-25.21
X-1155.243 Y-25.319
X-1155.282 Y-25.464
X-1155.253 Y-25.611
X-1155.166 Y-25.734
X-1155.038 Y-25.813
X-1154.891 Y-25.84
X-1154.743 Y-25.814
X-1154.612 Y-25.741
X-1154.513 Y-25.628
X-1154.454 Y-25.49
X-1154.44 Y-25.341
X-1154.471 Y-25.194
X-1154.543 Y-25.063
X-1154.65 Y-24.957
X-1154.781 Y-24.885
X-1154.927 Y-24.85
X-1155.077 Y-24.854
X-1155.222 Y-24.893
X-1155.352 Y-24.967
X-1155.462 Y-25.069
X-1155.545 Y-25.195
X-1155.596 Y-25.336
X-1155.615 Y-25.484
X-1155.599 Y-25.634
X-1155.553 Y-25.776
X-1155.477 Y-25.905
X-1155.376 Y-26.017
X-1155.255 Y-26.105
X-1155.119 Y-26.168
X-1154.973 Y-26.203
X-1154.823 Y-26.209
X-1154.674 Y-26.187
X-1154.533 Y-26.138
X-1154.402 Y-26.064
X-1154.287 Y-25.968
X-1154.19 Y-25.853
X-1154.115 Y-25.724
X-1154.064 Y-25.583
X-1154.037 Y-25.435
X-1154.035 Y-25.285
X-1154.058 Y-25.137
X-1154.104 Y-24.994
X-1154.173 Y-24.861
X-1154.262 Y-24.74
X-1154.37 Y-24.636
X-1154.491 Y-24.548
X-1154.625 Y-24.48
X-1154.768 Y-24.433
X-1154.915 Y-24.407
X-1155.065 Y-24.403
X-1155.214 Y-24.421
X-1155.359 Y-24.459
X-1155.497 Y-24.518
X-1155.626 Y-24.595
X-1155.742 Y-24.69
X-1155.845 Y-24.8
X-1155.931 Y-24.922
X-1156 Y-25.055
X-1156.052 Y-25.196
X-1156.084 Y-25.343
X-1156.096 Y-25.492
X-1156.09 Y-25.642
X-1156.064 Y-25.79
X-1156.02 Y-25.933
X-1155.958 Y-26.07
X-1155.88 Y-26.198
X-1155.787 Y-26.315
X-1155.68 Y-26.42
X-1155.561 Y-26.512
X-1155.432 Y-26.589
X-1155.295 Y-26.65
X-1155.152 Y-26.694
X-1155.004 Y-26.722
X-1154.855 Y-26.732
X-1154.705 Y-26.725
X-1154.557 Y-26.702
X-1154.412 Y-26.661
X-1154.273 Y-26.606
X-1154.141 Y-26.534
X-1154.018 Y-26.449
X-1153.904 Y-26.351
X-1153.802 Y-26.241
X-1153.712 Y-26.121
X-1153.635 Y-25.992
X-1153.573 Y-25.856
X-1153.525 Y-25.714
X-1153.493 Y-25.567
X-1153.475 Y-25.418
X-1153.473 Y-25.268
X-1153.487 Y-25.119
X-1153.516 Y-24.972
X-1153.559 Y-24.828
X-1153.617 Y-24.69
X-1153.687 Y-24.557
X-1153.771 Y-24.433
X-1153.866 Y-24.317
X-1153.973 Y-24.211
X-1154.089 Y-24.116
X-1154.213 Y-24.032
X-1154.345 Y-23.961
X-1154.483 Y-23.902
X-1154.626 Y-23.857
X-1154.773 Y-23.825
X-1154.922 Y-23.807
X-1155.071 Y-23.803
X-1155.221 Y-23.812
X-1155.369 Y-23.836
X-1155.515 Y-23.872
X-1155.656 Y-23.921
X-1155.793 Y-23.984
X-1155.923 Y-24.057
X-1156.047 Y-24.143
X-1156.162 Y-24.239
X-1156.269 Y-24.344
X-1156.366 Y-24.458
X-1156.452 Y-24.581
X-1156.528 Y-24.71
X-1156.593 Y-24.846
X-1156.645 Y-24.986
X-1156.686 Y-25.131
X-1156.714 Y-25.278
X-1156.729 Y-25.427
X-1156.732 Y-25.577
X-1156.723 Y-25.727
X-1156.701 Y-25.875
X-1156.667 Y-26.022
X-1156.621 Y-26.164
X-1156.564 Y-26.303
X-1156.496 Y-26.437
X-1156.417 Y-26.564
X-1156.328 Y-26.685
X-1156.23 Y-26.799
X-1156.123 Y-26.904
X-1156.008 Y-27
X-1155.886 Y-27.087
X-1155.758 Y-27.165
X-1155.624 Y-27.232
X-1155.484 Y-27.288
X-1155.342 Y-27.334
X-1155.196 Y-27.368
X-1155.047 Y-27.392
X-1154.898 Y-27.404
X-1154.748
X-1154.598 Y-27.393
X-1154.45 Y-27.371
X-1154.304 Y-27.338
X-1154.16 Y-27.295
X-1154.02 Y-27.24
X-1153.885 Y-27.176
X-1153.755 Y-27.102
X-1153.63 Y-27.018
X-1153.512 Y-26.926
X-1153.401 Y-26.825
X-1153.297 Y-26.716
X-1153.202 Y-26.601
X-1153.115 Y-26.479
X-1153.037 Y-26.35
X-1152.968 Y-26.217
X-1152.909 Y-26.079
X-1152.86 Y-25.938
X-1152.821 Y-25.793
X-1152.792 Y-25.646
X-1152.773 Y-25.497
X-1152.765 Y-25.347
X-1152.767 Y-25.197
X-1152.78 Y-25.047
X-1152.802 Y-24.899
X-1152.835 Y-24.753
X-1152.878 Y-24.609
X-1152.93 Y-24.468
X-1152.992 Y-24.332
X-1153.063 Y-24.2
X-1153.142 Y-24.072
X-1153.23 Y-23.951
X-1153.326 Y-23.835
X-1153.429 Y-23.726
X-1153.539 Y-23.624
X-1153.656 Y-23.53
X-1153.778 Y-23.443
X-1153.906 Y-23.365
X-1154.039 Y-23.295
X-1154.176 Y-23.234
X-1154.316 Y-23.182
X-1154.46 Y-23.138
X-1154.606 Y-23.105
X-1154.754 Y-23.08
X-1154.903 Y-23.065
X-1155.053 Y-23.06
X-1155.203 Y-23.064
X-1155.352 Y-23.077
X-1155.501 Y-23.1
X-1155.647 Y-23.132
X-1155.791 Y-23.174
X-1155.933 Y-23.224
X-1156.071 Y-23.283
X-1156.205 Y-23.35
X-1156.335 Y-23.425
X-1156.46 Y-23.508
X-1156.579 Y-23.599
X-1156.693 Y-23.697
X-1156.801 Y-23.801
X-1156.902 Y-23.912
X-1156.996 Y-24.029
X-1157.083 Y-24.151
X-1157.162 Y-24.278
X-1157.234 Y-24.41
X-1157.298 Y-24.545
X-1157.353 Y-24.685
X-1157.401 Y-24.827
X-1157.439 Y-24.972
X-1157.469 Y-25.119
X-1157.491 Y-25.267
X-1157.503 Y-25.417
X-1157.507 Y-25.567
X-1157.503 Y-25.717
X-1157.489 Y-25.866
X-1157.467 Y-26.015
X-1157.436 Y-26.161
X-1157.397 Y-26.306
X-1157.35 Y-26.449
X-1157.295 Y-26.588
X-1157.232 Y-26.724
X-1157.161 Y-26.856
X-1157.082 Y-26.985
X-1156.996 Y-27.109
X-1156.904 Y-27.227
X-1156.804 Y-27.342
X-1156.698 Y-27.45
X-1156.587 Y-27.551
X-1156.469 Y-27.647
X-1156.344 Y-27.738
X-1156.215 Y-27.82
X-1156.084 Y-27.894
X-1155.946 Y-27.962
X-1155.802 Y-28.023
X-1155.657 Y-28.076
X-1155.51 Y-28.119
X-1155.358 Y-28.155
X-1155.203 Y-28.183
X-1155.048 Y-28.201
X-1154.894 Y-28.211
X-1154.736 Y-28.212
X-1154.577 Y-28.204
X-1154.42 Y-28.188
X-1154.266 Y-28.162
X-1154.11 Y-28.128
X-1153.955 Y-28.084
X-1153.804 Y-28.032
X-1153.657 Y-27.972
X-1153.513 Y-27.904
X-1153.37 Y-27.826
X-1153.232 Y-27.74
X-1153.1 Y-27.647
X-1152.974 Y-27.548
X-1152.852 Y-27.44
X-1152.735 Y-27.323
X-1152.625 Y-27.201
X-1152.523 Y-27.074
X-1152.428 Y-26.941
X-1152.34 Y-26.802
X-1152.258 Y-26.656
X-1152.186 Y-26.506
X-1152.122 Y-26.353
X-1152.067 Y-26.197
X-1152.021 Y-26.037
X-1151.983 Y-25.872
X-1151.954 Y-25.705
X-1151.935 Y-25.537
X-1151.926 Y-25.37
X-1151.925 Y-25.201
X-1151.935 Y-25.031
X-1151.954 Y-24.861
X-1151.983 Y-24.691
X-1152.021 Y-24.524
X-1152.069 Y-24.36
X-1152.125 Y-24.198
X-1152.192 Y-24.039
X-1152.267 Y-23.882
X-1152.352 Y-23.729
X-1152.445 Y-23.581
X-1152.546 Y-23.439
X-1152.655 Y-23.303
X-1152.772 Y-23.173
X-1152.897 Y-23.049
X-1153.03 Y-22.931
X-1153.169 Y-22.821
X-1153.315 Y-22.718
X-1153.466 Y-22.624
X-1153.622 Y-22.538
X-1153.782 Y-22.462
X-1153.948 Y-22.394
X-1154.118 Y-22.335
X-1154.292 Y-22.286
X-1154.469 Y-22.247
X-1154.649 Y-22.217
X-1154.83 Y-22.198
X-1155.011 Y-22.188
X-1155.194 Y-22.189
X-1155.376 Y-22.201
X-1155.557 Y-22.222
X-1155.738 Y-22.254
X-1155.918 Y-22.297
X-1156.096 Y-22.349
X-1156.271 Y-22.412
X-1156.443 Y-22.484
X-1156.61 Y-22.567
X-1156.773 Y-22.659
X-1156.931 Y-22.76
X-1157.083 Y-22.869
X-1157.229 Y-22.988
X-1157.369 Y-23.115
X-1157.501 Y-23.249
X-1157.626 Y-23.392
X-1157.743 Y-23.541
X-1157.851 Y-23.697
X-1157.951 Y-23.86
X-1158.042 Y-24.029
X-1158.124 Y-24.203
X-1158.196 Y-24.382
X-1158.257 Y-24.565
X-1158.309 Y-24.751
X-1158.35 Y-24.941
X-1158.38 Y-25.133
X-1158.4 Y-25.327
X-1158.409 Y-25.523
X-1158.406 Y-25.719
X-1158.393 Y-25.915
X-1158.368 Y-26.11
X-1158.333 Y-26.305
X-1158.286 Y-26.497
X-1158.229 Y-26.687
X-1158.16 Y-26.874
X-1158.082 Y-27.057
X-1157.992 Y-27.235
X-1157.893 Y-27.409
X-1157.784 Y-27.578
X-1157.665 Y-27.74
X-1157.536 Y-27.896
X-1157.399 Y-28.045
X-1157.254 Y-28.186
X-1157.1 Y-28.319
X-1156.939 Y-28.444
X-1156.77 Y-28.559
X-1156.595 Y-28.666
X-1156.414 Y-28.762
X-1156.227 Y-28.848
X-1156.035 Y-28.924
X-1155.839 Y-28.989
X-1155.639 Y-29.042
X-1155.435 Y-29.085
X-1155.229 Y-29.116
X-1155.021 Y-29.136
X-1154.812 Y-29.144
X-1154.603 Y-29.14
X-1154.393 Y-29.124
X-1154.184 Y-29.096
X-1153.977 Y-29.057
X-1153.771 Y-29.006
X-1153.569 Y-28.943
X-1153.369 Y-28.869
X-1153.174 Y-28.783
X-1152.984 Y-28.687
X-1152.798 Y-28.579
X-1152.619 Y-28.461
X-1152.446 Y-28.333
X-1152.281 Y-28.195
X-1152.123 Y-28.048
X-1151.973 Y-27.891
X-1151.832 Y-27.726
X-1151.7 Y-27.553
X-1151.578 Y-27.372
X-1151.466 Y-27.185
X-1151.364 Y-26.99
X-1151.274 Y-26.79
X-1151.194 Y-26.585
X-1151.126 Y-26.375
X-1151.07 Y-26.161
X-1151.026 Y-25.944
X-1150.994 Y-25.724
X-1150.975 Y-25.502
X-1150.968 Y-25.279
X-1150.973 Y-25.056
X-1150.992 Y-24.832
X-1151.022 Y-24.609
X-1151.066 Y-24.388
X-1151.122 Y-24.169
X-1151.19 Y-23.954
X-1151.271 Y-23.742
X-1151.363 Y-23.534
X-1151.468 Y-23.331
X-1151.584 Y-23.135
X-1151.711 Y-22.944
X-1151.849 Y-22.761
X-1151.997 Y-22.585
X-1152.155 Y-22.418
X-1152.323 Y-22.259
X-1152.5 Y-22.11
X-1152.685 Y-21.97
X-1152.879 Y-21.841
X-1153.08 Y-21.723
X-1153.288 Y-21.616
X-1153.502 Y-21.521
X-1153.721 Y-21.437
X-1153.945 Y-21.367
X-1154.173 Y-21.308
X-1154.405 Y-21.263
X-1154.639 Y-21.23
X-1154.876 Y-21.211
X-1155.113 Y-21.205
X-1155.351 Y-21.213
X-1155.589 Y-21.234
X-1155.826 Y-21.268
X-1156.061 Y-21.316
X-1156.294 Y-21.377
X-1156.523 Y-21.451
X-1156.748 Y-21.538
X-1156.968 Y-21.638
X-1157.182 Y-21.75
X-1157.391 Y-21.875
X-1157.592 Y-22.011
X-1157.786 Y-22.159
X-1157.972 Y-22.318
X-1158.149 Y-22.487
X-1158.316 Y-22.666
X-1158.473 Y-22.855
X-1158.62 Y-23.053
X-1158.756 Y-23.26
X-1158.88 Y-23.474
X-1158.992 Y-23.695
X-1159.092 Y-23.923
X-1159.179 Y-24.157
X-1159.253 Y-24.395
X-1159.313 Y-24.638
X-1159.36 Y-24.884
X-1159.393 Y-25.134
X-1159.411 Y-25.385
X-1159.416 Y-25.637
X-1159.406 Y-25.89
X-1159.383 Y-26.142
X-1159.344 Y-26.393
X-1159.292 Y-26.642
X-1159.226 Y-26.888
X-1159.146 Y-27.131
X-1159.052 Y-27.369
X-1158.944 Y-27.602
X-1158.823 Y-27.829
X-1158.69 Y-28.049
X-1158.544 Y-28.262
X-1158.386 Y-28.467
X-1158.216 Y-28.663
X-1158.035 Y-28.849
X-1157.843 Y-29.026
X-1157.719 Y-29.128
X-1157.653 Y-29.18
X-1157.584 Y-29.229
X-1157.514 Y-29.276
X-1157.238 Y-29.449
X-1157.034 Y-29.577
X-1156.955 Y-29.62
X-1156.875 Y-29.65
X-1156.027 Y-29.946
X-1155.927 Y-29.969
X-1155.02 Y-30.072
X-1154.92 Y-30.077
X-1154.819 Y-30.068
X-1154.013 Y-29.977
X-1153.913 Y-29.963
X-1153.812 Y-29.935
X-1153.002 Y-29.65
X-1152.904 Y-29.61
X-1152.805 Y-29.552
X-1152.201 Y-29.172
X-1152.012 Y-29.046
X-1152 Y-29.036
X-1151.798 Y-28.836
X-1151.396 Y-28.434
X-1151.301 Y-28.337
X-1151.231 Y-28.241
X-1150.791 Y-27.543
X-1150.727 Y-27.435
X-1150.651 Y-27.234
X-1150.389 Y-26.483
X-1150.375 Y-26.429
X-1150.35 Y-26.227
X-1150.283 Y-25.623
X-1150.263 Y-25.422
X-1150.278 Y-25.22
X-1150.368 Y-24.415
X-1150.389 Y-24.317
X-1150.636 Y-23.61
X-1150.707 Y-23.408
X-1150.791 Y-23.257
X-1151.203 Y-22.603
X-1151.269 Y-22.502
X-1151.36 Y-22.401
X-1151.965 Y-21.797
X-1152 Y-21.764
X-1152.201 Y-21.628
X-1152.805 Y-21.248
X-1152.897 Y-21.193
X-1153.007 Y-21.148
X-1153.812 Y-20.865
X-1153.913 Y-20.837
X-1154.013 Y-20.823
X-1154.819 Y-20.732
X-1154.92 Y-20.723
X-1155.02 Y-20.728
X-1155.927 Y-20.831
X-1156.027 Y-20.854
X-1156.833 Y-21.135
X-1156.982 Y-21.193
X-1157.034 Y-21.223
X-1157.638 Y-21.602
X-1157.84 Y-21.731
X-1157.915 Y-21.797
X-1158.52 Y-22.401
X-1158.591 Y-22.477
X-1158.645 Y-22.553
X-1159.057 Y-23.207
X-1159.173 Y-23.408
X-1159.249 Y-23.624
X-1159.456 Y-24.214
X-1159.49 Y-24.314
X-1159.512 Y-24.415
X-1159.602 Y-25.22
X-1159.617 Y-25.422
X-1159.597 Y-25.623
X-1159.53 Y-26.227
X-1159.505 Y-26.429
X-1159.451 Y-26.601
X-1159.229 Y-27.234
X-1159.153 Y-27.435
X-1159.03 Y-27.637
X-1158.645 Y-28.247
X-1158.572 Y-28.345
X-1158.444 Y-28.474
X-1158.041 Y-28.877
X-1157.868 Y-29.046
X-1157.84 Y-29.068
X-1157.638 Y-29.198
X-1157.514 Y-29.276
G3 X-1156.789 Y-29.182 I0.301 J0.519
G1 X-1156.723 Y-29.116 Z7.007
X-1156.658 Y-29.052 Z7.029
X-1156.596 Y-28.99 Z7.065
X-1156.539 Y-28.934 Z7.115
X-1156.488 Y-28.883 Z7.176
X-1156.445 Y-28.84 Z7.247
X-1156.41 Y-28.805 Z7.328
X-1156.385 Y-28.78 Z7.415
X-1156.369 Y-28.764 Z7.506
X-1156.364 Y-28.759 Z7.6
G0 Z36

(2D Adaptive2 2)
X-1154.94 Y-100.4
Z36
Z28
Z26
G1 Z16 F283.3
X-1154.953 Y-100.436 F850
X-1154.916 Y-100.429
X-1154.904 Y-100.393
X-1154.928 Y-100.365
X-1154.965 Y-100.372
X-1154.993 Y-100.397
X-1155.001 Y-100.434
X-1154.983 Y-100.467
X-1154.951 Y-100.485
X-1154.913 Y-100.486
X-1154.879 Y-100.47
X-1154.854 Y-100.442
X-1154.845 Y-100.406
X-1154.848 Y-100.369
X-1154.865 Y-100.336
X-1154.895 Y-100.312
X-1154.93 Y-100.3
X-1154.968 Y-100.299
X-1155.004 Y-100.31
X-1155.035 Y-100.33
X-1155.06 Y-100.358
X-1155.075 Y-100.392
X-1155.08 Y-100.429
X-1155.075 Y-100.467
X-1155.046 Y-100.536
X-1154.987 Y-100.582
X-1154.914 Y-100.598
X-1154.84 Y-100.584
X-1154.777 Y-100.544
X-1154.733 Y-100.483
X-1154.712 Y-100.411
X-1154.717 Y-100.336
X-1154.745 Y-100.267
X-1154.794 Y-100.21
X-1154.857 Y-100.17
X-1154.929 Y-100.149
X-1155.004 Y-100.15
X-1155.076 Y-100.171
X-1155.14 Y-100.21
X-1155.243 Y-100.319
X-1155.282 Y-100.464
X-1155.253 Y-100.611
X-1155.166 Y-100.734
X-1155.038 Y-100.813
X-1154.891 Y-100.84
X-1154.743 Y-100.814
X-1154.612 Y-100.741
X-1154.513 Y-100.628
X-1154.454 Y-100.49
X-1154.44 Y-100.341
X-1154.471 Y-100.194
X-1154.543 Y-100.063
X-1154.65 Y-99.957
X-1154.781 Y-99.885
X-1154.927 Y-99.85
X-1155.077 Y-99.854
X-1155.222 Y-99.893
X-1155.352 Y-99.967
X-1155.462 Y-100.069
X-1155.545 Y-100.195
X-1155.596 Y-100.336
X-1155.615 Y-100.484
X-1155.599 Y-100.634
X-1155.553 Y-100.776
X-1155.477 Y-100.905
X-1155.376 Y-101.017
X-1155.255 Y-101.105
X-1155.119 Y-101.168
X-1154.973 Y-101.203
X-1154.823 Y-101.209
X-1154.674 Y-101.187
X-1154.533 Y-101.138
X-1154.402 Y-101.064
X-1154.287 Y-100.968
X-1154.19 Y-100.853
X-1154.115 Y-100.724
X-1154.064 Y-100.583
X-1154.037 Y-100.435
X-1154.035 Y-100.285
X-1154.058 Y-100.137
X-1154.104 Y-99.994
X-1154.173 Y-99.861
X-1154.262 Y-99.74
X-1154.37 Y-99.636
X-1154.491 Y-99.548
X-1154.625 Y-99.48
X-1154.768 Y-99.433
X-1154.915 Y-99.407
X-1155.065 Y-99.403
X-1155.214 Y-99.421
X-1155.359 Y-99.459
X-1155.497 Y-99.518
X-1155.626 Y-99.595
X-1155.742 Y-99.69
X-1155.845 Y-99.8
X-1155.931 Y-99.922
X-1156 Y-100.055
X-1156.052 Y-100.196
X-1156.084 Y-100.343
X-1156.096 Y-100.492
X-1156.09 Y-100.642
X-1156.064 Y-100.79
X-1156.02 Y-100.933
X-1155.958 Y-101.07
X-1155.88 Y-101.198
X-1155.787 Y-101.315
X-1155.68 Y-101.42
X-1155.561 Y-101.512
X-1155.432 Y-101.589
X-1155.295 Y-101.65
X-1155.152 Y-101.694
X-1155.004 Y-101.722
X-1154.855 Y-101.732
X-1154.705 Y-101.725
X-1154.557 Y-101.702
X-1154.412 Y-101.661
X-1154.273 Y-101.606
X-1154.141 Y-101.534
X-1154.018 Y-101.449
X-1153.904 Y-101.351
X-1153.802 Y-101.241
X-1153.712 Y-101.121
X-1153.635 Y-100.992
X-1153.573 Y-100.856
X-1153.525 Y-100.714
X-1153.493 Y-100.567
X-1153.475 Y-100.418
X-1153.473 Y-100.268
X-1153.487 Y-100.119
X-1153.516 Y-99.972
X-1153.559 Y-99.828
X-1153.617 Y-99.69
X-1153.687 Y-99.557
X-1153.771 Y-99.433
X-1153.866 Y-99.317
X-1153.973 Y-99.211
X-1154.089 Y-99.116
X-1154.213 Y-99.032
X-1154.345 Y-98.961
X-1154.483 Y-98.902
X-1154.626 Y-98.857
X-1154.773 Y-98.825
X-1154.922 Y-98.807
X-1155.071 Y-98.803
X-1155.221 Y-98.812
X-1155.369 Y-98.836
X-1155.515 Y-98.872
X-1155.656 Y-98.921
X-1155.793 Y-98.984
X-1155.923 Y-99.057
X-1156.047 Y-99.143
X-1156.162 Y-99.239
X-1156.269 Y-99.344
X-1156.366 Y-99.458
X-1156.452 Y-99.581
X-1156.528 Y-99.71
X-1156.593 Y-99.846
X-1156.645 Y-99.986
X-1156.686 Y-100.131
X-1156.714 Y-100.278
X-1156.729 Y-100.427
X-1156.732 Y-100.577
X-1156.723 Y-100.727
X-1156.701 Y-100.875
X-1156.667 Y-101.022
X-1156.621 Y-101.164
X-1156.564 Y-101.303
X-1156.496 Y-101.437
X-1156.417 Y-101.564
X-1156.328 Y-101.685
X-1156.23 Y-101.799
X-1156.123 Y-101.904
X-1156.008 Y-102
X-1155.886 Y-102.087
X-1155.758 Y-102.165
X-1155.624 Y-102.232
X-1155.484 Y-102.288
X-1155.342 Y-102.334
X-1155.196 Y-102.368
X-1155.047 Y-102.392
X-1154.898 Y-102.404
X-1154.748
X-1154.598 Y-102.393
X-1154.45 Y-102.371
X-1154.304 Y-102.338
X-1154.16 Y-102.295
X-1154.02 Y-102.24
X-1153.885 Y-102.176
X-1153.755 Y-102.102
X-1153.63 Y-102.018
X-1153.512 Y-101.926
X-1153.401 Y-101.825
X-1153.297 Y-101.716
X-1153.202 Y-101.601
X-1153.115 Y-101.479
X-1153.037 Y-101.35
X-1152.968 Y-101.217
X-1152.909 Y-101.079
X-1152.86 Y-100.938
X-1152.821 Y-100.793
X-1152.792 Y-100.646
X-1152.773 Y-100.497
X-1152.765 Y-100.347
X-1152.767 Y-100.197
X-1152.78 Y-100.047
X-1152.802 Y-99.899
X-1152.835 Y-99.753
X-1152.878 Y-99.609
X-1152.93 Y-99.468
X-1152.992 Y-99.332
X-1153.063 Y-99.2
X-1153.142 Y-99.072
X-1153.23 Y-98.951
X-1153.326 Y-98.835
X-1153.429 Y-98.726
X-1153.539 Y-98.624
X-1153.656 Y-98.53
X-1153.778 Y-98.443
X-1153.906 Y-98.365
X-1154.039 Y-98.295
X-1154.176 Y-98.234
X-1154.316 Y-98.182
X-1154.46 Y-98.138
X-1154.606 Y-98.105
X-1154.754 Y-98.08
X-1154.903 Y-98.065
X-1155.053 Y-98.06
X-1155.203 Y-98.064
X-1155.352 Y-98.077
X-1155.501 Y-98.1
X-1155.647 Y-98.132
X-1155.791 Y-98.174
X-1155.933 Y-98.224
X-1156.071 Y-98.283
X-1156.205 Y-98.35
X-1156.335 Y-98.425
X-1156.46 Y-98.508
X-1156.579 Y-98.599
X-1156.693 Y-98.697
X-1156.801 Y-98.801
X-1156.902 Y-98.912
X-1156.996 Y-99.029
X-1157.083 Y-99.151
X-1157.162 Y-99.278
X-1157.234 Y-99.41
X-1157.298 Y-99.545
X-1157.353 Y-99.685
X-1157.401 Y-99.827
X-1157.439 Y-99.972
X-1157.469 Y-100.119
X-1157.491 Y-100.267
X-1157.503 Y-100.417
X-1157.507 Y-100.567
X-1157.503 Y-100.717
X-1157.489 Y-100.866
X-1157.467 Y-101.015
X-1157.436 Y-101.161
X-1157.397 Y-101.306
X-1157.35 Y-101.449
X-1157.295 Y-101.588
X-1157.232 Y-101.724
X-1157.161 Y-101.856
X-1157.082 Y-101.985
X-1156.996 Y-102.109
X-1156.904 Y-102.227
X-1156.804 Y-102.342
X-1156.698 Y-102.45
X-1156.587 Y-102.551
X-1156.469 Y-102.647
X-1156.344 Y-102.738
X-1156.215 Y-102.82
X-1156.084 Y-102.894
X-1155.946 Y-102.962
X-1155.802 Y-103.023
X-1155.657 Y-103.076
X-1155.51 Y-103.119
X-1155.358 Y-103.155
X-1155.203 Y-103.183
X-1155.048 Y-103.201
X-1154.894 Y-103.211
X-1154.736 Y-103.212
X-1154.577 Y-103.204
X-1154.42 Y-103.188
X-1154.266 Y-103.162
X-1154.11 Y-103.128
X-1153.955 Y-103.084
X-1153.804 Y-103.032
X-1153.657 Y-102.972
X-1153.513 Y-102.904
X-1153.37 Y-102.826
X-1153.232 Y-102.74
X-1153.1 Y-102.647
X-1152.974 Y-102.548
X-1152.852 Y-102.44
X-1152.735 Y-102.323
X-1152.625 Y-102.201
X-1152.523 Y-102.074
X-1152.428 Y-101.941
X-1152.34 Y-101.802
X-1152.258 Y-101.656
X-1152.186 Y-101.506
X-1152.122 Y-101.353
X-1152.067 Y-101.197
X-1152.021 Y-101.037
X-1151.983 Y-100.872
X-1151.954 Y-100.705
X-1151.935 Y-100.537
X-1151.926 Y-100.37
X-1151.925 Y-100.201
X-1151.935 Y-100.031
X-1151.954 Y-99.861
X-1151.983 Y-99.691
X-1152.021 Y-99.524
X-1152.069 Y-99.36
X-1152.125 Y-99.198
X-1152.192 Y-99.039
X-1152.267 Y-98.882
X-1152.352 Y-98.729
X-1152.445 Y-98.581
X-1152.546 Y-98.439
X-1152.655 Y-98.303
X-1152.772 Y-98.173
X-1152.897 Y-98.049
X-1153.03 Y-97.931
X-1153.169 Y-97.821
X-1153.315 Y-97.718
X-1153.466 Y-97.624
X-1153.622 Y-97.538
X-1153.782 Y-97.462
X-1153.948 Y-97.394
X-1154.118 Y-97.335
X-1154.292 Y-97.286
X-1154.469 Y-97.247
X-1154.649 Y-97.217
X-1154.83 Y-97.198
X-1155.011 Y-97.188
X-1155.194 Y-97.189
X-1155.376 Y-97.201
X-1155.557 Y-97.222
X-1155.738 Y-97.254
X-1155.918 Y-97.297
X-1156.096 Y-97.349
X-1156.271 Y-97.412
X-1156.443 Y-97.484
X-1156.61 Y-97.567
X-1156.773 Y-97.659
X-1156.931 Y-97.76
X-1157.083 Y-97.869
X-1157.229 Y-97.988
X-1157.369 Y-98.115
X-1157.501 Y-98.249
X-1157.626 Y-98.392
X-1157.743 Y-98.541
X-1157.851 Y-98.697
X-1157.951 Y-98.86
X-1158.042 Y-99.029
X-1158.124 Y-99.203
X-1158.196 Y-99.382
X-1158.257 Y-99.565
X-1158.309 Y-99.751
X-1158.35 Y-99.941
X-1158.38 Y-100.133
X-1158.4 Y-100.327
X-1158.409 Y-100.523
X-1158.406 Y-100.719
X-1158.393 Y-100.915
X-1158.368 Y-101.11
X-1158.333 Y-101.305
X-1158.286 Y-101.497
X-1158.229 Y-101.687
X-1158.16 Y-101.874
X-1158.082 Y-102.057
X-1157.992 Y-102.235
X-1157.893 Y-102.409
X-1157.784 Y-102.578
X-1157.665 Y-102.74
X-1157.536 Y-102.896
X-1157.399 Y-103.045
X-1157.254 Y-103.186
X-1157.1 Y-103.319
X-1156.939 Y-103.444
X-1156.77 Y-103.559
X-1156.595 Y-103.666
X-1156.414 Y-103.762
X-1156.227 Y-103.848
X-1156.035 Y-103.924
X-1155.839 Y-103.989
X-1155.639 Y-104.042
X-1155.435 Y-104.085
X-1155.229 Y-104.116
X-1155.021 Y-104.136
X-1154.812 Y-104.144
X-1154.603 Y-104.14
X-1154.393 Y-104.124
X-1154.184 Y-104.096
X-1153.977 Y-104.057
X-1153.771 Y-104.006
X-1153.569 Y-103.943
X-1153.369 Y-103.869
X-1153.174 Y-103.783
X-1152.984 Y-103.687
X-1152.798 Y-103.579
X-1152.619 Y-103.461
X-1152.446 Y-103.333
X-1152.281 Y-103.195
X-1152.123 Y-103.048
X-1151.973 Y-102.891
X-1151.832 Y-102.726
X-1151.7 Y-102.553
X-1151.578 Y-102.372
X-1151.466 Y-102.185
X-1151.364 Y-101.99
X-1151.274 Y-101.79
X-1151.194 Y-101.585
X-1151.126 Y-101.375
X-1151.07 Y-101.161
X-1151.026 Y-100.944
X-1150.994 Y-100.724
X-1150.975 Y-100.502
X-1150.968 Y-100.279
X-1150.973 Y-100.056
X-1150.992 Y-99.832
X-1151.022 Y-99.609
X-1151.066 Y-99.388
X-1151.122 Y-99.169
X-1151.19 Y-98.954
X-1151.271 Y-98.742
X-1151.363 Y-98.534
X-1151.468 Y-98.331
X-1151.584 Y-98.135
X-1151.711 Y-97.944
X-1151.849 Y-97.761
X-1151.997 Y-97.585
X-1152.155 Y-97.418
X-1152.323 Y-97.259
X-1152.5 Y-97.11
X-1152.685 Y-96.97
X-1152.879 Y-96.841
X-1153.08 Y-96.723
X-1153.288 Y-96.616
X-1153.502 Y-96.521
X-1153.721 Y-96.437
X-1153.945 Y-96.367
X-1154.173 Y-96.308
X-1154.405 Y-96.263
X-1154.639 Y-96.23
X-1154.876 Y-96.211
X-1155.113 Y-96.205
X-1155.351 Y-96.213
X-1155.589 Y-96.234
X-1155.826 Y-96.268
X-1156.061 Y-96.316
X-1156.294 Y-96.377
X-1156.523 Y-96.451
X-1156.748 Y-96.538
X-1156.968 Y-96.638
X-1157.182 Y-96.75
X-1157.391 Y-96.875
X-1157.592 Y-97.011
X-1157.786 Y-97.159
X-1157.972 Y-97.318
X-1158.149 Y-97.487
X-1158.316 Y-97.666
X-1158.473 Y-97.855
X-1158.62 Y-98.053
X-1158.756 Y-98.26
X-1158.88 Y-98.474
X-1158.992 Y-98.695
X-1159.092 Y-98.923
X-1159.179 Y-99.157
X-1159.253 Y-99.395
X-1159.313 Y-99.638
X-1159.36 Y-99.884
X-1159.393 Y-100.134
X-1159.411 Y-100.385
X-1159.416 Y-100.637
X-1159.406 Y-100.89
X-1159.383 Y-101.142
X-1159.344 Y-101.393
X-1159.292 Y-101.642
X-1159.226 Y-101.888
X-1159.146 Y-102.131
X-1159.052 Y-102.369
X-1158.944 Y-102.602
X-1158.823 Y-102.829
X-1158.69 Y-103.049
X-1158.544 Y-103.262
X-1158.386 Y-103.467
X-1158.216 Y-103.663
X-1158.035 Y-103.849
X-1157.843 Y-104.026
X-1157.719 Y-104.128
X-1157.653 Y-104.18
X-1157.584 Y-104.229
X-1157.514 Y-104.276
X-1157.238 Y-104.449
X-1157.034 Y-104.577
X-1156.955 Y-104.62
X-1156.875 Y-104.65
X-1156.027 Y-104.946
X-1155.927 Y-104.969
X-1155.02 Y-105.072
X-1154.92 Y-105.077
X-1154.819 Y-105.068
X-1154.013 Y-104.977
X-1153.913 Y-104.963
X-1153.812 Y-104.935
X-1153.002 Y-104.65
X-1152.904 Y-104.61
X-1152.805 Y-104.552
X-1152.201 Y-104.172
X-1152.012 Y-104.046
X-1152 Y-104.036
X-1151.798 Y-103.836
X-1151.396 Y-103.434
X-1151.301 Y-103.337
X-1151.231 Y-103.241
X-1150.791 Y-102.543
X-1150.727 Y-102.435
X-1150.651 Y-102.234
X-1150.389 Y-101.483
X-1150.375 Y-101.429
X-1150.35 Y-101.227
X-1150.283 Y-100.623
X-1150.263 Y-100.422
X-1150.278 Y-100.22
X-1150.368 Y-99.415
X-1150.389 Y-99.317
X-1150.636 Y-98.61
X-1150.707 Y-98.408
X-1150.791 Y-98.257
X-1151.203 Y-97.603
X-1151.269 Y-97.502
X-1151.36 Y-97.401
X-1151.965 Y-96.797
X-1152 Y-96.764
X-1152.201 Y-96.628
X-1152.805 Y-96.248
X-1152.897 Y-96.193
X-1153.007 Y-96.148
X-1153.812 Y-95.865
X-1153.913 Y-95.837
X-1154.013 Y-95.823
X-1154.819 Y-95.732
X-1154.92 Y-95.723
X-1155.02 Y-95.728
X-1155.927 Y-95.831
X-1156.027 Y-95.854
X-1156.833 Y-96.135
X-1156.982 Y-96.193
X-1157.034 Y-96.223
X-1157.638 Y-96.602
X-1157.84 Y-96.731
X-1157.915 Y-96.797
X-1158.52 Y-97.401
X-1158.591 Y-97.477
X-1158.645 Y-97.553
X-1159.057 Y-98.207
X-1159.173 Y-98.408
X-1159.249 Y-98.624
X-1159.456 Y-99.214
X-1159.49 Y-99.314
X-1159.512 Y-99.415
X-1159.602 Y-100.22
X-1159.617 Y-100.422
X-1159.597 Y-100.623
X-1159.53 Y-101.227
X-1159.505 Y-101.429
X-1159.451 Y-101.601
X-1159.229 Y-102.234
X-1159.153 Y-102.435
X-1159.03 Y-102.637
X-1158.645 Y-103.247
X-1158.572 Y-103.345
X-1158.444 Y-103.474
X-1158.041 Y-103.877
X-1157.868 Y-104.046
X-1157.84 Y-104.068
X-1157.638 Y-104.198
X-1157.514 Y-104.276
X-1157.43 Y-104.316
X-1157.342 Y-104.343
X-1157.277 Y-104.35 Z16.004
X-1157.212 Y-104.357 Z16.014
X-1157.137 Y-104.343 Z16.037
X-1157.066 Y-104.33 Z16.07
X-1156.999 Y-104.318 Z16.112
X-1156.939 Y-104.281 Z16.171
X-1156.887 Y-104.25 Z16.24
X-1156.845 Y-104.224 Z16.318
X-1156.813 Y-104.205 Z16.403
X-1156.8 Y-104.193 Z16.467
X-1156.792 Y-104.185 Z16.533
X-1156.789 Y-104.182 Z16.6
G0 Z28
X-1154.94 Y-100.4
Z16
G1 Z7 F283.3
X-1154.953 Y-100.436 F850
X-1154.916 Y-100.429
X-1154.904 Y-100.393
X-1154.928 Y-100.365
X-1154.965 Y-100.372
X-1154.993 Y-100.397
X-1155.001 Y-100.434
X-1154.983 Y-100.467
X-1154.951 Y-100.485
X-1154.913 Y-100.486
X-1154.879 Y-100.47
X-1154.854 Y-100.442
X-1154.845 Y-100.406
X-1154.848 Y-100.369
X-1154.865 Y-100.336
X-1154.895 Y-100.312
X-1154.93 Y-100.3
X-1154.968 Y-100.299
X-1155.004 Y-100.31
X-1155.035 Y-100.33
X-1155.06 Y-100.358
X-1155.075 Y-100.392
X-1155.08 Y-100.429
X-1155.075 Y-100.467
X-1155.046 Y-100.536
X-1154.987 Y-100.582
X-1154.914 Y-100.598
X-1154.84 Y-100.584
X-1154.777 Y-100.544
X-1154.733 Y-100.483
X-1154.712 Y-100.411
X-1154.717 Y-100.336
X-1154.745 Y-100.267
X-1154.794 Y-100.21
X-1154.857 Y-100.17
X-1154.929 Y-100.149
X-1155.004 Y-100.15
X-1155.076 Y-100.171
X-1155.14 Y-100.21
X-1155.243 Y-100.319
X-1155.282 Y-100.464
X-1155.253 Y-100.611
X-1155.166 Y-100.734
X-1155.038 Y-100.813
X-1154.891 Y-100.84
X-1154.743 Y-100.814
X-1154.612 Y-100.741
X-1154.513 Y-100.628
X-1154.454 Y-100.49
X-1154.44 Y-100.341
X-1154.471 Y-100.194
X-1154.543 Y-100.063
X-1154.65 Y-99.957
X-1154.781 Y-99.885
X-1154.927 Y-99.85
X-1155.077 Y-99.854
X-1155.222 Y-99.893
X-1155.352 Y-99.967
X-1155.462 Y-100.069
X-1155.545 Y-100.195
X-1155.596 Y-100.336
X-1155.615 Y-100.484
X-1155.599 Y-100.634
X-1155.553 Y-100.776
X-1155.477 Y-100.905
X-1155.376 Y-101.017
X-1155.255 Y-101.105
X-1155.119 Y-101.168
X-1154.973 Y-101.203
X-1154.823 Y-101.209
X-1154.674 Y-101.187
X-1154.533 Y-101.138
X-1154.402 Y-101.064
X-1154.287 Y-100.968
X-1154.19 Y-100.853
X-1154.115 Y-100.724
X-1154.064 Y-100.583
X-1154.037 Y-100.435
X-1154.035 Y-100.285
X-1154.058 Y-100.137
X-1154.104 Y-99.994
X-1154.173 Y-99.861
X-1154.262 Y-99.74
X-1154.37 Y-99.636
X-1154.491 Y-99.548
X-1154.625 Y-99.48
X-1154.768 Y-99.433
X-1154.915 Y-99.407
X-1155.065 Y-99.403
X-1155.214 Y-99.421
X-1155.359 Y-99.459
X-1155.497 Y-99.518
X-1155.626 Y-99.595
X-1155.742 Y-99.69
X-1155.845 Y-99.8
X-1155.931 Y-99.922
X-1156 Y-100.055
X-1156.052 Y-100.196
X-1156.084 Y-100.343
X-1156.096 Y-100.492
X-1156.09 Y-100.642
X-1156.064 Y-100.79
X-1156.02 Y-100.933
X-1155.958 Y-101.07
X-1155.88 Y-101.198
X-1155.787 Y-101.315
X-1155.68 Y-101.42
X-1155.561 Y-101.512
X-1155.432 Y-101.589
X-1155.295 Y-101.65
X-1155.152 Y-101.694
X-1155.004 Y-101.722
X-1154.855 Y-101.732
X-1154.705 Y-101.725
X-1154.557 Y-101.702
X-1154.412 Y-101.661
X-1154.273 Y-101.606
X-1154.141 Y-101.534
X-1154.018 Y-101.449
X-1153.904 Y-101.351
X-1153.802 Y-101.241
X-1153.712 Y-101.121
X-1153.635 Y-100.992
X-1153.573 Y-100.856
X-1153.525 Y-100.714
X-1153.493 Y-100.567
X-1153.475 Y-100.418
X-1153.473 Y-100.268
X-1153.487 Y-100.119
X-1153.516 Y-99.972
X-1153.559 Y-99.828
X-1153.617 Y-99.69
X-1153.687 Y-99.557
X-1153.771 Y-99.433
X-1153.866 Y-99.317
X-1153.973 Y-99.211
X-1154.089 Y-99.116
X-1154.213 Y-99.032
X-1154.345 Y-98.961
X-1154.483 Y-98.902
X-1154.626 Y-98.857
X-1154.773 Y-98.825
X-1154.922 Y-98.807
X-1155.071 Y-98.803
X-1155.221 Y-98.812
X-1155.369 Y-98.836
X-1155.515 Y-98.872
X-1155.656 Y-98.921
X-1155.793 Y-98.984
X-1155.923 Y-99.057
X-1156.047 Y-99.143
X-1156.162 Y-99.239
X-1156.269 Y-99.344
X-1156.366 Y-99.458
X-1156.452 Y-99.581
X-1156.528 Y-99.71
X-1156.593 Y-99.846
X-1156.645 Y-99.986
X-1156.686 Y-100.131
X-1156.714 Y-100.278
X-1156.729 Y-100.427
X-1156.732 Y-100.577
X-1156.723 Y-100.727
X-1156.701 Y-100.875
X-1156.667 Y-101.022
X-1156.621 Y-101.164
X-1156.564 Y-101.303
X-1156.496 Y-101.437
X-1156.417 Y-101.564
X-1156.328 Y-101.685
X-1156.23 Y-101.799
X-1156.123 Y-101.904
X-1156.008 Y-102
X-1155.886 Y-102.087
X-1155.758 Y-102.165
X-1155.624 Y-102.232
X-1155.484 Y-102.288
X-1155.342 Y-102.334
X-1155.196 Y-102.368
X-1155.047 Y-102.392
X-1154.898 Y-102.404
X-1154.748
X-1154.598 Y-102.393
X-1154.45 Y-102.371
X-1154.304 Y-102.338
X-1154.16 Y-102.295
X-1154.02 Y-102.24
X-1153.885 Y-102.176
X-1153.755 Y-102.102
X-1153.63 Y-102.018
X-1153.512 Y-101.926
X-1153.401 Y-101.825
X-1153.297 Y-101.716
X-1153.202 Y-101.601
X-1153.115 Y-101.479
X-1153.037 Y-101.35
X-1152.968 Y-101.217
X-1152.909 Y-101.079
X-1152.86 Y-100.938
X-1152.821 Y-100.793
X-1152.792 Y-100.646
X-1152.773 Y-100.497
X-1152.765 Y-100.347
X-1152.767 Y-100.197
X-1152.78 Y-100.047
X-1152.802 Y-99.899
X-1152.835 Y-99.753
X-1152.878 Y-99.609
X-1152.93 Y-99.468
X-1152.992 Y-99.332
X-1153.063 Y-99.2
X-1153.142 Y-99.072
X-1153.23 Y-98.951
X-1153.326 Y-98.835
X-1153.429 Y-98.726
X-1153.539 Y-98.624
X-1153.656 Y-98.53
X-1153.778 Y-98.443
X-1153.906 Y-98.365
X-1154.039 Y-98.295
X-1154.176 Y-98.234
X-1154.316 Y-98.182
X-1154.46 Y-98.138
X-1154.606 Y-98.105
X-1154.754 Y-98.08
X-1154.903 Y-98.065
X-1155.053 Y-98.06
X-1155.203 Y-98.064
X-1155.352 Y-98.077
X-1155.501 Y-98.1
X-1155.647 Y-98.132
X-1155.791 Y-98.174
X-1155.933 Y-98.224
X-1156.071 Y-98.283
X-1156.205 Y-98.35
X-1156.335 Y-98.425
X-1156.46 Y-98.508
X-1156.579 Y-98.599
X-1156.693 Y-98.697
X-1156.801 Y-98.801
X-1156.902 Y-98.912
X-1156.996 Y-99.029
X-1157.083 Y-99.151
X-1157.162 Y-99.278
X-1157.234 Y-99.41
X-1157.298 Y-99.545
X-1157.353 Y-99.685
X-1157.401 Y-99.827
X-1157.439 Y-99.972
X-1157.469 Y-100.119
X-1157.491 Y-100.267
X-1157.503 Y-100.417
X-1157.507 Y-100.567
X-1157.503 Y-100.717
X-1157.489 Y-100.866
X-1157.467 Y-101.015
X-1157.436 Y-101.161
X-1157.397 Y-101.306
X-1157.35 Y-101.449
X-1157.295 Y-101.588
X-1157.232 Y-101.724
X-1157.161 Y-101.856
X-1157.082 Y-101.985
X-1156.996 Y-102.109
X-1156.904 Y-102.227
X-1156.804 Y-102.342
X-1156.698 Y-102.45
X-1156.587 Y-102.551
X-1156.469 Y-102.647
X-1156.344 Y-102.738
X-1156.215 Y-102.82
X-1156.084 Y-102.894
X-1155.946 Y-102.962
X-1155.802 Y-103.023
X-1155.657 Y-103.076
X-1155.51 Y-103.119
X-1155.358 Y-103.155
X-1155.203 Y-103.183
X-1155.048 Y-103.201
X-1154.894 Y-103.211
X-1154.736 Y-103.212
X-1154.577 Y-103.204
X-1154.42 Y-103.188
X-1154.266 Y-103.162
X-1154.11 Y-103.128
X-1153.955 Y-103.084
X-1153.804 Y-103.032
X-1153.657 Y-102.972
X-1153.513 Y-102.904
X-1153.37 Y-102.826
X-1153.232 Y-102.74
X-1153.1 Y-102.647
X-1152.974 Y-102.548
X-1152.852 Y-102.44
X-1152.735 Y-102.323
X-1152.625 Y-102.201
X-1152.523 Y-102.074
X-1152.428 Y-101.941
X-1152.34 Y-101.802
X-1152.258 Y-101.656
X-1152.186 Y-101.506
X-1152.122 Y-101.353
X-1152.067 Y-101.197
X-1152.021 Y-101.037
X-1151.983 Y-100.872
X-1151.954 Y-100.705
X-1151.935 Y-100.537
X-1151.926 Y-100.37
X-1151.925 Y-100.201
X-1151.935 Y-100.031
X-1151.954 Y-99.861
X-1151.983 Y-99.691
X-1152.021 Y-99.524
X-1152.069 Y-99.36
X-1152.125 Y-99.198
X-1152.192 Y-99.039
X-1152.267 Y-98.882
X-1152.352 Y-98.729
X-1152.445 Y-98.581
X-1152.546 Y-98.439
X-1152.655 Y-98.303
X-1152.772 Y-98.173
X-1152.897 Y-98.049
X-1153.03 Y-97.931
X-1153.169 Y-97.821
X-1153.315 Y-97.718
X-1153.466 Y-97.624
X-1153.622 Y-97.538
X-1153.782 Y-97.462
X-1153.948 Y-97.394
X-1154.118 Y-97.335
X-1154.292 Y-97.286
X-1154.469 Y-97.247
X-1154.649 Y-97.217
X-1154.83 Y-97.198
X-1155.011 Y-97.188
X-1155.194 Y-97.189
X-1155.376 Y-97.201
X-1155.557 Y-97.222
X-1155.738 Y-97.254
X-1155.918 Y-97.297
X-1156.096 Y-97.349
X-1156.271 Y-97.412
X-1156.443 Y-97.484
X-1156.61 Y-97.567
X-1156.773 Y-97.659
X-1156.931 Y-97.76
X-1157.083 Y-97.869
X-1157.229 Y-97.988
X-1157.369 Y-98.115
X-1157.501 Y-98.249
X-1157.626 Y-98.392
X-1157.743 Y-98.541
X-1157.851 Y-98.697
X-1157.951 Y-98.86
X-1158.042 Y-99.029
X-1158.124 Y-99.203
X-1158.196 Y-99.382
X-1158.257 Y-99.565
X-1158.309 Y-99.751
X-1158.35 Y-99.941
X-1158.38 Y-100.133
X-1158.4 Y-100.327
X-1158.409 Y-100.523
X-1158.406 Y-100.719
X-1158.393 Y-100.915
X-1158.368 Y-101.11
X-1158.333 Y-101.305
X-1158.286 Y-101.497
X-1158.229 Y-101.687
X-1158.16 Y-101.874
X-1158.082 Y-102.057
X-1157.992 Y-102.235
X-1157.893 Y-102.409
X-1157.784 Y-102.578
X-1157.665 Y-102.74
X-1157.536 Y-102.896
X-1157.399 Y-103.045
X-1157.254 Y-103.186
X-1157.1 Y-103.319
X-1156.939 Y-103.444
X-1156.77 Y-103.559
X-1156.595 Y-103.666
X-1156.414 Y-103.762
X-1156.227 Y-103.848
X-1156.035 Y-103.924
X-1155.839 Y-103.989
X-1155.639 Y-104.042
X-1155.435 Y-104.085
X-1155.229 Y-104.116
X-1155.021 Y-104.136
X-1154.812 Y-104.144
X-1154.603 Y-104.14
X-1154.393 Y-104.124
X-1154.184 Y-104.096
X-1153.977 Y-104.057
X-1153.771 Y-104.006
X-1153.569 Y-103.943
X-1153.369 Y-103.869
X-1153.174 Y-103.783
X-1152.984 Y-103.687
X-1152.798 Y-103.579
X-1152.619 Y-103.461
X-1152.446 Y-103.333
X-1152.281 Y-103.195
X-1152.123 Y-103.048
X-1151.973 Y-102.891
X-1151.832 Y-102.726
X-1151.7 Y-102.553
X-1151.578 Y-102.372
X-1151.466 Y-102.185
X-1151.364 Y-101.99
X-1151.274 Y-101.79
X-1151.194 Y-101.585
X-1151.126 Y-101.375
X-1151.07 Y-101.161
X-1151.026 Y-100.944
X-1150.994 Y-100.724
X-1150.975 Y-100.502
X-1150.968 Y-100.279
X-1150.973 Y-100.056
X-1150.992 Y-99.832
X-1151.022 Y-99.609
X-1151.066 Y-99.388
X-1151.122 Y-99.169
X-1151.19 Y-98.954
X-1151.271 Y-98.742
X-1151.363 Y-98.534
X-1151.468 Y-98.331
X-1151.584 Y-98.135
X-1151.711 Y-97.944
X-1151.849 Y-97.761
X-1151.997 Y-97.585
X-1152.155 Y-97.418
X-1152.323 Y-97.259
X-1152.5 Y-97.11
X-1152.685 Y-96.97
X-1152.879 Y-96.841
X-1153.08 Y-96.723
X-1153.288 Y-96.616
X-1153.502 Y-96.521
X-1153.721 Y-96.437
X-1153.945 Y-96.367
X-1154.173 Y-96.308
X-1154.405 Y-96.263
X-1154.639 Y-96.23
X-1154.876 Y-96.211
X-1155.113 Y-96.205
X-1155.351 Y-96.213
X-1155.589 Y-96.234
X-1155.826 Y-96.268
X-1156.061 Y-96.316
X-1156.294 Y-96.377
X-1156.523 Y-96.451
X-1156.748 Y-96.538
X-1156.968 Y-96.638
X-1157.182 Y-96.75
X-1157.391 Y-96.875
X-1157.592 Y-97.011
X-1157.786 Y-97.159
X-1157.972 Y-97.318
X-1158.149 Y-97.487
X-1158.316 Y-97.666
X-1158.473 Y-97.855
X-1158.62 Y-98.053
X-1158.756 Y-98.26
X-1158.88 Y-98.474
X-1158.992 Y-98.695
X-1159.092 Y-98.923
X-1159.179 Y-99.157
X-1159.253 Y-99.395
X-1159.313 Y-99.638
X-1159.36 Y-99.884
X-1159.393 Y-100.134
X-1159.411 Y-100.385
X-1159.416 Y-100.637
X-1159.406 Y-100.89
X-1159.383 Y-101.142
X-1159.344 Y-101.393
X-1159.292 Y-101.642
X-1159.226 Y-101.888
X-1159.146 Y-102.131
X-1159.052 Y-102.369
X-1158.944 Y-102.602
X-1158.823 Y-102.829
X-1158.69 Y-103.049
X-1158.544 Y-103.262
X-1158.386 Y-103.467
X-1158.216 Y-103.663
X-1158.035 Y-103.849
X-1157.843 Y-104.026
X-1157.719 Y-104.128
X-1157.653 Y-104.18
X-1157.584 Y-104.229
X-1157.514 Y-104.276
X-1157.238 Y-104.449
X-1157.034 Y-104.577
X-1156.955 Y-104.62
X-1156.875 Y-104.65
X-1156.027 Y-104.946
X-1155.927 Y-104.969
X-1155.02 Y-105.072
X-1154.92 Y-105.077
X-1154.819 Y-105.068
X-1154.013 Y-104.977
X-1153.913 Y-104.963
X-1153.812 Y-104.935
X-1153.002 Y-104.65
X-1152.904 Y-104.61
X-1152.805 Y-104.552
X-1152.201 Y-104.172
X-1152.012 Y-104.046
X-1152 Y-104.036
X-1151.798 Y-103.836
X-1151.396 Y-103.434
X-1151.301 Y-103.337
X-1151.231 Y-103.241
X-1150.791 Y-102.543
X-1150.727 Y-102.435
X-1150.651 Y-102.234
X-1150.389 Y-101.483
X-1150.375 Y-101.429
X-1150.35 Y-101.227
X-1150.283 Y-100.623
X-1150.263 Y-100.422
X-1150.278 Y-100.22
X-1150.368 Y-99.415
X-1150.389 Y-99.317
X-1150.636 Y-98.61
X-1150.707 Y-98.408
X-1150.791 Y-98.257
X-1151.203 Y-97.603
X-1151.269 Y-97.502
X-1151.36 Y-97.401
X-1151.965 Y-96.797
X-1152 Y-96.764
X-1152.201 Y-96.628
X-1152.805 Y-96.248
X-1152.897 Y-96.193
X-1153.007 Y-96.148
X-1153.812 Y-95.865
X-1153.913 Y-95.837
X-1154.013 Y-95.823
X-1154.819 Y-95.732
X-1154.92 Y-95.723
X-1155.02 Y-95.728
X-1155.927 Y-95.831
X-1156.027 Y-95.854
X-1156.833 Y-96.135
X-1156.982 Y-96.193
X-1157.034 Y-96.223
X-1157.638 Y-96.602
X-1157.84 Y-96.731
X-1157.915 Y-96.797
X-1158.52 Y-97.401
X-1158.591 Y-97.477
X-1158.645 Y-97.553
X-1159.057 Y-98.207
X-1159.173 Y-98.408
X-1159.249 Y-98.624
X-1159.456 Y-99.214
X-1159.49 Y-99.314
X-1159.512 Y-99.415
X-1159.602 Y-100.22
X-1159.617 Y-100.422
X-1159.597 Y-100.623
X-1159.53 Y-101.227
X-1159.505 Y-101.429
X-1159.451 Y-101.601
X-1159.229 Y-102.234
X-1159.153 Y-102.435
X-1159.03 Y-102.637
X-1158.645 Y-103.247
X-1158.572 Y-103.345
X-1158.444 Y-103.474
X-1158.041 Y-103.877
X-1157.868 Y-104.046
X-1157.84 Y-104.068
X-1157.638 Y-104.198
X-1157.514 Y-104.276
G3 X-1156.789 Y-104.182 I0.301 J0.519
G1 X-1156.723 Y-104.116 Z7.007
X-1156.658 Y-104.052 Z7.029
X-1156.596 Y-103.99 Z7.065
X-1156.539 Y-103.934 Z7.115
X-1156.488 Y-103.883 Z7.176
X-1156.445 Y-103.84 Z7.247
X-1156.41 Y-103.805 Z7.328
X-1156.385 Y-103.78 Z7.415
X-1156.369 Y-103.764 Z7.506
X-1156.364 Y-103.759 Z7.6
G0 Z36

(2D Adaptive2 2)
X-1154.94 Y-175.4
Z36
Z28
Z26
G1 Z16 F283.3
X-1154.953 Y-175.436 F850
X-1154.916 Y-175.429
X-1154.904 Y-175.393
X-1154.928 Y-175.365
X-1154.965 Y-175.372
X-1154.993 Y-175.397
X-1155.001 Y-175.434
X-1154.983 Y-175.467
X-1154.951 Y-175.485
X-1154.913 Y-175.486
X-1154.879 Y-175.47
X-1154.854 Y-175.442
X-1154.845 Y-175.406
X-1154.848 Y-175.369
X-1154.865 Y-175.336
X-1154.895 Y-175.312
X-1154.93 Y-175.3
X-1154.968 Y-175.299
X-1155.004 Y-175.31
X-1155.035 Y-175.33
X-1155.06 Y-175.358
X-1155.075 Y-175.392
X-1155.08 Y-175.429
X-1155.075 Y-175.467
X-1155.046 Y-175.536
X-1154.987 Y-175.582
X-1154.914 Y-175.598
X-1154.84 Y-175.584
X-1154.777 Y-175.544
X-1154.733 Y-175.483
X-1154.712 Y-175.411
X-1154.717 Y-175.336
X-1154.745 Y-175.267
X-1154.794 Y-175.21
X-1154.857 Y-175.17
X-1154.929 Y-175.149
X-1155.004 Y-175.15
X-1155.076 Y-175.171
X-1155.14 Y-175.21
X-1155.243 Y-175.319
X-1155.282 Y-175.464
X-1155.253 Y-175.611
X-1155.166 Y-175.734
X-1155.038 Y-175.813
X-1154.891 Y-175.84
X-1154.743 Y-175.814
X-1154.612 Y-175.741
X-1154.513 Y-175.628
X-1154.454 Y-175.49
X-1154.44 Y-175.341
X-1154.471 Y-175.194
X-1154.543 Y-175.063
X-1154.65 Y-174.957
X-1154.781 Y-174.885
X-1154.927 Y-174.85
X-1155.077 Y-174.854
X-1155.222 Y-174.893
X-1155.352 Y-174.967
X-1155.462 Y-175.069
X-1155.545 Y-175.195
X-1155.596 Y-175.336
X-1155.615 Y-175.484
X-1155.599 Y-175.634
X-1155.553 Y-175.776
X-1155.477 Y-175.905
X-1155.376 Y-176.017
X-1155.255 Y-176.105
X-1155.119 Y-176.168
X-1154.973 Y-176.203
X-1154.823 Y-176.209
X-1154.674 Y-176.187
X-1154.533 Y-176.138
X-1154.402 Y-176.064
X-1154.287 Y-175.968
X-1154.19 Y-175.853
X-1154.115 Y-175.724
X-1154.064 Y-175.583
X-1154.037 Y-175.435
X-1154.035 Y-175.285
X-1154.058 Y-175.137
X-1154.104 Y-174.994
X-1154.173 Y-174.861
X-1154.262 Y-174.74
X-1154.37 Y-174.636
X-1154.491 Y-174.548
X-1154.625 Y-174.48
X-1154.768 Y-174.433
X-1154.915 Y-174.407
X-1155.065 Y-174.403
X-1155.214 Y-174.421
X-1155.359 Y-174.459
X-1155.497 Y-174.518
X-1155.626 Y-174.595
X-1155.742 Y-174.69
X-1155.845 Y-174.8
X-1155.931 Y-174.922
X-1156 Y-175.055
X-1156.052 Y-175.196
X-1156.084 Y-175.343
X-1156.096 Y-175.492
X-1156.09 Y-175.642
X-1156.064 Y-175.79
X-1156.02 Y-175.933
X-1155.958 Y-176.07
X-1155.88 Y-176.198
X-1155.787 Y-176.315
X-1155.68 Y-176.42
X-1155.561 Y-176.512
X-1155.432 Y-176.589
X-1155.295 Y-176.65
X-1155.152 Y-176.694
X-1155.004 Y-176.722
X-1154.855 Y-176.732
X-1154.705 Y-176.725
X-1154.557 Y-176.702
X-1154.412 Y-176.661
X-1154.273 Y-176.606
X-1154.141 Y-176.534
X-1154.018 Y-176.449
X-1153.904 Y-176.351
X-1153.802 Y-176.241
X-1153.712 Y-176.121
X-1153.635 Y-175.992
X-1153.573 Y-175.856
X-1153.525 Y-175.714
X-1153.493 Y-175.567
X-1153.475 Y-175.418
X-1153.473 Y-175.268
X-1153.487 Y-175.119
X-1153.516 Y-174.972
X-1153.559 Y-174.828
X-1153.617 Y-174.69
X-1153.687 Y-174.557
X-1153.771 Y-174.433
X-1153.866 Y-174.317
X-1153.973 Y-174.211
X-1154.089 Y-174.116
X-1154.213 Y-174.032
X-1154.345 Y-173.961
X-1154.483 Y-173.902
X-1154.626 Y-173.857
X-1154.773 Y-173.825
X-1154.922 Y-173.807
X-1155.071 Y-173.803
X-1155.221 Y-173.812
X-1155.369 Y-173.836
X-1155.515 Y-173.872
X-1155.656 Y-173.921
X-1155.793 Y-173.984
X-1155.923 Y-174.057
X-1156.047 Y-174.143
X-1156.162 Y-174.239
X-1156.269 Y-174.344
X-1156.366 Y-174.458
X-1156.452 Y-174.581
X-1156.528 Y-174.71
X-1156.593 Y-174.846
X-1156.645 Y-174.986
X-1156.686 Y-175.131
X-1156.714 Y-175.278
X-1156.729 Y-175.427
X-1156.732 Y-175.577
X-1156.723 Y-175.727
X-1156.701 Y-175.875
X-1156.667 Y-176.022
X-1156.621 Y-176.164
X-1156.564 Y-176.303
X-1156.496 Y-176.437
X-1156.417 Y-176.564
X-1156.328 Y-176.685
X-1156.23 Y-176.799
X-1156.123 Y-176.904
X-1156.008 Y-177
X-1155.886 Y-177.087
X-1155.758 Y-177.165
X-1155.624 Y-177.232
X-1155.484 Y-177.288
X-1155.342 Y-177.334
X-1155.196 Y-177.368
X-1155.047 Y-177.392
X-1154.898 Y-177.404
X-1154.748
X-1154.598 Y-177.393
X-1154.45 Y-177.371
X-1154.304 Y-177.338
X-1154.16 Y-177.295
X-1154.02 Y-177.24
X-1153.885 Y-177.176
X-1153.755 Y-177.102
X-1153.63 Y-177.018
X-1153.512 Y-176.926
X-1153.401 Y-176.825
X-1153.297 Y-176.716
X-1153.202 Y-176.601
X-1153.115 Y-176.479
X-1153.037 Y-176.35
X-1152.968 Y-176.217
X-1152.909 Y-176.079
X-1152.86 Y-175.938
X-1152.821 Y-175.793
X-1152.792 Y-175.646
X-1152.773 Y-175.497
X-1152.765 Y-175.347
X-1152.767 Y-175.197
X-1152.78 Y-175.047
X-1152.802 Y-174.899
X-1152.835 Y-174.753
X-1152.878 Y-174.609
X-1152.93 Y-174.468
X-1152.992 Y-174.332
X-1153.063 Y-174.2
X-1153.142 Y-174.072
X-1153.23 Y-173.951
X-1153.326 Y-173.835
X-1153.429 Y-173.726
X-1153.539 Y-173.624
X-1153.656 Y-173.53
X-1153.778 Y-173.443
X-1153.906 Y-173.365
X-1154.039 Y-173.295
X-1154.176 Y-173.234
X-1154.316 Y-173.182
X-1154.46 Y-173.138
X-1154.606 Y-173.105
X-1154.754 Y-173.08
X-1154.903 Y-173.065
X-1155.053 Y-173.06
X-1155.203 Y-173.064
X-1155.352 Y-173.077
X-1155.501 Y-173.1
X-1155.647 Y-173.132
X-1155.791 Y-173.174
X-1155.933 Y-173.224
X-1156.071 Y-173.283
X-1156.205 Y-173.35
X-1156.335 Y-173.425
X-1156.46 Y-173.508
X-1156.579 Y-173.599
X-1156.693 Y-173.697
X-1156.801 Y-173.801
X-1156.902 Y-173.912
X-1156.996 Y-174.029
X-1157.083 Y-174.151
X-1157.162 Y-174.278
X-1157.234 Y-174.41
X-1157.298 Y-174.545
X-1157.353 Y-174.685
X-1157.401 Y-174.827
X-1157.439 Y-174.972
X-1157.469 Y-175.119
X-1157.491 Y-175.267
X-1157.503 Y-175.417
X-1157.507 Y-175.567
X-1157.503 Y-175.717
X-1157.489 Y-175.866
X-1157.467 Y-176.015
X-1157.436 Y-176.161
X-1157.397 Y-176.306
X-1157.35 Y-176.449
X-1157.295 Y-176.588
X-1157.232 Y-176.724
X-1157.161 Y-176.856
X-1157.082 Y-176.985
X-1156.996 Y-177.109
X-1156.904 Y-177.227
X-1156.804 Y-177.342
X-1156.698 Y-177.45
X-1156.587 Y-177.551
X-1156.469 Y-177.647
X-1156.344 Y-177.738
X-1156.215 Y-177.82
X-1156.084 Y-177.894
X-1155.946 Y-177.962
X-1155.802 Y-178.023
X-1155.657 Y-178.076
X-1155.51 Y-178.119
X-1155.358 Y-178.155
X-1155.203 Y-178.183
X-1155.048 Y-178.201
X-1154.894 Y-178.211
X-1154.736 Y-178.212
X-1154.577 Y-178.204
X-1154.42 Y-178.188
X-1154.266 Y-178.162
X-1154.11 Y-178.128
X-1153.955 Y-178.084
X-1153.804 Y-178.032
X-1153.657 Y-177.972
X-1153.513 Y-177.904
X-1153.37 Y-177.826
X-1153.232 Y-177.74
X-1153.1 Y-177.647
X-1152.974 Y-177.548
X-1152.852 Y-177.44
X-1152.735 Y-177.323
X-1152.625 Y-177.201
X-1152.523 Y-177.074
X-1152.428 Y-176.941
X-1152.34 Y-176.802
X-1152.258 Y-176.656
X-1152.186 Y-176.506
X-1152.122 Y-176.353
X-1152.067 Y-176.197
X-1152.021 Y-176.037
X-1151.983 Y-175.872
X-1151.954 Y-175.705
X-1151.935 Y-175.537
X-1151.926 Y-175.37
X-1151.925 Y-175.201
X-1151.935 Y-175.031
X-1151.954 Y-174.861
X-1151.983 Y-174.691
X-1152.021 Y-174.524
X-1152.069 Y-174.36
X-1152.125 Y-174.198
X-1152.192 Y-174.039
X-1152.267 Y-173.882
X-1152.352 Y-173.729
X-1152.445 Y-173.581
X-1152.546 Y-173.439
X-1152.655 Y-173.303
X-1152.772 Y-173.173
X-1152.897 Y-173.049
X-1153.03 Y-172.931
X-1153.169 Y-172.821
X-1153.315 Y-172.718
X-1153.466 Y-172.624
X-1153.622 Y-172.538
X-1153.782 Y-172.462
X-1153.948 Y-172.394
X-1154.118 Y-172.335
X-1154.292 Y-172.286
X-1154.469 Y-172.247
X-1154.649 Y-172.217
X-1154.83 Y-172.198
X-1155.011 Y-172.188
X-1155.194 Y-172.189
X-1155.376 Y-172.201
X-1155.557 Y-172.222
X-1155.738 Y-172.254
X-1155.918 Y-172.297
X-1156.096 Y-172.349
X-1156.271 Y-172.412
X-1156.443 Y-172.484
X-1156.61 Y-172.567
X-1156.773 Y-172.659
X-1156.931 Y-172.76
X-1157.083 Y-172.869
X-1157.229 Y-172.988
X-1157.369 Y-173.115
X-1157.501 Y-173.249
X-1157.626 Y-173.392
X-1157.743 Y-173.541
X-1157.851 Y-173.697
X-1157.951 Y-173.86
X-1158.042 Y-174.029
X-1158.124 Y-174.203
X-1158.196 Y-174.382
X-1158.257 Y-174.565
X-1158.309 Y-174.751
X-1158.35 Y-174.941
X-1158.38 Y-175.133
X-1158.4 Y-175.327
X-1158.409 Y-175.523
X-1158.406 Y-175.719
X-1158.393 Y-175.915
X-1158.368 Y-176.11
X-1158.333 Y-176.305
X-1158.286 Y-176.497
X-1158.229 Y-176.687
X-1158.16 Y-176.874
X-1158.082 Y-177.057
X-1157.992 Y-177.235
X-1157.893 Y-177.409
X-1157.784 Y-177.578
X-1157.665 Y-177.74
X-1157.536 Y-177.896
X-1157.399 Y-178.045
X-1157.254 Y-178.186
X-1157.1 Y-178.319
X-1156.939 Y-178.444
X-1156.77 Y-178.559
X-1156.595 Y-178.666
X-1156.414 Y-178.762
X-1156.227 Y-178.848
X-1156.035 Y-178.924
X-1155.839 Y-178.989
X-1155.639 Y-179.042
X-1155.435 Y-179.085
X-1155.229 Y-179.116
X-1155.021 Y-179.136
X-1154.812 Y-179.144
X-1154.603 Y-179.14
X-1154.393 Y-179.124
X-1154.184 Y-179.096
X-1153.977 Y-179.057
X-1153.771 Y-179.006
X-1153.569 Y-178.943
X-1153.369 Y-178.869
X-1153.174 Y-178.783
X-1152.984 Y-178.687
X-1152.798 Y-178.579
X-1152.619 Y-178.461
X-1152.446 Y-178.333
X-1152.281 Y-178.195
X-1152.123 Y-178.048
X-1151.973 Y-177.891
X-1151.832 Y-177.726
X-1151.7 Y-177.553
X-1151.578 Y-177.372
X-1151.466 Y-177.185
X-1151.364 Y-176.99
X-1151.274 Y-176.79
X-1151.194 Y-176.585
X-1151.126 Y-176.375
X-1151.07 Y-176.161
X-1151.026 Y-175.944
X-1150.994 Y-175.724
X-1150.975 Y-175.502
X-1150.968 Y-175.279
X-1150.973 Y-175.056
X-1150.992 Y-174.832
X-1151.022 Y-174.609
X-1151.066 Y-174.388
X-1151.122 Y-174.169
X-1151.19 Y-173.954
X-1151.271 Y-173.742
X-1151.363 Y-173.534
X-1151.468 Y-173.331
X-1151.584 Y-173.135
X-1151.711 Y-172.944
X-1151.849 Y-172.761
X-1151.997 Y-172.585
X-1152.155 Y-172.418
X-1152.323 Y-172.259
X-1152.5 Y-172.11
X-1152.685 Y-171.97
X-1152.879 Y-171.841
X-1153.08 Y-171.723
X-1153.288 Y-171.616
X-1153.502 Y-171.521
X-1153.721 Y-171.437
X-1153.945 Y-171.367
X-1154.173 Y-171.308
X-1154.405 Y-171.263
X-1154.639 Y-171.23
X-1154.876 Y-171.211
X-1155.113 Y-171.205
X-1155.351 Y-171.213
X-1155.589 Y-171.234
X-1155.826 Y-171.268
X-1156.061 Y-171.316
X-1156.294 Y-171.377
X-1156.523 Y-171.451
X-1156.748 Y-171.538
X-1156.968 Y-171.638
X-1157.182 Y-171.75
X-1157.391 Y-171.875
X-1157.592 Y-172.011
X-1157.786 Y-172.159
X-1157.972 Y-172.318
X-1158.149 Y-172.487
X-1158.316 Y-172.666
X-1158.473 Y-172.855
X-1158.62 Y-173.053
X-1158.756 Y-173.26
X-1158.88 Y-173.474
X-1158.992 Y-173.695
X-1159.092 Y-173.923
X-1159.179 Y-174.157
X-1159.253 Y-174.395
X-1159.313 Y-174.638
X-1159.36 Y-174.884
X-1159.393 Y-175.134
X-1159.411 Y-175.385
X-1159.416 Y-175.637
X-1159.406 Y-175.89
X-1159.383 Y-176.142
X-1159.344 Y-176.393
X-1159.292 Y-176.642
X-1159.226 Y-176.888
X-1159.146 Y-177.131
X-1159.052 Y-177.369
X-1158.944 Y-177.602
X-1158.823 Y-177.829
X-1158.69 Y-178.049
X-1158.544 Y-178.262
X-1158.386 Y-178.467
X-1158.216 Y-178.663
X-1158.035 Y-178.849
X-1157.843 Y-179.026
X-1157.719 Y-179.128
X-1157.653 Y-179.18
X-1157.584 Y-179.229
X-1157.514 Y-179.276
X-1157.238 Y-179.449
X-1157.034 Y-179.577
X-1156.955 Y-179.62
X-1156.875 Y-179.65
X-1156.027 Y-179.946
X-1155.927 Y-179.969
X-1155.02 Y-180.072
X-1154.92 Y-180.077
X-1154.819 Y-180.068
X-1154.013 Y-179.977
X-1153.913 Y-179.963
X-1153.812 Y-179.935
X-1153.002 Y-179.65
X-1152.904 Y-179.61
X-1152.805 Y-179.552
X-1152.201 Y-179.172
X-1152.012 Y-179.046
X-1152 Y-179.036
X-1151.798 Y-178.836
X-1151.396 Y-178.434
X-1151.301 Y-178.337
X-1151.231 Y-178.241
X-1150.791 Y-177.543
X-1150.727 Y-177.435
X-1150.651 Y-177.234
X-1150.389 Y-176.483
X-1150.375 Y-176.429
X-1150.35 Y-176.227
X-1150.283 Y-175.623
X-1150.263 Y-175.422
X-1150.278 Y-175.22
X-1150.368 Y-174.415
X-1150.389 Y-174.317
X-1150.636 Y-173.61
X-1150.707 Y-173.408
X-1150.791 Y-173.257
X-1151.203 Y-172.603
X-1151.269 Y-172.502
X-1151.36 Y-172.401
X-1151.965 Y-171.797
X-1152 Y-171.764
X-1152.201 Y-171.628
X-1152.805 Y-171.248
X-1152.897 Y-171.193
X-1153.007 Y-171.148
X-1153.812 Y-170.865
X-1153.913 Y-170.837
X-1154.013 Y-170.823
X-1154.819 Y-170.732
X-1154.92 Y-170.723
X-1155.02 Y-170.728
X-1155.927 Y-170.831
X-1156.027 Y-170.854
X-1156.833 Y-171.135
X-1156.982 Y-171.193
X-1157.034 Y-171.223
X-1157.638 Y-171.602
X-1157.84 Y-171.731
X-1157.915 Y-171.797
X-1158.52 Y-172.401
X-1158.591 Y-172.477
X-1158.645 Y-172.553
X-1159.057 Y-173.207
X-1159.173 Y-173.408
X-1159.249 Y-173.624
X-1159.456 Y-174.214
X-1159.49 Y-174.314
X-1159.512 Y-174.415
X-1159.602 Y-175.22
X-1159.617 Y-175.422
X-1159.597 Y-175.623
X-1159.53 Y-176.227
X-1159.505 Y-176.429
X-1159.451 Y-176.601
X-1159.229 Y-177.234
X-1159.153 Y-177.435
X-1159.03 Y-177.637
X-1158.645 Y-178.247
X-1158.572 Y-178.345
X-1158.444 Y-178.474
X-1158.041 Y-178.877
X-1157.868 Y-179.046
X-1157.84 Y-179.068
X-1157.638 Y-179.198
X-1157.514 Y-179.276
X-1157.43 Y-179.316
X-1157.342 Y-179.343
X-1157.277 Y-179.35 Z16.004
X-1157.212 Y-179.357 Z16.014
X-1157.137 Y-179.343 Z16.037
X-1157.066 Y-179.33 Z16.07
X-1156.999 Y-179.318 Z16.112
X-1156.939 Y-179.281 Z16.171
X-1156.887 Y-179.25 Z16.24
X-1156.845 Y-179.224 Z16.318
X-1156.813 Y-179.205 Z16.403
X-1156.8 Y-179.193 Z16.467
X-1156.792 Y-179.185 Z16.533
X-1156.789 Y-179.182 Z16.6
G0 Z28
X-1154.94 Y-175.4
Z16
G1 Z7 F283.3
X-1154.953 Y-175.436 F850
X-1154.916 Y-175.429
X-1154.904 Y-175.393
X-1154.928 Y-175.365
X-1154.965 Y-175.372
X-1154.993 Y-175.397
X-1155.001 Y-175.434
X-1154.983 Y-175.467
X-1154.951 Y-175.485
X-1154.913 Y-175.486
X-1154.879 Y-175.47
X-1154.854 Y-175.442
X-1154.845 Y-175.406
X-1154.848 Y-175.369
X-1154.865 Y-175.336
X-1154.895 Y-175.312
X-1154.93 Y-175.3
X-1154.968 Y-175.299
X-1155.004 Y-175.31
X-1155.035 Y-175.33
X-1155.06 Y-175.358
X-1155.075 Y-175.392
X-1155.08 Y-175.429
X-1155.075 Y-175.467
X-1155.046 Y-175.536
X-1154.987 Y-175.582
X-1154.914 Y-175.598
X-1154.84 Y-175.584
X-1154.777 Y-175.544
X-1154.733 Y-175.483
X-1154.712 Y-175.411
X-1154.717 Y-175.336
X-1154.745 Y-175.267
X-1154.794 Y-175.21
X-1154.857 Y-175.17
X-1154.929 Y-175.149
X-1155.004 Y-175.15
X-1155.076 Y-175.171
X-1155.14 Y-175.21
X-1155.243 Y-175.319
X-1155.282 Y-175.464
X-1155.253 Y-175.611
X-1155.166 Y-175.734
X-1155.038 Y-175.813
X-1154.891 Y-175.84
X-1154.743 Y-175.814
X-1154.612 Y-175.741
X-1154.513 Y-175.628
X-1154.454 Y-175.49
X-1154.44 Y-175.341
X-1154.471 Y-175.194
X-1154.543 Y-175.063
X-1154.65 Y-174.957
X-1154.781 Y-174.885
X-1154.927 Y-174.85
X-1155.077 Y-174.854
X-1155.222 Y-174.893
X-1155.352 Y-174.967
X-1155.462 Y-175.069
X-1155.545 Y-175.195
X-1155.596 Y-175.336
X-1155.615 Y-175.484
X-1155.599 Y-175.634
X-1155.553 Y-175.776
X-1155.477 Y-175.905
X-1155.376 Y-176.017
X-1155.255 Y-176.105
X-1155.119 Y-176.168
X-1154.973 Y-176.203
X-1154.823 Y-176.209
X-1154.674 Y-176.187
X-1154.533 Y-176.138
X-1154.402 Y-176.064
X-1154.287 Y-175.968
X-1154.19 Y-175.853
X-1154.115 Y-175.724
X-1154.064 Y-175.583
X-1154.037 Y-175.435
X-1154.035 Y-175.285
X-1154.058 Y-175.137
X-1154.104 Y-174.994
X-1154.173 Y-174.861
X-1154.262 Y-174.74
X-1154.37 Y-174.636
X-1154.491 Y-174.548
X-1154.625 Y-174.48
X-1154.768 Y-174.433
X-1154.915 Y-174.407
X-1155.065 Y-174.403
X-1155.214 Y-174.421
X-1155.359 Y-174.459
X-1155.497 Y-174.518
X-1155.626 Y-174.595
X-1155.742 Y-174.69
X-1155.845 Y-174.8
X-1155.931 Y-174.922
X-1156 Y-175.055
X-1156.052 Y-175.196
X-1156.084 Y-175.343
X-1156.096 Y-175.492
X-1156.09 Y-175.642
X-1156.064 Y-175.79
X-1156.02 Y-175.933
X-1155.958 Y-176.07
X-1155.88 Y-176.198
X-1155.787 Y-176.315
X-1155.68 Y-176.42
X-1155.561 Y-176.512
X-1155.432 Y-176.589
X-1155.295 Y-176.65
X-1155.152 Y-176.694
X-1155.004 Y-176.722
X-1154.855 Y-176.732
X-1154.705 Y-176.725
X-1154.557 Y-176.702
X-1154.412 Y-176.661
X-1154.273 Y-176.606
X-1154.141 Y-176.534
X-1154.018 Y-176.449
X-1153.904 Y-176.351
X-1153.802 Y-176.241
X-1153.712 Y-176.121
X-1153.635 Y-175.992
X-1153.573 Y-175.856
X-1153.525 Y-175.714
X-1153.493 Y-175.567
X-1153.475 Y-175.418
X-1153.473 Y-175.268
X-1153.487 Y-175.119
X-1153.516 Y-174.972
X-1153.559 Y-174.828
X-1153.617 Y-174.69
X-1153.687 Y-174.557
X-1153.771 Y-174.433
X-1153.866 Y-174.317
X-1153.973 Y-174.211
X-1154.089 Y-174.116
X-1154.213 Y-174.032
X-1154.345 Y-173.961
X-1154.483 Y-173.902
X-1154.626 Y-173.857
X-1154.773 Y-173.825
X-1154.922 Y-173.807
X-1155.071 Y-173.803
X-1155.221 Y-173.812
X-1155.369 Y-173.836
X-1155.515 Y-173.872
X-1155.656 Y-173.921
X-1155.793 Y-173.984
X-1155.923 Y-174.057
X-1156.047 Y-174.143
X-1156.162 Y-174.239
X-1156.269 Y-174.344
X-1156.366 Y-174.458
X-1156.452 Y-174.581
X-1156.528 Y-174.71
X-1156.593 Y-174.846
X-1156.645 Y-174.986
X-1156.686 Y-175.131
X-1156.714 Y-175.278
X-1156.729 Y-175.427
X-1156.732 Y-175.577
X-1156.723 Y-175.727
X-1156.701 Y-175.875
X-1156.667 Y-176.022
X-1156.621 Y-176.164
X-1156.564 Y-176.303
X-1156.496 Y-176.437
X-1156.417 Y-176.564
X-1156.328 Y-176.685
X-1156.23 Y-176.799
X-1156.123 Y-176.904
X-1156.008 Y-177
X-1155.886 Y-177.087
X-1155.758 Y-177.165
X-1155.624 Y-177.232
X-1155.484 Y-177.288
X-1155.342 Y-177.334
X-1155.196 Y-177.368
X-1155.047 Y-177.392
X-1154.898 Y-177.404
X-1154.748
X-1154.598 Y-177.393
X-1154.45 Y-177.371
X-1154.304 Y-177.338
X-1154.16 Y-177.295
X-1154.02 Y-177.24
X-1153.885 Y-177.176
X-1153.755 Y-177.102
X-1153.63 Y-177.018
X-1153.512 Y-176.926
X-1153.401 Y-176.825
X-1153.297 Y-176.716
X-1153.202 Y-176.601
X-1153.115 Y-176.479
X-1153.037 Y-176.35
X-1152.968 Y-176.217
X-1152.909 Y-176.079
X-1152.86 Y-175.938
X-1152.821 Y-175.793
X-1152.792 Y-175.646
X-1152.773 Y-175.497
X-1152.765 Y-175.347
X-1152.767 Y-175.197
X-1152.78 Y-175.047
X-1152.802 Y-174.899
X-1152.835 Y-174.753
X-1152.878 Y-174.609
X-1152.93 Y-174.468
X-1152.992 Y-174.332
X-1153.063 Y-174.2
X-1153.142 Y-174.072
X-1153.23 Y-173.951
X-1153.326 Y-173.835
X-1153.429 Y-173.726
X-1153.539 Y-173.624
X-1153.656 Y-173.53
X-1153.778 Y-173.443
X-1153.906 Y-173.365
X-1154.039 Y-173.295
X-1154.176 Y-173.234
X-1154.316 Y-173.182
X-1154.46 Y-173.138
X-1154.606 Y-173.105
X-1154.754 Y-173.08
X-1154.903 Y-173.065
X-1155.053 Y-173.06
X-1155.203 Y-173.064
X-1155.352 Y-173.077
X-1155.501 Y-173.1
X-1155.647 Y-173.132
X-1155.791 Y-173.174
X-1155.933 Y-173.224
X-1156.071 Y-173.283
X-1156.205 Y-173.35
X-1156.335 Y-173.425
X-1156.46 Y-173.508
X-1156.579 Y-173.599
X-1156.693 Y-173.697
X-1156.801 Y-173.801
X-1156.902 Y-173.912
X-1156.996 Y-174.029
X-1157.083 Y-174.151
X-1157.162 Y-174.278
X-1157.234 Y-174.41
X-1157.298 Y-174.545
X-1157.353 Y-174.685
X-1157.401 Y-174.827
X-1157.439 Y-174.972
X-1157.469 Y-175.119
X-1157.491 Y-175.267
X-1157.503 Y-175.417
X-1157.507 Y-175.567
X-1157.503 Y-175.717
X-1157.489 Y-175.866
X-1157.467 Y-176.015
X-1157.436 Y-176.161
X-1157.397 Y-176.306
X-1157.35 Y-176.449
X-1157.295 Y-176.588
X-1157.232 Y-176.724
X-1157.161 Y-176.856
X-1157.082 Y-176.985
X-1156.996 Y-177.109
X-1156.904 Y-177.227
X-1156.804 Y-177.342
X-1156.698 Y-177.45
X-1156.587 Y-177.551
X-1156.469 Y-177.647
X-1156.344 Y-177.738
X-1156.215 Y-177.82
X-1156.084 Y-177.894
X-1155.946 Y-177.962
X-1155.802 Y-178.023
X-1155.657 Y-178.076
X-1155.51 Y-178.119
X-1155.358 Y-178.155
X-1155.203 Y-178.183
X-1155.048 Y-178.201
X-1154.894 Y-178.211
X-1154.736 Y-178.212
X-1154.577 Y-178.204
X-1154.42 Y-178.188
X-1154.266 Y-178.162
X-1154.11 Y-178.128
X-1153.955 Y-178.084
X-1153.804 Y-178.032
X-1153.657 Y-177.972
X-1153.513 Y-177.904
X-1153.37 Y-177.826
X-1153.232 Y-177.74
X-1153.1 Y-177.647
X-1152.974 Y-177.548
X-1152.852 Y-177.44
X-1152.735 Y-177.323
X-1152.625 Y-177.201
X-1152.523 Y-177.074
X-1152.428 Y-176.941
X-1152.34 Y-176.802
X-1152.258 Y-176.656
X-1152.186 Y-176.506
X-1152.122 Y-176.353
X-1152.067 Y-176.197
X-1152.021 Y-176.037
X-1151.983 Y-175.872
X-1151.954 Y-175.705
X-1151.935 Y-175.537
X-1151.926 Y-175.37
X-1151.925 Y-175.201
X-1151.935 Y-175.031
X-1151.954 Y-174.861
X-1151.983 Y-174.691
X-1152.021 Y-174.524
X-1152.069 Y-174.36
X-1152.125 Y-174.198
X-1152.192 Y-174.039
X-1152.267 Y-173.882
X-1152.352 Y-173.729
X-1152.445 Y-173.581
X-1152.546 Y-173.439
X-1152.655 Y-173.303
X-1152.772 Y-173.173
X-1152.897 Y-173.049
X-1153.03 Y-172.931
X-1153.169 Y-172.821
X-1153.315 Y-172.718
X-1153.466 Y-172.624
X-1153.622 Y-172.538
X-1153.782 Y-172.462
X-1153.948 Y-172.394
X-1154.118 Y-172.335
X-1154.292 Y-172.286
X-1154.469 Y-172.247
X-1154.649 Y-172.217
X-1154.83 Y-172.198
X-1155.011 Y-172.188
X-1155.194 Y-172.189
X-1155.376 Y-172.201
X-1155.557 Y-172.222
X-1155.738 Y-172.254
X-1155.918 Y-172.297
X-1156.096 Y-172.349
X-1156.271 Y-172.412
X-1156.443 Y-172.484
X-1156.61 Y-172.567
X-1156.773 Y-172.659
X-1156.931 Y-172.76
X-1157.083 Y-172.869
X-1157.229 Y-172.988
X-1157.369 Y-173.115
X-1157.501 Y-173.249
X-1157.626 Y-173.392
X-1157.743 Y-173.541
X-1157.851 Y-173.697
X-1157.951 Y-173.86
X-1158.042 Y-174.029
X-1158.124 Y-174.203
X-1158.196 Y-174.382
X-1158.257 Y-174.565
X-1158.309 Y-174.751
X-1158.35 Y-174.941
X-1158.38 Y-175.133
X-1158.4 Y-175.327
X-1158.409 Y-175.523
X-1158.406 Y-175.719
X-1158.393 Y-175.915
X-1158.368 Y-176.11
X-1158.333 Y-176.305
X-1158.286 Y-176.497
X-1158.229 Y-176.687
X-1158.16 Y-176.874
X-1158.082 Y-177.057
X-1157.992 Y-177.235
X-1157.893 Y-177.409
X-1157.784 Y-177.578
X-1157.665 Y-177.74
X-1157.536 Y-177.896
X-1157.399 Y-178.045
X-1157.254 Y-178.186
X-1157.1 Y-178.319
X-1156.939 Y-178.444
X-1156.77 Y-178.559
X-1156.595 Y-178.666
X-1156.414 Y-178.762
X-1156.227 Y-178.848
X-1156.035 Y-178.924
X-1155.839 Y-178.989
X-1155.639 Y-179.042
X-1155.435 Y-179.085
X-1155.229 Y-179.116
X-1155.021 Y-179.136
X-1154.812 Y-179.144
X-1154.603 Y-179.14
X-1154.393 Y-179.124
X-1154.184 Y-179.096
X-1153.977 Y-179.057
X-1153.771 Y-179.006
X-1153.569 Y-178.943
X-1153.369 Y-178.869
X-1153.174 Y-178.783
X-1152.984 Y-178.687
X-1152.798 Y-178.579
X-1152.619 Y-178.461
X-1152.446 Y-178.333
X-1152.281 Y-178.195
X-1152.123 Y-178.048
X-1151.973 Y-177.891
X-1151.832 Y-177.726
X-1151.7 Y-177.553
X-1151.578 Y-177.372
X-1151.466 Y-177.185
X-1151.364 Y-176.99
X-1151.274 Y-176.79
X-1151.194 Y-176.585
X-1151.126 Y-176.375
X-1151.07 Y-176.161
X-1151.026 Y-175.944
X-1150.994 Y-175.724
X-1150.975 Y-175.502
X-1150.968 Y-175.279
X-1150.973 Y-175.056
X-1150.992 Y-174.832
X-1151.022 Y-174.609
X-1151.066 Y-174.388
X-1151.122 Y-174.169
X-1151.19 Y-173.954
X-1151.271 Y-173.742
X-1151.363 Y-173.534
X-1151.468 Y-173.331
X-1151.584 Y-173.135
X-1151.711 Y-172.944
X-1151.849 Y-172.761
X-1151.997 Y-172.585
X-1152.155 Y-172.418
X-1152.323 Y-172.259
X-1152.5 Y-172.11
X-1152.685 Y-171.97
X-1152.879 Y-171.841
X-1153.08 Y-171.723
X-1153.288 Y-171.616
X-1153.502 Y-171.521
X-1153.721 Y-171.437
X-1153.945 Y-171.367
X-1154.173 Y-171.308
X-1154.405 Y-171.263
X-1154.639 Y-171.23
X-1154.876 Y-171.211
X-1155.113 Y-171.205
X-1155.351 Y-171.213
X-1155.589 Y-171.234
X-1155.826 Y-171.268
X-1156.061 Y-171.316
X-1156.294 Y-171.377
X-1156.523 Y-171.451
X-1156.748 Y-171.538
X-1156.968 Y-171.638
X-1157.182 Y-171.75
X-1157.391 Y-171.875
X-1157.592 Y-172.011
X-1157.786 Y-172.159
X-1157.972 Y-172.318
X-1158.149 Y-172.487
X-1158.316 Y-172.666
X-1158.473 Y-172.855
X-1158.62 Y-173.053
X-1158.756 Y-173.26
X-1158.88 Y-173.474
X-1158.992 Y-173.695
X-1159.092 Y-173.923
X-1159.179 Y-174.157
X-1159.253 Y-174.395
X-1159.313 Y-174.638
X-1159.36 Y-174.884
X-1159.393 Y-175.134
X-1159.411 Y-175.385
X-1159.416 Y-175.637
X-1159.406 Y-175.89
X-1159.383 Y-176.142
X-1159.344 Y-176.393
X-1159.292 Y-176.642
X-1159.226 Y-176.888
X-1159.146 Y-177.131
X-1159.052 Y-177.369
X-1158.944 Y-177.602
X-1158.823 Y-177.829
X-1158.69 Y-178.049
X-1158.544 Y-178.262
X-1158.386 Y-178.467
X-1158.216 Y-178.663
X-1158.035 Y-178.849
X-1157.843 Y-179.026
X-1157.719 Y-179.128
X-1157.653 Y-179.18
X-1157.584 Y-179.229
X-1157.514 Y-179.276
X-1157.238 Y-179.449
X-1157.034 Y-179.577
X-1156.955 Y-179.62
X-1156.875 Y-179.65
X-1156.027 Y-179.946
X-1155.927 Y-179.969
X-1155.02 Y-180.072
X-1154.92 Y-180.077
X-1154.819 Y-180.068
X-1154.013 Y-179.977
X-1153.913 Y-179.963
X-1153.812 Y-179.935
X-1153.002 Y-179.65
X-1152.904 Y-179.61
X-1152.805 Y-179.552
X-1152.201 Y-179.172
X-1152.012 Y-179.046
X-1152 Y-179.036
X-1151.798 Y-178.836
X-1151.396 Y-178.434
X-1151.301 Y-178.337
X-1151.231 Y-178.241
X-1150.791 Y-177.543
X-1150.727 Y-177.435
X-1150.651 Y-177.234
X-1150.389 Y-176.483
X-1150.375 Y-176.429
X-1150.35 Y-176.227
X-1150.283 Y-175.623
X-1150.263 Y-175.422
X-1150.278 Y-175.22
X-1150.368 Y-174.415
X-1150.389 Y-174.317
X-1150.636 Y-173.61
X-1150.707 Y-173.408
X-1150.791 Y-173.257
X-1151.203 Y-172.603
X-1151.269 Y-172.502
X-1151.36 Y-172.401
X-1151.965 Y-171.797
X-1152 Y-171.764
X-1152.201 Y-171.628
X-1152.805 Y-171.248
X-1152.897 Y-171.193
X-1153.007 Y-171.148
X-1153.812 Y-170.865
X-1153.913 Y-170.837
X-1154.013 Y-170.823
X-1154.819 Y-170.732
X-1154.92 Y-170.723
X-1155.02 Y-170.728
X-1155.927 Y-170.831
X-1156.027 Y-170.854
X-1156.833 Y-171.135
X-1156.982 Y-171.193
X-1157.034 Y-171.223
X-1157.638 Y-171.602
X-1157.84 Y-171.731
X-1157.915 Y-171.797
X-1158.52 Y-172.401
X-1158.591 Y-172.477
X-1158.645 Y-172.553
X-1159.057 Y-173.207
X-1159.173 Y-173.408
X-1159.249 Y-173.624
X-1159.456 Y-174.214
X-1159.49 Y-174.314
X-1159.512 Y-174.415
X-1159.602 Y-175.22
X-1159.617 Y-175.422
X-1159.597 Y-175.623
X-1159.53 Y-176.227
X-1159.505 Y-176.429
X-1159.451 Y-176.601
X-1159.229 Y-177.234
X-1159.153 Y-177.435
X-1159.03 Y-177.637
X-1158.645 Y-178.247
X-1158.572 Y-178.345
X-1158.444 Y-178.474
X-1158.041 Y-178.877
X-1157.868 Y-179.046
X-1157.84 Y-179.068
X-1157.638 Y-179.198
X-1157.514 Y-179.276
G3 X-1156.789 Y-179.182 I0.301 J0.519
G1 X-1156.723 Y-179.116 Z7.007
X-1156.658 Y-179.052 Z7.029
X-1156.596 Y-178.99 Z7.065
X-1156.539 Y-178.934 Z7.115
X-1156.488 Y-178.883 Z7.176
X-1156.445 Y-178.84 Z7.247
X-1156.41 Y-178.805 Z7.328
X-1156.385 Y-178.78 Z7.415
X-1156.369 Y-178.764 Z7.506
X-1156.364 Y-178.759 Z7.6
G0 Z36

(2D Adaptive2 2)
X-1154.94 Y-250.4
Z36
Z28
Z26
G1 Z16 F283.3
X-1154.953 Y-250.436 F850
X-1154.916 Y-250.429
X-1154.904 Y-250.393
X-1154.928 Y-250.365
X-1154.965 Y-250.372
X-1154.993 Y-250.397
X-1155.001 Y-250.434
X-1154.983 Y-250.467
X-1154.951 Y-250.485
X-1154.913 Y-250.486
X-1154.879 Y-250.47
X-1154.854 Y-250.442
X-1154.845 Y-250.406
X-1154.848 Y-250.369
X-1154.865 Y-250.336
X-1154.895 Y-250.312
X-1154.93 Y-250.3
X-1154.968 Y-250.299
X-1155.004 Y-250.31
X-1155.035 Y-250.33
X-1155.06 Y-250.358
X-1155.075 Y-250.392
X-1155.08 Y-250.429
X-1155.075 Y-250.467
X-1155.046 Y-250.536
X-1154.987 Y-250.582
X-1154.914 Y-250.598
X-1154.84 Y-250.584
X-1154.777 Y-250.544
X-1154.733 Y-250.483
X-1154.712 Y-250.411
X-1154.717 Y-250.336
X-1154.745 Y-250.267
X-1154.794 Y-250.21
X-1154.857 Y-250.17
X-1154.929 Y-250.149
X-1155.004 Y-250.15
X-1155.076 Y-250.171
X-1155.14 Y-250.21
X-1155.243 Y-250.319
X-1155.282 Y-250.464
X-1155.253 Y-250.611
X-1155.166 Y-250.734
X-1155.038 Y-250.813
X-1154.891 Y-250.84
X-1154.743 Y-250.814
X-1154.612 Y-250.741
X-1154.513 Y-250.628
X-1154.454 Y-250.49
X-1154.44 Y-250.341
X-1154.471 Y-250.194
X-1154.543 Y-250.063
X-1154.65 Y-249.957
X-1154.781 Y-249.885
X-1154.927 Y-249.85
X-1155.077 Y-249.854
X-1155.222 Y-249.893
X-1155.352 Y-249.967
X-1155.462 Y-250.069
X-1155.545 Y-250.195
X-1155.596 Y-250.336
X-1155.615 Y-250.484
X-1155.599 Y-250.634
X-1155.553 Y-250.776
X-1155.477 Y-250.905
X-1155.376 Y-251.017
X-1155.255 Y-251.105
X-1155.119 Y-251.168
X-1154.973 Y-251.203
X-1154.823 Y-251.209
X-1154.674 Y-251.187
X-1154.533 Y-251.138
X-1154.402 Y-251.064
X-1154.287 Y-250.968
X-1154.19 Y-250.853
X-1154.115 Y-250.724
X-1154.064 Y-250.583
X-1154.037 Y-250.435
X-1154.035 Y-250.285
X-1154.058 Y-250.137
X-1154.104 Y-249.994
X-1154.173 Y-249.861
X-1154.262 Y-249.74
X-1154.37 Y-249.636
X-1154.491 Y-249.548
X-1154.625 Y-249.48
X-1154.768 Y-249.433
X-1154.915 Y-249.407
X-1155.065 Y-249.403
X-1155.214 Y-249.421
X-1155.359 Y-249.459
X-1155.497 Y-249.518
X-1155.626 Y-249.595
X-1155.742 Y-249.69
X-1155.845 Y-249.8
X-1155.931 Y-249.922
X-1156 Y-250.055
X-1156.052 Y-250.196
X-1156.084 Y-250.343
X-1156.096 Y-250.492
X-1156.09 Y-250.642
X-1156.064 Y-250.79
X-1156.02 Y-250.933
X-1155.958 Y-251.07
X-1155.88 Y-251.198
X-1155.787 Y-251.315
X-1155.68 Y-251.42
X-1155.561 Y-251.512
X-1155.432 Y-251.589
X-1155.295 Y-251.65
X-1155.152 Y-251.694
X-1155.004 Y-251.722
X-1154.855 Y-251.732
X-1154.705 Y-251.725
X-1154.557 Y-251.702
X-1154.412 Y-251.661
X-1154.273 Y-251.606
X-1154.141 Y-251.534
X-1154.018 Y-251.449
X-1153.904 Y-251.351
X-1153.802 Y-251.241
X-1153.712 Y-251.121
X-1153.635 Y-250.992
X-1153.573 Y-250.856
X-1153.525 Y-250.714
X-1153.493 Y-250.567
X-1153.475 Y-250.418
X-1153.473 Y-250.268
X-1153.487 Y-250.119
X-1153.516 Y-249.972
X-1153.559 Y-249.828
X-1153.617 Y-249.69
X-1153.687 Y-249.557
X-1153.771 Y-249.433
X-1153.866 Y-249.317
X-1153.973 Y-249.211
X-1154.089 Y-249.116
X-1154.213 Y-249.032
X-1154.345 Y-248.961
X-1154.483 Y-248.902
X-1154.626 Y-248.857
X-1154.773 Y-248.825
X-1154.922 Y-248.807
X-1155.071 Y-248.803
X-1155.221 Y-248.812
X-1155.369 Y-248.836
X-1155.515 Y-248.872
X-1155.656 Y-248.921
X-1155.793 Y-248.984
X-1155.923 Y-249.057
X-1156.047 Y-249.143
X-1156.162 Y-249.239
X-1156.269 Y-249.344
X-1156.366 Y-249.458
X-1156.452 Y-249.581
X-1156.528 Y-249.71
X-1156.593 Y-249.846
X-1156.645 Y-249.986
X-1156.686 Y-250.131
X-1156.714 Y-250.278
X-1156.729 Y-250.427
X-1156.732 Y-250.577
X-1156.723 Y-250.727
X-1156.701 Y-250.875
X-1156.667 Y-251.022
X-1156.621 Y-251.164
X-1156.564 Y-251.303
X-1156.496 Y-251.437
X-1156.417 Y-251.564
X-1156.328 Y-251.685
X-1156.23 Y-251.799
X-1156.123 Y-251.904
X-1156.008 Y-252
X-1155.886 Y-252.087
X-1155.758 Y-252.165
X-1155.624 Y-252.232
X-1155.484 Y-252.288
X-1155.342 Y-252.334
X-1155.196 Y-252.368
X-1155.047 Y-252.392
X-1154.898 Y-252.404
X-1154.748
X-1154.598 Y-252.393
X-1154.45 Y-252.371
X-1154.304 Y-252.338
X-1154.16 Y-252.295
X-1154.02 Y-252.24
X-1153.885 Y-252.176
X-1153.755 Y-252.102
X-1153.63 Y-252.018
X-1153.512 Y-251.926
X-1153.401 Y-251.825
X-1153.297 Y-251.716
X-1153.202 Y-251.601
X-1153.115 Y-251.479
X-1153.037 Y-251.35
X-1152.968 Y-251.217
X-1152.909 Y-251.079
X-1152.86 Y-250.938
X-1152.821 Y-250.793
X-1152.792 Y-250.646
X-1152.773 Y-250.497
X-1152.765 Y-250.347
X-1152.767 Y-250.197
X-1152.78 Y-250.047
X-1152.802 Y-249.899
X-1152.835 Y-249.753
X-1152.878 Y-249.609
X-1152.93 Y-249.468
