%
(1001)
(origin bottom left anchor hole stock bottom)
(T1  D=6 CR=0 - ZMIN=10 - flat end mill)
G90 G94
G17
G21

(anchor_adaptive_outer)
M9
T1 M6
S14000 M3
G54
G0 X-1194 Y-576
Z47
Z36
Z26.6
G1 Z26 F850
Z18 F283.3
X-1193.969 Y-576.021 F850
X-1193.938 Y-576.001
Y-575.964
X-1193.96 Y-575.933
X-1193.995 Y-575.919
X-1194.032 Y-575.922
X-1194.064 Y-575.943
X-1194.084 Y-575.974
X-1194.088 Y-576.012
X-1194.076 Y-576.047
X-1194.05 Y-576.075
X-1194.016 Y-576.091
X-1193.979 Y-576.098
X-1193.942 Y-576.093
X-1193.909 Y-576.075
X-1193.883 Y-576.048
X-1193.866 Y-576.014
X-1193.86 Y-575.978
X-1193.865 Y-575.94
X-1193.893 Y-575.871
X-1193.952 Y-575.824
X-1194.025 Y-575.809
X-1194.099 Y-575.825
X-1194.16 Y-575.868
X-1194.201 Y-575.931
X-1194.216 Y-576.004
X-1194.205 Y-576.078
X-1194.17 Y-576.145
X-1194.117 Y-576.198
X-1194.05 Y-576.232
X-1193.977 Y-576.245
X-1193.902 Y-576.236
X-1193.833 Y-576.207
X-1193.775 Y-576.16
X-1193.688 Y-576.038
X-1193.671 Y-575.889
X-1193.722 Y-575.747
X-1193.826 Y-575.64
X-1193.965 Y-575.582
X-1194.115 Y-575.58
X-1194.256 Y-575.63
X-1194.371 Y-575.726
X-1194.448 Y-575.855
X-1194.481 Y-576.001
X-1194.466 Y-576.151
X-1194.408 Y-576.289
X-1194.311 Y-576.404
X-1194.186 Y-576.487
X-1194.043 Y-576.531
X-1193.893 Y-576.535
X-1193.747 Y-576.502
X-1193.614 Y-576.434
X-1193.501 Y-576.335
X-1193.416 Y-576.211
X-1193.361 Y-576.072
X-1193.342 Y-575.923
X-1193.355 Y-575.773
X-1193.403 Y-575.631
X-1193.479 Y-575.502
X-1193.582 Y-575.392
X-1193.704 Y-575.306
X-1193.842 Y-575.246
X-1193.989 Y-575.216
X-1194.139 Y-575.214
X-1194.286 Y-575.242
X-1194.426 Y-575.296
X-1194.553 Y-575.377
X-1194.663 Y-575.478
X-1194.753 Y-575.598
X-1194.821 Y-575.732
X-1194.864 Y-575.876
X-1194.881 Y-576.025
X-1194.873 Y-576.175
X-1194.84 Y-576.321
X-1194.783 Y-576.46
X-1194.704 Y-576.588
X-1194.606 Y-576.7
X-1194.491 Y-576.797
X-1194.362 Y-576.873
X-1194.223 Y-576.93
X-1194.077 Y-576.964
X-1193.927 Y-576.976
X-1193.777 Y-576.966
X-1193.631 Y-576.934
X-1193.491 Y-576.881
X-1193.359 Y-576.809
X-1193.24 Y-576.718
X-1193.134 Y-576.612
X-1193.044 Y-576.492
X-1192.971 Y-576.361
X-1192.917 Y-576.221
X-1192.882 Y-576.075
X-1192.867 Y-575.926
X-1192.872 Y-575.776
X-1192.896 Y-575.628
X-1192.939 Y-575.484
X-1193 Y-575.347
X-1193.078 Y-575.219
X-1193.172 Y-575.102
X-1193.279 Y-574.997
X-1193.399 Y-574.906
X-1193.528 Y-574.831
X-1193.666 Y-574.772
X-1193.81 Y-574.729
X-1193.958 Y-574.704
X-1194.108 Y-574.697
X-1194.257 Y-574.707
X-1194.405 Y-574.734
X-1194.548 Y-574.778
X-1194.686 Y-574.838
X-1194.815 Y-574.913
X-1194.936 Y-575.002
X-1195.046 Y-575.104
X-1195.144 Y-575.218
X-1195.229 Y-575.341
X-1195.3 Y-575.473
X-1195.357 Y-575.612
X-1195.399 Y-575.756
X-1195.424 Y-575.904
X-1195.435 Y-576.054
X-1195.429 Y-576.204
X-1195.408 Y-576.352
X-1195.372 Y-576.498
X-1195.321 Y-576.639
X-1195.256 Y-576.774
X-1195.177 Y-576.902
X-1195.086 Y-577.021
X-1194.984 Y-577.131
X-1194.872 Y-577.23
X-1194.75 Y-577.317
X-1194.62 Y-577.393
X-1194.484 Y-577.455
X-1194.342 Y-577.504
X-1194.196 Y-577.54
X-1194.048 Y-577.561
X-1193.898 Y-577.568
X-1193.748 Y-577.561
X-1193.599 Y-577.541
X-1193.453 Y-577.506
X-1193.311 Y-577.458
X-1193.174 Y-577.398
X-1193.043 Y-577.325
X-1192.919 Y-577.241
X-1192.803 Y-577.146
X-1192.696 Y-577.04
X-1192.599 Y-576.926
X-1192.512 Y-576.804
X-1192.436 Y-576.674
X-1192.372 Y-576.539
X-1192.32 Y-576.398
X-1192.281 Y-576.253
X-1192.254 Y-576.106
X-1192.24 Y-575.956
X-1192.238 Y-575.806
X-1192.249 Y-575.657
X-1192.273 Y-575.509
X-1192.309 Y-575.363
X-1192.357 Y-575.221
X-1192.416 Y-575.083
X-1192.487 Y-574.951
X-1192.568 Y-574.825
X-1192.66 Y-574.706
X-1192.761 Y-574.595
X-1192.87 Y-574.492
X-1192.987 Y-574.399
X-1193.112 Y-574.315
X-1193.242 Y-574.241
X-1193.378 Y-574.178
X-1193.519 Y-574.126
X-1193.663 Y-574.085
X-1193.81 Y-574.055
X-1193.959 Y-574.037
X-1194.109 Y-574.03
X-1194.259 Y-574.035
X-1194.408 Y-574.052
X-1194.555 Y-574.079
X-1194.7 Y-574.118
X-1194.842 Y-574.168
X-1194.979 Y-574.228
X-1195.112 Y-574.298
X-1195.239 Y-574.378
X-1195.359 Y-574.467
X-1195.473 Y-574.565
X-1195.579 Y-574.671
X-1195.677 Y-574.784
X-1195.767 Y-574.905
X-1195.848 Y-575.031
X-1195.919 Y-575.163
X-1195.981 Y-575.3
X-1196.032 Y-575.441
X-1196.074 Y-575.585
X-1196.105 Y-575.732
X-1196.125 Y-575.88
X-1196.135 Y-576.03
Y-576.18
X-1196.124 Y-576.329
X-1196.102 Y-576.478
X-1196.071 Y-576.625
X-1196.029 Y-576.769
X-1195.977 Y-576.909
X-1195.916 Y-577.046
X-1195.846 Y-577.179
X-1195.766 Y-577.306
X-1195.679 Y-577.428
X-1195.583 Y-577.543
X-1195.48 Y-577.652
X-1195.369 Y-577.754
X-1195.253 Y-577.848
X-1195.13 Y-577.934
X-1195.001 Y-578.011
X-1194.868 Y-578.081
X-1194.731 Y-578.141
X-1194.59 Y-578.192
X-1194.446 Y-578.233
X-1194.299 Y-578.266
X-1194.151 Y-578.288
X-1194.001 Y-578.301
X-1193.851 Y-578.304
X-1193.702 Y-578.298
X-1193.552 Y-578.282
X-1193.405 Y-578.257
X-1193.259 Y-578.222
X-1193.115 Y-578.178
X-1192.975 Y-578.125
X-1192.838 Y-578.064
X-1192.705 Y-577.994
X-1192.577 Y-577.916
X-1192.454 Y-577.83
X-1192.337 Y-577.736
X-1192.226 Y-577.636
X-1192.121 Y-577.529
X-1192.023 Y-577.415
X-1191.932 Y-577.296
X-1191.848 Y-577.171
X-1191.772 Y-577.042
X-1191.705 Y-576.908
X-1191.645 Y-576.77
X-1191.594 Y-576.629
X-1191.551 Y-576.486
X-1191.517 Y-576.339
X-1191.492 Y-576.192
X-1191.476 Y-576.042
X-1191.469 Y-575.893
X-1191.47 Y-575.743
X-1191.48 Y-575.593
X-1191.499 Y-575.444
X-1191.527 Y-575.297
X-1191.564 Y-575.151
X-1191.608 Y-575.008
X-1191.661 Y-574.868
X-1191.723 Y-574.731
X-1191.791 Y-574.598
X-1191.868 Y-574.468
X-1191.952 Y-574.344
X-1192.042 Y-574.225
X-1192.14 Y-574.11
X-1192.243 Y-574.002
X-1192.354 Y-573.899
X-1192.469 Y-573.803
X-1192.59 Y-573.714
X-1192.717 Y-573.631
X-1192.849 Y-573.554
X-1192.983 Y-573.487
X-1193.121 Y-573.426
X-1193.265 Y-573.373
X-1193.412 Y-573.328
X-1193.559 Y-573.291
X-1193.709 Y-573.263
X-1193.864 Y-573.243
X-1194.018 Y-573.232
X-1194.171 Y-573.229
X-1194.326 Y-573.235
X-1194.483 Y-573.25
X-1194.637 Y-573.274
X-1194.789 Y-573.306
X-1194.94 Y-573.347
X-1195.091 Y-573.397
X-1195.238 Y-573.456
X-1195.38 Y-573.521
X-1195.52 Y-573.596
X-1195.657 Y-573.679
X-1195.789 Y-573.77
X-1195.915 Y-573.868
X-1196.035 Y-573.972
X-1196.151 Y-574.084
X-1196.261 Y-574.205
X-1196.364 Y-574.33
X-1196.458 Y-574.46
X-1196.546 Y-574.596
X-1196.628 Y-574.738
X-1196.701 Y-574.886
X-1196.765 Y-575.036
X-1196.821 Y-575.19
X-1196.868 Y-575.347
X-1196.907 Y-575.509
X-1196.937 Y-575.673
X-1196.957 Y-575.838
X-1196.96 Y-575.873
X-1196.964 Y-575.993
X-1196.961 Y-576.113
X-1196.951 Y-576.233
X-1196.926 Y-576.447
X-1196.902 Y-576.648
X-1196.879 Y-576.749
X-1196.841 Y-576.849
X-1196.687 Y-577.252
X-1196.646 Y-577.353
X-1196.587 Y-577.453
X-1196.303 Y-577.865
X-1196.233 Y-577.961
X-1196.136 Y-578.057
X-1195.9 Y-578.267
X-1195.699 Y-578.44
X-1195.67 Y-578.46
X-1195.497 Y-578.554
X-1195.292 Y-578.662
X-1195.095 Y-578.764
X-1194.994 Y-578.799
X-1194.491 Y-578.923
X-1194.39 Y-578.947
X-1194.289 Y-578.956
X-1193.886
X-1193.685 Y-578.955
X-1193.584 Y-578.941
X-1193.081 Y-578.818
X-1192.98 Y-578.792
X-1192.88 Y-578.752
X-1192.477 Y-578.54
X-1192.329 Y-578.46
X-1192.275 Y-578.421
X-1192.074 Y-578.244
X-1191.864 Y-578.057
X-1191.763 Y-577.957
X-1191.691 Y-577.856
X-1191.413 Y-577.453
X-1191.355 Y-577.353
X-1191.313 Y-577.252
X-1191.159 Y-576.849
X-1191.121 Y-576.749
X-1191.098 Y-576.648
X-1191.05 Y-576.245
X-1191.027 Y-576.044
X-1191.028 Y-575.943
X-1191.087 Y-575.44
X-1191.1 Y-575.339
X-1191.125 Y-575.238
X-1191.28 Y-574.836
X-1191.361 Y-574.634
X-1191.47 Y-574.465
X-1191.671 Y-574.172
X-1191.774 Y-574.03
X-1191.873 Y-573.935
X-1192.219 Y-573.628
X-1192.275 Y-573.579
X-1192.326 Y-573.542
X-1192.376 Y-573.513
X-1192.88 Y-573.248
X-1192.931 Y-573.225
X-1193.081 Y-573.182
X-1193.584 Y-573.059
X-1193.685 Y-573.045
X-1193.886 Y-573.044
X-1194.289
X-1194.39 Y-573.053
X-1194.491 Y-573.077
X-1194.893 Y-573.176
X-1195.068 Y-573.225
X-1195.095 Y-573.236
X-1195.296 Y-573.341
X-1195.497 Y-573.446
X-1195.699 Y-573.559
X-1195.781 Y-573.628
X-1196.102 Y-573.912
X-1196.226 Y-574.03
X-1196.303 Y-574.135
X-1196.508 Y-574.433
X-1196.64 Y-574.634
X-1196.706 Y-574.798
X-1196.798 Y-575.037
X-1196.874 Y-575.238
X-1196.896 Y-575.315
X-1196.907 Y-575.392
X-1196.972 Y-575.943
X-1196.973 Y-576.044
X-1196.951 Y-576.233
X-1196.931 Y-576.323
X-1196.896 Y-576.409
X-1196.852 Y-576.469 Z18.005
X-1196.809 Y-576.527 Z18.018
X-1196.767 Y-576.583 Z18.041
X-1196.7 Y-576.626 Z18.079
X-1196.639 Y-576.665 Z18.129
X-1196.584 Y-576.7 Z18.188
X-1196.529 Y-576.714 Z18.259
X-1196.485 Y-576.726 Z18.337
X-1196.452 Y-576.734 Z18.421
X-1196.433 Y-576.739 Z18.509
X-1196.426 Y-576.74 Z18.6
G0 Z36
X-1194 Y0
Z26.6
G1 Z26 F850
Z18 F283.3
X-1194.031 Y0.021 F850
X-1194.063 Y0
X-1194.062 Y-0.037
X-1194.039 Y-0.067
X-1194.004 Y-0.081
X-1193.967 Y-0.077
X-1193.936 Y-0.057
X-1193.916 Y-0.025
X-1193.912 Y0.013
X-1193.925 Y0.048
X-1193.951 Y0.075
X-1193.984 Y0.091
X-1194.021 Y0.097
X-1194.059 Y0.092
X-1194.092 Y0.074
X-1194.118 Y0.047
X-1194.134 Y0.013
X-1194.14 Y-0.024
X-1194.135 Y-0.061
X-1194.106 Y-0.13
X-1194.047 Y-0.176
X-1193.973 Y-0.191
X-1193.9 Y-0.175
X-1193.839 Y-0.131
X-1193.799 Y-0.068
X-1193.784 Y0.006
X-1193.796 Y0.08
X-1193.831 Y0.146
X-1193.884 Y0.199
X-1193.951 Y0.232
X-1194.025 Y0.245
X-1194.1 Y0.236
X-1194.168 Y0.206
X-1194.226 Y0.158
X-1194.313 Y0.035
X-1194.329 Y-0.114
X-1194.277 Y-0.254
X-1194.171 Y-0.361
X-1194.032 Y-0.418
X-1193.882 Y-0.42
X-1193.741 Y-0.368
X-1193.627 Y-0.271
X-1193.55 Y-0.142
X-1193.519 Y0.005
X-1193.535 Y0.154
X-1193.594 Y0.291
X-1193.691 Y0.406
X-1193.817 Y0.488
X-1193.96 Y0.532
X-1194.11 Y0.535
X-1194.256 Y0.5
X-1194.389 Y0.431
X-1194.502 Y0.331
X-1194.586 Y0.207
X-1194.639 Y0.067
X-1194.657 Y-0.082
X-1194.643 Y-0.231
X-1194.594 Y-0.373
X-1194.517 Y-0.502
X-1194.414 Y-0.61
X-1194.291 Y-0.696
X-1194.153 Y-0.755
X-1194.006 Y-0.784
X-1193.856 Y-0.785
X-1193.709 Y-0.756
X-1193.569 Y-0.701
X-1193.443 Y-0.62
X-1193.333 Y-0.517
X-1193.244 Y-0.397
X-1193.178 Y-0.262
X-1193.135 Y-0.118
X-1193.12 Y0.031
X-1193.128 Y0.181
X-1193.162 Y0.327
X-1193.22 Y0.465
X-1193.299 Y0.592
X-1193.399 Y0.704
X-1193.515 Y0.8
X-1193.644 Y0.876
X-1193.783 Y0.931
X-1193.93 Y0.965
X-1194.079 Y0.975
X-1194.229 Y0.964
X-1194.375 Y0.931
X-1194.515 Y0.878
X-1194.646 Y0.804
X-1194.765 Y0.713
X-1194.87 Y0.606
X-1194.96 Y0.486
X-1195.032 Y0.354
X-1195.085 Y0.214
X-1195.118 Y0.067
X-1195.133 Y-0.082
X-1195.127 Y-0.232
X-1195.101 Y-0.38
X-1195.058 Y-0.523
X-1194.995 Y-0.659
X-1194.917 Y-0.787
X-1194.822 Y-0.904
X-1194.714 Y-1.008
X-1194.594 Y-1.098
X-1194.464 Y-1.172
X-1194.326 Y-1.231
X-1194.182 Y-1.272
X-1194.034 Y-1.296
X-1193.884 Y-1.303
X-1193.734 Y-1.292
X-1193.587 Y-1.263
X-1193.444 Y-1.218
X-1193.307 Y-1.158
X-1193.177 Y-1.081
X-1193.057 Y-0.992
X-1192.948 Y-0.889
X-1192.851 Y-0.775
X-1192.766 Y-0.651
X-1192.696 Y-0.518
X-1192.64 Y-0.379
X-1192.6 Y-0.234
X-1192.575 Y-0.087
X-1192.566 Y0.063
X-1192.572 Y0.213
X-1192.594 Y0.361
X-1192.631 Y0.507
X-1192.683 Y0.647
X-1192.75 Y0.782
X-1192.829 Y0.91
X-1192.92 Y1.028
X-1193.023 Y1.137
X-1193.136 Y1.236
X-1193.259 Y1.322
X-1193.389 Y1.397
X-1193.526 Y1.459
X-1193.668 Y1.506
X-1193.814 Y1.541
X-1193.963 Y1.561
X-1194.112 Y1.567
X-1194.262 Y1.56
X-1194.411 Y1.538
X-1194.556 Y1.502
X-1194.698 Y1.454
X-1194.835 Y1.392
X-1194.966 Y1.319
X-1195.089 Y1.234
X-1195.205 Y1.138
X-1195.311 Y1.032
X-1195.407 Y0.917
X-1195.493 Y0.794
X-1195.568 Y0.664
X-1195.631 Y0.528
X-1195.682 Y0.387
X-1195.721 Y0.242
X-1195.747 Y0.094
X-1195.76 Y-0.055
X-1195.761 Y-0.205
X-1195.749 Y-0.355
X-1195.724 Y-0.503
X-1195.687 Y-0.648
X-1195.638 Y-0.79
X-1195.578 Y-0.927
X-1195.506 Y-1.059
X-1195.424 Y-1.184
X-1195.332 Y-1.303
X-1195.23 Y-1.413
X-1195.12 Y-1.515
X-1195.002 Y-1.608
X-1194.877 Y-1.691
X-1194.746 Y-1.764
X-1194.61 Y-1.826
X-1194.469 Y-1.877
X-1194.324 Y-1.917
X-1194.177 Y-1.946
X-1194.028 Y-1.963
X-1193.878 Y-1.969
X-1193.728 Y-1.963
X-1193.579 Y-1.946
X-1193.432 Y-1.917
X-1193.287 Y-1.877
X-1193.146 Y-1.827
X-1193.009 Y-1.766
X-1192.877 Y-1.695
X-1192.751 Y-1.614
X-1192.631 Y-1.524
X-1192.518 Y-1.425
X-1192.412 Y-1.319
X-1192.315 Y-1.205
X-1192.226 Y-1.084
X-1192.146 Y-0.957
X-1192.076 Y-0.824
X-1192.015 Y-0.687
X-1191.964 Y-0.546
X-1191.924 Y-0.402
X-1191.893 Y-0.255
X-1191.874 Y-0.106
X-1191.865 Y0.044
X-1191.866 Y0.194
X-1191.878 Y0.343
X-1191.901 Y0.492
X-1191.933 Y0.638
X-1191.976 Y0.782
X-1192.029 Y0.922
X-1192.091 Y1.059
X-1192.162 Y1.191
X-1192.242 Y1.318
X-1192.331 Y1.439
X-1192.427 Y1.554
X-1192.531 Y1.662
X-1192.642 Y1.763
X-1192.76 Y1.856
X-1192.883 Y1.941
X-1193.012 Y2.018
X-1193.146 Y2.086
X-1193.283 Y2.145
X-1193.425 Y2.195
X-1193.569 Y2.236
X-1193.716 Y2.267
X-1193.864 Y2.289
X-1194.014 Y2.301
X-1194.164 Y2.303
X-1194.313 Y2.296
X-1194.463 Y2.279
X-1194.61 Y2.253
X-1194.756 Y2.217
X-1194.899 Y2.172
X-1195.039 Y2.119
X-1195.176 Y2.056
X-1195.308 Y1.985
X-1195.435 Y1.906
X-1195.557 Y1.82
X-1195.674 Y1.725
X-1195.785 Y1.624
X-1195.889 Y1.516
X-1195.987 Y1.402
X-1196.077 Y1.282
X-1196.159 Y1.157
X-1196.234 Y1.027
X-1196.301 Y0.893
X-1196.36 Y0.755
X-1196.41 Y0.614
X-1196.452 Y0.47
X-1196.485 Y0.323
X-1196.509 Y0.175
X-1196.524 Y0.026
X-1196.531 Y-0.124
X-1196.528 Y-0.274
X-1196.517 Y-0.423
X-1196.497 Y-0.572
X-1196.468 Y-0.719
X-1196.431 Y-0.865
X-1196.385 Y-1.007
X-1196.331 Y-1.147
X-1196.269 Y-1.284
X-1196.199 Y-1.417
X-1196.122 Y-1.545
X-1196.038 Y-1.669
X-1195.946 Y-1.788
X-1195.848 Y-1.902
X-1195.744 Y-2.009
X-1195.632 Y-2.112
X-1195.516 Y-2.207
X-1195.395 Y-2.296
X-1195.268 Y-2.378
X-1195.135 Y-2.453
X-1195.001 Y-2.52
X-1194.863 Y-2.579
X-1194.718 Y-2.632
X-1194.571 Y-2.676
X-1194.423 Y-2.711
X-1194.273 Y-2.739
X-1194.118 Y-2.758
X-1193.964 Y-2.768
X-1193.811 Y-2.77
X-1193.656 Y-2.763
X-1193.499 Y-2.747
X-1193.345 Y-2.722
X-1193.194 Y-2.689
X-1193.043 Y-2.647
X-1192.892 Y-2.596
X-1192.745 Y-2.536
X-1192.603 Y-2.469
X-1192.465 Y-2.394
X-1192.328 Y-2.31
X-1192.196 Y-2.218
X-1192.071 Y-2.12
X-1191.952 Y-2.015
X-1191.837 Y-1.901
X-1191.727 Y-1.781
X-1191.625 Y-1.655
X-1191.532 Y-1.524
X-1191.445 Y-1.388
X-1191.364 Y-1.244
X-1191.292 Y-1.096
X-1191.228 Y-0.946
X-1191.174 Y-0.792
X-1191.127 Y-0.634
X-1191.09 Y-0.472
X-1191.061 Y-0.308
X-1191.042 Y-0.143
X-1191.04 Y-0.112
X-1191.036 Y0.004
X-1191.039 Y0.12
X-1191.049 Y0.235
X-1191.074 Y0.447
X-1191.098 Y0.648
X-1191.121 Y0.749
X-1191.159 Y0.849
X-1191.313 Y1.252
X-1191.355 Y1.353
X-1191.413 Y1.453
X-1191.691 Y1.856
X-1191.764 Y1.957
X-1191.865 Y2.057
X-1192.091 Y2.259
X-1192.275 Y2.421
X-1192.329 Y2.46
X-1192.477 Y2.54
X-1192.88 Y2.752
X-1192.98 Y2.793
X-1193.081 Y2.818
X-1193.584 Y2.942
X-1193.685 Y2.955
X-1193.886 Y2.956
X-1194.289
X-1194.39 Y2.947
X-1194.491 Y2.923
X-1194.994 Y2.8
X-1195.095 Y2.764
X-1195.296 Y2.66
X-1195.497 Y2.554
X-1195.67 Y2.46
X-1195.699 Y2.44
X-1195.909 Y2.259
X-1196.135 Y2.057
X-1196.233 Y1.961
X-1196.309 Y1.856
X-1196.587 Y1.453
X-1196.646 Y1.353
X-1196.687 Y1.252
X-1196.841 Y0.849
X-1196.879 Y0.749
X-1196.902 Y0.648
X-1196.95 Y0.245
X-1196.973 Y0.044
X-1196.972 Y-0.057
X-1196.907 Y-0.608
X-1196.896 Y-0.685
X-1196.874 Y-0.762
X-1196.72 Y-1.164
X-1196.706 Y-1.202
X-1196.64 Y-1.366
X-1196.504 Y-1.573
X-1196.303 Y-1.865
X-1196.226 Y-1.97
X-1196.102 Y-2.088
X-1195.781 Y-2.372
X-1195.699 Y-2.441
X-1195.497 Y-2.554
X-1195.296 Y-2.66
X-1195.095 Y-2.764
X-1195.069 Y-2.775
X-1194.893 Y-2.825
X-1194.491 Y-2.923
X-1194.39 Y-2.947
X-1194.289 Y-2.956
X-1193.886
X-1193.685 Y-2.955
X-1193.584 Y-2.942
X-1193.081 Y-2.818
X-1192.931 Y-2.775
X-1192.88 Y-2.752
X-1192.376 Y-2.487
X-1192.326 Y-2.457
X-1192.275 Y-2.421
X-1192.219 Y-2.372
X-1191.873 Y-2.065
X-1191.774 Y-1.97
X-1191.671 Y-1.828
X-1191.47 Y-1.536
X-1191.361 Y-1.366
X-1191.269 Y-1.135
X-1191.125 Y-0.762
X-1191.1 Y-0.661
X-1191.087 Y-0.56
X-1191.028 Y-0.057
X-1191.027 Y0.044
X-1191.049 Y0.235
X-1191.07 Y0.326
X-1191.104 Y0.412
X-1191.148 Y0.471 Z18.005
X-1191.191 Y0.529 Z18.018
X-1191.233 Y0.586 Z18.041
X-1191.3 Y0.629 Z18.079
X-1191.362 Y0.668 Z18.129
X-1191.416 Y0.703 Z18.188
X-1191.471 Y0.717 Z18.259
X-1191.516 Y0.728 Z18.337
X-1191.548 Y0.736 Z18.421
X-1191.568 Y0.741 Z18.509
X-1191.574 Y0.743 Z18.6
G0 Z36
X0 Y-576
Z26.6
G1 Z26 F850
Z18 F283.3
Y-575.962 F850
X-0.035 Y-575.948
X-0.065 Y-575.97
X-0.077 Y-576.006
X-0.07 Y-576.042
X-0.045 Y-576.071
X-0.011 Y-576.085
X0.027 Y-576.083
X0.06 Y-576.065
X0.082 Y-576.035
X0.09 Y-575.999
X0.084 Y-575.961
X0.068 Y-575.927
X0.043 Y-575.9
X0.01 Y-575.883
X-0.027 Y-575.876
X-0.064 Y-575.882
X-0.098 Y-575.898
X-0.126 Y-575.923
X-0.167 Y-575.986
X-0.172 Y-576.06
X-0.143 Y-576.13
X-0.088 Y-576.181
X-0.018 Y-576.207
X0.057 Y-576.204
X0.126 Y-576.175
X0.181 Y-576.124
X0.216 Y-576.057
X0.229 Y-575.984
X0.219 Y-575.909
X0.188 Y-575.841
X0.138 Y-575.785
X0.075 Y-575.745
X0.003 Y-575.724
X-0.147 Y-575.722
X-0.279 Y-575.793
X-0.366 Y-575.915
X-0.395 Y-576.062
X-0.363 Y-576.209
X-0.28 Y-576.334
X-0.158 Y-576.421
X-0.014 Y-576.461
X0.136 Y-576.451
X0.275 Y-576.394
X0.389 Y-576.298
X0.469 Y-576.171
X0.509 Y-576.026
X0.506 Y-575.876
X0.461 Y-575.733
X0.379 Y-575.608
X0.269 Y-575.506
X0.136 Y-575.435
X-0.009 Y-575.399
X-0.159
X-0.305 Y-575.434
X-0.438 Y-575.503
X-0.553 Y-575.599
X-0.643 Y-575.72
X-0.706 Y-575.856
X-0.738 Y-576.002
X-0.739 Y-576.152
X-0.71 Y-576.299
X-0.651 Y-576.437
X-0.567 Y-576.562
X-0.46 Y-576.667
X-0.336 Y-576.751
X-0.198 Y-576.809
X-0.051 Y-576.842
X0.098 Y-576.848
X0.247 Y-576.827
X0.39 Y-576.781
X0.522 Y-576.71
X0.641 Y-576.618
X0.742 Y-576.508
X0.824 Y-576.382
X0.884 Y-576.245
X0.921 Y-576.099
X0.934 Y-575.95
X0.924 Y-575.8
X0.891 Y-575.654
X0.836 Y-575.514
X0.761 Y-575.385
X0.667 Y-575.267
X0.558 Y-575.165
X0.434 Y-575.08
X0.3 Y-575.013
X0.157 Y-574.966
X0.01 Y-574.939
X-0.14 Y-574.934
X-0.289 Y-574.948
X-0.435 Y-574.983
X-0.575 Y-575.038
X-0.706 Y-575.111
X-0.827 Y-575.2
X-0.934 Y-575.304
X-1.028 Y-575.421
X-1.106 Y-575.55
X-1.167 Y-575.687
X-1.21 Y-575.83
X-1.235 Y-575.978
X-1.242 Y-576.128
X-1.23 Y-576.278
X-1.2 Y-576.425
X-1.153 Y-576.567
X-1.089 Y-576.703
X-1.01 Y-576.83
X-0.917 Y-576.948
X-0.81 Y-577.053
X-0.693 Y-577.146
X-0.565 Y-577.225
X-0.429 Y-577.289
X-0.288 Y-577.338
X-0.141 Y-577.37
X0.008 Y-577.386
X0.158
X0.307 Y-577.369
X0.454 Y-577.337
X0.596 Y-577.289
X0.732 Y-577.226
X0.861 Y-577.149
X0.981 Y-577.059
X1.091 Y-576.957
X1.19 Y-576.845
X1.277 Y-576.722
X1.351 Y-576.592
X1.412 Y-576.455
X1.458 Y-576.312
X1.49 Y-576.166
X1.508 Y-576.017
X1.51 Y-575.867
X1.498 Y-575.717
X1.472 Y-575.569
X1.431 Y-575.425
X1.378 Y-575.285
X1.311 Y-575.151
X1.231 Y-575.023
X1.14 Y-574.904
X1.039 Y-574.794
X0.927 Y-574.693
X0.807 Y-574.604
X0.679 Y-574.525
X0.545 Y-574.459
X0.405 Y-574.405
X0.261 Y-574.364
X0.113 Y-574.336
X-0.036 Y-574.321
X-0.186 Y-574.319
X-0.336 Y-574.331
X-0.484 Y-574.355
X-0.629 Y-574.393
X-0.77 Y-574.442
X-0.907 Y-574.504
X-1.038 Y-574.577
X-1.162 Y-574.661
X-1.279 Y-574.756
X-1.387 Y-574.859
X-1.486 Y-574.972
X-1.576 Y-575.092
X-1.655 Y-575.22
X-1.724 Y-575.353
X-1.781 Y-575.492
X-1.827 Y-575.635
X-1.861 Y-575.781
X-1.883 Y-575.929
X-1.893 Y-576.079
X-1.891 Y-576.229
X-1.878 Y-576.378
X-1.852 Y-576.526
X-1.815 Y-576.671
X-1.767 Y-576.813
X-1.707 Y-576.951
X-1.637 Y-577.084
X-1.558 Y-577.211
X-1.468 Y-577.331
X-1.37 Y-577.444
X-1.263 Y-577.55
X-1.149 Y-577.647
X-1.027 Y-577.735
X-0.9 Y-577.814
X-0.766 Y-577.883
X-0.628 Y-577.941
X-0.486 Y-577.99
X-0.341 Y-578.028
X-0.194 Y-578.055
X-0.045 Y-578.071
X0.105 Y-578.076
X0.255 Y-578.071
X0.404 Y-578.054
X0.552 Y-578.027
X0.697 Y-577.989
X0.839 Y-577.941
X0.977 Y-577.883
X1.111 Y-577.816
X1.24 Y-577.739
X1.363 Y-577.653
X1.48 Y-577.559
X1.59 Y-577.457
X1.692 Y-577.347
X1.787 Y-577.231
X1.873 Y-577.108
X1.951 Y-576.98
X2.02 Y-576.847
X2.079 Y-576.709
X2.13 Y-576.568
X2.17 Y-576.423
X2.201 Y-576.276
X2.221 Y-576.128
X2.232 Y-575.978
X2.233 Y-575.828
X2.224 Y-575.678
X2.205 Y-575.53
X2.176 Y-575.382
X2.138 Y-575.237
X2.09 Y-575.095
X2.033 Y-574.956
X1.967 Y-574.822
X1.893 Y-574.691
X1.81 Y-574.566
X1.72 Y-574.446
X1.622 Y-574.333
X1.517 Y-574.226
X1.405 Y-574.126
X1.287 Y-574.033
X1.164 Y-573.947
X1.036 Y-573.87
X0.903 Y-573.801
X0.765 Y-573.74
X0.625 Y-573.688
X0.481 Y-573.644
X0.335 Y-573.61
X0.187 Y-573.585
X0.038 Y-573.569
X-0.112 Y-573.562
X-0.262 Y-573.564
X-0.411 Y-573.575
X-0.56 Y-573.596
X-0.707 Y-573.625
X-0.852 Y-573.663
X-0.995 Y-573.71
X-1.134 Y-573.766
X-1.27 Y-573.829
X-1.402 Y-573.9
X-1.529 Y-573.98
X-1.652 Y-574.066
X-1.769 Y-574.16
X-1.88 Y-574.26
X-1.986 Y-574.367
X-2.085 Y-574.48
X-2.177 Y-574.598
X-2.262 Y-574.722
X-2.34 Y-574.85
X-2.41 Y-574.982
X-2.473 Y-575.119
X-2.528 Y-575.258
X-2.574 Y-575.401
X-2.613 Y-575.546
X-2.643 Y-575.693
X-2.664 Y-575.843
X-2.678 Y-575.992
X-2.682 Y-576.142
X-2.679 Y-576.293
X-2.666 Y-576.446
X-2.645 Y-576.594
X-2.616 Y-576.742
X-2.578 Y-576.891
X-2.532 Y-577.037
X-2.478 Y-577.179
X-2.416 Y-577.318
X-2.344 Y-577.457
X-2.266 Y-577.591
X-2.181 Y-577.718
X-2.088 Y-577.841
X-1.986 Y-577.962
X-1.879 Y-578.076
X-1.766 Y-578.182
X-1.647 Y-578.283
X-1.519 Y-578.378
X-1.387 Y-578.466
X-1.252 Y-578.546
X-1.112 Y-578.618
X-0.965 Y-578.683
X-0.815 Y-578.74
X-0.663 Y-578.788
X-0.509 Y-578.828
X-0.351 Y-578.859
X-0.189 Y-578.881
X-0.028 Y-578.894
X0.133 Y-578.898
X0.295 Y-578.893
X0.458 Y-578.878
X0.621 Y-578.855
X0.782 Y-578.822
X0.939 Y-578.781
X1.096 Y-578.73
X1.251 Y-578.67
X1.403 Y-578.601
X1.55 Y-578.524
X1.664 Y-578.452
X1.756 Y-578.386
X1.845 Y-578.314
X1.909 Y-578.259
X2.136 Y-578.057
X2.233 Y-577.963
X2.311 Y-577.856
X2.589 Y-577.453
X2.621 Y-577.403
X2.647 Y-577.353
X2.706 Y-577.202
X2.84 Y-576.849
X2.876 Y-576.749
X2.899 Y-576.648
X2.948 Y-576.245
X2.972 Y-576.044
X2.971 Y-575.943
X2.907 Y-575.417
X2.895 Y-575.327
X2.872 Y-575.238
X2.706 Y-574.798
X2.641 Y-574.634
X2.504 Y-574.424
X2.303 Y-574.132
X2.227 Y-574.03
X2.102 Y-573.912
X1.78 Y-573.628
X1.699 Y-573.56
X1.497 Y-573.447
X1.095 Y-573.237
X1.067 Y-573.225
X0.893 Y-573.176
X0.491 Y-573.076
X0.39 Y-573.053
X0.289 Y-573.044
X-0.114
X-0.315 Y-573.045
X-0.416 Y-573.058
X-0.919 Y-573.182
X-1.066 Y-573.225
X-1.12 Y-573.249
X-1.624 Y-573.514
X-1.674 Y-573.543
X-1.725 Y-573.579
X-1.78 Y-573.628
X-2.127 Y-573.935
X-2.226 Y-574.03
X-2.329 Y-574.17
X-2.53 Y-574.461
X-2.641 Y-574.634
X-2.731 Y-574.866
X-2.872 Y-575.238
X-2.897 Y-575.339
X-2.971 Y-575.943
X-2.972 Y-576.044
X-2.924 Y-576.447
X-2.899 Y-576.648
X-2.876 Y-576.749
X-2.84 Y-576.849
X-2.687 Y-577.252
X-2.647 Y-577.353
X-2.621 Y-577.403
X-2.589 Y-577.453
X-2.311 Y-577.856
X-2.237 Y-577.957
X-2.136 Y-578.057
X-1.909 Y-578.259
X-1.725 Y-578.42
X-1.669 Y-578.46
X-1.523 Y-578.539
X-1.12 Y-578.75
X-1.02 Y-578.792
X-0.919 Y-578.818
X-0.416 Y-578.942
X-0.315 Y-578.955
X-0.114 Y-578.956
X0.289
X0.39 Y-578.947
X0.491 Y-578.924
X0.994 Y-578.799
X1.095 Y-578.763
X1.497 Y-578.553
X1.668 Y-578.46
X1.699 Y-578.439
X1.845 Y-578.314
X1.908 Y-578.246
X1.96 Y-578.169
X1.984 Y-578.1 Z18.005
X2.008 Y-578.031 Z18.018
X2.031 Y-577.965 Z18.041
X2.035 Y-577.918 Z18.062
X2.038 Y-577.873 Z18.087
X2.026 Y-577.808 Z18.133
X2.016 Y-577.751 Z18.187
X2.007 Y-577.701 Z18.248
X1.999 Y-577.659 Z18.316
X1.986 Y-577.631 Z18.383
X1.977 Y-577.611 Z18.454
X1.972 Y-577.598 Z18.526
X1.97 Y-577.594 Z18.6
G0 Z36
X0 Y0
Z26.6
G1 Z26 F850
Z18 F283.3
Y-0.038 F850
X0.035 Y-0.052
X0.065 Y-0.03
X0.077 Y0.005
X0.07 Y0.042
X0.046 Y0.071
X0.011 Y0.085
X-0.026 Y0.083
X-0.059 Y0.066
X-0.082 Y0.036
X-0.09 Y-0.001
X-0.084 Y-0.038
X-0.069 Y-0.072
X-0.044 Y-0.1
X-0.01 Y-0.117
X0.027 Y-0.124
X0.064 Y-0.118
X0.098 Y-0.102
X0.126 Y-0.077
X0.167 Y-0.015
X0.172 Y0.06
X0.143 Y0.129
X0.089 Y0.18
X0.018 Y0.207
X-0.057 Y0.205
X-0.126 Y0.176
X-0.181 Y0.124
X-0.216 Y0.058
X-0.229 Y-0.016
X-0.22 Y-0.09
X-0.189 Y-0.158
X-0.139 Y-0.215
X-0.076 Y-0.255
X-0.004 Y-0.276
X0.146 Y-0.278
X0.278 Y-0.208
X0.366 Y-0.086
X0.395 Y0.061
X0.364 Y0.208
X0.281 Y0.333
X0.16 Y0.42
X0.015 Y0.461
X-0.134 Y0.452
X-0.273 Y0.395
X-0.388 Y0.299
X-0.469 Y0.172
X-0.509 Y0.028
X-0.507 Y-0.122
X-0.462 Y-0.265
X-0.38 Y-0.391
X-0.27 Y-0.493
X-0.138 Y-0.564
X0.007 Y-0.601
X0.157
X0.303 Y-0.567
X0.437 Y-0.498
X0.552 Y-0.403
X0.642 Y-0.283
X0.705 Y-0.147
X0.738 Y0
X0.739 Y0.15
X0.711 Y0.297
X0.653 Y0.435
X0.569 Y0.56
X0.462 Y0.665
X0.338 Y0.75
X0.2 Y0.809
X0.054 Y0.842
X-0.096 Y0.849
X-0.244 Y0.828
X-0.387 Y0.782
X-0.52 Y0.711
X-0.639 Y0.62
X-0.74 Y0.51
X-0.823 Y0.385
X-0.883 Y0.248
X-0.92 Y0.102
X-0.934 Y-0.047
X-0.925 Y-0.197
X-0.892 Y-0.343
X-0.838 Y-0.483
X-0.763 Y-0.613
X-0.67 Y-0.731
X-0.56 Y-0.833
X-0.437 Y-0.919
X-0.303 Y-0.986
X-0.161 Y-1.033
X-0.013 Y-1.061
X0.137 Y-1.067
X0.286 Y-1.052
X0.432 Y-1.018
X0.572 Y-0.963
X0.703 Y-0.892
X0.824 Y-0.803
X0.932 Y-0.699
X1.026 Y-0.582
X1.104 Y-0.454
X1.166 Y-0.317
X1.21 Y-0.173
X1.235 Y-0.025
X1.242 Y0.124
X1.231 Y0.274
X1.201 Y0.421
X1.155 Y0.564
X1.092 Y0.7
X1.013 Y0.827
X0.92 Y0.945
X0.814 Y1.051
X0.696 Y1.144
X0.569 Y1.224
X0.433 Y1.288
X0.292 Y1.337
X0.145 Y1.37
X-0.004 Y1.386
X-0.154
X-0.303 Y1.37
X-0.45 Y1.338
X-0.592 Y1.29
X-0.728 Y1.228
X-0.857 Y1.152
X-0.978 Y1.062
X-1.088 Y0.961
X-1.188 Y0.848
X-1.275 Y0.726
X-1.349 Y0.596
X-1.41 Y0.459
X-1.457 Y0.316
X-1.49 Y0.17
X-1.507 Y0.021
X-1.51 Y-0.129
X-1.499 Y-0.278
X-1.473 Y-0.426
X-1.433 Y-0.571
X-1.38 Y-0.711
X-1.313 Y-0.845
X-1.234 Y-0.973
X-1.144 Y-1.092
X-1.042 Y-1.203
X-0.931 Y-1.304
X-0.811 Y-1.394
X-0.684 Y-1.473
X-0.549 Y-1.539
X-0.41 Y-1.594
X-0.265 Y-1.636
X-0.118 Y-1.664
X0.031 Y-1.679
X0.181 Y-1.681
X0.331 Y-1.67
X0.479 Y-1.646
X0.624 Y-1.609
X0.766 Y-1.56
X0.903 Y-1.499
X1.034 Y-1.426
X1.158 Y-1.342
X1.275 Y-1.248
X1.384 Y-1.145
X1.483 Y-1.032
X1.573 Y-0.912
X1.653 Y-0.785
X1.722 Y-0.652
X1.779 Y-0.514
X1.826 Y-0.371
X1.86 Y-0.225
X1.883 Y-0.077
X1.893 Y0.073
X1.892 Y0.223
X1.879 Y0.372
X1.854 Y0.52
X1.817 Y0.666
X1.769 Y0.808
X1.71 Y0.946
X1.641 Y1.079
X1.561 Y1.206
X1.472 Y1.327
X1.374 Y1.44
X1.268 Y1.546
X1.154 Y1.643
X1.032 Y1.732
X0.905 Y1.811
X0.772 Y1.88
X0.634 Y1.94
X0.492 Y1.989
X0.347 Y2.027
X0.2 Y2.054
X0.051 Y2.071
X-0.099 Y2.077
X-0.249 Y2.071
X-0.398 Y2.055
X-0.546 Y2.029
X-0.691 Y1.991
X-0.833 Y1.944
X-0.972 Y1.886
X-1.106 Y1.819
X-1.235 Y1.742
X-1.358 Y1.657
X-1.475 Y1.563
X-1.585 Y1.461
X-1.688 Y1.352
X-1.783 Y1.236
X-1.87 Y1.114
X-1.948 Y0.986
X-2.017 Y0.853
X-2.077 Y0.715
X-2.128 Y0.574
X-2.169 Y0.43
X-2.2 Y0.283
X-2.221 Y0.134
X-2.232 Y-0.015
X-2.234 Y-0.165
X-2.225 Y-0.315
X-2.206 Y-0.464
X-2.178 Y-0.611
X-2.14 Y-0.756
X-2.092 Y-0.899
X-2.036 Y-1.038
X-1.971 Y-1.173
X-1.897 Y-1.303
X-1.814 Y-1.428
X-1.724 Y-1.548
X-1.627 Y-1.662
X-1.522 Y-1.77
X-1.411 Y-1.87
X-1.293 Y-1.964
X-1.17 Y-2.049
X-1.042 Y-2.127
X-0.909 Y-2.197
X-0.772 Y-2.258
X-0.632 Y-2.31
X-0.488 Y-2.354
X-0.342 Y-2.389
X-0.194 Y-2.414
X-0.045 Y-2.431
X0.105 Y-2.438
X0.255 Y-2.437
X0.404 Y-2.426
X0.553 Y-2.406
X0.7 Y-2.377
X0.845 Y-2.339
X0.988 Y-2.293
X1.127 Y-2.238
X1.263 Y-2.175
X1.396 Y-2.104
X1.523 Y-2.025
X1.646 Y-1.939
X1.763 Y-1.845
X1.875 Y-1.745
X1.981 Y-1.639
X2.08 Y-1.526
X2.173 Y-1.408
X2.258 Y-1.285
X2.336 Y-1.157
X2.407 Y-1.025
X2.47 Y-0.889
X2.525 Y-0.749
X2.572 Y-0.607
X2.611 Y-0.462
X2.642 Y-0.315
X2.664 Y-0.165
X2.678 Y-0.016
X2.683 Y0.134
X2.679 Y0.285
X2.667 Y0.438
X2.647 Y0.587
X2.619 Y0.734
X2.581 Y0.883
X2.535 Y1.03
X2.482 Y1.172
X2.42 Y1.311
X2.349 Y1.45
X2.271 Y1.584
X2.186 Y1.711
X2.093 Y1.835
X1.992 Y1.956
X1.885 Y2.07
X1.773 Y2.177
X1.653 Y2.278
X1.526 Y2.374
X1.395 Y2.462
X1.26 Y2.542
X1.12 Y2.615
X0.973 Y2.68
X0.823 Y2.738
X0.671 Y2.786
X0.518 Y2.826
X0.359 Y2.858
X0.198 Y2.88
X0.036 Y2.894
X-0.124 Y2.898
X-0.286 Y2.894
X-0.45 Y2.88
X-0.613 Y2.857
X-0.773 Y2.825
X-0.931 Y2.784
X-1.088 Y2.733
X-1.243 Y2.674
X-1.395 Y2.605
X-1.542 Y2.529
X-1.564 Y2.516
X-1.668 Y2.45
X-1.767 Y2.378
X-1.862 Y2.3
X-2.136 Y2.057
X-2.237 Y1.957
X-2.311 Y1.856
X-2.589 Y1.453
X-2.621 Y1.403
X-2.647 Y1.353
X-2.687 Y1.252
X-2.84 Y0.849
X-2.876 Y0.749
X-2.899 Y0.648
X-2.948 Y0.245
X-2.972 Y0.044
X-2.971 Y-0.057
X-2.897 Y-0.661
X-2.872 Y-0.762
X-2.72 Y-1.164
X-2.641 Y-1.366
X-2.53 Y-1.539
X-2.329 Y-1.83
X-2.226 Y-1.97
X-2.127 Y-2.065
X-1.78 Y-2.372
X-1.725 Y-2.421
X-1.674 Y-2.457
X-1.624 Y-2.486
X-1.12 Y-2.751
X-1.066 Y-2.775
X-0.919 Y-2.818
X-0.416 Y-2.942
X-0.315 Y-2.955
X-0.114 Y-2.956
X0.289
X0.39 Y-2.947
X0.491 Y-2.924
X0.893 Y-2.825
X1.067 Y-2.775
X1.095 Y-2.763
X1.497 Y-2.553
X1.699 Y-2.44
X1.78 Y-2.372
X2.102 Y-2.088
X2.226 Y-1.97
X2.303 Y-1.868
X2.511 Y-1.567
X2.641 Y-1.366
X2.72 Y-1.164
X2.872 Y-0.762
X2.895 Y-0.672
X2.91 Y-0.56
X2.971 Y-0.057
X2.972 Y0.044
X2.924 Y0.447
X2.899 Y0.648
X2.876 Y0.749
X2.84 Y0.849
X2.687 Y1.252
X2.647 Y1.353
X2.621 Y1.403
X2.589 Y1.453
X2.303 Y1.868
X2.233 Y1.963
X2.136 Y2.057
X1.9 Y2.266
X1.699 Y2.439
X1.668 Y2.46
X1.497 Y2.553
X1.095 Y2.763
X0.994 Y2.799
X0.491 Y2.924
X0.39 Y2.947
X0.289 Y2.956
X-0.114
X-0.315 Y2.955
X-0.416 Y2.942
X-0.919 Y2.818
X-1.02 Y2.792
X-1.07 Y2.774
X-1.12 Y2.751
X-1.523 Y2.539
X-1.669 Y2.46
X-1.725 Y2.42
X-1.862 Y2.3
X-1.924 Y2.231
X-1.975 Y2.154
X-1.999 Y2.084 Z18.005
X-2.022 Y2.015 Z18.018
X-2.045 Y1.948 Z18.041
X-2.051 Y1.863 Z18.083
X-2.039 Y1.799 Z18.127
X-2.029 Y1.741 Z18.18
X-2.019 Y1.691 Z18.239
X-2.012 Y1.649 Z18.305
X-1.998 Y1.619 Z18.374
X-1.988 Y1.597 Z18.447
X-1.981 Y1.583 Z18.523
X-1.979 Y1.579 Z18.6
G0 Z36
X-1194 Y-576
Z18.6
G1 Z18 F850
Z10 F283.3
X-1193.969 Y-576.021 F850
X-1193.938 Y-576.001
Y-575.964
X-1193.96 Y-575.933
X-1193.995 Y-575.919
X-1194.032 Y-575.922
X-1194.064 Y-575.943
X-1194.084 Y-575.974
X-1194.088 Y-576.012
X-1194.076 Y-576.047
X-1194.05 Y-576.075
X-1194.016 Y-576.091
X-1193.979 Y-576.098
X-1193.942 Y-576.093
X-1193.909 Y-576.075
X-1193.883 Y-576.048
X-1193.866 Y-576.014
X-1193.86 Y-575.978
X-1193.865 Y-575.94
X-1193.893 Y-575.871
X-1193.952 Y-575.824
X-1194.025 Y-575.809
X-1194.099 Y-575.825
X-1194.16 Y-575.868
X-1194.201 Y-575.931
X-1194.216 Y-576.004
X-1194.205 Y-576.078
X-1194.17 Y-576.145
X-1194.117 Y-576.198
X-1194.05 Y-576.232
X-1193.977 Y-576.245
X-1193.902 Y-576.236
X-1193.833 Y-576.207
X-1193.775 Y-576.16
X-1193.688 Y-576.038
X-1193.671 Y-575.889
X-1193.722 Y-575.747
X-1193.826 Y-575.64
X-1193.965 Y-575.582
X-1194.115 Y-575.58
X-1194.256 Y-575.63
X-1194.371 Y-575.726
X-1194.448 Y-575.855
X-1194.481 Y-576.001
X-1194.466 Y-576.151
X-1194.408 Y-576.289
X-1194.311 Y-576.404
X-1194.186 Y-576.487
X-1194.043 Y-576.531
X-1193.893 Y-576.535
X-1193.747 Y-576.502
X-1193.614 Y-576.434
X-1193.501 Y-576.335
X-1193.416 Y-576.211
X-1193.361 Y-576.072
X-1193.342 Y-575.923
X-1193.355 Y-575.773
X-1193.403 Y-575.631
X-1193.479 Y-575.502
X-1193.582 Y-575.392
X-1193.704 Y-575.306
X-1193.842 Y-575.246
X-1193.989 Y-575.216
X-1194.139 Y-575.214
X-1194.286 Y-575.242
X-1194.426 Y-575.296
X-1194.553 Y-575.377
X-1194.663 Y-575.478
X-1194.753 Y-575.598
X-1194.821 Y-575.732
X-1194.864 Y-575.876
X-1194.881 Y-576.025
X-1194.873 Y-576.175
X-1194.84 Y-576.321
X-1194.783 Y-576.46
X-1194.704 Y-576.588
X-1194.606 Y-576.7
X-1194.491 Y-576.797
X-1194.362 Y-576.873
X-1194.223 Y-576.93
X-1194.077 Y-576.964
X-1193.927 Y-576.976
X-1193.777 Y-576.966
X-1193.631 Y-576.934
X-1193.491 Y-576.881
X-1193.359 Y-576.809
X-1193.24 Y-576.718
X-1193.134 Y-576.612
X-1193.044 Y-576.492
X-1192.971 Y-576.361
X-1192.917 Y-576.221
X-1192.882 Y-576.075
X-1192.867 Y-575.926
X-1192.872 Y-575.776
X-1192.896 Y-575.628
X-1192.939 Y-575.484
X-1193 Y-575.347
X-1193.078 Y-575.219
X-1193.172 Y-575.102
X-1193.279 Y-574.997
X-1193.399 Y-574.906
X-1193.528 Y-574.831
X-1193.666 Y-574.772
X-1193.81 Y-574.729
X-1193.958 Y-574.704
X-1194.108 Y-574.697
X-1194.257 Y-574.707
X-1194.405 Y-574.734
X-1194.548 Y-574.778
X-1194.686 Y-574.838
X-1194.815 Y-574.913
X-1194.936 Y-575.002
X-1195.046 Y-575.104
X-1195.144 Y-575.218
X-1195.229 Y-575.341
X-1195.3 Y-575.473
X-1195.357 Y-575.612
X-1195.399 Y-575.756
X-1195.424 Y-575.904
X-1195.435 Y-576.054
X-1195.429 Y-576.204
X-1195.408 Y-576.352
X-1195.372 Y-576.498
X-1195.321 Y-576.639
X-1195.256 Y-576.774
X-1195.177 Y-576.902
X-1195.086 Y-577.021
X-1194.984 Y-577.131
X-1194.872 Y-577.23
X-1194.75 Y-577.317
X-1194.62 Y-577.393
X-1194.484 Y-577.455
X-1194.342 Y-577.504
X-1194.196 Y-577.54
X-1194.048 Y-577.561
X-1193.898 Y-577.568
X-1193.748 Y-577.561
X-1193.599 Y-577.541
X-1193.453 Y-577.506
X-1193.311 Y-577.458
X-1193.174 Y-577.398
X-1193.043 Y-577.325
X-1192.919 Y-577.241
X-1192.803 Y-577.146
X-1192.696 Y-577.04
X-1192.599 Y-576.926
X-1192.512 Y-576.804
X-1192.436 Y-576.674
X-1192.372 Y-576.539
X-1192.32 Y-576.398
X-1192.281 Y-576.253
X-1192.254 Y-576.106
X-1192.24 Y-575.956
X-1192.238 Y-575.806
X-1192.249 Y-575.657
X-1192.273 Y-575.509
X-1192.309 Y-575.363
X-1192.357 Y-575.221
X-1192.416 Y-575.083
X-1192.487 Y-574.951
X-1192.568 Y-574.825
X-1192.66 Y-574.706
X-1192.761 Y-574.595
X-1192.87 Y-574.492
X-1192.987 Y-574.399
X-1193.112 Y-574.315
X-1193.242 Y-574.241
X-1193.378 Y-574.178
X-1193.519 Y-574.126
X-1193.663 Y-574.085
X-1193.81 Y-574.055
X-1193.959 Y-574.037
X-1194.109 Y-574.03
X-1194.259 Y-574.035
X-1194.408 Y-574.052
X-1194.555 Y-574.079
X-1194.7 Y-574.118
X-1194.842 Y-574.168
X-1194.979 Y-574.228
X-1195.112 Y-574.298
X-1195.239 Y-574.378
X-1195.359 Y-574.467
X-1195.473 Y-574.565
X-1195.579 Y-574.671
X-1195.677 Y-574.784
X-1195.767 Y-574.905
X-1195.848 Y-575.031
X-1195.919 Y-575.163
X-1195.981 Y-575.3
X-1196.032 Y-575.441
X-1196.074 Y-575.585
X-1196.105 Y-575.732
X-1196.125 Y-575.88
X-1196.135 Y-576.03
Y-576.18
X-1196.124 Y-576.329
X-1196.102 Y-576.478
X-1196.071 Y-576.625
X-1196.029 Y-576.769
X-1195.977 Y-576.909
X-1195.916 Y-577.046
X-1195.846 Y-577.179
X-1195.766 Y-577.306
X-1195.679 Y-577.428
X-1195.583 Y-577.543
X-1195.48 Y-577.652
X-1195.369 Y-577.754
X-1195.253 Y-577.848
X-1195.13 Y-577.934
X-1195.001 Y-578.011
X-1194.868 Y-578.081
X-1194.731 Y-578.141
X-1194.59 Y-578.192
X-1194.446 Y-578.233
X-1194.299 Y-578.266
X-1194.151 Y-578.288
X-1194.001 Y-578.301
X-1193.851 Y-578.304
X-1193.702 Y-578.298
X-1193.552 Y-578.282
X-1193.405 Y-578.257
X-1193.259 Y-578.222
X-1193.115 Y-578.178
X-1192.975 Y-578.125
X-1192.838 Y-578.064
X-1192.705 Y-577.994
X-1192.577 Y-577.916
X-1192.454 Y-577.83
X-1192.337 Y-577.736
X-1192.226 Y-577.636
X-1192.121 Y-577.529
X-1192.023 Y-577.415
X-1191.932 Y-577.296
X-1191.848 Y-577.171
X-1191.772 Y-577.042
X-1191.705 Y-576.908
X-1191.645 Y-576.77
X-1191.594 Y-576.629
X-1191.551 Y-576.486
X-1191.517 Y-576.339
X-1191.492 Y-576.192
X-1191.476 Y-576.042
X-1191.469 Y-575.893
X-1191.47 Y-575.743
X-1191.48 Y-575.593
X-1191.499 Y-575.444
X-1191.527 Y-575.297
X-1191.564 Y-575.151
X-1191.608 Y-575.008
X-1191.661 Y-574.868
X-1191.723 Y-574.731
X-1191.791 Y-574.598
X-1191.868 Y-574.468
X-1191.952 Y-574.344
X-1192.042 Y-574.225
X-1192.14 Y-574.11
X-1192.243 Y-574.002
X-1192.354 Y-573.899
X-1192.469 Y-573.803
X-1192.59 Y-573.714
X-1192.717 Y-573.631
X-1192.849 Y-573.554
X-1192.983 Y-573.487
X-1193.121 Y-573.426
X-1193.265 Y-573.373
X-1193.412 Y-573.328
X-1193.559 Y-573.291
X-1193.709 Y-573.263
X-1193.864 Y-573.243
X-1194.018 Y-573.232
X-1194.171 Y-573.229
X-1194.326 Y-573.235
X-1194.483 Y-573.25
X-1194.637 Y-573.274
X-1194.789 Y-573.306
X-1194.94 Y-573.347
X-1195.091 Y-573.397
X-1195.238 Y-573.456
X-1195.38 Y-573.521
X-1195.52 Y-573.596
X-1195.657 Y-573.679
X-1195.789 Y-573.77
X-1195.915 Y-573.868
X-1196.035 Y-573.972
X-1196.151 Y-574.084
X-1196.261 Y-574.205
X-1196.364 Y-574.33
X-1196.458 Y-574.46
X-1196.546 Y-574.596
X-1196.628 Y-574.738
X-1196.701 Y-574.886
X-1196.765 Y-575.036
X-1196.821 Y-575.19
X-1196.868 Y-575.347
X-1196.907 Y-575.509
X-1196.937 Y-575.673
X-1196.957 Y-575.838
X-1196.96 Y-575.873
X-1196.964 Y-575.993
X-1196.961 Y-576.113
X-1196.951 Y-576.233
X-1196.926 Y-576.447
X-1196.902 Y-576.648
X-1196.879 Y-576.749
X-1196.841 Y-576.849
X-1196.687 Y-577.252
X-1196.646 Y-577.353
X-1196.587 Y-577.453
X-1196.303 Y-577.865
X-1196.233 Y-577.961
X-1196.136 Y-578.057
X-1195.9 Y-578.267
X-1195.699 Y-578.44
X-1195.67 Y-578.46
X-1195.497 Y-578.554
X-1195.292 Y-578.662
X-1195.095 Y-578.764
X-1194.994 Y-578.799
X-1194.491 Y-578.923
X-1194.39 Y-578.947
X-1194.289 Y-578.956
X-1193.886
X-1193.685 Y-578.955
X-1193.584 Y-578.941
X-1193.081 Y-578.818
X-1192.98 Y-578.792
X-1192.88 Y-578.752
X-1192.477 Y-578.54
X-1192.329 Y-578.46
X-1192.275 Y-578.421
X-1192.074 Y-578.244
X-1191.864 Y-578.057
X-1191.763 Y-577.957
X-1191.691 Y-577.856
X-1191.413 Y-577.453
X-1191.355 Y-577.353
X-1191.313 Y-577.252
X-1191.159 Y-576.849
X-1191.121 Y-576.749
X-1191.098 Y-576.648
X-1191.05 Y-576.245
X-1191.027 Y-576.044
X-1191.028 Y-575.943
X-1191.087 Y-575.44
X-1191.1 Y-575.339
X-1191.125 Y-575.238
X-1191.28 Y-574.836
X-1191.361 Y-574.634
X-1191.47 Y-574.465
X-1191.671 Y-574.172
X-1191.774 Y-574.03
X-1191.873 Y-573.935
X-1192.219 Y-573.628
X-1192.275 Y-573.579
X-1192.326 Y-573.542
X-1192.376 Y-573.513
X-1192.88 Y-573.248
X-1192.931 Y-573.225
X-1193.081 Y-573.182
X-1193.584 Y-573.059
X-1193.685 Y-573.045
X-1193.886 Y-573.044
X-1194.289
X-1194.39 Y-573.053
X-1194.491 Y-573.077
X-1194.893 Y-573.176
X-1195.068 Y-573.225
X-1195.095 Y-573.236
X-1195.296 Y-573.341
X-1195.497 Y-573.446
X-1195.699 Y-573.559
X-1195.781 Y-573.628
X-1196.102 Y-573.912
X-1196.226 Y-574.03
X-1196.303 Y-574.135
X-1196.508 Y-574.433
X-1196.64 Y-574.634
X-1196.706 Y-574.798
X-1196.798 Y-575.037
X-1196.874 Y-575.238
X-1196.896 Y-575.315
X-1196.907 Y-575.392
X-1196.972 Y-575.943
X-1196.973 Y-576.044
X-1196.951 Y-576.233
X-1196.931 Y-576.323
X-1196.896 Y-576.409
X-1196.852 Y-576.469 Z10.005
X-1196.809 Y-576.527 Z10.018
X-1196.767 Y-576.583 Z10.041
X-1196.7 Y-576.626 Z10.079
X-1196.639 Y-576.665 Z10.129
X-1196.584 Y-576.7 Z10.188
X-1196.529 Y-576.714 Z10.259
X-1196.485 Y-576.726 Z10.337
X-1196.452 Y-576.734 Z10.421
X-1196.433 Y-576.739 Z10.509
X-1196.426 Y-576.74 Z10.6
G0 Z36
X-1194 Y0
Z18.6
G1 Z18 F850
Z10 F283.3
X-1194.031 Y0.021 F850
X-1194.063 Y0
X-1194.062 Y-0.037
X-1194.039 Y-0.067
X-1194.004 Y-0.081
X-1193.967 Y-0.077
X-1193.936 Y-0.057
X-1193.916 Y-0.025
X-1193.912 Y0.013
X-1193.925 Y0.048
X-1193.951 Y0.075
X-1193.984 Y0.091
X-1194.021 Y0.097
X-1194.059 Y0.092
X-1194.092 Y0.074
X-1194.118 Y0.047
X-1194.134 Y0.013
X-1194.14 Y-0.024
X-1194.135 Y-0.061
X-1194.106 Y-0.13
X-1194.047 Y-0.176
X-1193.973 Y-0.191
X-1193.9 Y-0.175
X-1193.839 Y-0.131
X-1193.799 Y-0.068
X-1193.784 Y0.006
X-1193.796 Y0.08
X-1193.831 Y0.146
X-1193.884 Y0.199
X-1193.951 Y0.232
X-1194.025 Y0.245
X-1194.1 Y0.236
X-1194.168 Y0.206
X-1194.226 Y0.158
X-1194.313 Y0.035
X-1194.329 Y-0.114
X-1194.277 Y-0.254
X-1194.171 Y-0.361
X-1194.032 Y-0.418
X-1193.882 Y-0.42
X-1193.741 Y-0.368
X-1193.627 Y-0.271
X-1193.55 Y-0.142
X-1193.519 Y0.005
X-1193.535 Y0.154
X-1193.594 Y0.291
X-1193.691 Y0.406
X-1193.817 Y0.488
X-1193.96 Y0.532
X-1194.11 Y0.535
X-1194.256 Y0.5
X-1194.389 Y0.431
X-1194.502 Y0.331
X-1194.586 Y0.207
X-1194.639 Y0.067
X-1194.657 Y-0.082
X-1194.643 Y-0.231
X-1194.594 Y-0.373
X-1194.517 Y-0.502
X-1194.414 Y-0.61
X-1194.291 Y-0.696
X-1194.153 Y-0.755
X-1194.006 Y-0.784
X-1193.856 Y-0.785
X-1193.709 Y-0.756
X-1193.569 Y-0.701
X-1193.443 Y-0.62
X-1193.333 Y-0.517
X-1193.244 Y-0.397
X-1193.178 Y-0.262
X-1193.135 Y-0.118
X-1193.12 Y0.031
X-1193.128 Y0.181
X-1193.162 Y0.327
X-1193.22 Y0.465
X-1193.299 Y0.592
X-1193.399 Y0.704
X-1193.515 Y0.8
X-1193.644 Y0.876
X-1193.783 Y0.931
X-1193.93 Y0.965
X-1194.079 Y0.975
X-1194.229 Y0.964
X-1194.375 Y0.931
X-1194.515 Y0.878
X-1194.646 Y0.804
X-1194.765 Y0.713
X-1194.87 Y0.606
X-1194.96 Y0.486
X-1195.032 Y0.354
X-1195.085 Y0.214
X-1195.118 Y0.067
X-1195.133 Y-0.082
X-1195.127 Y-0.232
X-1195.101 Y-0.38
X-1195.058 Y-0.523
X-1194.995 Y-0.659
X-1194.917 Y-0.787
X-1194.822 Y-0.904
X-1194.714 Y-1.008
X-1194.594 Y-1.098
X-1194.464 Y-1.172
X-1194.326 Y-1.231
X-1194.182 Y-1.272
X-1194.034 Y-1.296
X-1193.884 Y-1.303
X-1193.734 Y-1.292
X-1193.587 Y-1.263
X-1193.444 Y-1.218
X-1193.307 Y-1.158
X-1193.177 Y-1.081
X-1193.057 Y-0.992
X-1192.948 Y-0.889
X-1192.851 Y-0.775
X-1192.766 Y-0.651
X-1192.696 Y-0.518
X-1192.64 Y-0.379
X-1192.6 Y-0.234
X-1192.575 Y-0.087
X-1192.566 Y0.063
X-1192.572 Y0.213
X-1192.594 Y0.361
X-1192.631 Y0.507
X-1192.683 Y0.647
X-1192.75 Y0.782
X-1192.829 Y0.91
X-1192.92 Y1.028
X-1193.023 Y1.137
X-1193.136 Y1.236
X-1193.259 Y1.322
X-1193.389 Y1.397
X-1193.526 Y1.459
X-1193.668 Y1.506
X-1193.814 Y1.541
X-1193.963 Y1.561
X-1194.112 Y1.567
X-1194.262 Y1.56
X-1194.411 Y1.538
X-1194.556 Y1.502
X-1194.698 Y1.454
X-1194.835 Y1.392
X-1194.966 Y1.319
X-1195.089 Y1.234
X-1195.205 Y1.138
X-1195.311 Y1.032
X-1195.407 Y0.917
X-1195.493 Y0.794
X-1195.568 Y0.664
X-1195.631 Y0.528
X-1195.682 Y0.387
X-1195.721 Y0.242
X-1195.747 Y0.094
X-1195.76 Y-0.055
X-1195.761 Y-0.205
X-1195.749 Y-0.355
X-1195.724 Y-0.503
X-1195.687 Y-0.648
X-1195.638 Y-0.79
X-1195.578 Y-0.927
X-1195.506 Y-1.059
X-1195.424 Y-1.184
X-1195.332 Y-1.303
X-1195.23 Y-1.413
X-1195.12 Y-1.515
X-1195.002 Y-1.608
X-1194.877 Y-1.691
X-1194.746 Y-1.764
X-1194.61 Y-1.826
X-1194.469 Y-1.877
X-1194.324 Y-1.917
X-1194.177 Y-1.946
X-1194.028 Y-1.963
X-1193.878 Y-1.969
X-1193.728 Y-1.963
X-1193.579 Y-1.946
X-1193.432 Y-1.917
X-1193.287 Y-1.877
X-1193.146 Y-1.827
X-1193.009 Y-1.766
X-1192.877 Y-1.695
X-1192.751 Y-1.614
X-1192.631 Y-1.524
X-1192.518 Y-1.425
X-1192.412 Y-1.319
X-1192.315 Y-1.205
X-1192.226 Y-1.084
X-1192.146 Y-0.957
X-1192.076 Y-0.824
X-1192.015 Y-0.687
X-1191.964 Y-0.546
X-1191.924 Y-0.402
X-1191.893 Y-0.255
X-1191.874 Y-0.106
X-1191.865 Y0.044
X-1191.866 Y0.194
X-1191.878 Y0.343
X-1191.901 Y0.492
X-1191.933 Y0.638
X-1191.976 Y0.782
X-1192.029 Y0.922
X-1192.091 Y1.059
X-1192.162 Y1.191
X-1192.242 Y1.318
X-1192.331 Y1.439
X-1192.427 Y1.554
X-1192.531 Y1.662
X-1192.642 Y1.763
X-1192.76 Y1.856
X-1192.883 Y1.941
X-1193.012 Y2.018
X-1193.146 Y2.086
X-1193.283 Y2.145
X-1193.425 Y2.195
X-1193.569 Y2.236
X-1193.716 Y2.267
X-1193.864 Y2.289
X-1194.014 Y2.301
X-1194.164 Y2.303
X-1194.313 Y2.296
X-1194.463 Y2.279
X-1194.61 Y2.253
X-1194.756 Y2.217
X-1194.899 Y2.172
X-1195.039 Y2.119
X-1195.176 Y2.056
X-1195.308 Y1.985
X-1195.435 Y1.906
X-1195.557 Y1.82
X-1195.674 Y1.725
X-1195.785 Y1.624
X-1195.889 Y1.516
X-1195.987 Y1.402
X-1196.077 Y1.282
X-1196.159 Y1.157
X-1196.234 Y1.027
X-1196.301 Y0.893
X-1196.36 Y0.755
X-1196.41 Y0.614
X-1196.452 Y0.47
X-1196.485 Y0.323
X-1196.509 Y0.175
X-1196.524 Y0.026
X-1196.531 Y-0.124
X-1196.528 Y-0.274
X-1196.517 Y-0.423
X-1196.497 Y-0.572
X-1196.468 Y-0.719
X-1196.431 Y-0.865
X-1196.385 Y-1.007
X-1196.331 Y-1.147
X-1196.269 Y-1.284
X-1196.199 Y-1.417
X-1196.122 Y-1.545
X-1196.038 Y-1.669
X-1195.946 Y-1.788
X-1195.848 Y-1.902
X-1195.744 Y-2.009
X-1195.632 Y-2.112
X-1195.516 Y-2.207
X-1195.395 Y-2.296
X-1195.268 Y-2.378
X-1195.135 Y-2.453
X-1195.001 Y-2.52
X-1194.863 Y-2.579
X-1194.718 Y-2.632
X-1194.571 Y-2.676
X-1194.423 Y-2.711
X-1194.273 Y-2.739
X-1194.118 Y-2.758
X-1193.964 Y-2.768
X-1193.811 Y-2.77
X-1193.656 Y-2.763
X-1193.499 Y-2.747
X-1193.345 Y-2.722
X-1193.194 Y-2.689
X-1193.043 Y-2.647
X-1192.892 Y-2.596
X-1192.745 Y-2.536
X-1192.603 Y-2.469
X-1192.465 Y-2.394
X-1192.328 Y-2.31
X-1192.196 Y-2.218
X-1192.071 Y-2.12
X-1191.952 Y-2.015
X-1191.837 Y-1.901
X-1191.727 Y-1.781
X-1191.625 Y-1.655
X-1191.532 Y-1.524
X-1191.445 Y-1.388
X-1191.364 Y-1.244
X-1191.292 Y-1.096
X-1191.228 Y-0.946
X-1191.174 Y-0.792
X-1191.127 Y-0.634
X-1191.09 Y-0.472
X-1191.061 Y-0.308
X-1191.042 Y-0.143
X-1191.04 Y-0.112
X-1191.036 Y0.004
X-1191.039 Y0.12
X-1191.049 Y0.235
X-1191.074 Y0.447
X-1191.098 Y0.648
X-1191.121 Y0.749
X-1191.159 Y0.849
X-1191.313 Y1.252
X-1191.355 Y1.353
X-1191.413 Y1.453
X-1191.691 Y1.856
X-1191.764 Y1.957
X-1191.865 Y2.057
X-1192.091 Y2.259
X-1192.275 Y2.421
X-1192.329 Y2.46
X-1192.477 Y2.54
X-1192.88 Y2.752
X-1192.98 Y2.793
X-1193.081 Y2.818
X-1193.584 Y2.942
X-1193.685 Y2.955
X-1193.886 Y2.956
X-1194.289
X-1194.39 Y2.947
X-1194.491 Y2.923
X-1194.994 Y2.8
X-1195.095 Y2.764
X-1195.296 Y2.66
X-1195.497 Y2.554
X-1195.67 Y2.46
X-1195.699 Y2.44
X-1195.909 Y2.259
X-1196.135 Y2.057
X-1196.233 Y1.961
X-1196.309 Y1.856
X-1196.587 Y1.453
X-1196.646 Y1.353
X-1196.687 Y1.252
X-1196.841 Y0.849
X-1196.879 Y0.749
X-1196.902 Y0.648
X-1196.95 Y0.245
X-1196.973 Y0.044
X-1196.972 Y-0.057
X-1196.907 Y-0.608
X-1196.896 Y-0.685
X-1196.874 Y-0.762
X-1196.72 Y-1.164
X-1196.706 Y-1.202
X-1196.64 Y-1.366
X-1196.504 Y-1.573
X-1196.303 Y-1.865
X-1196.226 Y-1.97
X-1196.102 Y-2.088
X-1195.781 Y-2.372
X-1195.699 Y-2.441
X-1195.497 Y-2.554
X-1195.296 Y-2.66
X-1195.095 Y-2.764
X-1195.069 Y-2.775
X-1194.893 Y-2.825
X-1194.491 Y-2.923
X-1194.39 Y-2.947
X-1194.289 Y-2.956
X-1193.886
X-1193.685 Y-2.955
X-1193.584 Y-2.942
X-1193.081 Y-2.818
X-1192.931 Y-2.775
X-1192.88 Y-2.752
X-1192.376 Y-2.487
X-1192.326 Y-2.457
X-1192.275 Y-2.421
X-1192.219 Y-2.372
X-1191.873 Y-2.065
X-1191.774 Y-1.97
X-1191.671 Y-1.828
X-1191.47 Y-1.536
X-1191.361 Y-1.366
X-1191.269 Y-1.135
X-1191.125 Y-0.762
X-1191.1 Y-0.661
X-1191.087 Y-0.56
X-1191.028 Y-0.057
X-1191.027 Y0.044
X-1191.049 Y0.235
X-1191.07 Y0.326
X-1191.104 Y0.412
X-1191.148 Y0.471 Z10.005
X-1191.191 Y0.529 Z10.018
X-1191.233 Y0.586 Z10.041
X-1191.3 Y0.629 Z10.079
X-1191.362 Y0.668 Z10.129
X-1191.416 Y0.703 Z10.188
X-1191.471 Y0.717 Z10.259
X-1191.516 Y0.728 Z10.337
X-1191.548 Y0.736 Z10.421
X-1191.568 Y0.741 Z10.509
X-1191.574 Y0.743 Z10.6
G0 Z36
X0 Y-576
Z18.6
G1 Z18 F850
Z10 F283.3
Y-575.962 F850
X-0.035 Y-575.948
X-0.065 Y-575.97
X-0.077 Y-576.006
X-0.07 Y-576.042
X-0.045 Y-576.071
X-0.011 Y-576.085
X0.027 Y-576.083
X0.06 Y-576.065
X0.082 Y-576.035
X0.09 Y-575.999
X0.084 Y-575.961
X0.068 Y-575.927
X0.043 Y-575.9
X0.01 Y-575.883
X-0.027 Y-575.876
X-0.064 Y-575.882
X-0.098 Y-575.898
X-0.126 Y-575.923
X-0.167 Y-575.986
X-0.172 Y-576.06
X-0.143 Y-576.13
X-0.088 Y-576.181
X-0.018 Y-576.207
X0.057 Y-576.204
X0.126 Y-576.175
X0.181 Y-576.124
X0.216 Y-576.057
X0.229 Y-575.984
X0.219 Y-575.909
X0.188 Y-575.841
X0.138 Y-575.785
X0.075 Y-575.745
X0.003 Y-575.724
X-0.147 Y-575.722
X-0.279 Y-575.793
X-0.366 Y-575.915
X-0.395 Y-576.062
X-0.363 Y-576.209
X-0.28 Y-576.334
X-0.158 Y-576.421
X-0.014 Y-576.461
X0.136 Y-576.451
X0.275 Y-576.394
X0.389 Y-576.298
X0.469 Y-576.171
X0.509 Y-576.026
X0.506 Y-575.876
X0.461 Y-575.733
X0.379 Y-575.608
X0.269 Y-575.506
X0.136 Y-575.435
X-0.009 Y-575.399
X-0.159
X-0.305 Y-575.434
X-0.438 Y-575.503
X-0.553 Y-575.599
X-0.643 Y-575.72
X-0.706 Y-575.856
X-0.738 Y-576.002
X-0.739 Y-576.152
X-0.71 Y-576.299
X-0.651 Y-576.437
X-0.567 Y-576.562
X-0.46 Y-576.667
X-0.336 Y-576.751
X-0.198 Y-576.809
X-0.051 Y-576.842
X0.098 Y-576.848
X0.247 Y-576.827
X0.39 Y-576.781
X0.522 Y-576.71
X0.641 Y-576.618
X0.742 Y-576.508
X0.824 Y-576.382
X0.884 Y-576.245
X0.921 Y-576.099
X0.934 Y-575.95
X0.924 Y-575.8
X0.891 Y-575.654
X0.836 Y-575.514
X0.761 Y-575.385
X0.667 Y-575.267
X0.558 Y-575.165
X0.434 Y-575.08
X0.3 Y-575.013
X0.157 Y-574.966
X0.01 Y-574.939
X-0.14 Y-574.934
X-0.289 Y-574.948
X-0.435 Y-574.983
X-0.575 Y-575.038
X-0.706 Y-575.111
X-0.827 Y-575.2
X-0.934 Y-575.304
X-1.028 Y-575.421
X-1.106 Y-575.55
X-1.167 Y-575.687
X-1.21 Y-575.83
X-1.235 Y-575.978
X-1.242 Y-576.128
X-1.23 Y-576.278
X-1.2 Y-576.425
X-1.153 Y-576.567
X-1.089 Y-576.703
X-1.01 Y-576.83
X-0.917 Y-576.948
X-0.81 Y-577.053
X-0.693 Y-577.146
X-0.565 Y-577.225
X-0.429 Y-577.289
X-0.288 Y-577.338
X-0.141 Y-577.37
X0.008 Y-577.386
X0.158
X0.307 Y-577.369
X0.454 Y-577.337
X0.596 Y-577.289
X0.732 Y-577.226
X0.861 Y-577.149
X0.981 Y-577.059
X1.091 Y-576.957
X1.19 Y-576.845
X1.277 Y-576.722
X1.351 Y-576.592
X1.412 Y-576.455
X1.458 Y-576.312
X1.49 Y-576.166
X1.508 Y-576.017
X1.51 Y-575.867
X1.498 Y-575.717
X1.472 Y-575.569
X1.431 Y-575.425
X1.378 Y-575.285
X1.311 Y-575.151
X1.231 Y-575.023
X1.14 Y-574.904
X1.039 Y-574.794
X0.927 Y-574.693
X0.807 Y-574.604
X0.679 Y-574.525
X0.545 Y-574.459
X0.405 Y-574.405
X0.261 Y-574.364
X0.113 Y-574.336
X-0.036 Y-574.321
X-0.186 Y-574.319
X-0.336 Y-574.331
X-0.484 Y-574.355
X-0.629 Y-574.393
X-0.77 Y-574.442
X-0.907 Y-574.504
X-1.038 Y-574.577
X-1.162 Y-574.661
X-1.279 Y-574.756
X-1.387 Y-574.859
X-1.486 Y-574.972
X-1.576 Y-575.092
X-1.655 Y-575.22
X-1.724 Y-575.353
X-1.781 Y-575.492
X-1.827 Y-575.635
X-1.861 Y-575.781
X-1.883 Y-575.929
X-1.893 Y-576.079
X-1.891 Y-576.229
X-1.878 Y-576.378
X-1.852 Y-576.526
X-1.815 Y-576.671
X-1.767 Y-576.813
X-1.707 Y-576.951
X-1.637 Y-577.084
X-1.558 Y-577.211
X-1.468 Y-577.331
X-1.37 Y-577.444
X-1.263 Y-577.55
X-1.149 Y-577.647
X-1.027 Y-577.735
X-0.9 Y-577.814
X-0.766 Y-577.883
X-0.628 Y-577.941
X-0.486 Y-577.99
X-0.341 Y-578.028
X-0.194 Y-578.055
X-0.045 Y-578.071
X0.105 Y-578.076
X0.255 Y-578.071
X0.404 Y-578.054
X0.552 Y-578.027
X0.697 Y-577.989
X0.839 Y-577.941
X0.977 Y-577.883
X1.111 Y-577.816
X1.24 Y-577.739
X1.363 Y-577.653
X1.48 Y-577.559
X1.59 Y-577.457
X1.692 Y-577.347
X1.787 Y-577.231
X1.873 Y-577.108
X1.951 Y-576.98
X2.02 Y-576.847
X2.079 Y-576.709
X2.13 Y-576.568
X2.17 Y-576.423
X2.201 Y-576.276
X2.221 Y-576.128
X2.232 Y-575.978
X2.233 Y-575.828
X2.224 Y-575.678
X2.205 Y-575.53
X2.176 Y-575.382
X2.138 Y-575.237
X2.09 Y-575.095
X2.033 Y-574.956
X1.967 Y-574.822
X1.893 Y-574.691
X1.81 Y-574.566
X1.72 Y-574.446
X1.622 Y-574.333
X1.517 Y-574.226
X1.405 Y-574.126
X1.287 Y-574.033
X1.164 Y-573.947
X1.036 Y-573.87
X0.903 Y-573.801
X0.765 Y-573.74
X0.625 Y-573.688
X0.481 Y-573.644
X0.335 Y-573.61
X0.187 Y-573.585
X0.038 Y-573.569
X-0.112 Y-573.562
X-0.262 Y-573.564
X-0.411 Y-573.575
X-0.56 Y-573.596
X-0.707 Y-573.625
X-0.852 Y-573.663
X-0.995 Y-573.71
X-1.134 Y-573.766
X-1.27 Y-573.829
X-1.402 Y-573.9
X-1.529 Y-573.98
X-1.652 Y-574.066
X-1.769 Y-574.16
X-1.88 Y-574.26
X-1.986 Y-574.367
X-2.085 Y-574.48
X-2.177 Y-574.598
X-2.262 Y-574.722
X-2.34 Y-574.85
X-2.41 Y-574.982
X-2.473 Y-575.119
X-2.528 Y-575.258
X-2.574 Y-575.401
X-2.613 Y-575.546
X-2.643 Y-575.693
X-2.664 Y-575.843
X-2.678 Y-575.992
X-2.682 Y-576.142
X-2.679 Y-576.293
X-2.666 Y-576.446
X-2.645 Y-576.594
X-2.616 Y-576.742
X-2.578 Y-576.891
X-2.532 Y-577.037
X-2.478 Y-577.179
X-2.416 Y-577.318
X-2.344 Y-577.457
X-2.266 Y-577.591
X-2.181 Y-577.718
X-2.088 Y-577.841
X-1.986 Y-577.962
X-1.879 Y-578.076
X-1.766 Y-578.182
X-1.647 Y-578.283
X-1.519 Y-578.378
X-1.387 Y-578.466
X-1.252 Y-578.546
X-1.112 Y-578.618
X-0.965 Y-578.683
X-0.815 Y-578.74
X-0.663 Y-578.788
X-0.509 Y-578.828
X-0.351 Y-578.859
X-0.189 Y-578.881
X-0.028 Y-578.894
X0.133 Y-578.898
X0.295 Y-578.893
X0.458 Y-578.878
X0.621 Y-578.855
X0.782 Y-578.822
X0.939 Y-578.781
X1.096 Y-578.73
X1.251 Y-578.67
X1.403 Y-578.601
X1.55 Y-578.524
X1.664 Y-578.452
X1.756 Y-578.386
X1.845 Y-578.314
X1.909 Y-578.259
X2.136 Y-578.057
X2.233 Y-577.963
X2.311 Y-577.856
X2.589 Y-577.453
X2.621 Y-577.403
X2.647 Y-577.353
X2.706 Y-577.202
X2.84 Y-576.849
X2.876 Y-576.749
X2.899 Y-576.648
X2.948 Y-576.245
X2.972 Y-576.044
X2.971 Y-575.943
X2.907 Y-575.417
X2.895 Y-575.327
X2.872 Y-575.238
X2.706 Y-574.798
X2.641 Y-574.634
X2.504 Y-574.424
X2.303 Y-574.132
X2.227 Y-574.03
X2.102 Y-573.912
X1.78 Y-573.628
X1.699 Y-573.56
X1.497 Y-573.447
X1.095 Y-573.237
X1.067 Y-573.225
X0.893 Y-573.176
X0.491 Y-573.076
X0.39 Y-573.053
X0.289 Y-573.044
X-0.114
X-0.315 Y-573.045
X-0.416 Y-573.058
X-0.919 Y-573.182
X-1.066 Y-573.225
X-1.12 Y-573.249
X-1.624 Y-573.514
X-1.674 Y-573.543
X-1.725 Y-573.579
X-1.78 Y-573.628
X-2.127 Y-573.935
X-2.226 Y-574.03
X-2.329 Y-574.17
X-2.53 Y-574.461
X-2.641 Y-574.634
X-2.731 Y-574.866
X-2.872 Y-575.238
X-2.897 Y-575.339
X-2.971 Y-575.943
X-2.972 Y-576.044
X-2.924 Y-576.447
X-2.899 Y-576.648
X-2.876 Y-576.749
X-2.84 Y-576.849
X-2.687 Y-577.252
X-2.647 Y-577.353
X-2.621 Y-577.403
X-2.589 Y-577.453
X-2.311 Y-577.856
X-2.237 Y-577.957
X-2.136 Y-578.057
X-1.909 Y-578.259
X-1.725 Y-578.42
X-1.669 Y-578.46
X-1.523 Y-578.539
X-1.12 Y-578.75
X-1.02 Y-578.792
X-0.919 Y-578.818
X-0.416 Y-578.942
X-0.315 Y-578.955
X-0.114 Y-578.956
X0.289
X0.39 Y-578.947
X0.491 Y-578.924
X0.994 Y-578.799
X1.095 Y-578.763
X1.497 Y-578.553
X1.668 Y-578.46
X1.699 Y-578.439
X1.845 Y-578.314
X1.908 Y-578.246
X1.96 Y-578.169
X1.984 Y-578.1 Z10.005
X2.008 Y-578.031 Z10.018
X2.031 Y-577.965 Z10.041
X2.035 Y-577.918 Z10.062
X2.038 Y-577.873 Z10.087
X2.026 Y-577.808 Z10.133
X2.016 Y-577.751 Z10.187
X2.007 Y-577.701 Z10.248
X1.999 Y-577.659 Z10.316
X1.986 Y-577.631 Z10.383
X1.977 Y-577.611 Z10.454
X1.972 Y-577.598 Z10.526
X1.97 Y-577.594 Z10.6
G0 Z36
X0 Y0
Z18.6
G1 Z18 F850
Z10 F283.3
Y-0.038 F850
X0.035 Y-0.052
X0.065 Y-0.03
X0.077 Y0.005
X0.07 Y0.042
X0.046 Y0.071
X0.011 Y0.085
X-0.026 Y0.083
X-0.059 Y0.066
X-0.082 Y0.036
X-0.09 Y-0.001
X-0.084 Y-0.038
X-0.069 Y-0.072
X-0.044 Y-0.1
X-0.01 Y-0.117
X0.027 Y-0.124
X0.064 Y-0.118
X0.098 Y-0.102
X0.126 Y-0.077
X0.167 Y-0.015
X0.172 Y0.06
X0.143 Y0.129
X0.089 Y0.18
X0.018 Y0.207
X-0.057 Y0.205
X-0.126 Y0.176
X-0.181 Y0.124
X-0.216 Y0.058
X-0.229 Y-0.016
X-0.22 Y-0.09
X-0.189 Y-0.158
X-0.139 Y-0.215
X-0.076 Y-0.255
X-0.004 Y-0.276
X0.146 Y-0.278
X0.278 Y-0.208
X0.366 Y-0.086
X0.395 Y0.061
X0.364 Y0.208
X0.281 Y0.333
X0.16 Y0.42
X0.015 Y0.461
X-0.134 Y0.452
X-0.273 Y0.395
X-0.388 Y0.299
X-0.469 Y0.172
X-0.509 Y0.028
X-0.507 Y-0.122
X-0.462 Y-0.265
X-0.38 Y-0.391
X-0.27 Y-0.493
X-0.138 Y-0.564
X0.007 Y-0.601
X0.157
X0.303 Y-0.567
X0.437 Y-0.498
X0.552 Y-0.403
X0.642 Y-0.283
X0.705 Y-0.147
X0.738 Y0
X0.739 Y0.15
X0.711 Y0.297
X0.653 Y0.435
X0.569 Y0.56
X0.462 Y0.665
X0.338 Y0.75
X0.2 Y0.809
X0.054 Y0.842
X-0.096 Y0.849
X-0.244 Y0.828
X-0.387 Y0.782
X-0.52 Y0.711
X-0.639 Y0.62
X-0.74 Y0.51
X-0.823 Y0.385
X-0.883 Y0.248
X-0.92 Y0.102
X-0.934 Y-0.047
X-0.925 Y-0.197
X-0.892 Y-0.343
X-0.838 Y-0.483
X-0.763 Y-0.613
X-0.67 Y-0.731
X-0.56 Y-0.833
X-0.437 Y-0.919
X-0.303 Y-0.986
X-0.161 Y-1.033
X-0.013 Y-1.061
X0.137 Y-1.067
X0.286 Y-1.052
X0.432 Y-1.018
X0.572 Y-0.963
X0.703 Y-0.892
X0.824 Y-0.803
X0.932 Y-0.699
X1.026 Y-0.582
X1.104 Y-0.454
X1.166 Y-0.317
X1.21 Y-0.173
X1.235 Y-0.025
X1.242 Y0.124
X1.231 Y0.274
X1.201 Y0.421
X1.155 Y0.564
X1.092 Y0.7
X1.013 Y0.827
X0.92 Y0.945
X0.814 Y1.051
X0.696 Y1.144
X0.569 Y1.224
X0.433 Y1.288
X0.292 Y1.337
X0.145 Y1.37
X-0.004 Y1.386
X-0.154
X-0.303 Y1.37
X-0.45 Y1.338
X-0.592 Y1.29
X-0.728 Y1.228
X-0.857 Y1.152
X-0.978 Y1.062
X-1.088 Y0.961
X-1.188 Y0.848
X-1.275 Y0.726
X-1.349 Y0.596
X-1.41 Y0.459
X-1.457 Y0.316
X-1.49 Y0.17
X-1.507 Y0.021
X-1.51 Y-0.129
X-1.499 Y-0.278
X-1.473 Y-0.426
X-1.433 Y-0.571
X-1.38 Y-0.711
X-1.313 Y-0.845
X-1.234 Y-0.973
X-1.144 Y-1.092
X-1.042 Y-1.203
X-0.931 Y-1.304
X-0.811 Y-1.394
X-0.684 Y-1.473
X-0.549 Y-1.539
X-0.41 Y-1.594
X-0.265 Y-1.636
X-0.118 Y-1.664
X0.031 Y-1.679
X0.181 Y-1.681
X0.331 Y-1.67
X0.479 Y-1.646
X0.624 Y-1.609
X0.766 Y-1.56
X0.903 Y-1.499
X1.034 Y-1.426
X1.158 Y-1.342
X1.275 Y-1.248
X1.384 Y-1.145
X1.483 Y-1.032
X1.573 Y-0.912
X1.653 Y-0.785
X1.722 Y-0.652
X1.779 Y-0.514
X1.826 Y-0.371
X1.86 Y-0.225
X1.883 Y-0.077
X1.893 Y0.073
X1.892 Y0.223
X1.879 Y0.372
X1.854 Y0.52
X1.817 Y0.666
X1.769 Y0.808
X1.71 Y0.946
X1.641 Y1.079
X1.561 Y1.206
X1.472 Y1.327
X1.374 Y1.44
X1.268 Y1.546
X1.154 Y1.643
X1.032 Y1.732
X0.905 Y1.811
X0.772 Y1.88
X0.634 Y1.94
X0.492 Y1.989
X0.347 Y2.027
X0.2 Y2.054
X0.051 Y2.071
X-0.099 Y2.077
X-0.249 Y2.071
X-0.398 Y2.055
X-0.546 Y2.029
X-0.691 Y1.991
X-0.833 Y1.944
X-0.972 Y1.886
X-1.106 Y1.819
X-1.235 Y1.742
X-1.358 Y1.657
X-1.475 Y1.563
X-1.585 Y1.461
X-1.688 Y1.352
X-1.783 Y1.236
X-1.87 Y1.114
X-1.948 Y0.986
X-2.017 Y0.853
X-2.077 Y0.715
X-2.128 Y0.574
X-2.169 Y0.43
X-2.2 Y0.283
X-2.221 Y0.134
X-2.232 Y-0.015
X-2.234 Y-0.165
X-2.225 Y-0.315
X-2.206 Y-0.464
X-2.178 Y-0.611
X-2.14 Y-0.756
X-2.092 Y-0.899
X-2.036 Y-1.038
X-1.971 Y-1.173
X-1.897 Y-1.303
X-1.814 Y-1.428
X-1.724 Y-1.548
X-1.627 Y-1.662
X-1.522 Y-1.77
X-1.411 Y-1.87
X-1.293 Y-1.964
X-1.17 Y-2.049
X-1.042 Y-2.127
X-0.909 Y-2.197
X-0.772 Y-2.258
X-0.632 Y-2.31
X-0.488 Y-2.354
X-0.342 Y-2.389
X-0.194 Y-2.414
X-0.045 Y-2.431
X0.105 Y-2.438
X0.255 Y-2.437
X0.404 Y-2.426
X0.553 Y-2.406
X0.7 Y-2.377
X0.845 Y-2.339
X0.988 Y-2.293
X1.127 Y-2.238
X1.263 Y-2.175
X1.396 Y-2.104
X1.523 Y-2.025
X1.646 Y-1.939
X1.763 Y-1.845
X1.875 Y-1.745
X1.981 Y-1.639
X2.08 Y-1.526
X2.173 Y-1.408
X2.258 Y-1.285
X2.336 Y-1.157
X2.407 Y-1.025
X2.47 Y-0.889
X2.525 Y-0.749
X2.572 Y-0.607
X2.611 Y-0.462
X2.642 Y-0.315
X2.664 Y-0.165
X2.678 Y-0.016
X2.683 Y0.134
X2.679 Y0.285
X2.667 Y0.438
X2.647 Y0.587
X2.619 Y0.734
X2.581 Y0.883
X2.535 Y1.03
X2.482 Y1.172
X2.42 Y1.311
X2.349 Y1.45
X2.271 Y1.584
X2.186 Y1.711
X2.093 Y1.835
X1.992 Y1.956
X1.885 Y2.07
X1.773 Y2.177
X1.653 Y2.278
X1.526 Y2.374
X1.395 Y2.462
X1.26 Y2.542
X1.12 Y2.615
X0.973 Y2.68
X0.823 Y2.738
X0.671 Y2.786
X0.518 Y2.826
X0.359 Y2.858
X0.198 Y2.88
X0.036 Y2.894
X-0.124 Y2.898
X-0.286 Y2.894
X-0.45 Y2.88
X-0.613 Y2.857
X-0.773 Y2.825
X-0.931 Y2.784
X-1.088 Y2.733
X-1.243 Y2.674
X-1.395 Y2.605
X-1.542 Y2.529
X-1.564 Y2.516
X-1.668 Y2.45
X-1.767 Y2.378
X-1.862 Y2.3
X-2.136 Y2.057
X-2.237 Y1.957
X-2.311 Y1.856
X-2.589 Y1.453
X-2.621 Y1.403
X-2.647 Y1.353
X-2.687 Y1.252
X-2.84 Y0.849
X-2.876 Y0.749
X-2.899 Y0.648
X-2.948 Y0.245
X-2.972 Y0.044
X-2.971 Y-0.057
X-2.897 Y-0.661
X-2.872 Y-0.762
X-2.72 Y-1.164
X-2.641 Y-1.366
X-2.53 Y-1.539
X-2.329 Y-1.83
X-2.226 Y-1.97
X-2.127 Y-2.065
X-1.78 Y-2.372
X-1.725 Y-2.421
X-1.674 Y-2.457
X-1.624 Y-2.486
X-1.12 Y-2.751
X-1.066 Y-2.775
X-0.919 Y-2.818
X-0.416 Y-2.942
X-0.315 Y-2.955
X-0.114 Y-2.956
X0.289
X0.39 Y-2.947
X0.491 Y-2.924
X0.893 Y-2.825
X1.067 Y-2.775
X1.095 Y-2.763
X1.497 Y-2.553
X1.699 Y-2.44
X1.78 Y-2.372
X2.102 Y-2.088
X2.226 Y-1.97
X2.303 Y-1.868
X2.511 Y-1.567
X2.641 Y-1.366
X2.72 Y-1.164
X2.872 Y-0.762
X2.895 Y-0.672
X2.91 Y-0.56
X2.971 Y-0.057
X2.972 Y0.044
X2.924 Y0.447
X2.899 Y0.648
X2.876 Y0.749
X2.84 Y0.849
X2.687 Y1.252
X2.647 Y1.353
X2.621 Y1.403
X2.589 Y1.453
X2.303 Y1.868
X2.233 Y1.963
X2.136 Y2.057
X1.9 Y2.266
X1.699 Y2.439
X1.668 Y2.46
X1.497 Y2.553
X1.095 Y2.763
X0.994 Y2.799
X0.491 Y2.924
X0.39 Y2.947
X0.289 Y2.956
X-0.114
X-0.315 Y2.955
X-0.416 Y2.942
X-0.919 Y2.818
X-1.02 Y2.792
X-1.07 Y2.774
X-1.12 Y2.751
X-1.523 Y2.539
X-1.669 Y2.46
X-1.725 Y2.42
X-1.862 Y2.3
G3 X-1.979 Y1.579 I0.411 J-0.437
G1 X-1.935 Y1.496 Z10.007
X-1.892 Y1.415 Z10.029
X-1.85 Y1.339 Z10.065
X-1.812 Y1.268 Z10.115
X-1.779 Y1.205 Z10.176
X-1.75 Y1.151 Z10.247
X-1.726 Y1.108 Z10.328
X-1.709 Y1.076 Z10.415
X-1.699 Y1.057 Z10.506
X-1.695 Y1.05 Z10.6
G0 Z47
M30
%
