%
(1001)
(origin stock top outer edge centre)
(T1  D=3.18 CR=0 - ZMIN=-12 - flat end mill)
G90 G94
G17
G21

(adaptive_roughing 2)
M9
T1 M6
S6000 M3
G54
M8
G0 X-23.57 Y0.255
Z15
Z5
Z2.5
G3 X-21.43 Y-0.255 Z2.379 I1.07 J-0.255 F283.3
X-23.57 Y0.255 Z2.259 I-1.07 J0.255
X-21.43 Y-0.255 Z2.138 I1.07 J-0.255
X-23.57 Y0.255 Z2.017 I-1.07 J0.255
X-21.43 Y-0.255 Z1.897 I1.07 J-0.255
X-23.57 Y0.255 Z1.776 I-1.07 J0.255
X-21.43 Y-0.255 Z1.655 I1.07 J-0.255
X-23.57 Y0.255 Z1.535 I-1.07 J0.255
X-21.43 Y-0.255 Z1.414 I1.07 J-0.255
X-23.57 Y0.255 Z1.293 I-1.07 J0.255
X-21.43 Y-0.255 Z1.173 I1.07 J-0.255
X-23.57 Y0.255 Z1.052 I-1.07 J0.255
X-21.43 Y-0.255 Z0.931 I1.07 J-0.255
X-23.57 Y0.255 Z0.811 I-1.07 J0.255
X-21.43 Y-0.255 Z0.69 I1.07 J-0.255
X-23.57 Y0.255 Z0.569 I-1.07 J0.255
X-21.43 Y-0.255 Z0.448 I1.07 J-0.255
X-23.57 Y0.255 Z0.328 I-1.07 J0.255
X-21.43 Y-0.255 Z0.207 I1.07 J-0.255
X-23.57 Y0.255 Z0.086 I-1.07 J0.255
X-21.43 Y-0.255 Z-0.034 I1.07 J-0.255
X-23.57 Y0.255 Z-0.155 I-1.07 J0.255
X-21.43 Y-0.255 Z-0.276 I1.07 J-0.255
X-23.57 Y0.255 Z-0.396 I-1.07 J0.255
X-21.43 Y-0.255 Z-0.517 I1.07 J-0.255
X-23.57 Y0.255 Z-0.638 I-1.07 J0.255
X-21.43 Y-0.255 Z-0.758 I1.07 J-0.255
X-23.57 Y0.255 Z-0.879 I-1.07 J0.255
X-21.43 Y-0.255 Z-1 I1.07 J-0.255
X-23.57 Y0.255 Z-1.12 I-1.07 J0.255
X-22.629 Y-1.092 Z-1.185 I1.07 J-0.255
X-21.4 Y0 Z-1.25 I0.129 J1.092
X-23.6 I-1.1
X-21.4 I1.1
G1 X-21.384 Y0.257 F850
X-21.38 Y0.407
X-21.416 Y0.552
X-21.479 Y0.689
X-21.562 Y0.813
X-21.662 Y0.925
X-21.776 Y1.022
X-21.902 Y1.104
X-22.037 Y1.17
X-22.179 Y1.218
X-22.326 Y1.248
X-22.475 Y1.261
X-22.625 Y1.256
X-22.773 Y1.232
X-22.917 Y1.191
X-23.056 Y1.134
X-23.186 Y1.06
X-23.307 Y0.971
X-23.417 Y0.868
X-23.513 Y0.754
X-23.596 Y0.628
X-23.662 Y0.494
X-23.713 Y0.352
X-23.746 Y0.206
X-23.762 Y0.057
X-23.759 Y-0.093
X-23.74 Y-0.242
X-23.702 Y-0.387
X-23.648 Y-0.527
X-23.577 Y-0.659
X-23.492 Y-0.782
X-23.392 Y-0.894
X-23.279 Y-0.994
X-23.156 Y-1.079
X-23.024 Y-1.149
X-22.884 Y-1.203
X-22.738 Y-1.24
X-22.59 Y-1.26
X-22.44 Y-1.261
X-22.29 Y-1.245
X-22.144 Y-1.212
X-22.003 Y-1.161
X-21.869 Y-1.094
X-21.744 Y-1.011
X-21.629 Y-0.915
X-21.527 Y-0.805
X-21.438 Y-0.684
X-21.365 Y-0.553
X-21.307 Y-0.415
X-21.263 Y-0.271
X-21.227 Y-0.121
X-21.207 Y0.12
X-21.229 Y0.361
X-21.292 Y0.595
X-21.395 Y0.814
X-21.414 Y0.847
X-21.435 Y0.876
X-21.463 Y0.908
X-21.497 Y0.94
X-21.706 Y1.115
X-21.741 Y1.144
X-21.794 Y1.184
G3 X-22.283 Y1.091 I-0.193 J-0.316
X-21.692 Y0.646 I0.296 J-0.223
X-21.741 Y1.144 I-0.296 J0.223
G1 X-21.769 Y1.168
X-21.811 Y1.195
X-21.852 Y1.216
X-22.144 Y1.322
X-22.184 Y1.337
X-22.217 Y1.348
X-22.29 Y1.362
X-22.341 Y1.354
X-22.388 Y1.333
X-22.428 Y1.299
X-22.457 Y1.257
X-22.473 Y1.208
G3 X-22.101 Y1.137 I0.186 J-0.035
X-22.217 Y1.348 I-0.186 J0.035
G1 X-22.253 Y1.357
X-22.29 Y1.362
X-22.436 Y1.364
X-22.582
X-22.662 Y1.362
X-22.698 Y1.361
X-22.728 Y1.36
X-22.791 Y1.346
G3 X-22.646 Y0.926 I0.072 J-0.21
X-22.619 Y1.334 I-0.072 J0.21
G1 X-22.672 Y1.353
X-22.728 Y1.36
X-22.764 Y1.354
X-22.801 Y1.342
X-23.02 Y1.263
X-23.1 Y1.233
X-23.136 Y1.219
X-23.166 Y1.208
X-23.22 Y1.176
G3 X-22.952 Y0.822 I0.134 J-0.177
X-23.06 Y1.219 I-0.134 J0.177
G1 X-23.114
X-23.166 Y1.208
X-23.198 Y1.191
X-23.231 Y1.168
X-23.488 Y0.952
X-23.512 Y0.931
X-23.543 Y0.904
X-23.567 Y0.876
X-23.604 Y0.817
X-23.75 Y0.564
X-23.769 Y0.529
X-23.79 Y0.483
X-23.806 Y0.435
X-23.817 Y0.386
G3 X-23.19 Y0.278 I0.315 J-0.046
G1 X-23.185 Y0.303
G3 X-23.769 Y0.529 I-0.312 J0.062
G1 X-23.785 Y0.501
X-23.798 Y0.469
X-23.807 Y0.438
X-23.86 Y0.146
X-23.871 Y0.066
X-23.876 Y0.03
X-23.881 Y0
X-23.799 Y-0.42
X-23.781 Y-0.483
X-23.757 Y-0.545
X-23.727 Y-0.603
G3 X-23.152 Y-0.346 I0.27 J0.169
G1 X-23.262 Y0.033
G3 X-23.881 Y0 I-0.305 J-0.089
G1 X-23.86 Y-0.146
X-23.807 Y-0.438
X-23.798 Y-0.469
X-23.785 Y-0.501
X-23.738 Y-0.584
X-23.604 Y-0.817
X-23.583 Y-0.849
X-23.567 Y-0.876
X-23.522 Y-0.923
G3 X-23.23 Y-0.581 I0.146 J0.171
X-23.6 Y-0.768 I-0.146 J-0.171
G1 X-23.589 Y-0.824
X-23.567 Y-0.876
X-23.543 Y-0.904
X-23.512 Y-0.931
X-23.267 Y-1.137
X-23.231 Y-1.168
X-23.198 Y-1.191
X-23.166 Y-1.208
X-23.02 Y-1.263
X-22.801 Y-1.342
X-22.764 Y-1.354
X-22.728 Y-1.36
X-22.582 Y-1.364
X-22.436
X-22.356 Y-1.363
X-22.251 Y-1.357
G3 X-21.97 Y-0.961 I-0.104 J0.371
X-22.725 Y-1.009 I-0.378 J-0.024
X-22.356 Y-1.363 I0.378 J0.024
G1 X-22.29 Y-1.362
X-22.253 Y-1.357
X-22.217 Y-1.348
X-21.918 Y-1.24
X-21.881 Y-1.227
X-21.852 Y-1.216
X-21.781 Y-1.175
G3 X-22.138 Y-0.673 I-0.179 J0.251
X-21.985 Y-1.231 I0.179 J-0.251
G1 X-21.918 Y-1.23
X-21.852 Y-1.216
X-21.811 Y-1.195
X-21.769 Y-1.168
X-21.526 Y-0.963
X-21.497 Y-0.94
X-21.463 Y-0.908
X-21.435 Y-0.876
X-21.414 Y-0.847
X-21.22 Y-0.511
X-21.204 Y-0.474
X-21.193 Y-0.438
X-21.14 Y-0.146
X-21.122 Y-0.039
X-21.119 Y0
X-21.122 Y0.039
X-21.166 Y0.292
X-21.193 Y0.438
X-21.204 Y0.474
X-21.22 Y0.511
X-21.395 Y0.814
G3 X-21.663 Y0.963 I-0.269 J-0.169
G1 X-21.664
X-21.713 Y0.959
X-21.76 Y0.948
X-21.806 Y0.93
X-21.847 Y0.895 Z-1.245
X-21.887 Y0.86 Z-1.231
X-21.924 Y0.828 Z-1.208
X-21.942 Y0.782 Z-1.173
X-21.957 Y0.744 Z-1.129
X-21.968 Y0.713 Z-1.078
X-21.976 Y0.692 Z-1.022
X-21.98 Y0.682 Z-0.963
Y0.68 Z-0.932
G0 Z5
X-23.57 Y0.255
Z1.25
G3 X-21.43 Y-0.255 Z1.129 I1.07 J-0.255 F283.3
X-23.57 Y0.255 Z1.009 I-1.07 J0.255
X-21.43 Y-0.255 Z0.888 I1.07 J-0.255
X-23.57 Y0.255 Z0.767 I-1.07 J0.255
X-21.43 Y-0.255 Z0.647 I1.07 J-0.255
X-23.57 Y0.255 Z0.526 I-1.07 J0.255
X-21.43 Y-0.255 Z0.405 I1.07 J-0.255
X-23.57 Y0.255 Z0.285 I-1.07 J0.255
X-21.43 Y-0.255 Z0.164 I1.07 J-0.255
X-23.57 Y0.255 Z0.043 I-1.07 J0.255
X-21.43 Y-0.255 Z-0.077 I1.07 J-0.255
X-23.57 Y0.255 Z-0.198 I-1.07 J0.255
X-21.43 Y-0.255 Z-0.319 I1.07 J-0.255
X-23.57 Y0.255 Z-0.439 I-1.07 J0.255
X-21.43 Y-0.255 Z-0.56 I1.07 J-0.255
X-23.57 Y0.255 Z-0.681 I-1.07 J0.255
X-21.43 Y-0.255 Z-0.802 I1.07 J-0.255
X-23.57 Y0.255 Z-0.922 I-1.07 J0.255
X-21.43 Y-0.255 Z-1.043 I1.07 J-0.255
X-23.57 Y0.255 Z-1.164 I-1.07 J0.255
X-21.43 Y-0.255 Z-1.284 I1.07 J-0.255
X-23.57 Y0.255 Z-1.405 I-1.07 J0.255
X-21.43 Y-0.255 Z-1.526 I1.07 J-0.255
X-23.57 Y0.255 Z-1.646 I-1.07 J0.255
X-21.43 Y-0.255 Z-1.767 I1.07 J-0.255
X-23.57 Y0.255 Z-1.888 I-1.07 J0.255
X-21.43 Y-0.255 Z-2.008 I1.07 J-0.255
X-23.57 Y0.255 Z-2.129 I-1.07 J0.255
X-21.43 Y-0.255 Z-2.25 I1.07 J-0.255
X-23.57 Y0.255 Z-2.37 I-1.07 J0.255
X-22.629 Y-1.092 Z-2.435 I1.07 J-0.255
X-21.4 Y0 Z-2.5 I0.129 J1.092
X-23.6 I-1.1
X-21.4 I1.1
G1 X-21.384 Y0.257 F850
X-21.38 Y0.407
X-21.416 Y0.552
X-21.479 Y0.689
X-21.562 Y0.813
X-21.662 Y0.925
X-21.776 Y1.022
X-21.902 Y1.104
X-22.037 Y1.17
X-22.179 Y1.218
X-22.326 Y1.248
X-22.475 Y1.261
X-22.625 Y1.256
X-22.773 Y1.232
X-22.917 Y1.191
X-23.056 Y1.134
X-23.186 Y1.06
X-23.307 Y0.971
X-23.417 Y0.868
X-23.513 Y0.754
X-23.596 Y0.628
X-23.662 Y0.494
X-23.713 Y0.352
X-23.746 Y0.206
X-23.762 Y0.057
X-23.759 Y-0.093
X-23.74 Y-0.242
X-23.702 Y-0.387
X-23.648 Y-0.527
X-23.577 Y-0.659
X-23.492 Y-0.782
X-23.392 Y-0.894
X-23.279 Y-0.994
X-23.156 Y-1.079
X-23.024 Y-1.149
X-22.884 Y-1.203
X-22.738 Y-1.24
X-22.59 Y-1.26
X-22.44 Y-1.261
X-22.29 Y-1.245
X-22.144 Y-1.212
X-22.003 Y-1.161
X-21.869 Y-1.094
X-21.744 Y-1.011
X-21.629 Y-0.915
X-21.527 Y-0.805
X-21.438 Y-0.684
X-21.365 Y-0.553
X-21.307 Y-0.415
X-21.263 Y-0.271
X-21.227 Y-0.121
X-21.207 Y0.12
X-21.229 Y0.361
X-21.292 Y0.595
X-21.395 Y0.814
X-21.414 Y0.847
X-21.435 Y0.876
X-21.463 Y0.908
X-21.497 Y0.94
X-21.706 Y1.115
X-21.741 Y1.144
X-21.794 Y1.184
G3 X-22.283 Y1.091 I-0.193 J-0.316
X-21.692 Y0.646 I0.296 J-0.223
X-21.741 Y1.144 I-0.296 J0.223
G1 X-21.769 Y1.168
X-21.811 Y1.195
X-21.852 Y1.216
X-22.144 Y1.322
X-22.184 Y1.337
X-22.217 Y1.348
X-22.29 Y1.362
X-22.341 Y1.354
X-22.388 Y1.333
X-22.428 Y1.299
X-22.457 Y1.257
X-22.473 Y1.208
G3 X-22.101 Y1.137 I0.186 J-0.035
X-22.217 Y1.348 I-0.186 J0.035
G1 X-22.253 Y1.357
X-22.29 Y1.362
X-22.436 Y1.364
X-22.582
X-22.662 Y1.362
X-22.698 Y1.361
X-22.728 Y1.36
X-22.791 Y1.346
G3 X-22.646 Y0.926 I0.072 J-0.21
X-22.619 Y1.334 I-0.072 J0.21
G1 X-22.672 Y1.353
X-22.728 Y1.36
X-22.764 Y1.354
X-22.801 Y1.342
X-23.02 Y1.263
X-23.1 Y1.233
X-23.136 Y1.219
X-23.166 Y1.208
X-23.22 Y1.176
G3 X-22.952 Y0.822 I0.134 J-0.177
X-23.06 Y1.219 I-0.134 J0.177
G1 X-23.114
X-23.166 Y1.208
X-23.198 Y1.191
X-23.231 Y1.168
X-23.488 Y0.952
X-23.512 Y0.931
X-23.543 Y0.904
X-23.567 Y0.876
X-23.604 Y0.817
X-23.75 Y0.564
X-23.769 Y0.529
X-23.79 Y0.483
X-23.806 Y0.435
X-23.817 Y0.386
G3 X-23.19 Y0.278 I0.315 J-0.046
G1 X-23.185 Y0.303
G3 X-23.769 Y0.529 I-0.312 J0.062
G1 X-23.785 Y0.501
X-23.798 Y0.469
X-23.807 Y0.438
X-23.86 Y0.146
X-23.871 Y0.066
X-23.876 Y0.03
X-23.881 Y0
X-23.799 Y-0.42
X-23.781 Y-0.483
X-23.757 Y-0.545
X-23.727 Y-0.603
G3 X-23.152 Y-0.346 I0.27 J0.169
G1 X-23.262 Y0.033
G3 X-23.881 Y0 I-0.305 J-0.089
G1 X-23.86 Y-0.146
X-23.807 Y-0.438
X-23.798 Y-0.469
X-23.785 Y-0.501
X-23.738 Y-0.584
X-23.604 Y-0.817
X-23.583 Y-0.849
X-23.567 Y-0.876
X-23.522 Y-0.923
G3 X-23.23 Y-0.581 I0.146 J0.171
X-23.6 Y-0.768 I-0.146 J-0.171
G1 X-23.589 Y-0.824
X-23.567 Y-0.876
X-23.543 Y-0.904
X-23.512 Y-0.931
X-23.267 Y-1.137
X-23.231 Y-1.168
X-23.198 Y-1.191
X-23.166 Y-1.208
X-23.02 Y-1.263
X-22.801 Y-1.342
X-22.764 Y-1.354
X-22.728 Y-1.36
X-22.582 Y-1.364
X-22.436
X-22.356 Y-1.363
X-22.251 Y-1.357
G3 X-21.97 Y-0.961 I-0.104 J0.371
X-22.725 Y-1.009 I-0.378 J-0.024
X-22.356 Y-1.363 I0.378 J0.024
G1 X-22.29 Y-1.362
X-22.253 Y-1.357
X-22.217 Y-1.348
X-21.918 Y-1.24
X-21.881 Y-1.227
X-21.852 Y-1.216
X-21.781 Y-1.175
G3 X-22.138 Y-0.673 I-0.179 J0.251
X-21.985 Y-1.231 I0.179 J-0.251
G1 X-21.918 Y-1.23
X-21.852 Y-1.216
X-21.811 Y-1.195
X-21.769 Y-1.168
X-21.526 Y-0.963
X-21.497 Y-0.94
X-21.463 Y-0.908
X-21.435 Y-0.876
X-21.414 Y-0.847
X-21.22 Y-0.511
X-21.204 Y-0.474
X-21.193 Y-0.438
X-21.14 Y-0.146
X-21.122 Y-0.039
X-21.119 Y0
X-21.122 Y0.039
X-21.166 Y0.292
X-21.193 Y0.438
X-21.204 Y0.474
X-21.22 Y0.511
X-21.395 Y0.814
G3 X-21.663 Y0.963 I-0.269 J-0.169
G1 X-21.664
X-21.713 Y0.959
X-21.76 Y0.948
X-21.806 Y0.93
X-21.847 Y0.895 Z-2.495
X-21.887 Y0.86 Z-2.481
X-21.924 Y0.828 Z-2.458
X-21.942 Y0.782 Z-2.423
X-21.957 Y0.744 Z-2.379
X-21.968 Y0.713 Z-2.328
X-21.976 Y0.692 Z-2.272
X-21.98 Y0.682 Z-2.213
Y0.68 Z-2.182
G0 Z5
X-23.57 Y0.255
Z0
G3 X-21.43 Y-0.255 Z-0.121 I1.07 J-0.255 F283.3
X-23.57 Y0.255 Z-0.241 I-1.07 J0.255
X-21.43 Y-0.255 Z-0.362 I1.07 J-0.255
X-23.57 Y0.255 Z-0.483 I-1.07 J0.255
X-21.43 Y-0.255 Z-0.603 I1.07 J-0.255
X-23.57 Y0.255 Z-0.724 I-1.07 J0.255
X-21.43 Y-0.255 Z-0.845 I1.07 J-0.255
X-23.57 Y0.255 Z-0.965 I-1.07 J0.255
X-21.43 Y-0.255 Z-1.086 I1.07 J-0.255
X-23.57 Y0.255 Z-1.207 I-1.07 J0.255
X-21.43 Y-0.255 Z-1.327 I1.07 J-0.255
X-23.57 Y0.255 Z-1.448 I-1.07 J0.255
X-21.43 Y-0.255 Z-1.569 I1.07 J-0.255
X-23.57 Y0.255 Z-1.689 I-1.07 J0.255
X-21.43 Y-0.255 Z-1.81 I1.07 J-0.255
X-23.57 Y0.255 Z-1.931 I-1.07 J0.255
X-21.43 Y-0.255 Z-2.052 I1.07 J-0.255
X-23.57 Y0.255 Z-2.172 I-1.07 J0.255
X-21.43 Y-0.255 Z-2.293 I1.07 J-0.255
X-23.57 Y0.255 Z-2.414 I-1.07 J0.255
X-21.43 Y-0.255 Z-2.534 I1.07 J-0.255
X-23.57 Y0.255 Z-2.655 I-1.07 J0.255
X-21.43 Y-0.255 Z-2.776 I1.07 J-0.255
X-23.57 Y0.255 Z-2.896 I-1.07 J0.255
X-21.43 Y-0.255 Z-3.017 I1.07 J-0.255
X-23.57 Y0.255 Z-3.138 I-1.07 J0.255
X-21.43 Y-0.255 Z-3.258 I1.07 J-0.255
X-23.57 Y0.255 Z-3.379 I-1.07 J0.255
X-21.43 Y-0.255 Z-3.5 I1.07 J-0.255
X-23.57 Y0.255 Z-3.62 I-1.07 J0.255
X-22.629 Y-1.092 Z-3.685 I1.07 J-0.255
X-21.4 Y0 Z-3.75 I0.129 J1.092
X-23.6 I-1.1
X-21.4 I1.1
G1 X-21.384 Y0.257 F850
X-21.38 Y0.407
X-21.416 Y0.552
X-21.479 Y0.689
X-21.562 Y0.813
X-21.662 Y0.925
X-21.776 Y1.022
X-21.902 Y1.104
X-22.037 Y1.17
X-22.179 Y1.218
X-22.326 Y1.248
X-22.475 Y1.261
X-22.625 Y1.256
X-22.773 Y1.232
X-22.917 Y1.191
X-23.056 Y1.134
X-23.186 Y1.06
X-23.307 Y0.971
X-23.417 Y0.868
X-23.513 Y0.754
X-23.596 Y0.628
X-23.662 Y0.494
X-23.713 Y0.352
X-23.746 Y0.206
X-23.762 Y0.057
X-23.759 Y-0.093
X-23.74 Y-0.242
X-23.702 Y-0.387
X-23.648 Y-0.527
X-23.577 Y-0.659
X-23.492 Y-0.782
X-23.392 Y-0.894
X-23.279 Y-0.994
X-23.156 Y-1.079
X-23.024 Y-1.149
X-22.884 Y-1.203
X-22.738 Y-1.24
X-22.59 Y-1.26
X-22.44 Y-1.261
X-22.29 Y-1.245
X-22.144 Y-1.212
X-22.003 Y-1.161
X-21.869 Y-1.094
X-21.744 Y-1.011
X-21.629 Y-0.915
X-21.527 Y-0.805
X-21.438 Y-0.684
X-21.365 Y-0.553
X-21.307 Y-0.415
X-21.263 Y-0.271
X-21.227 Y-0.121
X-21.207 Y0.12
X-21.229 Y0.361
X-21.292 Y0.595
X-21.395 Y0.814
X-21.414 Y0.847
X-21.435 Y0.876
X-21.463 Y0.908
X-21.497 Y0.94
X-21.706 Y1.115
X-21.741 Y1.144
X-21.794 Y1.184
G3 X-22.283 Y1.091 I-0.193 J-0.316
X-21.692 Y0.646 I0.296 J-0.223
X-21.741 Y1.144 I-0.296 J0.223
G1 X-21.769 Y1.168
X-21.811 Y1.195
X-21.852 Y1.216
X-22.144 Y1.322
X-22.184 Y1.337
X-22.217 Y1.348
X-22.29 Y1.362
X-22.341 Y1.354
X-22.388 Y1.333
X-22.428 Y1.299
X-22.457 Y1.257
X-22.473 Y1.208
G3 X-22.101 Y1.137 I0.186 J-0.035
X-22.217 Y1.348 I-0.186 J0.035
G1 X-22.253 Y1.357
X-22.29 Y1.362
X-22.436 Y1.364
X-22.582
X-22.662 Y1.362
X-22.698 Y1.361
X-22.728 Y1.36
X-22.791 Y1.346
G3 X-22.646 Y0.926 I0.072 J-0.21
X-22.619 Y1.334 I-0.072 J0.21
G1 X-22.672 Y1.353
X-22.728 Y1.36
X-22.764 Y1.354
X-22.801 Y1.342
X-23.02 Y1.263
X-23.1 Y1.233
X-23.136 Y1.219
X-23.166 Y1.208
X-23.22 Y1.176
G3 X-22.952 Y0.822 I0.134 J-0.177
X-23.06 Y1.219 I-0.134 J0.177
G1 X-23.114
X-23.166 Y1.208
X-23.198 Y1.191
X-23.231 Y1.168
X-23.488 Y0.952
X-23.512 Y0.931
X-23.543 Y0.904
X-23.567 Y0.876
X-23.604 Y0.817
X-23.75 Y0.564
X-23.769 Y0.529
X-23.79 Y0.483
X-23.806 Y0.435
X-23.817 Y0.386
G3 X-23.19 Y0.278 I0.315 J-0.046
G1 X-23.185 Y0.303
G3 X-23.769 Y0.529 I-0.312 J0.062
G1 X-23.785 Y0.501
X-23.798 Y0.469
X-23.807 Y0.438
X-23.86 Y0.146
X-23.871 Y0.066
X-23.876 Y0.03
X-23.881 Y0
X-23.799 Y-0.42
X-23.781 Y-0.483
X-23.757 Y-0.545
X-23.727 Y-0.603
G3 X-23.152 Y-0.346 I0.27 J0.169
G1 X-23.262 Y0.033
G3 X-23.881 Y0 I-0.305 J-0.089
G1 X-23.86 Y-0.146
X-23.807 Y-0.438
X-23.798 Y-0.469
X-23.785 Y-0.501
X-23.738 Y-0.584
X-23.604 Y-0.817
X-23.583 Y-0.849
X-23.567 Y-0.876
X-23.522 Y-0.923
G3 X-23.23 Y-0.581 I0.146 J0.171
X-23.6 Y-0.768 I-0.146 J-0.171
G1 X-23.589 Y-0.824
X-23.567 Y-0.876
X-23.543 Y-0.904
X-23.512 Y-0.931
X-23.267 Y-1.137
X-23.231 Y-1.168
X-23.198 Y-1.191
X-23.166 Y-1.208
X-23.02 Y-1.263
X-22.801 Y-1.342
X-22.764 Y-1.354
X-22.728 Y-1.36
X-22.582 Y-1.364
X-22.436
X-22.356 Y-1.363
X-22.251 Y-1.357
G3 X-21.97 Y-0.961 I-0.104 J0.371
X-22.725 Y-1.009 I-0.378 J-0.024
X-22.356 Y-1.363 I0.378 J0.024
G1 X-22.29 Y-1.362
X-22.253 Y-1.357
X-22.217 Y-1.348
X-21.918 Y-1.24
X-21.881 Y-1.227
X-21.852 Y-1.216
X-21.781 Y-1.175
G3 X-22.138 Y-0.673 I-0.179 J0.251
X-21.985 Y-1.231 I0.179 J-0.251
G1 X-21.918 Y-1.23
X-21.852 Y-1.216
X-21.811 Y-1.195
X-21.769 Y-1.168
X-21.526 Y-0.963
X-21.497 Y-0.94
X-21.463 Y-0.908
X-21.435 Y-0.876
X-21.414 Y-0.847
X-21.22 Y-0.511
X-21.204 Y-0.474
X-21.193 Y-0.438
X-21.14 Y-0.146
X-21.122 Y-0.039
X-21.119 Y0
X-21.122 Y0.039
X-21.166 Y0.292
X-21.193 Y0.438
X-21.204 Y0.474
X-21.22 Y0.511
X-21.395 Y0.814
G3 X-21.663 Y0.963 I-0.269 J-0.169
G1 X-21.664
X-21.713 Y0.959
X-21.76 Y0.948
X-21.806 Y0.93
X-21.847 Y0.895 Z-3.745
X-21.887 Y0.86 Z-3.731
X-21.924 Y0.828 Z-3.708
X-21.942 Y0.782 Z-3.673
X-21.957 Y0.744 Z-3.629
X-21.968 Y0.713 Z-3.578
X-21.976 Y0.692 Z-3.522
X-21.98 Y0.682 Z-3.463
Y0.68 Z-3.432
G0 Z5
X-23.57 Y0.255
Z-1.25
G3 X-21.43 Y-0.255 Z-1.371 I1.07 J-0.255 F283.3
X-23.57 Y0.255 Z-1.491 I-1.07 J0.255
X-21.43 Y-0.255 Z-1.612 I1.07 J-0.255
X-23.57 Y0.255 Z-1.733 I-1.07 J0.255
X-21.43 Y-0.255 Z-1.853 I1.07 J-0.255
X-23.57 Y0.255 Z-1.974 I-1.07 J0.255
X-21.43 Y-0.255 Z-2.095 I1.07 J-0.255
X-23.57 Y0.255 Z-2.215 I-1.07 J0.255
X-21.43 Y-0.255 Z-2.336 I1.07 J-0.255
X-23.57 Y0.255 Z-2.457 I-1.07 J0.255
X-21.43 Y-0.255 Z-2.577 I1.07 J-0.255
X-23.57 Y0.255 Z-2.698 I-1.07 J0.255
X-21.43 Y-0.255 Z-2.819 I1.07 J-0.255
X-23.57 Y0.255 Z-2.939 I-1.07 J0.255
X-21.43 Y-0.255 Z-3.06 I1.07 J-0.255
X-23.57 Y0.255 Z-3.181 I-1.07 J0.255
X-21.43 Y-0.255 Z-3.302 I1.07 J-0.255
X-23.57 Y0.255 Z-3.422 I-1.07 J0.255
X-21.43 Y-0.255 Z-3.543 I1.07 J-0.255
X-23.57 Y0.255 Z-3.664 I-1.07 J0.255
X-21.43 Y-0.255 Z-3.784 I1.07 J-0.255
X-23.57 Y0.255 Z-3.905 I-1.07 J0.255
X-21.43 Y-0.255 Z-4.026 I1.07 J-0.255
X-23.57 Y0.255 Z-4.146 I-1.07 J0.255
X-21.43 Y-0.255 Z-4.267 I1.07 J-0.255
X-23.57 Y0.255 Z-4.388 I-1.07 J0.255
X-21.43 Y-0.255 Z-4.508 I1.07 J-0.255
X-23.57 Y0.255 Z-4.629 I-1.07 J0.255
X-21.43 Y-0.255 Z-4.75 I1.07 J-0.255
X-23.57 Y0.255 Z-4.87 I-1.07 J0.255
X-22.629 Y-1.092 Z-4.935 I1.07 J-0.255
X-21.4 Y0 Z-5 I0.129 J1.092
X-23.6 I-1.1
X-21.4 I1.1
G1 X-21.384 Y0.257 F850
X-21.38 Y0.407
X-21.416 Y0.552
X-21.479 Y0.689
X-21.562 Y0.813
X-21.662 Y0.925
X-21.776 Y1.022
X-21.902 Y1.104
X-22.037 Y1.17
X-22.179 Y1.218
X-22.326 Y1.248
X-22.475 Y1.261
X-22.625 Y1.256
X-22.773 Y1.232
X-22.917 Y1.191
X-23.056 Y1.134
X-23.186 Y1.06
X-23.307 Y0.971
X-23.417 Y0.868
X-23.513 Y0.754
X-23.596 Y0.628
X-23.662 Y0.494
X-23.713 Y0.352
X-23.746 Y0.206
X-23.762 Y0.057
X-23.759 Y-0.093
X-23.74 Y-0.242
X-23.702 Y-0.387
X-23.648 Y-0.527
X-23.577 Y-0.659
X-23.492 Y-0.782
X-23.392 Y-0.894
X-23.279 Y-0.994
X-23.156 Y-1.079
X-23.024 Y-1.149
X-22.884 Y-1.203
X-22.738 Y-1.24
X-22.59 Y-1.26
X-22.44 Y-1.261
X-22.29 Y-1.245
X-22.144 Y-1.212
X-22.003 Y-1.161
X-21.869 Y-1.094
X-21.744 Y-1.011
X-21.629 Y-0.915
X-21.527 Y-0.805
X-21.438 Y-0.684
X-21.365 Y-0.553
X-21.307 Y-0.415
X-21.263 Y-0.271
X-21.227 Y-0.121
X-21.207 Y0.12
X-21.229 Y0.361
X-21.292 Y0.595
X-21.395 Y0.814
X-21.414 Y0.847
X-21.435 Y0.876
X-21.463 Y0.908
X-21.497 Y0.94
X-21.706 Y1.115
X-21.741 Y1.144
X-21.794 Y1.184
G3 X-22.283 Y1.091 I-0.193 J-0.316
X-21.692 Y0.646 I0.296 J-0.223
X-21.741 Y1.144 I-0.296 J0.223
G1 X-21.769 Y1.168
X-21.811 Y1.195
X-21.852 Y1.216
X-22.144 Y1.322
X-22.184 Y1.337
X-22.217 Y1.348
X-22.29 Y1.362
X-22.341 Y1.354
X-22.388 Y1.333
X-22.428 Y1.299
X-22.457 Y1.257
X-22.473 Y1.208
G3 X-22.101 Y1.137 I0.186 J-0.035
X-22.217 Y1.348 I-0.186 J0.035
G1 X-22.253 Y1.357
X-22.29 Y1.362
X-22.436 Y1.364
X-22.582
X-22.662 Y1.362
X-22.698 Y1.361
X-22.728 Y1.36
X-22.791 Y1.346
G3 X-22.646 Y0.926 I0.072 J-0.21
X-22.619 Y1.334 I-0.072 J0.21
G1 X-22.672 Y1.353
X-22.728 Y1.36
X-22.764 Y1.354
X-22.801 Y1.342
X-23.02 Y1.263
X-23.1 Y1.233
X-23.136 Y1.219
X-23.166 Y1.208
X-23.22 Y1.176
G3 X-22.952 Y0.822 I0.134 J-0.177
X-23.06 Y1.219 I-0.134 J0.177
G1 X-23.114
X-23.166 Y1.208
X-23.198 Y1.191
X-23.231 Y1.168
X-23.488 Y0.952
X-23.512 Y0.931
X-23.543 Y0.904
X-23.567 Y0.876
X-23.604 Y0.817
X-23.75 Y0.564
X-23.769 Y0.529
X-23.79 Y0.483
X-23.806 Y0.435
X-23.817 Y0.386
G3 X-23.19 Y0.278 I0.315 J-0.046
G1 X-23.185 Y0.303
G3 X-23.769 Y0.529 I-0.312 J0.062
G1 X-23.785 Y0.501
X-23.798 Y0.469
X-23.807 Y0.438
X-23.86 Y0.146
X-23.871 Y0.066
X-23.876 Y0.03
X-23.881 Y0
X-23.799 Y-0.42
X-23.781 Y-0.483
X-23.757 Y-0.545
X-23.727 Y-0.603
G3 X-23.152 Y-0.346 I0.27 J0.169
G1 X-23.262 Y0.033
G3 X-23.881 Y0 I-0.305 J-0.089
G1 X-23.86 Y-0.146
X-23.807 Y-0.438
X-23.798 Y-0.469
X-23.785 Y-0.501
X-23.738 Y-0.584
X-23.604 Y-0.817
X-23.583 Y-0.849
X-23.567 Y-0.876
X-23.522 Y-0.923
G3 X-23.23 Y-0.581 I0.146 J0.171
X-23.6 Y-0.768 I-0.146 J-0.171
G1 X-23.589 Y-0.824
X-23.567 Y-0.876
X-23.543 Y-0.904
X-23.512 Y-0.931
X-23.267 Y-1.137
X-23.231 Y-1.168
X-23.198 Y-1.191
X-23.166 Y-1.208
X-23.02 Y-1.263
X-22.801 Y-1.342
X-22.764 Y-1.354
X-22.728 Y-1.36
X-22.582 Y-1.364
X-22.436
X-22.356 Y-1.363
X-22.251 Y-1.357
G3 X-21.97 Y-0.961 I-0.104 J0.371
X-22.725 Y-1.009 I-0.378 J-0.024
X-22.356 Y-1.363 I0.378 J0.024
G1 X-22.29 Y-1.362
X-22.253 Y-1.357
X-22.217 Y-1.348
X-21.918 Y-1.24
X-21.881 Y-1.227
X-21.852 Y-1.216
X-21.781 Y-1.175
G3 X-22.138 Y-0.673 I-0.179 J0.251
X-21.985 Y-1.231 I0.179 J-0.251
G1 X-21.918 Y-1.23
X-21.852 Y-1.216
X-21.811 Y-1.195
X-21.769 Y-1.168
X-21.526 Y-0.963
X-21.497 Y-0.94
X-21.463 Y-0.908
X-21.435 Y-0.876
X-21.414 Y-0.847
X-21.22 Y-0.511
X-21.204 Y-0.474
X-21.193 Y-0.438
X-21.14 Y-0.146
X-21.122 Y-0.039
X-21.119 Y0
X-21.122 Y0.039
X-21.166 Y0.292
X-21.193 Y0.438
X-21.204 Y0.474
X-21.22 Y0.511
X-21.395 Y0.814
G3 X-21.663 Y0.963 I-0.269 J-0.169
G1 X-21.664
X-21.713 Y0.959
X-21.76 Y0.948
X-21.806 Y0.93
X-21.847 Y0.895 Z-4.995
X-21.887 Y0.86 Z-4.981
X-21.924 Y0.828 Z-4.958
X-21.942 Y0.782 Z-4.923
X-21.957 Y0.744 Z-4.879
X-21.968 Y0.713 Z-4.828
X-21.976 Y0.692 Z-4.772
X-21.98 Y0.682 Z-4.713
Y0.68 Z-4.682
G0 Z5
X-23.57 Y0.255
Z-2.5
G3 X-21.43 Y-0.255 Z-2.621 I1.07 J-0.255 F283.3
X-23.57 Y0.255 Z-2.741 I-1.07 J0.255
X-21.43 Y-0.255 Z-2.862 I1.07 J-0.255
X-23.57 Y0.255 Z-2.983 I-1.07 J0.255
X-21.43 Y-0.255 Z-3.103 I1.07 J-0.255
X-23.57 Y0.255 Z-3.224 I-1.07 J0.255
X-21.43 Y-0.255 Z-3.345 I1.07 J-0.255
X-23.57 Y0.255 Z-3.465 I-1.07 J0.255
X-21.43 Y-0.255 Z-3.586 I1.07 J-0.255
X-23.57 Y0.255 Z-3.707 I-1.07 J0.255
X-21.43 Y-0.255 Z-3.827 I1.07 J-0.255
X-23.57 Y0.255 Z-3.948 I-1.07 J0.255
X-21.43 Y-0.255 Z-4.069 I1.07 J-0.255
X-23.57 Y0.255 Z-4.189 I-1.07 J0.255
X-21.43 Y-0.255 Z-4.31 I1.07 J-0.255
X-23.57 Y0.255 Z-4.431 I-1.07 J0.255
X-21.43 Y-0.255 Z-4.552 I1.07 J-0.255
X-23.57 Y0.255 Z-4.672 I-1.07 J0.255
X-21.43 Y-0.255 Z-4.793 I1.07 J-0.255
X-23.57 Y0.255 Z-4.914 I-1.07 J0.255
X-21.43 Y-0.255 Z-5.034 I1.07 J-0.255
X-23.57 Y0.255 Z-5.155 I-1.07 J0.255
X-21.43 Y-0.255 Z-5.276 I1.07 J-0.255
X-23.57 Y0.255 Z-5.396 I-1.07 J0.255
X-21.43 Y-0.255 Z-5.517 I1.07 J-0.255
X-23.57 Y0.255 Z-5.638 I-1.07 J0.255
X-21.43 Y-0.255 Z-5.758 I1.07 J-0.255
X-23.57 Y0.255 Z-5.879 I-1.07 J0.255
X-21.43 Y-0.255 Z-6 I1.07 J-0.255
X-23.57 Y0.255 Z-6.12 I-1.07 J0.255
X-22.629 Y-1.092 Z-6.185 I1.07 J-0.255
X-21.4 Y0 Z-6.25 I0.129 J1.092
X-23.6 I-1.1
X-21.4 I1.1
G1 X-21.384 Y0.257 F850
X-21.38 Y0.407
X-21.416 Y0.552
X-21.479 Y0.689
X-21.562 Y0.813
X-21.662 Y0.925
X-21.776 Y1.022
X-21.902 Y1.104
X-22.037 Y1.17
X-22.179 Y1.218
X-22.326 Y1.248
X-22.475 Y1.261
X-22.625 Y1.256
X-22.773 Y1.232
X-22.917 Y1.191
X-23.056 Y1.134
X-23.186 Y1.06
X-23.307 Y0.971
X-23.417 Y0.868
X-23.513 Y0.754
X-23.596 Y0.628
X-23.662 Y0.494
X-23.713 Y0.352
X-23.746 Y0.206
X-23.762 Y0.057
X-23.759 Y-0.093
X-23.74 Y-0.242
X-23.702 Y-0.387
X-23.648 Y-0.527
X-23.577 Y-0.659
X-23.492 Y-0.782
X-23.392 Y-0.894
X-23.279 Y-0.994
X-23.156 Y-1.079
X-23.024 Y-1.149
X-22.884 Y-1.203
X-22.738 Y-1.24
X-22.59 Y-1.26
X-22.44 Y-1.261
X-22.29 Y-1.245
X-22.144 Y-1.212
X-22.003 Y-1.161
X-21.869 Y-1.094
X-21.744 Y-1.011
X-21.629 Y-0.915
X-21.527 Y-0.805
X-21.438 Y-0.684
X-21.365 Y-0.553
X-21.307 Y-0.415
X-21.263 Y-0.271
X-21.227 Y-0.121
X-21.207 Y0.12
X-21.229 Y0.361
X-21.292 Y0.595
X-21.395 Y0.814
X-21.414 Y0.847
X-21.435 Y0.876
X-21.463 Y0.908
X-21.497 Y0.94
X-21.706 Y1.115
X-21.741 Y1.144
X-21.794 Y1.184
G3 X-22.283 Y1.091 I-0.193 J-0.316
X-21.692 Y0.646 I0.296 J-0.223
X-21.741 Y1.144 I-0.296 J0.223
G1 X-21.769 Y1.168
X-21.811 Y1.195
X-21.852 Y1.216
X-22.144 Y1.322
X-22.184 Y1.337
X-22.217 Y1.348
X-22.29 Y1.362
X-22.341 Y1.354
X-22.388 Y1.333
X-22.428 Y1.299
X-22.457 Y1.257
X-22.473 Y1.208
G3 X-22.101 Y1.137 I0.186 J-0.035
X-22.217 Y1.348 I-0.186 J0.035
G1 X-22.253 Y1.357
X-22.29 Y1.362
X-22.436 Y1.364
X-22.582
X-22.662 Y1.362
X-22.698 Y1.361
X-22.728 Y1.36
X-22.791 Y1.346
G3 X-22.646 Y0.926 I0.072 J-0.21
X-22.619 Y1.334 I-0.072 J0.21
G1 X-22.672 Y1.353
X-22.728 Y1.36
X-22.764 Y1.354
X-22.801 Y1.342
X-23.02 Y1.263
X-23.1 Y1.233
X-23.136 Y1.219
X-23.166 Y1.208
X-23.22 Y1.176
G3 X-22.952 Y0.822 I0.134 J-0.177
X-23.06 Y1.219 I-0.134 J0.177
G1 X-23.114
X-23.166 Y1.208
X-23.198 Y1.191
X-23.231 Y1.168
X-23.488 Y0.952
X-23.512 Y0.931
X-23.543 Y0.904
X-23.567 Y0.876
X-23.604 Y0.817
X-23.75 Y0.564
X-23.769 Y0.529
X-23.79 Y0.483
X-23.806 Y0.435
X-23.817 Y0.386
G3 X-23.19 Y0.278 I0.315 J-0.046
G1 X-23.185 Y0.303
G3 X-23.769 Y0.529 I-0.312 J0.062
G1 X-23.785 Y0.501
X-23.798 Y0.469
X-23.807 Y0.438
X-23.86 Y0.146
X-23.871 Y0.066
X-23.876 Y0.03
X-23.881 Y0
X-23.799 Y-0.42
X-23.781 Y-0.483
X-23.757 Y-0.545
X-23.727 Y-0.603
G3 X-23.152 Y-0.346 I0.27 J0.169
G1 X-23.262 Y0.033
G3 X-23.881 Y0 I-0.305 J-0.089
G1 X-23.86 Y-0.146
X-23.807 Y-0.438
X-23.798 Y-0.469
X-23.785 Y-0.501
X-23.738 Y-0.584
X-23.604 Y-0.817
X-23.583 Y-0.849
X-23.567 Y-0.876
X-23.522 Y-0.923
G3 X-23.23 Y-0.581 I0.146 J0.171
X-23.6 Y-0.768 I-0.146 J-0.171
G1 X-23.589 Y-0.824
X-23.567 Y-0.876
X-23.543 Y-0.904
X-23.512 Y-0.931
X-23.267 Y-1.137
X-23.231 Y-1.168
X-23.198 Y-1.191
X-23.166 Y-1.208
X-23.02 Y-1.263
X-22.801 Y-1.342
X-22.764 Y-1.354
X-22.728 Y-1.36
X-22.582 Y-1.364
X-22.436
X-22.356 Y-1.363
X-22.251 Y-1.357
G3 X-21.97 Y-0.961 I-0.104 J0.371
X-22.725 Y-1.009 I-0.378 J-0.024
X-22.356 Y-1.363 I0.378 J0.024
G1 X-22.29 Y-1.362
X-22.253 Y-1.357
X-22.217 Y-1.348
X-21.918 Y-1.24
X-21.881 Y-1.227
X-21.852 Y-1.216
X-21.781 Y-1.175
G3 X-22.138 Y-0.673 I-0.179 J0.251
X-21.985 Y-1.231 I0.179 J-0.251
G1 X-21.918 Y-1.23
X-21.852 Y-1.216
X-21.811 Y-1.195
X-21.769 Y-1.168
X-21.526 Y-0.963
X-21.497 Y-0.94
X-21.463 Y-0.908
X-21.435 Y-0.876
X-21.414 Y-0.847
X-21.22 Y-0.511
X-21.204 Y-0.474
X-21.193 Y-0.438
X-21.14 Y-0.146
X-21.122 Y-0.039
X-21.119 Y0
X-21.122 Y0.039
X-21.166 Y0.292
X-21.193 Y0.438
X-21.204 Y0.474
X-21.22 Y0.511
X-21.395 Y0.814
G3 X-21.663 Y0.963 I-0.269 J-0.169
G1 X-21.664
X-21.713 Y0.959
X-21.76 Y0.948
X-21.806 Y0.93
X-21.847 Y0.895 Z-6.245
X-21.887 Y0.86 Z-6.231
X-21.924 Y0.828 Z-6.208
X-21.942 Y0.782 Z-6.173
X-21.957 Y0.744 Z-6.129
X-21.968 Y0.713 Z-6.078
X-21.976 Y0.692 Z-6.022
X-21.98 Y0.682 Z-5.963
Y0.68 Z-5.932
G0 Z5
X-23.57 Y0.255
Z-3.75
G3 X-21.43 Y-0.255 Z-3.871 I1.07 J-0.255 F283.3
X-23.57 Y0.255 Z-3.991 I-1.07 J0.255
X-21.43 Y-0.255 Z-4.112 I1.07 J-0.255
X-23.57 Y0.255 Z-4.233 I-1.07 J0.255
X-21.43 Y-0.255 Z-4.353 I1.07 J-0.255
X-23.57 Y0.255 Z-4.474 I-1.07 J0.255
X-21.43 Y-0.255 Z-4.595 I1.07 J-0.255
X-23.57 Y0.255 Z-4.715 I-1.07 J0.255
X-21.43 Y-0.255 Z-4.836 I1.07 J-0.255
X-23.57 Y0.255 Z-4.957 I-1.07 J0.255
X-21.43 Y-0.255 Z-5.077 I1.07 J-0.255
X-23.57 Y0.255 Z-5.198 I-1.07 J0.255
X-21.43 Y-0.255 Z-5.319 I1.07 J-0.255
X-23.57 Y0.255 Z-5.439 I-1.07 J0.255
X-21.43 Y-0.255 Z-5.56 I1.07 J-0.255
X-23.57 Y0.255 Z-5.681 I-1.07 J0.255
X-21.43 Y-0.255 Z-5.802 I1.07 J-0.255
X-23.57 Y0.255 Z-5.922 I-1.07 J0.255
X-21.43 Y-0.255 Z-6.043 I1.07 J-0.255
X-23.57 Y0.255 Z-6.164 I-1.07 J0.255
X-21.43 Y-0.255 Z-6.284 I1.07 J-0.255
X-23.57 Y0.255 Z-6.405 I-1.07 J0.255
X-21.43 Y-0.255 Z-6.526 I1.07 J-0.255
X-23.57 Y0.255 Z-6.646 I-1.07 J0.255
X-21.43 Y-0.255 Z-6.767 I1.07 J-0.255
X-23.57 Y0.255 Z-6.888 I-1.07 J0.255
X-21.43 Y-0.255 Z-7.008 I1.07 J-0.255
X-23.57 Y0.255 Z-7.129 I-1.07 J0.255
X-21.43 Y-0.255 Z-7.25 I1.07 J-0.255
X-23.57 Y0.255 Z-7.37 I-1.07 J0.255
X-22.629 Y-1.092 Z-7.435 I1.07 J-0.255
X-21.4 Y0 Z-7.5 I0.129 J1.092
X-23.6 I-1.1
X-21.4 I1.1
G1 X-21.384 Y0.257 F850
X-21.38 Y0.407
X-21.416 Y0.552
X-21.479 Y0.689
X-21.562 Y0.813
X-21.662 Y0.925
X-21.776 Y1.022
X-21.902 Y1.104
X-22.037 Y1.17
X-22.179 Y1.218
X-22.326 Y1.248
X-22.475 Y1.261
X-22.625 Y1.256
X-22.773 Y1.232
X-22.917 Y1.191
X-23.056 Y1.134
X-23.186 Y1.06
X-23.307 Y0.971
X-23.417 Y0.868
X-23.513 Y0.754
X-23.596 Y0.628
X-23.662 Y0.494
X-23.713 Y0.352
X-23.746 Y0.206
X-23.762 Y0.057
X-23.759 Y-0.093
X-23.74 Y-0.242
X-23.702 Y-0.387
X-23.648 Y-0.527
X-23.577 Y-0.659
X-23.492 Y-0.782
X-23.392 Y-0.894
X-23.279 Y-0.994
X-23.156 Y-1.079
X-23.024 Y-1.149
X-22.884 Y-1.203
X-22.738 Y-1.24
X-22.59 Y-1.26
X-22.44 Y-1.261
X-22.29 Y-1.245
X-22.144 Y-1.212
X-22.003 Y-1.161
X-21.869 Y-1.094
X-21.744 Y-1.011
X-21.629 Y-0.915
X-21.527 Y-0.805
X-21.438 Y-0.684
X-21.365 Y-0.553
X-21.307 Y-0.415
X-21.263 Y-0.271
X-21.227 Y-0.121
X-21.207 Y0.12
X-21.229 Y0.361
X-21.292 Y0.595
X-21.395 Y0.814
X-21.414 Y0.847
X-21.435 Y0.876
X-21.463 Y0.908
X-21.497 Y0.94
X-21.706 Y1.115
X-21.741 Y1.144
X-21.794 Y1.184
G3 X-22.283 Y1.091 I-0.193 J-0.316
X-21.692 Y0.646 I0.296 J-0.223
X-21.741 Y1.144 I-0.296 J0.223
G1 X-21.769 Y1.168
X-21.811 Y1.195
X-21.852 Y1.216
X-22.144 Y1.322
X-22.184 Y1.337
X-22.217 Y1.348
X-22.29 Y1.362
X-22.341 Y1.354
X-22.388 Y1.333
X-22.428 Y1.299
X-22.457 Y1.257
X-22.473 Y1.208
G3 X-22.101 Y1.137 I0.186 J-0.035
X-22.217 Y1.348 I-0.186 J0.035
G1 X-22.253 Y1.357
X-22.29 Y1.362
X-22.436 Y1.364
X-22.582
X-22.662 Y1.362
X-22.698 Y1.361
X-22.728 Y1.36
X-22.791 Y1.346
G3 X-22.646 Y0.926 I0.072 J-0.21
X-22.619 Y1.334 I-0.072 J0.21
G1 X-22.672 Y1.353
X-22.728 Y1.36
X-22.764 Y1.354
X-22.801 Y1.342
X-23.02 Y1.263
X-23.1 Y1.233
X-23.136 Y1.219
X-23.166 Y1.208
X-23.22 Y1.176
G3 X-22.952 Y0.822 I0.134 J-0.177
X-23.06 Y1.219 I-0.134 J0.177
G1 X-23.114
X-23.166 Y1.208
X-23.198 Y1.191
X-23.231 Y1.168
X-23.488 Y0.952
X-23.512 Y0.931
X-23.543 Y0.904
X-23.567 Y0.876
X-23.604 Y0.817
X-23.75 Y0.564
X-23.769 Y0.529
X-23.79 Y0.483
X-23.806 Y0.435
X-23.817 Y0.386
G3 X-23.19 Y0.278 I0.315 J-0.046
G1 X-23.185 Y0.303
G3 X-23.769 Y0.529 I-0.312 J0.062
G1 X-23.785 Y0.501
X-23.798 Y0.469
X-23.807 Y0.438
X-23.86 Y0.146
X-23.871 Y0.066
X-23.876 Y0.03
X-23.881 Y0
X-23.799 Y-0.42
X-23.781 Y-0.483
X-23.757 Y-0.545
X-23.727 Y-0.603
G3 X-23.152 Y-0.346 I0.27 J0.169
G1 X-23.262 Y0.033
G3 X-23.881 Y0 I-0.305 J-0.089
G1 X-23.86 Y-0.146
X-23.807 Y-0.438
X-23.798 Y-0.469
X-23.785 Y-0.501
X-23.738 Y-0.584
X-23.604 Y-0.817
X-23.583 Y-0.849
X-23.567 Y-0.876
X-23.522 Y-0.923
G3 X-23.23 Y-0.581 I0.146 J0.171
X-23.6 Y-0.768 I-0.146 J-0.171
G1 X-23.589 Y-0.824
X-23.567 Y-0.876
X-23.543 Y-0.904
X-23.512 Y-0.931
X-23.267 Y-1.137
X-23.231 Y-1.168
X-23.198 Y-1.191
X-23.166 Y-1.208
X-23.02 Y-1.263
X-22.801 Y-1.342
X-22.764 Y-1.354
X-22.728 Y-1.36
X-22.582 Y-1.364
X-22.436
X-22.356 Y-1.363
X-22.251 Y-1.357
G3 X-21.97 Y-0.961 I-0.104 J0.371
X-22.725 Y-1.009 I-0.378 J-0.024
X-22.356 Y-1.363 I0.378 J0.024
G1 X-22.29 Y-1.362
X-22.253 Y-1.357
X-22.217 Y-1.348
X-21.918 Y-1.24
X-21.881 Y-1.227
X-21.852 Y-1.216
X-21.781 Y-1.175
G3 X-22.138 Y-0.673 I-0.179 J0.251
X-21.985 Y-1.231 I0.179 J-0.251
G1 X-21.918 Y-1.23
X-21.852 Y-1.216
X-21.811 Y-1.195
X-21.769 Y-1.168
X-21.526 Y-0.963
X-21.497 Y-0.94
X-21.463 Y-0.908
X-21.435 Y-0.876
X-21.414 Y-0.847
X-21.22 Y-0.511
X-21.204 Y-0.474
X-21.193 Y-0.438
X-21.14 Y-0.146
X-21.122 Y-0.039
X-21.119 Y0
X-21.122 Y0.039
X-21.166 Y0.292
X-21.193 Y0.438
X-21.204 Y0.474
X-21.22 Y0.511
X-21.395 Y0.814
G3 X-21.663 Y0.963 I-0.269 J-0.169
G1 X-21.664
X-21.713 Y0.959
X-21.76 Y0.948
X-21.806 Y0.93
X-21.847 Y0.895 Z-7.495
X-21.887 Y0.86 Z-7.481
X-21.924 Y0.828 Z-7.458
X-21.942 Y0.782 Z-7.423
X-21.957 Y0.744 Z-7.379
X-21.968 Y0.713 Z-7.328
X-21.976 Y0.692 Z-7.272
X-21.98 Y0.682 Z-7.213
Y0.68 Z-7.182
G0 Z5
X-23.57 Y0.255
Z-5
G3 X-21.43 Y-0.255 Z-5.121 I1.07 J-0.255 F283.3
X-23.57 Y0.255 Z-5.241 I-1.07 J0.255
X-21.43 Y-0.255 Z-5.362 I1.07 J-0.255
X-23.57 Y0.255 Z-5.483 I-1.07 J0.255
X-21.43 Y-0.255 Z-5.603 I1.07 J-0.255
X-23.57 Y0.255 Z-5.724 I-1.07 J0.255
X-21.43 Y-0.255 Z-5.845 I1.07 J-0.255
X-23.57 Y0.255 Z-5.965 I-1.07 J0.255
X-21.43 Y-0.255 Z-6.086 I1.07 J-0.255
X-23.57 Y0.255 Z-6.207 I-1.07 J0.255
X-21.43 Y-0.255 Z-6.327 I1.07 J-0.255
X-23.57 Y0.255 Z-6.448 I-1.07 J0.255
X-21.43 Y-0.255 Z-6.569 I1.07 J-0.255
X-23.57 Y0.255 Z-6.689 I-1.07 J0.255
X-21.43 Y-0.255 Z-6.81 I1.07 J-0.255
X-23.57 Y0.255 Z-6.931 I-1.07 J0.255
X-21.43 Y-0.255 Z-7.052 I1.07 J-0.255
X-23.57 Y0.255 Z-7.172 I-1.07 J0.255
X-21.43 Y-0.255 Z-7.293 I1.07 J-0.255
X-23.57 Y0.255 Z-7.414 I-1.07 J0.255
X-21.43 Y-0.255 Z-7.534 I1.07 J-0.255
X-23.57 Y0.255 Z-7.655 I-1.07 J0.255
X-21.43 Y-0.255 Z-7.776 I1.07 J-0.255
X-23.57 Y0.255 Z-7.896 I-1.07 J0.255
X-21.43 Y-0.255 Z-8.017 I1.07 J-0.255
X-23.57 Y0.255 Z-8.138 I-1.07 J0.255
X-21.43 Y-0.255 Z-8.258 I1.07 J-0.255
X-23.57 Y0.255 Z-8.379 I-1.07 J0.255
X-21.43 Y-0.255 Z-8.5 I1.07 J-0.255
X-23.57 Y0.255 Z-8.62 I-1.07 J0.255
X-22.629 Y-1.092 Z-8.685 I1.07 J-0.255
X-21.4 Y0 Z-8.75 I0.129 J1.092
X-23.6 I-1.1
X-21.4 I1.1
G1 X-21.384 Y0.257 F850
X-21.38 Y0.407
X-21.416 Y0.552
X-21.479 Y0.689
X-21.562 Y0.813
X-21.662 Y0.925
X-21.776 Y1.022
X-21.902 Y1.104
X-22.037 Y1.17
X-22.179 Y1.218
X-22.326 Y1.248
X-22.475 Y1.261
X-22.625 Y1.256
X-22.773 Y1.232
X-22.917 Y1.191
X-23.056 Y1.134
X-23.186 Y1.06
X-23.307 Y0.971
X-23.417 Y0.868
X-23.513 Y0.754
X-23.596 Y0.628
X-23.662 Y0.494
X-23.713 Y0.352
X-23.746 Y0.206
X-23.762 Y0.057
X-23.759 Y-0.093
X-23.74 Y-0.242
X-23.702 Y-0.387
X-23.648 Y-0.527
X-23.577 Y-0.659
X-23.492 Y-0.782
X-23.392 Y-0.894
X-23.279 Y-0.994
X-23.156 Y-1.079
X-23.024 Y-1.149
X-22.884 Y-1.203
X-22.738 Y-1.24
X-22.59 Y-1.26
X-22.44 Y-1.261
X-22.29 Y-1.245
X-22.144 Y-1.212
X-22.003 Y-1.161
X-21.869 Y-1.094
X-21.744 Y-1.011
X-21.629 Y-0.915
X-21.527 Y-0.805
X-21.438 Y-0.684
X-21.365 Y-0.553
X-21.307 Y-0.415
X-21.263 Y-0.271
X-21.227 Y-0.121
X-21.207 Y0.12
X-21.229 Y0.361
X-21.292 Y0.595
X-21.395 Y0.814
X-21.414 Y0.847
X-21.435 Y0.876
X-21.463 Y0.908
X-21.497 Y0.94
X-21.706 Y1.115
X-21.741 Y1.144
X-21.794 Y1.184
G3 X-22.283 Y1.091 I-0.193 J-0.316
X-21.692 Y0.646 I0.296 J-0.223
X-21.741 Y1.144 I-0.296 J0.223
G1 X-21.769 Y1.168
X-21.811 Y1.195
X-21.852 Y1.216
X-22.144 Y1.322
X-22.184 Y1.337
X-22.217 Y1.348
X-22.29 Y1.362
X-22.341 Y1.354
X-22.388 Y1.333
X-22.428 Y1.299
X-22.457 Y1.257
X-22.473 Y1.208
G3 X-22.101 Y1.137 I0.186 J-0.035
X-22.217 Y1.348 I-0.186 J0.035
G1 X-22.253 Y1.357
X-22.29 Y1.362
X-22.436 Y1.364
X-22.582
X-22.662 Y1.362
X-22.698 Y1.361
X-22.728 Y1.36
X-22.791 Y1.346
G3 X-22.646 Y0.926 I0.072 J-0.21
X-22.619 Y1.334 I-0.072 J0.21
G1 X-22.672 Y1.353
X-22.728 Y1.36
X-22.764 Y1.354
X-22.801 Y1.342
X-23.02 Y1.263
X-23.1 Y1.233
X-23.136 Y1.219
X-23.166 Y1.208
X-23.22 Y1.176
G3 X-22.952 Y0.822 I0.134 J-0.177
X-23.06 Y1.219 I-0.134 J0.177
G1 X-23.114
X-23.166 Y1.208
X-23.198 Y1.191
X-23.231 Y1.168
X-23.488 Y0.952
X-23.512 Y0.931
X-23.543 Y0.904
X-23.567 Y0.876
X-23.604 Y0.817
X-23.75 Y0.564
X-23.769 Y0.529
X-23.79 Y0.483
X-23.806 Y0.435
X-23.817 Y0.386
G3 X-23.19 Y0.278 I0.315 J-0.046
G1 X-23.185 Y0.303
G3 X-23.769 Y0.529 I-0.312 J0.062
G1 X-23.785 Y0.501
X-23.798 Y0.469
X-23.807 Y0.438
X-23.86 Y0.146
X-23.871 Y0.066
X-23.876 Y0.03
X-23.881 Y0
X-23.799 Y-0.42
X-23.781 Y-0.483
X-23.757 Y-0.545
X-23.727 Y-0.603
G3 X-23.152 Y-0.346 I0.27 J0.169
G1 X-23.262 Y0.033
G3 X-23.881 Y0 I-0.305 J-0.089
G1 X-23.86 Y-0.146
X-23.807 Y-0.438
X-23.798 Y-0.469
X-23.785 Y-0.501
X-23.738 Y-0.584
X-23.604 Y-0.817
X-23.583 Y-0.849
X-23.567 Y-0.876
X-23.522 Y-0.923
G3 X-23.23 Y-0.581 I0.146 J0.171
X-23.6 Y-0.768 I-0.146 J-0.171
G1 X-23.589 Y-0.824
X-23.567 Y-0.876
X-23.543 Y-0.904
X-23.512 Y-0.931
X-23.267 Y-1.137
X-23.231 Y-1.168
X-23.198 Y-1.191
X-23.166 Y-1.208
X-23.02 Y-1.263
X-22.801 Y-1.342
X-22.764 Y-1.354
X-22.728 Y-1.36
X-22.582 Y-1.364
X-22.436
X-22.356 Y-1.363
X-22.251 Y-1.357
G3 X-21.97 Y-0.961 I-0.104 J0.371
X-22.725 Y-1.009 I-0.378 J-0.024
X-22.356 Y-1.363 I0.378 J0.024
G1 X-22.29 Y-1.362
X-22.253 Y-1.357
X-22.217 Y-1.348
X-21.918 Y-1.24
X-21.881 Y-1.227
X-21.852 Y-1.216
X-21.781 Y-1.175
G3 X-22.138 Y-0.673 I-0.179 J0.251
X-21.985 Y-1.231 I0.179 J-0.251
G1 X-21.918 Y-1.23
X-21.852 Y-1.216
X-21.811 Y-1.195
X-21.769 Y-1.168
X-21.526 Y-0.963
X-21.497 Y-0.94
X-21.463 Y-0.908
X-21.435 Y-0.876
X-21.414 Y-0.847
X-21.22 Y-0.511
X-21.204 Y-0.474
X-21.193 Y-0.438
X-21.14 Y-0.146
X-21.122 Y-0.039
X-21.119 Y0
X-21.122 Y0.039
X-21.166 Y0.292
X-21.193 Y0.438
X-21.204 Y0.474
X-21.22 Y0.511
X-21.395 Y0.814
G3 X-21.663 Y0.963 I-0.269 J-0.169
G1 X-21.664
X-21.713 Y0.959
X-21.76 Y0.948
X-21.806 Y0.93
X-21.847 Y0.895 Z-8.745
X-21.887 Y0.86 Z-8.731
X-21.924 Y0.828 Z-8.708
X-21.942 Y0.782 Z-8.673
X-21.957 Y0.744 Z-8.629
X-21.968 Y0.713 Z-8.578
X-21.976 Y0.692 Z-8.522
X-21.98 Y0.682 Z-8.463
Y0.68 Z-8.432
G0 Z5
X-23.57 Y0.255
Z-6.25
G3 X-21.43 Y-0.255 Z-6.371 I1.07 J-0.255 F283.3
X-23.57 Y0.255 Z-6.491 I-1.07 J0.255
X-21.43 Y-0.255 Z-6.612 I1.07 J-0.255
X-23.57 Y0.255 Z-6.733 I-1.07 J0.255
X-21.43 Y-0.255 Z-6.853 I1.07 J-0.255
X-23.57 Y0.255 Z-6.974 I-1.07 J0.255
X-21.43 Y-0.255 Z-7.095 I1.07 J-0.255
X-23.57 Y0.255 Z-7.215 I-1.07 J0.255
X-21.43 Y-0.255 Z-7.336 I1.07 J-0.255
X-23.57 Y0.255 Z-7.457 I-1.07 J0.255
X-21.43 Y-0.255 Z-7.577 I1.07 J-0.255
X-23.57 Y0.255 Z-7.698 I-1.07 J0.255
X-21.43 Y-0.255 Z-7.819 I1.07 J-0.255
X-23.57 Y0.255 Z-7.939 I-1.07 J0.255
X-21.43 Y-0.255 Z-8.06 I1.07 J-0.255
X-23.57 Y0.255 Z-8.181 I-1.07 J0.255
X-21.43 Y-0.255 Z-8.302 I1.07 J-0.255
X-23.57 Y0.255 Z-8.422 I-1.07 J0.255
X-21.43 Y-0.255 Z-8.543 I1.07 J-0.255
X-23.57 Y0.255 Z-8.664 I-1.07 J0.255
X-21.43 Y-0.255 Z-8.784 I1.07 J-0.255
X-23.57 Y0.255 Z-8.905 I-1.07 J0.255
X-21.43 Y-0.255 Z-9.026 I1.07 J-0.255
X-23.57 Y0.255 Z-9.146 I-1.07 J0.255
X-21.43 Y-0.255 Z-9.267 I1.07 J-0.255
X-23.57 Y0.255 Z-9.388 I-1.07 J0.255
X-21.43 Y-0.255 Z-9.508 I1.07 J-0.255
X-23.57 Y0.255 Z-9.629 I-1.07 J0.255
X-21.43 Y-0.255 Z-9.75 I1.07 J-0.255
X-23.57 Y0.255 Z-9.87 I-1.07 J0.255
X-22.629 Y-1.092 Z-9.935 I1.07 J-0.255
X-21.4 Y0 Z-10 I0.129 J1.092
X-23.6 I-1.1
X-21.4 I1.1
G1 X-21.384 Y0.257 F850
X-21.38 Y0.407
X-21.416 Y0.552
X-21.479 Y0.689
X-21.562 Y0.813
X-21.662 Y0.925
X-21.776 Y1.022
X-21.902 Y1.104
X-22.037 Y1.17
X-22.179 Y1.218
X-22.326 Y1.248
X-22.475 Y1.261
X-22.625 Y1.256
X-22.773 Y1.232
X-22.917 Y1.191
X-23.056 Y1.134
X-23.186 Y1.06
X-23.307 Y0.971
X-23.417 Y0.868
X-23.513 Y0.754
X-23.596 Y0.628
X-23.662 Y0.494
X-23.713 Y0.352
X-23.746 Y0.206
X-23.762 Y0.057
X-23.759 Y-0.093
X-23.74 Y-0.242
X-23.702 Y-0.387
X-23.648 Y-0.527
X-23.577 Y-0.659
X-23.492 Y-0.782
X-23.392 Y-0.894
X-23.279 Y-0.994
X-23.156 Y-1.079
X-23.024 Y-1.149
X-22.884 Y-1.203
X-22.738 Y-1.24
X-22.59 Y-1.26
X-22.44 Y-1.261
X-22.29 Y-1.245
X-22.144 Y-1.212
X-22.003 Y-1.161
X-21.869 Y-1.094
X-21.744 Y-1.011
X-21.629 Y-0.915
X-21.527 Y-0.805
X-21.438 Y-0.684
X-21.365 Y-0.553
X-21.307 Y-0.415
X-21.263 Y-0.271
X-21.227 Y-0.121
X-21.207 Y0.12
X-21.229 Y0.361
X-21.292 Y0.595
X-21.395 Y0.814
X-21.414 Y0.847
X-21.435 Y0.876
X-21.463 Y0.908
X-21.497 Y0.94
X-21.706 Y1.115
X-21.741 Y1.144
X-21.794 Y1.184
G3 X-22.283 Y1.091 I-0.193 J-0.316
X-21.692 Y0.646 I0.296 J-0.223
X-21.741 Y1.144 I-0.296 J0.223
G1 X-21.769 Y1.168
X-21.811 Y1.195
X-21.852 Y1.216
X-22.144 Y1.322
X-22.184 Y1.337
X-22.217 Y1.348
X-22.29 Y1.362
X-22.341 Y1.354
X-22.388 Y1.333
X-22.428 Y1.299
X-22.457 Y1.257
X-22.473 Y1.208
G3 X-22.101 Y1.137 I0.186 J-0.035
X-22.217 Y1.348 I-0.186 J0.035
G1 X-22.253 Y1.357
X-22.29 Y1.362
X-22.436 Y1.364
X-22.582
X-22.662 Y1.362
X-22.698 Y1.361
X-22.728 Y1.36
X-22.791 Y1.346
G3 X-22.646 Y0.926 I0.072 J-0.21
X-22.619 Y1.334 I-0.072 J0.21
G1 X-22.672 Y1.353
X-22.728 Y1.36
X-22.764 Y1.354
X-22.801 Y1.342
X-23.02 Y1.263
X-23.1 Y1.233
X-23.136 Y1.219
X-23.166 Y1.208
X-23.22 Y1.176
G3 X-22.952 Y0.822 I0.134 J-0.177
X-23.06 Y1.219 I-0.134 J0.177
G1 X-23.114
X-23.166 Y1.208
X-23.198 Y1.191
X-23.231 Y1.168
X-23.488 Y0.952
X-23.512 Y0.931
X-23.543 Y0.904
X-23.567 Y0.876
X-23.604 Y0.817
X-23.75 Y0.564
X-23.769 Y0.529
X-23.79 Y0.483
X-23.806 Y0.435
X-23.817 Y0.386
G3 X-23.19 Y0.278 I0.315 J-0.046
G1 X-23.185 Y0.303
G3 X-23.769 Y0.529 I-0.312 J0.062
G1 X-23.785 Y0.501
X-23.798 Y0.469
X-23.807 Y0.438
X-23.86 Y0.146
X-23.871 Y0.066
X-23.876 Y0.03
X-23.881 Y0
X-23.799 Y-0.42
X-23.781 Y-0.483
X-23.757 Y-0.545
X-23.727 Y-0.603
G3 X-23.152 Y-0.346 I0.27 J0.169
G1 X-23.262 Y0.033
G3 X-23.881 Y0 I-0.305 J-0.089
G1 X-23.86 Y-0.146
X-23.807 Y-0.438
X-23.798 Y-0.469
X-23.785 Y-0.501
X-23.738 Y-0.584
X-23.604 Y-0.817
X-23.583 Y-0.849
X-23.567 Y-0.876
X-23.522 Y-0.923
G3 X-23.23 Y-0.581 I0.146 J0.171
X-23.6 Y-0.768 I-0.146 J-0.171
G1 X-23.589 Y-0.824
X-23.567 Y-0.876
X-23.543 Y-0.904
X-23.512 Y-0.931
X-23.267 Y-1.137
X-23.231 Y-1.168
X-23.198 Y-1.191
X-23.166 Y-1.208
X-23.02 Y-1.263
X-22.801 Y-1.342
X-22.764 Y-1.354
X-22.728 Y-1.36
X-22.582 Y-1.364
X-22.436
X-22.356 Y-1.363
X-22.251 Y-1.357
G3 X-21.97 Y-0.961 I-0.104 J0.371
X-22.725 Y-1.009 I-0.378 J-0.024
X-22.356 Y-1.363 I0.378 J0.024
G1 X-22.29 Y-1.362
X-22.253 Y-1.357
X-22.217 Y-1.348
X-21.918 Y-1.24
X-21.881 Y-1.227
X-21.852 Y-1.216
X-21.781 Y-1.175
G3 X-22.138 Y-0.673 I-0.179 J0.251
X-21.985 Y-1.231 I0.179 J-0.251
G1 X-21.918 Y-1.23
X-21.852 Y-1.216
X-21.811 Y-1.195
X-21.769 Y-1.168
X-21.526 Y-0.963
X-21.497 Y-0.94
X-21.463 Y-0.908
X-21.435 Y-0.876
X-21.414 Y-0.847
X-21.22 Y-0.511
X-21.204 Y-0.474
X-21.193 Y-0.438
X-21.14 Y-0.146
X-21.122 Y-0.039
X-21.119 Y0
X-21.122 Y0.039
X-21.166 Y0.292
X-21.193 Y0.438
X-21.204 Y0.474
X-21.22 Y0.511
X-21.395 Y0.814
G3 X-21.663 Y0.963 I-0.269 J-0.169
G1 X-21.664
X-21.713 Y0.959
X-21.76 Y0.948
X-21.806 Y0.93
X-21.847 Y0.895 Z-9.995
X-21.887 Y0.86 Z-9.981
X-21.924 Y0.828 Z-9.958
X-21.942 Y0.782 Z-9.923
X-21.957 Y0.744 Z-9.879
X-21.968 Y0.713 Z-9.828
X-21.976 Y0.692 Z-9.772
X-21.98 Y0.682 Z-9.713
Y0.68 Z-9.682
G0 Z5
X-23.57 Y0.255
Z-7.5
G3 X-21.43 Y-0.255 Z-7.621 I1.07 J-0.255 F283.3
X-23.57 Y0.255 Z-7.741 I-1.07 J0.255
X-21.43 Y-0.255 Z-7.862 I1.07 J-0.255
X-23.57 Y0.255 Z-7.983 I-1.07 J0.255
X-21.43 Y-0.255 Z-8.103 I1.07 J-0.255
X-23.57 Y0.255 Z-8.224 I-1.07 J0.255
X-21.43 Y-0.255 Z-8.345 I1.07 J-0.255
X-23.57 Y0.255 Z-8.465 I-1.07 J0.255
X-21.43 Y-0.255 Z-8.586 I1.07 J-0.255
X-23.57 Y0.255 Z-8.707 I-1.07 J0.255
X-21.43 Y-0.255 Z-8.827 I1.07 J-0.255
X-23.57 Y0.255 Z-8.948 I-1.07 J0.255
X-21.43 Y-0.255 Z-9.069 I1.07 J-0.255
X-23.57 Y0.255 Z-9.189 I-1.07 J0.255
X-21.43 Y-0.255 Z-9.31 I1.07 J-0.255
X-23.57 Y0.255 Z-9.431 I-1.07 J0.255
X-21.43 Y-0.255 Z-9.552 I1.07 J-0.255
X-23.57 Y0.255 Z-9.672 I-1.07 J0.255
X-21.43 Y-0.255 Z-9.793 I1.07 J-0.255
X-23.57 Y0.255 Z-9.914 I-1.07 J0.255
X-21.43 Y-0.255 Z-10.034 I1.07 J-0.255
X-23.57 Y0.255 Z-10.155 I-1.07 J0.255
X-21.43 Y-0.255 Z-10.276 I1.07 J-0.255
X-23.57 Y0.255 Z-10.396 I-1.07 J0.255
X-21.43 Y-0.255 Z-10.517 I1.07 J-0.255
X-23.57 Y0.255 Z-10.638 I-1.07 J0.255
X-21.43 Y-0.255 Z-10.758 I1.07 J-0.255
X-23.57 Y0.255 Z-10.879 I-1.07 J0.255
X-21.43 Y-0.255 Z-11 I1.07 J-0.255
X-23.57 Y0.255 Z-11.12 I-1.07 J0.255
X-22.629 Y-1.092 Z-11.185 I1.07 J-0.255
X-21.4 Y0 Z-11.25 I0.129 J1.092
X-23.6 I-1.1
X-21.4 I1.1
G1 X-21.384 Y0.257 F850
X-21.38 Y0.407
X-21.416 Y0.552
X-21.479 Y0.689
X-21.562 Y0.813
X-21.662 Y0.925
X-21.776 Y1.022
X-21.902 Y1.104
X-22.037 Y1.17
X-22.179 Y1.218
X-22.326 Y1.248
X-22.475 Y1.261
X-22.625 Y1.256
X-22.773 Y1.232
X-22.917 Y1.191
X-23.056 Y1.134
X-23.186 Y1.06
X-23.307 Y0.971
X-23.417 Y0.868
X-23.513 Y0.754
X-23.596 Y0.628
X-23.662 Y0.494
X-23.713 Y0.352
X-23.746 Y0.206
X-23.762 Y0.057
X-23.759 Y-0.093
X-23.74 Y-0.242
X-23.702 Y-0.387
X-23.648 Y-0.527
X-23.577 Y-0.659
X-23.492 Y-0.782
X-23.392 Y-0.894
X-23.279 Y-0.994
X-23.156 Y-1.079
X-23.024 Y-1.149
X-22.884 Y-1.203
X-22.738 Y-1.24
X-22.59 Y-1.26
X-22.44 Y-1.261
X-22.29 Y-1.245
X-22.144 Y-1.212
X-22.003 Y-1.161
X-21.869 Y-1.094
X-21.744 Y-1.011
X-21.629 Y-0.915
X-21.527 Y-0.805
X-21.438 Y-0.684
X-21.365 Y-0.553
X-21.307 Y-0.415
X-21.263 Y-0.271
X-21.227 Y-0.121
X-21.207 Y0.12
X-21.229 Y0.361
X-21.292 Y0.595
X-21.395 Y0.814
X-21.414 Y0.847
X-21.435 Y0.876
X-21.463 Y0.908
X-21.497 Y0.94
X-21.706 Y1.115
X-21.741 Y1.144
X-21.794 Y1.184
G3 X-22.283 Y1.091 I-0.193 J-0.316
X-21.692 Y0.646 I0.296 J-0.223
X-21.741 Y1.144 I-0.296 J0.223
G1 X-21.769 Y1.168
X-21.811 Y1.195
X-21.852 Y1.216
X-22.144 Y1.322
X-22.184 Y1.337
X-22.217 Y1.348
X-22.29 Y1.362
X-22.341 Y1.354
X-22.388 Y1.333
X-22.428 Y1.299
X-22.457 Y1.257
X-22.473 Y1.208
G3 X-22.101 Y1.137 I0.186 J-0.035
X-22.217 Y1.348 I-0.186 J0.035
G1 X-22.253 Y1.357
X-22.29 Y1.362
X-22.436 Y1.364
X-22.582
X-22.662 Y1.362
X-22.698 Y1.361
X-22.728 Y1.36
X-22.791 Y1.346
G3 X-22.646 Y0.926 I0.072 J-0.21
X-22.619 Y1.334 I-0.072 J0.21
G1 X-22.672 Y1.353
X-22.728 Y1.36
X-22.764 Y1.354
X-22.801 Y1.342
X-23.02 Y1.263
X-23.1 Y1.233
X-23.136 Y1.219
X-23.166 Y1.208
X-23.22 Y1.176
G3 X-22.952 Y0.822 I0.134 J-0.177
X-23.06 Y1.219 I-0.134 J0.177
G1 X-23.114
X-23.166 Y1.208
X-23.198 Y1.191
X-23.231 Y1.168
X-23.488 Y0.952
X-23.512 Y0.931
X-23.543 Y0.904
X-23.567 Y0.876
X-23.604 Y0.817
X-23.75 Y0.564
X-23.769 Y0.529
X-23.79 Y0.483
X-23.806 Y0.435
X-23.817 Y0.386
G3 X-23.19 Y0.278 I0.315 J-0.046
G1 X-23.185 Y0.303
G3 X-23.769 Y0.529 I-0.312 J0.062
G1 X-23.785 Y0.501
X-23.798 Y0.469
X-23.807 Y0.438
X-23.86 Y0.146
X-23.871 Y0.066
X-23.876 Y0.03
X-23.881 Y0
X-23.799 Y-0.42
X-23.781 Y-0.483
X-23.757 Y-0.545
X-23.727 Y-0.603
G3 X-23.152 Y-0.346 I0.27 J0.169
G1 X-23.262 Y0.033
G3 X-23.881 Y0 I-0.305 J-0.089
G1 X-23.86 Y-0.146
X-23.807 Y-0.438
X-23.798 Y-0.469
X-23.785 Y-0.501
X-23.738 Y-0.584
X-23.604 Y-0.817
X-23.583 Y-0.849
X-23.567 Y-0.876
X-23.522 Y-0.923
G3 X-23.23 Y-0.581 I0.146 J0.171
X-23.6 Y-0.768 I-0.146 J-0.171
G1 X-23.589 Y-0.824
X-23.567 Y-0.876
X-23.543 Y-0.904
X-23.512 Y-0.931
X-23.267 Y-1.137
X-23.231 Y-1.168
X-23.198 Y-1.191
X-23.166 Y-1.208
X-23.02 Y-1.263
X-22.801 Y-1.342
X-22.764 Y-1.354
X-22.728 Y-1.36
X-22.582 Y-1.364
X-22.436
X-22.356 Y-1.363
X-22.251 Y-1.357
G3 X-21.97 Y-0.961 I-0.104 J0.371
X-22.725 Y-1.009 I-0.378 J-0.024
X-22.356 Y-1.363 I0.378 J0.024
G1 X-22.29 Y-1.362
X-22.253 Y-1.357
X-22.217 Y-1.348
X-21.918 Y-1.24
X-21.881 Y-1.227
X-21.852 Y-1.216
X-21.781 Y-1.175
G3 X-22.138 Y-0.673 I-0.179 J0.251
X-21.985 Y-1.231 I0.179 J-0.251
G1 X-21.918 Y-1.23
X-21.852 Y-1.216
X-21.811 Y-1.195
X-21.769 Y-1.168
X-21.526 Y-0.963
X-21.497 Y-0.94
X-21.463 Y-0.908
X-21.435 Y-0.876
X-21.414 Y-0.847
X-21.22 Y-0.511
X-21.204 Y-0.474
X-21.193 Y-0.438
X-21.14 Y-0.146
X-21.122 Y-0.039
X-21.119 Y0
X-21.122 Y0.039
X-21.166 Y0.292
X-21.193 Y0.438
X-21.204 Y0.474
X-21.22 Y0.511
X-21.395 Y0.814
G3 X-21.663 Y0.963 I-0.269 J-0.169
G1 X-21.664
X-21.713 Y0.959
X-21.76 Y0.948
X-21.806 Y0.93
X-21.847 Y0.895 Z-11.245
X-21.887 Y0.86 Z-11.231
X-21.924 Y0.828 Z-11.208
X-21.942 Y0.782 Z-11.173
X-21.957 Y0.744 Z-11.129
X-21.968 Y0.713 Z-11.078
X-21.976 Y0.692 Z-11.022
X-21.98 Y0.682 Z-10.963
Y0.68 Z-10.932
G0 Z5
X-23.574 Y-0.236
Z-8.75
G3 X-21.426 Y0.236 Z-8.871 I1.074 J0.236 F283.3
X-23.574 Y-0.236 Z-8.991 I-1.074 J-0.236
X-21.426 Y0.236 Z-9.112 I1.074 J0.236
X-23.574 Y-0.236 Z-9.233 I-1.074 J-0.236
X-21.426 Y0.236 Z-9.353 I1.074 J0.236
X-23.574 Y-0.236 Z-9.474 I-1.074 J-0.236
X-21.426 Y0.236 Z-9.595 I1.074 J0.236
X-23.574 Y-0.236 Z-9.715 I-1.074 J-0.236
X-21.426 Y0.236 Z-9.836 I1.074 J0.236
X-23.574 Y-0.236 Z-9.957 I-1.074 J-0.236
X-21.426 Y0.236 Z-10.077 I1.074 J0.236
X-23.574 Y-0.236 Z-10.198 I-1.074 J-0.236
X-21.426 Y0.236 Z-10.319 I1.074 J0.236
X-23.574 Y-0.236 Z-10.439 I-1.074 J-0.236
X-21.426 Y0.236 Z-10.56 I1.074 J0.236
X-23.574 Y-0.236 Z-10.681 I-1.074 J-0.236
X-21.426 Y0.236 Z-10.802 I1.074 J0.236
X-23.574 Y-0.236 Z-10.922 I-1.074 J-0.236
X-21.426 Y0.236 Z-11.043 I1.074 J0.236
X-23.574 Y-0.236 Z-11.164 I-1.074 J-0.236
X-21.426 Y0.236 Z-11.284 I1.074 J0.236
X-23.574 Y-0.236 Z-11.405 I-1.074 J-0.236
X-21.426 Y0.236 Z-11.526 I1.074 J0.236
X-23.574 Y-0.236 Z-11.646 I-1.074 J-0.236
X-21.426 Y0.236 Z-11.767 I1.074 J0.236
X-23.574 Y-0.236 Z-11.888 I-1.074 J-0.236
X-21.4 Y0 Z-12 I1.074 J0.236
X-23.6 I-1.1
X-21.4 I1.1
G1 X-21.384 Y0.257 F850
X-21.38 Y0.407
X-21.416 Y0.552
X-21.479 Y0.689
X-21.562 Y0.813
X-21.662 Y0.925
X-21.776 Y1.022
X-21.902 Y1.104
X-22.037 Y1.17
X-22.179 Y1.218
X-22.326 Y1.248
X-22.475 Y1.261
X-22.625 Y1.256
X-22.773 Y1.232
X-22.917 Y1.191
X-23.056 Y1.134
X-23.186 Y1.06
X-23.307 Y0.971
X-23.417 Y0.868
X-23.513 Y0.754
X-23.596 Y0.628
X-23.662 Y0.494
X-23.713 Y0.352
X-23.746 Y0.206
X-23.762 Y0.057
X-23.759 Y-0.093
X-23.74 Y-0.242
X-23.702 Y-0.387
X-23.648 Y-0.527
X-23.577 Y-0.659
X-23.492 Y-0.782
X-23.392 Y-0.894
X-23.279 Y-0.994
X-23.156 Y-1.079
X-23.024 Y-1.149
X-22.884 Y-1.203
X-22.738 Y-1.24
X-22.59 Y-1.26
X-22.44 Y-1.261
X-22.29 Y-1.245
X-22.144 Y-1.212
X-22.003 Y-1.161
X-21.869 Y-1.094
X-21.744 Y-1.011
X-21.629 Y-0.915
X-21.527 Y-0.805
X-21.438 Y-0.684
X-21.365 Y-0.553
X-21.307 Y-0.415
X-21.263 Y-0.271
X-21.227 Y-0.121
X-21.207 Y0.12
X-21.229 Y0.361
X-21.292 Y0.595
X-21.395 Y0.814
X-21.414 Y0.847
X-21.435 Y0.876
X-21.463 Y0.908
X-21.497 Y0.94
X-21.706 Y1.115
X-21.741 Y1.144
X-21.794 Y1.184
G3 X-22.283 Y1.091 I-0.193 J-0.316
X-21.692 Y0.646 I0.296 J-0.223
X-21.741 Y1.144 I-0.296 J0.223
G1 X-21.769 Y1.168
X-21.811 Y1.195
X-21.852 Y1.216
X-22.144 Y1.322
X-22.184 Y1.337
X-22.217 Y1.348
X-22.29 Y1.362
X-22.341 Y1.354
X-22.388 Y1.333
X-22.428 Y1.299
X-22.457 Y1.257
X-22.473 Y1.208
G3 X-22.101 Y1.137 I0.186 J-0.035
X-22.217 Y1.348 I-0.186 J0.035
G1 X-22.253 Y1.357
X-22.29 Y1.362
X-22.436 Y1.364
X-22.582
X-22.662 Y1.362
X-22.698 Y1.361
X-22.728 Y1.36
X-22.791 Y1.346
G3 X-22.646 Y0.926 I0.072 J-0.21
X-22.619 Y1.334 I-0.072 J0.21
G1 X-22.672 Y1.353
X-22.728 Y1.36
X-22.764 Y1.354
X-22.801 Y1.342
X-23.02 Y1.263
X-23.1 Y1.233
X-23.136 Y1.219
X-23.166 Y1.208
X-23.22 Y1.176
G3 X-22.952 Y0.822 I0.134 J-0.177
X-23.06 Y1.219 I-0.134 J0.177
G1 X-23.114
X-23.166 Y1.208
X-23.198 Y1.191
X-23.231 Y1.168
X-23.488 Y0.952
X-23.512 Y0.931
X-23.543 Y0.904
X-23.567 Y0.876
X-23.604 Y0.817
X-23.75 Y0.564
X-23.769 Y0.529
X-23.79 Y0.483
X-23.806 Y0.435
X-23.817 Y0.386
G3 X-23.19 Y0.278 I0.315 J-0.046
G1 X-23.185 Y0.303
G3 X-23.769 Y0.529 I-0.312 J0.062
G1 X-23.785 Y0.501
X-23.798 Y0.469
X-23.807 Y0.438
X-23.86 Y0.146
X-23.871 Y0.066
X-23.876 Y0.03
X-23.881 Y0
X-23.799 Y-0.42
X-23.781 Y-0.483
X-23.757 Y-0.545
X-23.727 Y-0.603
G3 X-23.152 Y-0.346 I0.27 J0.169
G1 X-23.262 Y0.033
G3 X-23.881 Y0 I-0.305 J-0.089
G1 X-23.86 Y-0.146
X-23.807 Y-0.438
X-23.798 Y-0.469
X-23.785 Y-0.501
X-23.738 Y-0.584
X-23.604 Y-0.817
X-23.583 Y-0.849
X-23.567 Y-0.876
X-23.522 Y-0.923
G3 X-23.23 Y-0.581 I0.146 J0.171
X-23.6 Y-0.768 I-0.146 J-0.171
G1 X-23.589 Y-0.824
X-23.567 Y-0.876
X-23.543 Y-0.904
X-23.512 Y-0.931
X-23.267 Y-1.137
X-23.231 Y-1.168
X-23.198 Y-1.191
X-23.166 Y-1.208
X-23.02 Y-1.263
X-22.801 Y-1.342
X-22.764 Y-1.354
X-22.728 Y-1.36
X-22.582 Y-1.364
X-22.436
X-22.356 Y-1.363
X-22.251 Y-1.357
G3 X-21.97 Y-0.961 I-0.104 J0.371
X-22.725 Y-1.009 I-0.378 J-0.024
X-22.356 Y-1.363 I0.378 J0.024
G1 X-22.29 Y-1.362
X-22.253 Y-1.357
X-22.217 Y-1.348
X-21.918 Y-1.24
X-21.881 Y-1.227
X-21.852 Y-1.216
X-21.781 Y-1.175
G3 X-22.138 Y-0.673 I-0.179 J0.251
X-21.985 Y-1.231 I0.179 J-0.251
G1 X-21.918 Y-1.23
X-21.852 Y-1.216
X-21.811 Y-1.195
X-21.769 Y-1.168
X-21.526 Y-0.963
X-21.497 Y-0.94
X-21.463 Y-0.908
X-21.435 Y-0.876
X-21.414 Y-0.847
X-21.22 Y-0.511
X-21.204 Y-0.474
X-21.193 Y-0.438
X-21.14 Y-0.146
X-21.122 Y-0.039
X-21.119 Y0
X-21.122 Y0.039
X-21.166 Y0.292
X-21.193 Y0.438
X-21.204 Y0.474
X-21.22 Y0.511
X-21.395 Y0.814
G3 X-21.663 Y0.963 I-0.269 J-0.169
G1 X-21.664
X-21.713 Y0.959
X-21.76 Y0.948
X-21.806 Y0.93
X-21.847 Y0.895 Z-11.995
X-21.887 Y0.86 Z-11.981
X-21.924 Y0.828 Z-11.958
X-21.942 Y0.782 Z-11.923
X-21.957 Y0.744 Z-11.879
X-21.968 Y0.713 Z-11.828
X-21.976 Y0.692 Z-11.772
X-21.98 Y0.682 Z-11.713
Y0.68 Z-11.682
G0 Z5
X-8.57 Y0.255
Z2.5
G3 X-6.43 Y-0.255 Z2.379 I1.07 J-0.255 F283.3
X-8.57 Y0.255 Z2.259 I-1.07 J0.255
X-6.43 Y-0.255 Z2.138 I1.07 J-0.255
X-8.57 Y0.255 Z2.017 I-1.07 J0.255
X-6.43 Y-0.255 Z1.897 I1.07 J-0.255
X-8.57 Y0.255 Z1.776 I-1.07 J0.255
X-6.43 Y-0.255 Z1.655 I1.07 J-0.255
X-8.57 Y0.255 Z1.535 I-1.07 J0.255
X-6.43 Y-0.255 Z1.414 I1.07 J-0.255
X-8.57 Y0.255 Z1.293 I-1.07 J0.255
X-6.43 Y-0.255 Z1.173 I1.07 J-0.255
X-8.57 Y0.255 Z1.052 I-1.07 J0.255
X-6.43 Y-0.255 Z0.931 I1.07 J-0.255
X-8.57 Y0.255 Z0.811 I-1.07 J0.255
X-6.43 Y-0.255 Z0.69 I1.07 J-0.255
X-8.57 Y0.255 Z0.569 I-1.07 J0.255
X-6.43 Y-0.255 Z0.448 I1.07 J-0.255
X-8.57 Y0.255 Z0.328 I-1.07 J0.255
X-6.43 Y-0.255 Z0.207 I1.07 J-0.255
X-8.57 Y0.255 Z0.086 I-1.07 J0.255
X-6.43 Y-0.255 Z-0.034 I1.07 J-0.255
X-8.57 Y0.255 Z-0.155 I-1.07 J0.255
X-6.43 Y-0.255 Z-0.276 I1.07 J-0.255
X-8.57 Y0.255 Z-0.396 I-1.07 J0.255
X-6.43 Y-0.255 Z-0.517 I1.07 J-0.255
X-8.57 Y0.255 Z-0.638 I-1.07 J0.255
X-6.43 Y-0.255 Z-0.758 I1.07 J-0.255
X-8.57 Y0.255 Z-0.879 I-1.07 J0.255
X-6.43 Y-0.255 Z-1 I1.07 J-0.255
X-8.57 Y0.255 Z-1.12 I-1.07 J0.255
X-7.629 Y-1.092 Z-1.185 I1.07 J-0.255
X-6.4 Y0 Z-1.25 I0.129 J1.092
X-8.6 I-1.1
X-6.4 I1.1
G1 X-6.384 Y0.257 F850
X-6.38 Y0.407
X-6.416 Y0.552
X-6.479 Y0.689
X-6.562 Y0.813
X-6.662 Y0.925
X-6.776 Y1.022
X-6.902 Y1.104
X-7.037 Y1.17
X-7.179 Y1.218
X-7.326 Y1.248
X-7.475 Y1.261
X-7.625 Y1.256
X-7.773 Y1.232
X-7.917 Y1.191
X-8.056 Y1.134
X-8.186 Y1.06
X-8.307 Y0.971
X-8.417 Y0.868
X-8.513 Y0.754
X-8.596 Y0.628
X-8.662 Y0.494
X-8.713 Y0.352
X-8.746 Y0.206
X-8.762 Y0.057
X-8.759 Y-0.093
X-8.74 Y-0.242
X-8.702 Y-0.387
X-8.648 Y-0.527
X-8.577 Y-0.659
X-8.492 Y-0.782
X-8.392 Y-0.894
X-8.279 Y-0.994
X-8.156 Y-1.079
X-8.024 Y-1.149
X-7.884 Y-1.203
X-7.738 Y-1.24
X-7.59 Y-1.26
X-7.44 Y-1.261
X-7.29 Y-1.245
X-7.144 Y-1.212
X-7.003 Y-1.161
X-6.869 Y-1.094
X-6.744 Y-1.011
X-6.629 Y-0.915
X-6.527 Y-0.805
X-6.438 Y-0.684
X-6.365 Y-0.553
X-6.307 Y-0.415
X-6.263 Y-0.271
X-6.228 Y-0.123
X-6.207 Y0.126
X-6.232 Y0.374
X-6.3 Y0.615
X-6.411 Y0.839
X-6.433 Y0.876
X-6.453 Y0.899
X-6.477 Y0.923
X-6.723 Y1.129
X-6.748 Y1.15
X-6.798 Y1.187
X-6.813 Y1.198
G3 X-7.076 Y1.116 I-0.077 J-0.217
X-6.717 Y0.854 I0.18 J-0.131
X-6.748 Y1.15 I-0.18 J0.131
G1 X-6.769 Y1.168
X-6.813 Y1.198
X-6.959 Y1.255
X-7.12 Y1.314
X-7.192 Y1.337
X-7.225 Y1.348
X-7.251 Y1.357
X-7.31 Y1.362
X-7.353 Y1.364
X-7.396
G3 X-7.374 Y0.729 I0.011 J-0.318
X-7.242 Y0.763 I-0.011 J0.318
G1 X-7.218 Y0.775
G3 X-7.251 Y1.357 I-0.143 J0.284
G1 X-7.288 Y1.362
X-7.324 Y1.364
X-7.623
X-7.66
X-7.689
X-7.765 Y1.354
G3 X-7.894 Y1.136 I0.071 J-0.19
X-7.497 Y1.191 I0.199 J0.028
X-7.689 Y1.364 I-0.199 J-0.028
G1 X-7.726 Y1.361
X-7.762 Y1.354
X-7.835 Y1.33
X-8.098 Y1.234
X-8.127 Y1.224
X-8.179 Y1.201
X-8.23 Y1.168
X-8.273 Y1.132
X-8.492 Y0.949
X-8.529 Y0.917
X-8.575 Y0.862
G3 X-8.246 Y0.68 I0.164 J-0.091
X-8.43 Y0.958 I-0.164 J0.091
G1 X-8.482 Y0.944
X-8.529 Y0.917
X-8.567 Y0.876
X-8.654 Y0.73
X-8.761 Y0.544
X-8.78 Y0.511
X-8.796 Y0.474
X-8.807 Y0.438
X-8.86 Y0.146
X-8.871 Y0.066
X-8.874 Y0.013
X-8.873 Y-0.041
X-8.867 Y-0.094
G3 X-8.237 Y-0.011 I0.313 J0.056
G1 X-8.241 Y0.036
G3 X-8.871 Y0.066 I-0.317 J-0.027
G1 X-8.881 Y0
X-8.857 Y-0.16
X-8.819 Y-0.372
X-8.813 Y-0.408
X-8.807 Y-0.438
X-8.786 Y-0.498
G3 X-8.361 Y-0.292 I0.212 J0.103
X-8.573 Y-0.159 I-0.212 J-0.103
X-8.801 Y-0.334 J-0.236
G1 X-8.81 Y-0.386
X-8.807 Y-0.438
X-8.796 Y-0.474
X-8.78 Y-0.511
X-8.654 Y-0.73
X-8.606 Y-0.81
X-8.584 Y-0.846
X-8.567 Y-0.876
X-8.563 Y-0.88
X-8.57 Y-0.866
X-8.567 Y-0.876
X-8.529 Y-0.917
X-8.273 Y-1.132
X-8.23 Y-1.168
X-8.179 Y-1.201
X-8.127 Y-1.224
X-7.835 Y-1.33
X-7.795 Y-1.343
X-7.744 Y-1.358
G3 X-7.468 Y-1.177 I0.035 J0.248
X-7.948 Y-1.043 I-0.24 J0.067
X-7.795 Y-1.343 I0.24 J-0.067
G1 X-7.762 Y-1.354
X-7.726 Y-1.361
X-7.689 Y-1.364
X-7.357
X-7.324
X-7.288 Y-1.362
X-7.251 Y-1.357
X-7.105 Y-1.308
X-6.959 Y-1.255
X-6.879 Y-1.223
X-6.843 Y-1.209
X-6.818 Y-1.197
X-6.794 Y-1.184
X-6.771 Y-1.169
G3 X-7.129 Y-0.679 I-0.179 J0.245
X-6.963 Y-1.227 I0.179 J-0.245
G1 X-6.902 Y-1.224
X-6.843 Y-1.209
X-6.813 Y-1.198
X-6.769 Y-1.168
X-6.521 Y-0.96
X-6.497 Y-0.939
X-6.477 Y-0.923
X-6.433 Y-0.875
X-6.416 Y-0.832
X-6.411 Y-0.786
X-6.418 Y-0.74
X-6.437 Y-0.698
X-6.466 Y-0.662
G3 X-6.7 Y-0.913 I-0.117 J-0.126
X-6.477 Y-0.923 I0.117 J0.126
G1 X-6.453 Y-0.899
X-6.433 Y-0.876
X-6.375 Y-0.78
X-6.229 Y-0.528
X-6.207 Y-0.483
X-6.193 Y-0.438
X-6.14 Y-0.146
X-6.119 Y0
X-6.14 Y0.146
X-6.193 Y0.438
X-6.207 Y0.483
X-6.229 Y0.528
X-6.375 Y0.78
X-6.411 Y0.839
G3 X-6.823 Y0.945 I-0.266 J-0.175
G1 X-6.864 Y0.909 Z-1.245
X-6.903 Y0.874 Z-1.231
X-6.94 Y0.841 Z-1.208
X-6.956 Y0.795 Z-1.173
X-6.97 Y0.756 Z-1.129
X-6.981 Y0.725 Z-1.078
X-6.989 Y0.704 Z-1.022
X-6.993 Y0.693 Z-0.963
Y0.692 Z-0.932
G0 Z5
X-8.57 Y0.255
Z1.25
G3 X-6.43 Y-0.255 Z1.129 I1.07 J-0.255 F283.3
X-8.57 Y0.255 Z1.009 I-1.07 J0.255
X-6.43 Y-0.255 Z0.888 I1.07 J-0.255
X-8.57 Y0.255 Z0.767 I-1.07 J0.255
X-6.43 Y-0.255 Z0.647 I1.07 J-0.255
X-8.57 Y0.255 Z0.526 I-1.07 J0.255
X-6.43 Y-0.255 Z0.405 I1.07 J-0.255
X-8.57 Y0.255 Z0.285 I-1.07 J0.255
X-6.43 Y-0.255 Z0.164 I1.07 J-0.255
X-8.57 Y0.255 Z0.043 I-1.07 J0.255
X-6.43 Y-0.255 Z-0.077 I1.07 J-0.255
X-8.57 Y0.255 Z-0.198 I-1.07 J0.255
X-6.43 Y-0.255 Z-0.319 I1.07 J-0.255
X-8.57 Y0.255 Z-0.439 I-1.07 J0.255
X-6.43 Y-0.255 Z-0.56 I1.07 J-0.255
X-8.57 Y0.255 Z-0.681 I-1.07 J0.255
X-6.43 Y-0.255 Z-0.802 I1.07 J-0.255
X-8.57 Y0.255 Z-0.922 I-1.07 J0.255
X-6.43 Y-0.255 Z-1.043 I1.07 J-0.255
X-8.57 Y0.255 Z-1.164 I-1.07 J0.255
X-6.43 Y-0.255 Z-1.284 I1.07 J-0.255
X-8.57 Y0.255 Z-1.405 I-1.07 J0.255
X-6.43 Y-0.255 Z-1.526 I1.07 J-0.255
X-8.57 Y0.255 Z-1.646 I-1.07 J0.255
X-6.43 Y-0.255 Z-1.767 I1.07 J-0.255
X-8.57 Y0.255 Z-1.888 I-1.07 J0.255
X-6.43 Y-0.255 Z-2.008 I1.07 J-0.255
X-8.57 Y0.255 Z-2.129 I-1.07 J0.255
X-6.43 Y-0.255 Z-2.25 I1.07 J-0.255
X-8.57 Y0.255 Z-2.37 I-1.07 J0.255
X-7.629 Y-1.092 Z-2.435 I1.07 J-0.255
X-6.4 Y0 Z-2.5 I0.129 J1.092
X-8.6 I-1.1
X-6.4 I1.1
G1 X-6.384 Y0.257 F850
X-6.38 Y0.407
X-6.416 Y0.552
X-6.479 Y0.689
X-6.562 Y0.813
X-6.662 Y0.925
X-6.776 Y1.022
X-6.902 Y1.104
X-7.037 Y1.17
X-7.179 Y1.218
X-7.326 Y1.248
X-7.475 Y1.261
X-7.625 Y1.256
X-7.773 Y1.232
X-7.917 Y1.191
X-8.056 Y1.134
X-8.186 Y1.06
X-8.307 Y0.971
X-8.417 Y0.868
X-8.513 Y0.754
X-8.596 Y0.628
X-8.662 Y0.494
X-8.713 Y0.352
X-8.746 Y0.206
X-8.762 Y0.057
X-8.759 Y-0.093
X-8.74 Y-0.242
X-8.702 Y-0.387
X-8.648 Y-0.527
X-8.577 Y-0.659
X-8.492 Y-0.782
X-8.392 Y-0.894
X-8.279 Y-0.994
X-8.156 Y-1.079
X-8.024 Y-1.149
X-7.884 Y-1.203
X-7.738 Y-1.24
X-7.59 Y-1.26
X-7.44 Y-1.261
X-7.29 Y-1.245
X-7.144 Y-1.212
X-7.003 Y-1.161
X-6.869 Y-1.094
X-6.744 Y-1.011
X-6.629 Y-0.915
X-6.527 Y-0.805
X-6.438 Y-0.684
X-6.365 Y-0.553
X-6.307 Y-0.415
X-6.263 Y-0.271
X-6.228 Y-0.123
X-6.207 Y0.126
X-6.232 Y0.374
X-6.3 Y0.615
X-6.411 Y0.839
X-6.433 Y0.876
X-6.453 Y0.899
X-6.477 Y0.923
X-6.723 Y1.129
X-6.748 Y1.15
X-6.798 Y1.187
X-6.813 Y1.198
G3 X-7.076 Y1.116 I-0.077 J-0.217
X-6.717 Y0.854 I0.18 J-0.131
X-6.748 Y1.15 I-0.18 J0.131
G1 X-6.769 Y1.168
X-6.813 Y1.198
X-6.959 Y1.255
X-7.12 Y1.314
X-7.192 Y1.337
X-7.225 Y1.348
X-7.251 Y1.357
X-7.31 Y1.362
X-7.353 Y1.364
X-7.396
G3 X-7.374 Y0.729 I0.011 J-0.318
X-7.242 Y0.763 I-0.011 J0.318
G1 X-7.218 Y0.775
G3 X-7.251 Y1.357 I-0.143 J0.284
G1 X-7.288 Y1.362
X-7.324 Y1.364
X-7.623
X-7.66
X-7.689
X-7.765 Y1.354
G3 X-7.894 Y1.136 I0.071 J-0.19
X-7.497 Y1.191 I0.199 J0.028
X-7.689 Y1.364 I-0.199 J-0.028
G1 X-7.726 Y1.361
X-7.762 Y1.354
X-7.835 Y1.33
X-8.098 Y1.234
X-8.127 Y1.224
X-8.179 Y1.201
X-8.23 Y1.168
X-8.273 Y1.132
X-8.492 Y0.949
X-8.529 Y0.917
X-8.575 Y0.862
G3 X-8.246 Y0.68 I0.164 J-0.091
X-8.43 Y0.958 I-0.164 J0.091
G1 X-8.482 Y0.944
X-8.529 Y0.917
X-8.567 Y0.876
X-8.654 Y0.73
X-8.761 Y0.544
X-8.78 Y0.511
X-8.796 Y0.474
X-8.807 Y0.438
X-8.86 Y0.146
X-8.871 Y0.066
X-8.874 Y0.013
X-8.873 Y-0.041
X-8.867 Y-0.094
G3 X-8.237 Y-0.011 I0.313 J0.056
G1 X-8.241 Y0.036
G3 X-8.871 Y0.066 I-0.317 J-0.027
G1 X-8.881 Y0
X-8.857 Y-0.16
X-8.819 Y-0.372
X-8.813 Y-0.408
X-8.807 Y-0.438
X-8.786 Y-0.498
G3 X-8.361 Y-0.292 I0.212 J0.103
X-8.573 Y-0.159 I-0.212 J-0.103
X-8.801 Y-0.334 J-0.236
G1 X-8.81 Y-0.386
X-8.807 Y-0.438
X-8.796 Y-0.474
X-8.78 Y-0.511
X-8.654 Y-0.73
X-8.606 Y-0.81
X-8.584 Y-0.846
X-8.567 Y-0.876
X-8.563 Y-0.88
X-8.57 Y-0.866
X-8.567 Y-0.876
X-8.529 Y-0.917
X-8.273 Y-1.132
X-8.23 Y-1.168
X-8.179 Y-1.201
X-8.127 Y-1.224
X-7.835 Y-1.33
X-7.795 Y-1.343
X-7.744 Y-1.358
G3 X-7.468 Y-1.177 I0.035 J0.248
X-7.948 Y-1.043 I-0.24 J0.067
X-7.795 Y-1.343 I0.24 J-0.067
G1 X-7.762 Y-1.354
X-7.726 Y-1.361
X-7.689 Y-1.364
X-7.357
X-7.324
X-7.288 Y-1.362
X-7.251 Y-1.357
X-7.105 Y-1.308
X-6.959 Y-1.255
X-6.879 Y-1.223
X-6.843 Y-1.209
X-6.818 Y-1.197
X-6.794 Y-1.184
X-6.771 Y-1.169
G3 X-7.129 Y-0.679 I-0.179 J0.245
X-6.963 Y-1.227 I0.179 J-0.245
G1 X-6.902 Y-1.224
X-6.843 Y-1.209
X-6.813 Y-1.198
X-6.769 Y-1.168
X-6.521 Y-0.96
X-6.497 Y-0.939
X-6.477 Y-0.923
X-6.433 Y-0.875
X-6.416 Y-0.832
X-6.411 Y-0.786
X-6.418 Y-0.74
X-6.437 Y-0.698
X-6.466 Y-0.662
G3 X-6.7 Y-0.913 I-0.117 J-0.126
X-6.477 Y-0.923 I0.117 J0.126
G1 X-6.453 Y-0.899
X-6.433 Y-0.876
X-6.375 Y-0.78
X-6.229 Y-0.528
X-6.207 Y-0.483
X-6.193 Y-0.438
X-6.14 Y-0.146
X-6.119 Y0
X-6.14 Y0.146
X-6.193 Y0.438
X-6.207 Y0.483
X-6.229 Y0.528
X-6.375 Y0.78
X-6.411 Y0.839
G3 X-6.823 Y0.945 I-0.266 J-0.175
G1 X-6.864 Y0.909 Z-2.495
X-6.903 Y0.874 Z-2.481
X-6.94 Y0.841 Z-2.458
X-6.956 Y0.795 Z-2.423
X-6.97 Y0.756 Z-2.379
X-6.981 Y0.725 Z-2.328
X-6.989 Y0.704 Z-2.272
X-6.993 Y0.693 Z-2.213
Y0.692 Z-2.182
G0 Z5
X-8.57 Y0.255
Z0
G3 X-6.43 Y-0.255 Z-0.121 I1.07 J-0.255 F283.3
X-8.57 Y0.255 Z-0.241 I-1.07 J0.255
X-6.43 Y-0.255 Z-0.362 I1.07 J-0.255
X-8.57 Y0.255 Z-0.483 I-1.07 J0.255
X-6.43 Y-0.255 Z-0.603 I1.07 J-0.255
X-8.57 Y0.255 Z-0.724 I-1.07 J0.255
X-6.43 Y-0.255 Z-0.845 I1.07 J-0.255
X-8.57 Y0.255 Z-0.965 I-1.07 J0.255
X-6.43 Y-0.255 Z-1.086 I1.07 J-0.255
X-8.57 Y0.255 Z-1.207 I-1.07 J0.255
X-6.43 Y-0.255 Z-1.327 I1.07 J-0.255
X-8.57 Y0.255 Z-1.448 I-1.07 J0.255
X-6.43 Y-0.255 Z-1.569 I1.07 J-0.255
X-8.57 Y0.255 Z-1.689 I-1.07 J0.255
X-6.43 Y-0.255 Z-1.81 I1.07 J-0.255
X-8.57 Y0.255 Z-1.931 I-1.07 J0.255
X-6.43 Y-0.255 Z-2.052 I1.07 J-0.255
X-8.57 Y0.255 Z-2.172 I-1.07 J0.255
X-6.43 Y-0.255 Z-2.293 I1.07 J-0.255
X-8.57 Y0.255 Z-2.414 I-1.07 J0.255
X-6.43 Y-0.255 Z-2.534 I1.07 J-0.255
X-8.57 Y0.255 Z-2.655 I-1.07 J0.255
X-6.43 Y-0.255 Z-2.776 I1.07 J-0.255
X-8.57 Y0.255 Z-2.896 I-1.07 J0.255
X-6.43 Y-0.255 Z-3.017 I1.07 J-0.255
X-8.57 Y0.255 Z-3.138 I-1.07 J0.255
X-6.43 Y-0.255 Z-3.258 I1.07 J-0.255
X-8.57 Y0.255 Z-3.379 I-1.07 J0.255
X-6.43 Y-0.255 Z-3.5 I1.07 J-0.255
X-8.57 Y0.255 Z-3.62 I-1.07 J0.255
X-7.629 Y-1.092 Z-3.685 I1.07 J-0.255
X-6.4 Y0 Z-3.75 I0.129 J1.092
X-8.6 I-1.1
X-6.4 I1.1
G1 X-6.384 Y0.257 F850
X-6.38 Y0.407
X-6.416 Y0.552
X-6.479 Y0.689
X-6.562 Y0.813
X-6.662 Y0.925
X-6.776 Y1.022
X-6.902 Y1.104
X-7.037 Y1.17
X-7.179 Y1.218
X-7.326 Y1.248
X-7.475 Y1.261
X-7.625 Y1.256
X-7.773 Y1.232
X-7.917 Y1.191
X-8.056 Y1.134
X-8.186 Y1.06
X-8.307 Y0.971
X-8.417 Y0.868
X-8.513 Y0.754
X-8.596 Y0.628
X-8.662 Y0.494
X-8.713 Y0.352
X-8.746 Y0.206
X-8.762 Y0.057
X-8.759 Y-0.093
X-8.74 Y-0.242
X-8.702 Y-0.387
X-8.648 Y-0.527
X-8.577 Y-0.659
X-8.492 Y-0.782
X-8.392 Y-0.894
X-8.279 Y-0.994
X-8.156 Y-1.079
X-8.024 Y-1.149
X-7.884 Y-1.203
X-7.738 Y-1.24
X-7.59 Y-1.26
X-7.44 Y-1.261
X-7.29 Y-1.245
X-7.144 Y-1.212
X-7.003 Y-1.161
X-6.869 Y-1.094
X-6.744 Y-1.011
X-6.629 Y-0.915
X-6.527 Y-0.805
X-6.438 Y-0.684
X-6.365 Y-0.553
X-6.307 Y-0.415
X-6.263 Y-0.271
X-6.228 Y-0.123
X-6.207 Y0.126
X-6.232 Y0.374
X-6.3 Y0.615
X-6.411 Y0.839
X-6.433 Y0.876
X-6.453 Y0.899
X-6.477 Y0.923
X-6.723 Y1.129
X-6.748 Y1.15
X-6.798 Y1.187
X-6.813 Y1.198
G3 X-7.076 Y1.116 I-0.077 J-0.217
X-6.717 Y0.854 I0.18 J-0.131
X-6.748 Y1.15 I-0.18 J0.131
G1 X-6.769 Y1.168
X-6.813 Y1.198
X-6.959 Y1.255
X-7.12 Y1.314
X-7.192 Y1.337
X-7.225 Y1.348
X-7.251 Y1.357
X-7.31 Y1.362
X-7.353 Y1.364
X-7.396
G3 X-7.374 Y0.729 I0.011 J-0.318
X-7.242 Y0.763 I-0.011 J0.318
G1 X-7.218 Y0.775
G3 X-7.251 Y1.357 I-0.143 J0.284
G1 X-7.288 Y1.362
X-7.324 Y1.364
X-7.623
X-7.66
X-7.689
X-7.765 Y1.354
G3 X-7.894 Y1.136 I0.071 J-0.19
X-7.497 Y1.191 I0.199 J0.028
X-7.689 Y1.364 I-0.199 J-0.028
G1 X-7.726 Y1.361
X-7.762 Y1.354
X-7.835 Y1.33
X-8.098 Y1.234
X-8.127 Y1.224
X-8.179 Y1.201
X-8.23 Y1.168
X-8.273 Y1.132
X-8.492 Y0.949
X-8.529 Y0.917
X-8.575 Y0.862
G3 X-8.246 Y0.68 I0.164 J-0.091
X-8.43 Y0.958 I-0.164 J0.091
G1 X-8.482 Y0.944
X-8.529 Y0.917
X-8.567 Y0.876
X-8.654 Y0.73
X-8.761 Y0.544
X-8.78 Y0.511
X-8.796 Y0.474
X-8.807 Y0.438
X-8.86 Y0.146
X-8.871 Y0.066
X-8.874 Y0.013
X-8.873 Y-0.041
X-8.867 Y-0.094
G3 X-8.237 Y-0.011 I0.313 J0.056
G1 X-8.241 Y0.036
G3 X-8.871 Y0.066 I-0.317 J-0.027
G1 X-8.881 Y0
X-8.857 Y-0.16
X-8.819 Y-0.372
X-8.813 Y-0.408
X-8.807 Y-0.438
X-8.786 Y-0.498
G3 X-8.361 Y-0.292 I0.212 J0.103
X-8.573 Y-0.159 I-0.212 J-0.103
X-8.801 Y-0.334 J-0.236
G1 X-8.81 Y-0.386
X-8.807 Y-0.438
X-8.796 Y-0.474
X-8.78 Y-0.511
X-8.654 Y-0.73
X-8.606 Y-0.81
X-8.584 Y-0.846
X-8.567 Y-0.876
X-8.563 Y-0.88
X-8.57 Y-0.866
X-8.567 Y-0.876
X-8.529 Y-0.917
X-8.273 Y-1.132
X-8.23 Y-1.168
X-8.179 Y-1.201
X-8.127 Y-1.224
X-7.835 Y-1.33
X-7.795 Y-1.343
X-7.744 Y-1.358
G3 X-7.468 Y-1.177 I0.035 J0.248
X-7.948 Y-1.043 I-0.24 J0.067
X-7.795 Y-1.343 I0.24 J-0.067
G1 X-7.762 Y-1.354
X-7.726 Y-1.361
X-7.689 Y-1.364
X-7.357
X-7.324
X-7.288 Y-1.362
X-7.251 Y-1.357
X-7.105 Y-1.308
X-6.959 Y-1.255
X-6.879 Y-1.223
X-6.843 Y-1.209
X-6.818 Y-1.197
X-6.794 Y-1.184
X-6.771 Y-1.169
G3 X-7.129 Y-0.679 I-0.179 J0.245
X-6.963 Y-1.227 I0.179 J-0.245
G1 X-6.902 Y-1.224
X-6.843 Y-1.209
X-6.813 Y-1.198
X-6.769 Y-1.168
X-6.521 Y-0.96
X-6.497 Y-0.939
X-6.477 Y-0.923
X-6.433 Y-0.875
X-6.416 Y-0.832
X-6.411 Y-0.786
X-6.418 Y-0.74
X-6.437 Y-0.698
X-6.466 Y-0.662
G3 X-6.7 Y-0.913 I-0.117 J-0.126
X-6.477 Y-0.923 I0.117 J0.126
G1 X-6.453 Y-0.899
X-6.433 Y-0.876
X-6.375 Y-0.78
X-6.229 Y-0.528
X-6.207 Y-0.483
X-6.193 Y-0.438
X-6.14 Y-0.146
X-6.119 Y0
X-6.14 Y0.146
X-6.193 Y0.438
X-6.207 Y0.483
X-6.229 Y0.528
X-6.375 Y0.78
X-6.411 Y0.839
G3 X-6.823 Y0.945 I-0.266 J-0.175
G1 X-6.864 Y0.909 Z-3.745
X-6.903 Y0.874 Z-3.731
X-6.94 Y0.841 Z-3.708
X-6.956 Y0.795 Z-3.673
X-6.97 Y0.756 Z-3.629
X-6.981 Y0.725 Z-3.578
X-6.989 Y0.704 Z-3.522
X-6.993 Y0.693 Z-3.463
Y0.692 Z-3.432
G0 Z5
X-8.57 Y0.255
Z-1.25
G3 X-6.43 Y-0.255 Z-1.371 I1.07 J-0.255 F283.3
X-8.57 Y0.255 Z-1.491 I-1.07 J0.255
X-6.43 Y-0.255 Z-1.612 I1.07 J-0.255
X-8.57 Y0.255 Z-1.733 I-1.07 J0.255
X-6.43 Y-0.255 Z-1.853 I1.07 J-0.255
X-8.57 Y0.255 Z-1.974 I-1.07 J0.255
X-6.43 Y-0.255 Z-2.095 I1.07 J-0.255
X-8.57 Y0.255 Z-2.215 I-1.07 J0.255
X-6.43 Y-0.255 Z-2.336 I1.07 J-0.255
X-8.57 Y0.255 Z-2.457 I-1.07 J0.255
X-6.43 Y-0.255 Z-2.577 I1.07 J-0.255
X-8.57 Y0.255 Z-2.698 I-1.07 J0.255
X-6.43 Y-0.255 Z-2.819 I1.07 J-0.255
X-8.57 Y0.255 Z-2.939 I-1.07 J0.255
X-6.43 Y-0.255 Z-3.06 I1.07 J-0.255
X-8.57 Y0.255 Z-3.181 I-1.07 J0.255
X-6.43 Y-0.255 Z-3.302 I1.07 J-0.255
X-8.57 Y0.255 Z-3.422 I-1.07 J0.255
X-6.43 Y-0.255 Z-3.543 I1.07 J-0.255
X-8.57 Y0.255 Z-3.664 I-1.07 J0.255
X-6.43 Y-0.255 Z-3.784 I1.07 J-0.255
X-8.57 Y0.255 Z-3.905 I-1.07 J0.255
X-6.43 Y-0.255 Z-4.026 I1.07 J-0.255
X-8.57 Y0.255 Z-4.146 I-1.07 J0.255
X-6.43 Y-0.255 Z-4.267 I1.07 J-0.255
X-8.57 Y0.255 Z-4.388 I-1.07 J0.255
X-6.43 Y-0.255 Z-4.508 I1.07 J-0.255
X-8.57 Y0.255 Z-4.629 I-1.07 J0.255
X-6.43 Y-0.255 Z-4.75 I1.07 J-0.255
X-8.57 Y0.255 Z-4.87 I-1.07 J0.255
X-7.629 Y-1.092 Z-4.935 I1.07 J-0.255
X-6.4 Y0 Z-5 I0.129 J1.092
X-8.6 I-1.1
X-6.4 I1.1
G1 X-6.384 Y0.257 F850
X-6.38 Y0.407
X-6.416 Y0.552
X-6.479 Y0.689
X-6.562 Y0.813
X-6.662 Y0.925
X-6.776 Y1.022
X-6.902 Y1.104
X-7.037 Y1.17
X-7.179 Y1.218
X-7.326 Y1.248
X-7.475 Y1.261
X-7.625 Y1.256
X-7.773 Y1.232
X-7.917 Y1.191
X-8.056 Y1.134
X-8.186 Y1.06
X-8.307 Y0.971
X-8.417 Y0.868
X-8.513 Y0.754
X-8.596 Y0.628
X-8.662 Y0.494
X-8.713 Y0.352
X-8.746 Y0.206
X-8.762 Y0.057
X-8.759 Y-0.093
X-8.74 Y-0.242
X-8.702 Y-0.387
X-8.648 Y-0.527
X-8.577 Y-0.659
X-8.492 Y-0.782
X-8.392 Y-0.894
X-8.279 Y-0.994
X-8.156 Y-1.079
X-8.024 Y-1.149
X-7.884 Y-1.203
X-7.738 Y-1.24
X-7.59 Y-1.26
X-7.44 Y-1.261
X-7.29 Y-1.245
X-7.144 Y-1.212
X-7.003 Y-1.161
X-6.869 Y-1.094
X-6.744 Y-1.011
X-6.629 Y-0.915
X-6.527 Y-0.805
X-6.438 Y-0.684
X-6.365 Y-0.553
X-6.307 Y-0.415
X-6.263 Y-0.271
X-6.228 Y-0.123
X-6.207 Y0.126
X-6.232 Y0.374
X-6.3 Y0.615
X-6.411 Y0.839
X-6.433 Y0.876
X-6.453 Y0.899
X-6.477 Y0.923
X-6.723 Y1.129
X-6.748 Y1.15
X-6.798 Y1.187
X-6.813 Y1.198
G3 X-7.076 Y1.116 I-0.077 J-0.217
X-6.717 Y0.854 I0.18 J-0.131
X-6.748 Y1.15 I-0.18 J0.131
G1 X-6.769 Y1.168
X-6.813 Y1.198
X-6.959 Y1.255
X-7.12 Y1.314
X-7.192 Y1.337
X-7.225 Y1.348
X-7.251 Y1.357
X-7.31 Y1.362
X-7.353 Y1.364
X-7.396
G3 X-7.374 Y0.729 I0.011 J-0.318
X-7.242 Y0.763 I-0.011 J0.318
G1 X-7.218 Y0.775
G3 X-7.251 Y1.357 I-0.143 J0.284
G1 X-7.288 Y1.362
X-7.324 Y1.364
X-7.623
X-7.66
X-7.689
X-7.765 Y1.354
G3 X-7.894 Y1.136 I0.071 J-0.19
X-7.497 Y1.191 I0.199 J0.028
X-7.689 Y1.364 I-0.199 J-0.028
G1 X-7.726 Y1.361
X-7.762 Y1.354
X-7.835 Y1.33
X-8.098 Y1.234
X-8.127 Y1.224
X-8.179 Y1.201
X-8.23 Y1.168
X-8.273 Y1.132
X-8.492 Y0.949
X-8.529 Y0.917
X-8.575 Y0.862
G3 X-8.246 Y0.68 I0.164 J-0.091
X-8.43 Y0.958 I-0.164 J0.091
G1 X-8.482 Y0.944
X-8.529 Y0.917
X-8.567 Y0.876
X-8.654 Y0.73
X-8.761 Y0.544
X-8.78 Y0.511
X-8.796 Y0.474
X-8.807 Y0.438
X-8.86 Y0.146
X-8.871 Y0.066
X-8.874 Y0.013
X-8.873 Y-0.041
X-8.867 Y-0.094
G3 X-8.237 Y-0.011 I0.313 J0.056
G1 X-8.241 Y0.036
G3 X-8.871 Y0.066 I-0.317 J-0.027
G1 X-8.881 Y0
X-8.857 Y-0.16
X-8.819 Y-0.372
X-8.813 Y-0.408
X-8.807 Y-0.438
X-8.786 Y-0.498
G3 X-8.361 Y-0.292 I0.212 J0.103
X-8.573 Y-0.159 I-0.212 J-0.103
X-8.801 Y-0.334 J-0.236
G1 X-8.81 Y-0.386
X-8.807 Y-0.438
X-8.796 Y-0.474
X-8.78 Y-0.511
X-8.654 Y-0.73
X-8.606 Y-0.81
X-8.584 Y-0.846
X-8.567 Y-0.876
X-8.563 Y-0.88
X-8.57 Y-0.866
X-8.567 Y-0.876
X-8.529 Y-0.917
X-8.273 Y-1.132
X-8.23 Y-1.168
X-8.179 Y-1.201
X-8.127 Y-1.224
X-7.835 Y-1.33
X-7.795 Y-1.343
X-7.744 Y-1.358
G3 X-7.468 Y-1.177 I0.035 J0.248
X-7.948 Y-1.043 I-0.24 J0.067
X-7.795 Y-1.343 I0.24 J-0.067
G1 X-7.762 Y-1.354
X-7.726 Y-1.361
X-7.689 Y-1.364
X-7.357
X-7.324
X-7.288 Y-1.362
X-7.251 Y-1.357
X-7.105 Y-1.308
X-6.959 Y-1.255
X-6.879 Y-1.223
X-6.843 Y-1.209
X-6.818 Y-1.197
X-6.794 Y-1.184
X-6.771 Y-1.169
G3 X-7.129 Y-0.679 I-0.179 J0.245
X-6.963 Y-1.227 I0.179 J-0.245
G1 X-6.902 Y-1.224
X-6.843 Y-1.209
X-6.813 Y-1.198
X-6.769 Y-1.168
X-6.521 Y-0.96
X-6.497 Y-0.939
X-6.477 Y-0.923
X-6.433 Y-0.875
X-6.416 Y-0.832
X-6.411 Y-0.786
X-6.418 Y-0.74
X-6.437 Y-0.698
X-6.466 Y-0.662
G3 X-6.7 Y-0.913 I-0.117 J-0.126
X-6.477 Y-0.923 I0.117 J0.126
G1 X-6.453 Y-0.899
X-6.433 Y-0.876
X-6.375 Y-0.78
X-6.229 Y-0.528
X-6.207 Y-0.483
X-6.193 Y-0.438
X-6.14 Y-0.146
X-6.119 Y0
X-6.14 Y0.146
X-6.193 Y0.438
X-6.207 Y0.483
X-6.229 Y0.528
X-6.375 Y0.78
X-6.411 Y0.839
G3 X-6.823 Y0.945 I-0.266 J-0.175
G1 X-6.864 Y0.909 Z-4.995
X-6.903 Y0.874 Z-4.981
X-6.94 Y0.841 Z-4.958
X-6.956 Y0.795 Z-4.923
X-6.97 Y0.756 Z-4.879
X-6.981 Y0.725 Z-4.828
X-6.989 Y0.704 Z-4.772
X-6.993 Y0.693 Z-4.713
Y0.692 Z-4.682
G0 Z5
X-8.57 Y0.255
Z-2.5
G3 X-6.43 Y-0.255 Z-2.621 I1.07 J-0.255 F283.3
X-8.57 Y0.255 Z-2.741 I-1.07 J0.255
X-6.43 Y-0.255 Z-2.862 I1.07 J-0.255
X-8.57 Y0.255 Z-2.983 I-1.07 J0.255
X-6.43 Y-0.255 Z-3.103 I1.07 J-0.255
X-8.57 Y0.255 Z-3.224 I-1.07 J0.255
X-6.43 Y-0.255 Z-3.345 I1.07 J-0.255
X-8.57 Y0.255 Z-3.465 I-1.07 J0.255
X-6.43 Y-0.255 Z-3.586 I1.07 J-0.255
X-8.57 Y0.255 Z-3.707 I-1.07 J0.255
X-6.43 Y-0.255 Z-3.827 I1.07 J-0.255
X-8.57 Y0.255 Z-3.948 I-1.07 J0.255
X-6.43 Y-0.255 Z-4.069 I1.07 J-0.255
X-8.57 Y0.255 Z-4.189 I-1.07 J0.255
X-6.43 Y-0.255 Z-4.31 I1.07 J-0.255
X-8.57 Y0.255 Z-4.431 I-1.07 J0.255
X-6.43 Y-0.255 Z-4.552 I1.07 J-0.255
X-8.57 Y0.255 Z-4.672 I-1.07 J0.255
X-6.43 Y-0.255 Z-4.793 I1.07 J-0.255
X-8.57 Y0.255 Z-4.914 I-1.07 J0.255
X-6.43 Y-0.255 Z-5.034 I1.07 J-0.255
X-8.57 Y0.255 Z-5.155 I-1.07 J0.255
X-6.43 Y-0.255 Z-5.276 I1.07 J-0.255
X-8.57 Y0.255 Z-5.396 I-1.07 J0.255
X-6.43 Y-0.255 Z-5.517 I1.07 J-0.255
X-8.57 Y0.255 Z-5.638 I-1.07 J0.255
X-6.43 Y-0.255 Z-5.758 I1.07 J-0.255
X-8.57 Y0.255 Z-5.879 I-1.07 J0.255
X-6.43 Y-0.255 Z-6 I1.07 J-0.255
X-8.57 Y0.255 Z-6.12 I-1.07 J0.255
X-7.629 Y-1.092 Z-6.185 I1.07 J-0.255
X-6.4 Y0 Z-6.25 I0.129 J1.092
X-8.6 I-1.1
X-6.4 I1.1
G1 X-6.384 Y0.257 F850
X-6.38 Y0.407
X-6.416 Y0.552
X-6.479 Y0.689
X-6.562 Y0.813
X-6.662 Y0.925
X-6.776 Y1.022
X-6.902 Y1.104
X-7.037 Y1.17
X-7.179 Y1.218
X-7.326 Y1.248
X-7.475 Y1.261
X-7.625 Y1.256
X-7.773 Y1.232
X-7.917 Y1.191
X-8.056 Y1.134
X-8.186 Y1.06
X-8.307 Y0.971
X-8.417 Y0.868
X-8.513 Y0.754
X-8.596 Y0.628
X-8.662 Y0.494
X-8.713 Y0.352
X-8.746 Y0.206
X-8.762 Y0.057
X-8.759 Y-0.093
X-8.74 Y-0.242
X-8.702 Y-0.387
X-8.648 Y-0.527
X-8.577 Y-0.659
X-8.492 Y-0.782
X-8.392 Y-0.894
X-8.279 Y-0.994
X-8.156 Y-1.079
X-8.024 Y-1.149
X-7.884 Y-1.203
X-7.738 Y-1.24
X-7.59 Y-1.26
X-7.44 Y-1.261
X-7.29 Y-1.245
X-7.144 Y-1.212
X-7.003 Y-1.161
X-6.869 Y-1.094
X-6.744 Y-1.011
X-6.629 Y-0.915
X-6.527 Y-0.805
X-6.438 Y-0.684
X-6.365 Y-0.553
X-6.307 Y-0.415
X-6.263 Y-0.271
X-6.228 Y-0.123
X-6.207 Y0.126
X-6.232 Y0.374
X-6.3 Y0.615
X-6.411 Y0.839
X-6.433 Y0.876
X-6.453 Y0.899
X-6.477 Y0.923
X-6.723 Y1.129
X-6.748 Y1.15
X-6.798 Y1.187
X-6.813 Y1.198
G3 X-7.076 Y1.116 I-0.077 J-0.217
X-6.717 Y0.854 I0.18 J-0.131
X-6.748 Y1.15 I-0.18 J0.131
G1 X-6.769 Y1.168
X-6.813 Y1.198
X-6.959 Y1.255
X-7.12 Y1.314
X-7.192 Y1.337
X-7.225 Y1.348
X-7.251 Y1.357
X-7.31 Y1.362
X-7.353 Y1.364
X-7.396
G3 X-7.374 Y0.729 I0.011 J-0.318
X-7.242 Y0.763 I-0.011 J0.318
G1 X-7.218 Y0.775
G3 X-7.251 Y1.357 I-0.143 J0.284
G1 X-7.288 Y1.362
X-7.324 Y1.364
X-7.623
X-7.66
X-7.689
X-7.765 Y1.354
G3 X-7.894 Y1.136 I0.071 J-0.19
X-7.497 Y1.191 I0.199 J0.028
X-7.689 Y1.364 I-0.199 J-0.028
G1 X-7.726 Y1.361
X-7.762 Y1.354
X-7.835 Y1.33
X-8.098 Y1.234
X-8.127 Y1.224
X-8.179 Y1.201
X-8.23 Y1.168
X-8.273 Y1.132
X-8.492 Y0.949
X-8.529 Y0.917
X-8.575 Y0.862
G3 X-8.246 Y0.68 I0.164 J-0.091
X-8.43 Y0.958 I-0.164 J0.091
G1 X-8.482 Y0.944
X-8.529 Y0.917
X-8.567 Y0.876
X-8.654 Y0.73
X-8.761 Y0.544
X-8.78 Y0.511
X-8.796 Y0.474
X-8.807 Y0.438
X-8.86 Y0.146
X-8.871 Y0.066
X-8.874 Y0.013
X-8.873 Y-0.041
X-8.867 Y-0.094
G3 X-8.237 Y-0.011 I0.313 J0.056
G1 X-8.241 Y0.036
G3 X-8.871 Y0.066 I-0.317 J-0.027
G1 X-8.881 Y0
X-8.857 Y-0.16
X-8.819 Y-0.372
X-8.813 Y-0.408
X-8.807 Y-0.438
X-8.786 Y-0.498
G3 X-8.361 Y-0.292 I0.212 J0.103
X-8.573 Y-0.159 I-0.212 J-0.103
X-8.801 Y-0.334 J-0.236
G1 X-8.81 Y-0.386
X-8.807 Y-0.438
X-8.796 Y-0.474
X-8.78 Y-0.511
X-8.654 Y-0.73
X-8.606 Y-0.81
X-8.584 Y-0.846
X-8.567 Y-0.876
X-8.563 Y-0.88
X-8.57 Y-0.866
X-8.567 Y-0.876
X-8.529 Y-0.917
X-8.273 Y-1.132
X-8.23 Y-1.168
X-8.179 Y-1.201
X-8.127 Y-1.224
X-7.835 Y-1.33
X-7.795 Y-1.343
X-7.744 Y-1.358
G3 X-7.468 Y-1.177 I0.035 J0.248
X-7.948 Y-1.043 I-0.24 J0.067
X-7.795 Y-1.343 I0.24 J-0.067
G1 X-7.762 Y-1.354
X-7.726 Y-1.361
X-7.689 Y-1.364
X-7.357
X-7.324
X-7.288 Y-1.362
X-7.251 Y-1.357
X-7.105 Y-1.308
X-6.959 Y-1.255
X-6.879 Y-1.223
X-6.843 Y-1.209
X-6.818 Y-1.197
X-6.794 Y-1.184
X-6.771 Y-1.169
G3 X-7.129 Y-0.679 I-0.179 J0.245
X-6.963 Y-1.227 I0.179 J-0.245
G1 X-6.902 Y-1.224
X-6.843 Y-1.209
X-6.813 Y-1.198
X-6.769 Y-1.168
X-6.521 Y-0.96
X-6.497 Y-0.939
X-6.477 Y-0.923
X-6.433 Y-0.875
X-6.416 Y-0.832
X-6.411 Y-0.786
X-6.418 Y-0.74
X-6.437 Y-0.698
X-6.466 Y-0.662
G3 X-6.7 Y-0.913 I-0.117 J-0.126
X-6.477 Y-0.923 I0.117 J0.126
G1 X-6.453 Y-0.899
X-6.433 Y-0.876
X-6.375 Y-0.78
X-6.229 Y-0.528
X-6.207 Y-0.483
X-6.193 Y-0.438
X-6.14 Y-0.146
X-6.119 Y0
X-6.14 Y0.146
X-6.193 Y0.438
X-6.207 Y0.483
X-6.229 Y0.528
X-6.375 Y0.78
X-6.411 Y0.839
G3 X-6.823 Y0.945 I-0.266 J-0.175
G1 X-6.864 Y0.909 Z-6.245
X-6.903 Y0.874 Z-6.231
X-6.94 Y0.841 Z-6.208
X-6.956 Y0.795 Z-6.173
X-6.97 Y0.756 Z-6.129
X-6.981 Y0.725 Z-6.078
X-6.989 Y0.704 Z-6.022
X-6.993 Y0.693 Z-5.963
Y0.692 Z-5.932
G0 Z5
X-8.57 Y0.255
Z-3.75
G3 X-6.43 Y-0.255 Z-3.871 I1.07 J-0.255 F283.3
X-8.57 Y0.255 Z-3.991 I-1.07 J0.255
X-6.43 Y-0.255 Z-4.112 I1.07 J-0.255
X-8.57 Y0.255 Z-4.233 I-1.07 J0.255
X-6.43 Y-0.255 Z-4.353 I1.07 J-0.255
X-8.57 Y0.255 Z-4.474 I-1.07 J0.255
X-6.43 Y-0.255 Z-4.595 I1.07 J-0.255
X-8.57 Y0.255 Z-4.715 I-1.07 J0.255
X-6.43 Y-0.255 Z-4.836 I1.07 J-0.255
X-8.57 Y0.255 Z-4.957 I-1.07 J0.255
X-6.43 Y-0.255 Z-5.077 I1.07 J-0.255
X-8.57 Y0.255 Z-5.198 I-1.07 J0.255
X-6.43 Y-0.255 Z-5.319 I1.07 J-0.255
X-8.57 Y0.255 Z-5.439 I-1.07 J0.255
X-6.43 Y-0.255 Z-5.56 I1.07 J-0.255
X-8.57 Y0.255 Z-5.681 I-1.07 J0.255
X-6.43 Y-0.255 Z-5.802 I1.07 J-0.255
X-8.57 Y0.255 Z-5.922 I-1.07 J0.255
X-6.43 Y-0.255 Z-6.043 I1.07 J-0.255
X-8.57 Y0.255 Z-6.164 I-1.07 J0.255
X-6.43 Y-0.255 Z-6.284 I1.07 J-0.255
X-8.57 Y0.255 Z-6.405 I-1.07 J0.255
X-6.43 Y-0.255 Z-6.526 I1.07 J-0.255
X-8.57 Y0.255 Z-6.646 I-1.07 J0.255
X-6.43 Y-0.255 Z-6.767 I1.07 J-0.255
X-8.57 Y0.255 Z-6.888 I-1.07 J0.255
X-6.43 Y-0.255 Z-7.008 I1.07 J-0.255
X-8.57 Y0.255 Z-7.129 I-1.07 J0.255
X-6.43 Y-0.255 Z-7.25 I1.07 J-0.255
X-8.57 Y0.255 Z-7.37 I-1.07 J0.255
X-7.629 Y-1.092 Z-7.435 I1.07 J-0.255
X-6.4 Y0 Z-7.5 I0.129 J1.092
X-8.6 I-1.1
X-6.4 I1.1
G1 X-6.384 Y0.257 F850
X-6.38 Y0.407
X-6.416 Y0.552
X-6.479 Y0.689
X-6.562 Y0.813
X-6.662 Y0.925
X-6.776 Y1.022
X-6.902 Y1.104
X-7.037 Y1.17
X-7.179 Y1.218
X-7.326 Y1.248
X-7.475 Y1.261
X-7.625 Y1.256
X-7.773 Y1.232
X-7.917 Y1.191
X-8.056 Y1.134
X-8.186 Y1.06
X-8.307 Y0.971
X-8.417 Y0.868
X-8.513 Y0.754
X-8.596 Y0.628
X-8.662 Y0.494
X-8.713 Y0.352
X-8.746 Y0.206
X-8.762 Y0.057
X-8.759 Y-0.093
X-8.74 Y-0.242
X-8.702 Y-0.387
X-8.648 Y-0.527
X-8.577 Y-0.659
X-8.492 Y-0.782
X-8.392 Y-0.894
X-8.279 Y-0.994
X-8.156 Y-1.079
X-8.024 Y-1.149
X-7.884 Y-1.203
X-7.738 Y-1.24
X-7.59 Y-1.26
X-7.44 Y-1.261
X-7.29 Y-1.245
X-7.144 Y-1.212
X-7.003 Y-1.161
X-6.869 Y-1.094
X-6.744 Y-1.011
X-6.629 Y-0.915
X-6.527 Y-0.805
X-6.438 Y-0.684
X-6.365 Y-0.553
X-6.307 Y-0.415
X-6.263 Y-0.271
X-6.228 Y-0.123
X-6.207 Y0.126
X-6.232 Y0.374
X-6.3 Y0.615
X-6.411 Y0.839
X-6.433 Y0.876
X-6.453 Y0.899
X-6.477 Y0.923
X-6.723 Y1.129
X-6.748 Y1.15
X-6.798 Y1.187
X-6.813 Y1.198
G3 X-7.076 Y1.116 I-0.077 J-0.217
X-6.717 Y0.854 I0.18 J-0.131
X-6.748 Y1.15 I-0.18 J0.131
G1 X-6.769 Y1.168
X-6.813 Y1.198
X-6.959 Y1.255
X-7.12 Y1.314
X-7.192 Y1.337
X-7.225 Y1.348
X-7.251 Y1.357
X-7.31 Y1.362
X-7.353 Y1.364
X-7.396
G3 X-7.374 Y0.729 I0.011 J-0.318
X-7.242 Y0.763 I-0.011 J0.318
G1 X-7.218 Y0.775
G3 X-7.251 Y1.357 I-0.143 J0.284
G1 X-7.288 Y1.362
X-7.324 Y1.364
X-7.623
X-7.66
X-7.689
X-7.765 Y1.354
G3 X-7.894 Y1.136 I0.071 J-0.19
X-7.497 Y1.191 I0.199 J0.028
X-7.689 Y1.364 I-0.199 J-0.028
G1 X-7.726 Y1.361
X-7.762 Y1.354
X-7.835 Y1.33
X-8.098 Y1.234
X-8.127 Y1.224
X-8.179 Y1.201
X-8.23 Y1.168
X-8.273 Y1.132
X-8.492 Y0.949
X-8.529 Y0.917
X-8.575 Y0.862
G3 X-8.246 Y0.68 I0.164 J-0.091
X-8.43 Y0.958 I-0.164 J0.091
G1 X-8.482 Y0.944
X-8.529 Y0.917
X-8.567 Y0.876
X-8.654 Y0.73
X-8.761 Y0.544
X-8.78 Y0.511
X-8.796 Y0.474
X-8.807 Y0.438
X-8.86 Y0.146
X-8.871 Y0.066
X-8.874 Y0.013
X-8.873 Y-0.041
X-8.867 Y-0.094
G3 X-8.237 Y-0.011 I0.313 J0.056
G1 X-8.241 Y0.036
G3 X-8.871 Y0.066 I-0.317 J-0.027
G1 X-8.881 Y0
X-8.857 Y-0.16
X-8.819 Y-0.372
X-8.813 Y-0.408
X-8.807 Y-0.438
X-8.786 Y-0.498
G3 X-8.361 Y-0.292 I0.212 J0.103
X-8.573 Y-0.159 I-0.212 J-0.103
X-8.801 Y-0.334 J-0.236
G1 X-8.81 Y-0.386
X-8.807 Y-0.438
X-8.796 Y-0.474
X-8.78 Y-0.511
X-8.654 Y-0.73
X-8.606 Y-0.81
X-8.584 Y-0.846
X-8.567 Y-0.876
X-8.563 Y-0.88
X-8.57 Y-0.866
X-8.567 Y-0.876
X-8.529 Y-0.917
X-8.273 Y-1.132
X-8.23 Y-1.168
X-8.179 Y-1.201
X-8.127 Y-1.224
X-7.835 Y-1.33
X-7.795 Y-1.343
X-7.744 Y-1.358
G3 X-7.468 Y-1.177 I0.035 J0.248
X-7.948 Y-1.043 I-0.24 J0.067
X-7.795 Y-1.343 I0.24 J-0.067
G1 X-7.762 Y-1.354
X-7.726 Y-1.361
X-7.689 Y-1.364
X-7.357
X-7.324
X-7.288 Y-1.362
X-7.251 Y-1.357
X-7.105 Y-1.308
X-6.959 Y-1.255
X-6.879 Y-1.223
X-6.843 Y-1.209
X-6.818 Y-1.197
X-6.794 Y-1.184
X-6.771 Y-1.169
G3 X-7.129 Y-0.679 I-0.179 J0.245
X-6.963 Y-1.227 I0.179 J-0.245
G1 X-6.902 Y-1.224
X-6.843 Y-1.209
X-6.813 Y-1.198
X-6.769 Y-1.168
X-6.521 Y-0.96
X-6.497 Y-0.939
X-6.477 Y-0.923
X-6.433 Y-0.875
X-6.416 Y-0.832
X-6.411 Y-0.786
X-6.418 Y-0.74
X-6.437 Y-0.698
X-6.466 Y-0.662
G3 X-6.7 Y-0.913 I-0.117 J-0.126
X-6.477 Y-0.923 I0.117 J0.126
G1 X-6.453 Y-0.899
X-6.433 Y-0.876
X-6.375 Y-0.78
X-6.229 Y-0.528
X-6.207 Y-0.483
X-6.193 Y-0.438
X-6.14 Y-0.146
X-6.119 Y0
X-6.14 Y0.146
X-6.193 Y0.438
X-6.207 Y0.483
X-6.229 Y0.528
X-6.375 Y0.78
X-6.411 Y0.839
G3 X-6.823 Y0.945 I-0.266 J-0.175
G1 X-6.864 Y0.909 Z-7.495
X-6.903 Y0.874 Z-7.481
X-6.94 Y0.841 Z-7.458
X-6.956 Y0.795 Z-7.423
X-6.97 Y0.756 Z-7.379
X-6.981 Y0.725 Z-7.328
X-6.989 Y0.704 Z-7.272
X-6.993 Y0.693 Z-7.213
Y0.692 Z-7.182
G0 Z5
X-8.57 Y0.255
Z-5
G3 X-6.43 Y-0.255 Z-5.121 I1.07 J-0.255 F283.3
X-8.57 Y0.255 Z-5.241 I-1.07 J0.255
X-6.43 Y-0.255 Z-5.362 I1.07 J-0.255
X-8.57 Y0.255 Z-5.483 I-1.07 J0.255
X-6.43 Y-0.255 Z-5.603 I1.07 J-0.255
X-8.57 Y0.255 Z-5.724 I-1.07 J0.255
X-6.43 Y-0.255 Z-5.845 I1.07 J-0.255
X-8.57 Y0.255 Z-5.965 I-1.07 J0.255
X-6.43 Y-0.255 Z-6.086 I1.07 J-0.255
X-8.57 Y0.255 Z-6.207 I-1.07 J0.255
X-6.43 Y-0.255 Z-6.327 I1.07 J-0.255
X-8.57 Y0.255 Z-6.448 I-1.07 J0.255
X-6.43 Y-0.255 Z-6.569 I1.07 J-0.255
X-8.57 Y0.255 Z-6.689 I-1.07 J0.255
X-6.43 Y-0.255 Z-6.81 I1.07 J-0.255
X-8.57 Y0.255 Z-6.931 I-1.07 J0.255
X-6.43 Y-0.255 Z-7.052 I1.07 J-0.255
X-8.57 Y0.255 Z-7.172 I-1.07 J0.255
X-6.43 Y-0.255 Z-7.293 I1.07 J-0.255
X-8.57 Y0.255 Z-7.414 I-1.07 J0.255
X-6.43 Y-0.255 Z-7.534 I1.07 J-0.255
X-8.57 Y0.255 Z-7.655 I-1.07 J0.255
X-6.43 Y-0.255 Z-7.776 I1.07 J-0.255
X-8.57 Y0.255 Z-7.896 I-1.07 J0.255
X-6.43 Y-0.255 Z-8.017 I1.07 J-0.255
X-8.57 Y0.255 Z-8.138 I-1.07 J0.255
X-6.43 Y-0.255 Z-8.258 I1.07 J-0.255
X-8.57 Y0.255 Z-8.379 I-1.07 J0.255
X-6.43 Y-0.255 Z-8.5 I1.07 J-0.255
X-8.57 Y0.255 Z-8.62 I-1.07 J0.255
X-7.629 Y-1.092 Z-8.685 I1.07 J-0.255
X-6.4 Y0 Z-8.75 I0.129 J1.092
X-8.6 I-1.1
X-6.4 I1.1
G1 X-6.384 Y0.257 F850
X-6.38 Y0.407
X-6.416 Y0.552
X-6.479 Y0.689
X-6.562 Y0.813
X-6.662 Y0.925
X-6.776 Y1.022
X-6.902 Y1.104
X-7.037 Y1.17
X-7.179 Y1.218
X-7.326 Y1.248
X-7.475 Y1.261
X-7.625 Y1.256
X-7.773 Y1.232
X-7.917 Y1.191
X-8.056 Y1.134
X-8.186 Y1.06
X-8.307 Y0.971
X-8.417 Y0.868
X-8.513 Y0.754
X-8.596 Y0.628
X-8.662 Y0.494
X-8.713 Y0.352
X-8.746 Y0.206
X-8.762 Y0.057
X-8.759 Y-0.093
X-8.74 Y-0.242
X-8.702 Y-0.387
X-8.648 Y-0.527
X-8.577 Y-0.659
X-8.492 Y-0.782
X-8.392 Y-0.894
X-8.279 Y-0.994
X-8.156 Y-1.079
X-8.024 Y-1.149
X-7.884 Y-1.203
X-7.738 Y-1.24
X-7.59 Y-1.26
X-7.44 Y-1.261
X-7.29 Y-1.245
X-7.144 Y-1.212
X-7.003 Y-1.161
X-6.869 Y-1.094
X-6.744 Y-1.011
X-6.629 Y-0.915
X-6.527 Y-0.805
X-6.438 Y-0.684
X-6.365 Y-0.553
X-6.307 Y-0.415
X-6.263 Y-0.271
X-6.228 Y-0.123
X-6.207 Y0.126
X-6.232 Y0.374
X-6.3 Y0.615
X-6.411 Y0.839
X-6.433 Y0.876
X-6.453 Y0.899
X-6.477 Y0.923
X-6.723 Y1.129
X-6.748 Y1.15
X-6.798 Y1.187
X-6.813 Y1.198
G3 X-7.076 Y1.116 I-0.077 J-0.217
X-6.717 Y0.854 I0.18 J-0.131
X-6.748 Y1.15 I-0.18 J0.131
G1 X-6.769 Y1.168
X-6.813 Y1.198
X-6.959 Y1.255
X-7.12 Y1.314
X-7.192 Y1.337
X-7.225 Y1.348
X-7.251 Y1.357
X-7.31 Y1.362
X-7.353 Y1.364
X-7.396
G3 X-7.374 Y0.729 I0.011 J-0.318
X-7.242 Y0.763 I-0.011 J0.318
G1 X-7.218 Y0.775
G3 X-7.251 Y1.357 I-0.143 J0.284
G1 X-7.288 Y1.362
X-7.324 Y1.364
X-7.623
X-7.66
X-7.689
X-7.765 Y1.354
G3 X-7.894 Y1.136 I0.071 J-0.19
X-7.497 Y1.191 I0.199 J0.028
X-7.689 Y1.364 I-0.199 J-0.028
G1 X-7.726 Y1.361
X-7.762 Y1.354
X-7.835 Y1.33
X-8.098 Y1.234
X-8.127 Y1.224
X-8.179 Y1.201
X-8.23 Y1.168
X-8.273 Y1.132
X-8.492 Y0.949
X-8.529 Y0.917
X-8.575 Y0.862
G3 X-8.246 Y0.68 I0.164 J-0.091
X-8.43 Y0.958 I-0.164 J0.091
G1 X-8.482 Y0.944
X-8.529 Y0.917
X-8.567 Y0.876
X-8.654 Y0.73
X-8.761 Y0.544
X-8.78 Y0.511
X-8.796 Y0.474
X-8.807 Y0.438
X-8.86 Y0.146
X-8.871 Y0.066
X-8.874 Y0.013
X-8.873 Y-0.041
X-8.867 Y-0.094
G3 X-8.237 Y-0.011 I0.313 J0.056
G1 X-8.241 Y0.036
G3 X-8.871 Y0.066 I-0.317 J-0.027
G1 X-8.881 Y0
X-8.857 Y-0.16
X-8.819 Y-0.372
X-8.813 Y-0.408
X-8.807 Y-0.438
X-8.786 Y-0.498
G3 X-8.361 Y-0.292 I0.212 J0.103
X-8.573 Y-0.159 I-0.212 J-0.103
X-8.801 Y-0.334 J-0.236
G1 X-8.81 Y-0.386
X-8.807 Y-0.438
X-8.796 Y-0.474
X-8.78 Y-0.511
X-8.654 Y-0.73
X-8.606 Y-0.81
X-8.584 Y-0.846
X-8.567 Y-0.876
X-8.563 Y-0.88
X-8.57 Y-0.866
X-8.567 Y-0.876
X-8.529 Y-0.917
X-8.273 Y-1.132
X-8.23 Y-1.168
X-8.179 Y-1.201
X-8.127 Y-1.224
X-7.835 Y-1.33
X-7.795 Y-1.343
X-7.744 Y-1.358
G3 X-7.468 Y-1.177 I0.035 J0.248
X-7.948 Y-1.043 I-0.24 J0.067
X-7.795 Y-1.343 I0.24 J-0.067
G1 X-7.762 Y-1.354
X-7.726 Y-1.361
X-7.689 Y-1.364
X-7.357
X-7.324
X-7.288 Y-1.362
X-7.251 Y-1.357
X-7.105 Y-1.308
X-6.959 Y-1.255
X-6.879 Y-1.223
X-6.843 Y-1.209
X-6.818 Y-1.197
X-6.794 Y-1.184
X-6.771 Y-1.169
G3 X-7.129 Y-0.679 I-0.179 J0.245
X-6.963 Y-1.227 I0.179 J-0.245
G1 X-6.902 Y-1.224
X-6.843 Y-1.209
X-6.813 Y-1.198
X-6.769 Y-1.168
X-6.521 Y-0.96
X-6.497 Y-0.939
X-6.477 Y-0.923
X-6.433 Y-0.875
X-6.416 Y-0.832
X-6.411 Y-0.786
X-6.418 Y-0.74
X-6.437 Y-0.698
X-6.466 Y-0.662
G3 X-6.7 Y-0.913 I-0.117 J-0.126
X-6.477 Y-0.923 I0.117 J0.126
G1 X-6.453 Y-0.899
X-6.433 Y-0.876
X-6.375 Y-0.78
X-6.229 Y-0.528
X-6.207 Y-0.483
X-6.193 Y-0.438
X-6.14 Y-0.146
X-6.119 Y0
X-6.14 Y0.146
X-6.193 Y0.438
X-6.207 Y0.483
X-6.229 Y0.528
X-6.375 Y0.78
X-6.411 Y0.839
G3 X-6.823 Y0.945 I-0.266 J-0.175
G1 X-6.864 Y0.909 Z-8.745
X-6.903 Y0.874 Z-8.731
X-6.94 Y0.841 Z-8.708
X-6.956 Y0.795 Z-8.673
X-6.97 Y0.756 Z-8.629
X-6.981 Y0.725 Z-8.578
X-6.989 Y0.704 Z-8.522
X-6.993 Y0.693 Z-8.463
Y0.692 Z-8.432
G0 Z5
X-8.57 Y0.255
Z-6.25
G3 X-6.43 Y-0.255 Z-6.371 I1.07 J-0.255 F283.3
X-8.57 Y0.255 Z-6.491 I-1.07 J0.255
X-6.43 Y-0.255 Z-6.612 I1.07 J-0.255
X-8.57 Y0.255 Z-6.733 I-1.07 J0.255
X-6.43 Y-0.255 Z-6.853 I1.07 J-0.255
X-8.57 Y0.255 Z-6.974 I-1.07 J0.255
X-6.43 Y-0.255 Z-7.095 I1.07 J-0.255
X-8.57 Y0.255 Z-7.215 I-1.07 J0.255
X-6.43 Y-0.255 Z-7.336 I1.07 J-0.255
X-8.57 Y0.255 Z-7.457 I-1.07 J0.255
X-6.43 Y-0.255 Z-7.577 I1.07 J-0.255
X-8.57 Y0.255 Z-7.698 I-1.07 J0.255
X-6.43 Y-0.255 Z-7.819 I1.07 J-0.255
X-8.57 Y0.255 Z-7.939 I-1.07 J0.255
X-6.43 Y-0.255 Z-8.06 I1.07 J-0.255
X-8.57 Y0.255 Z-8.181 I-1.07 J0.255
X-6.43 Y-0.255 Z-8.302 I1.07 J-0.255
X-8.57 Y0.255 Z-8.422 I-1.07 J0.255
X-6.43 Y-0.255 Z-8.543 I1.07 J-0.255
X-8.57 Y0.255 Z-8.664 I-1.07 J0.255
X-6.43 Y-0.255 Z-8.784 I1.07 J-0.255
X-8.57 Y0.255 Z-8.905 I-1.07 J0.255
X-6.43 Y-0.255 Z-9.026 I1.07 J-0.255
X-8.57 Y0.255 Z-9.146 I-1.07 J0.255
X-6.43 Y-0.255 Z-9.267 I1.07 J-0.255
X-8.57 Y0.255 Z-9.388 I-1.07 J0.255
X-6.43 Y-0.255 Z-9.508 I1.07 J-0.255
X-8.57 Y0.255 Z-9.629 I-1.07 J0.255
X-6.43 Y-0.255 Z-9.75 I1.07 J-0.255
X-8.57 Y0.255 Z-9.87 I-1.07 J0.255
X-7.629 Y-1.092 Z-9.935 I1.07 J-0.255
X-6.4 Y0 Z-10 I0.129 J1.092
X-8.6 I-1.1
X-6.4 I1.1
G1 X-6.384 Y0.257 F850
X-6.38 Y0.407
X-6.416 Y0.552
X-6.479 Y0.689
X-6.562 Y0.813
X-6.662 Y0.925
X-6.776 Y1.022
X-6.902 Y1.104
X-7.037 Y1.17
X-7.179 Y1.218
X-7.326 Y1.248
X-7.475 Y1.261
X-7.625 Y1.256
X-7.773 Y1.232
X-7.917 Y1.191
X-8.056 Y1.134
X-8.186 Y1.06
X-8.307 Y0.971
X-8.417 Y0.868
X-8.513 Y0.754
X-8.596 Y0.628
X-8.662 Y0.494
X-8.713 Y0.352
X-8.746 Y0.206
X-8.762 Y0.057
X-8.759 Y-0.093
X-8.74 Y-0.242
X-8.702 Y-0.387
X-8.648 Y-0.527
X-8.577 Y-0.659
X-8.492 Y-0.782
X-8.392 Y-0.894
X-8.279 Y-0.994
X-8.156 Y-1.079
X-8.024 Y-1.149
X-7.884 Y-1.203
X-7.738 Y-1.24
X-7.59 Y-1.26
X-7.44 Y-1.261
X-7.29 Y-1.245
X-7.144 Y-1.212
X-7.003 Y-1.161
X-6.869 Y-1.094
X-6.744 Y-1.011
X-6.629 Y-0.915
X-6.527 Y-0.805
X-6.438 Y-0.684
X-6.365 Y-0.553
X-6.307 Y-0.415
X-6.263 Y-0.271
X-6.228 Y-0.123
X-6.207 Y0.126
X-6.232 Y0.374
X-6.3 Y0.615
X-6.411 Y0.839
X-6.433 Y0.876
X-6.453 Y0.899
X-6.477 Y0.923
X-6.723 Y1.129
X-6.748 Y1.15
X-6.798 Y1.187
X-6.813 Y1.198
G3 X-7.076 Y1.116 I-0.077 J-0.217
X-6.717 Y0.854 I0.18 J-0.131
X-6.748 Y1.15 I-0.18 J0.131
G1 X-6.769 Y1.168
X-6.813 Y1.198
X-6.959 Y1.255
X-7.12 Y1.314
X-7.192 Y1.337
X-7.225 Y1.348
X-7.251 Y1.357
X-7.31 Y1.362
X-7.353 Y1.364
X-7.396
G3 X-7.374 Y0.729 I0.011 J-0.318
X-7.242 Y0.763 I-0.011 J0.318
G1 X-7.218 Y0.775
G3 X-7.251 Y1.357 I-0.143 J0.284
G1 X-7.288 Y1.362
X-7.324 Y1.364
X-7.623
X-7.66
X-7.689
X-7.765 Y1.354
G3 X-7.894 Y1.136 I0.071 J-0.19
X-7.497 Y1.191 I0.199 J0.028
X-7.689 Y1.364 I-0.199 J-0.028
G1 X-7.726 Y1.361
X-7.762 Y1.354
X-7.835 Y1.33
X-8.098 Y1.234
X-8.127 Y1.224
X-8.179 Y1.201
X-8.23 Y1.168
X-8.273 Y1.132
X-8.492 Y0.949
X-8.529 Y0.917
X-8.575 Y0.862
G3 X-8.246 Y0.68 I0.164 J-0.091
X-8.43 Y0.958 I-0.164 J0.091
G1 X-8.482 Y0.944
X-8.529 Y0.917
X-8.567 Y0.876
X-8.654 Y0.73
X-8.761 Y0.544
X-8.78 Y0.511
X-8.796 Y0.474
X-8.807 Y0.438
X-8.86 Y0.146
X-8.871 Y0.066
X-8.874 Y0.013
X-8.873 Y-0.041
X-8.867 Y-0.094
G3 X-8.237 Y-0.011 I0.313 J0.056
G1 X-8.241 Y0.036
G3 X-8.871 Y0.066 I-0.317 J-0.027
G1 X-8.881 Y0
X-8.857 Y-0.16
X-8.819 Y-0.372
X-8.813 Y-0.408
X-8.807 Y-0.438
X-8.786 Y-0.498
G3 X-8.361 Y-0.292 I0.212 J0.103
X-8.573 Y-0.159 I-0.212 J-0.103
X-8.801 Y-0.334 J-0.236
G1 X-8.81 Y-0.386
X-8.807 Y-0.438
X-8.796 Y-0.474
X-8.78 Y-0.511
X-8.654 Y-0.73
X-8.606 Y-0.81
X-8.584 Y-0.846
X-8.567 Y-0.876
X-8.563 Y-0.88
X-8.57 Y-0.866
X-8.567 Y-0.876
X-8.529 Y-0.917
X-8.273 Y-1.132
X-8.23 Y-1.168
X-8.179 Y-1.201
X-8.127 Y-1.224
X-7.835 Y-1.33
X-7.795 Y-1.343
X-7.744 Y-1.358
G3 X-7.468 Y-1.177 I0.035 J0.248
X-7.948 Y-1.043 I-0.24 J0.067
X-7.795 Y-1.343 I0.24 J-0.067
G1 X-7.762 Y-1.354
X-7.726 Y-1.361
X-7.689 Y-1.364
X-7.357
X-7.324
X-7.288 Y-1.362
X-7.251 Y-1.357
X-7.105 Y-1.308
X-6.959 Y-1.255
X-6.879 Y-1.223
X-6.843 Y-1.209
X-6.818 Y-1.197
X-6.794 Y-1.184
X-6.771 Y-1.169
G3 X-7.129 Y-0.679 I-0.179 J0.245
X-6.963 Y-1.227 I0.179 J-0.245
G1 X-6.902 Y-1.224
X-6.843 Y-1.209
X-6.813 Y-1.198
X-6.769 Y-1.168
X-6.521 Y-0.96
X-6.497 Y-0.939
X-6.477 Y-0.923
X-6.433 Y-0.875
X-6.416 Y-0.832
X-6.411 Y-0.786
X-6.418 Y-0.74
X-6.437 Y-0.698
X-6.466 Y-0.662
G3 X-6.7 Y-0.913 I-0.117 J-0.126
X-6.477 Y-0.923 I0.117 J0.126
G1 X-6.453 Y-0.899
X-6.433 Y-0.876
X-6.375 Y-0.78
X-6.229 Y-0.528
X-6.207 Y-0.483
X-6.193 Y-0.438
X-6.14 Y-0.146
X-6.119 Y0
X-6.14 Y0.146
X-6.193 Y0.438
X-6.207 Y0.483
X-6.229 Y0.528
X-6.375 Y0.78
X-6.411 Y0.839
G3 X-6.823 Y0.945 I-0.266 J-0.175
G1 X-6.864 Y0.909 Z-9.995
X-6.903 Y0.874 Z-9.981
X-6.94 Y0.841 Z-9.958
X-6.956 Y0.795 Z-9.923
X-6.97 Y0.756 Z-9.879
X-6.981 Y0.725 Z-9.828
X-6.989 Y0.704 Z-9.772
X-6.993 Y0.693 Z-9.713
Y0.692 Z-9.682
G0 Z5
X-8.57 Y0.255
Z-7.5
G3 X-6.43 Y-0.255 Z-7.621 I1.07 J-0.255 F283.3
X-8.57 Y0.255 Z-7.741 I-1.07 J0.255
X-6.43 Y-0.255 Z-7.862 I1.07 J-0.255
X-8.57 Y0.255 Z-7.983 I-1.07 J0.255
X-6.43 Y-0.255 Z-8.103 I1.07 J-0.255
X-8.57 Y0.255 Z-8.224 I-1.07 J0.255
X-6.43 Y-0.255 Z-8.345 I1.07 J-0.255
X-8.57 Y0.255 Z-8.465 I-1.07 J0.255
X-6.43 Y-0.255 Z-8.586 I1.07 J-0.255
X-8.57 Y0.255 Z-8.707 I-1.07 J0.255
X-6.43 Y-0.255 Z-8.827 I1.07 J-0.255
X-8.57 Y0.255 Z-8.948 I-1.07 J0.255
X-6.43 Y-0.255 Z-9.069 I1.07 J-0.255
X-8.57 Y0.255 Z-9.189 I-1.07 J0.255
X-6.43 Y-0.255 Z-9.31 I1.07 J-0.255
X-8.57 Y0.255 Z-9.431 I-1.07 J0.255
X-6.43 Y-0.255 Z-9.552 I1.07 J-0.255
X-8.57 Y0.255 Z-9.672 I-1.07 J0.255
X-6.43 Y-0.255 Z-9.793 I1.07 J-0.255
X-8.57 Y0.255 Z-9.914 I-1.07 J0.255
X-6.43 Y-0.255 Z-10.034 I1.07 J-0.255
X-8.57 Y0.255 Z-10.155 I-1.07 J0.255
X-6.43 Y-0.255 Z-10.276 I1.07 J-0.255
X-8.57 Y0.255 Z-10.396 I-1.07 J0.255
X-6.43 Y-0.255 Z-10.517 I1.07 J-0.255
X-8.57 Y0.255 Z-10.638 I-1.07 J0.255
X-6.43 Y-0.255 Z-10.758 I1.07 J-0.255
X-8.57 Y0.255 Z-10.879 I-1.07 J0.255
X-6.43 Y-0.255 Z-11 I1.07 J-0.255
X-8.57 Y0.255 Z-11.12 I-1.07 J0.255
X-7.629 Y-1.092 Z-11.185 I1.07 J-0.255
X-6.4 Y0 Z-11.25 I0.129 J1.092
X-8.6 I-1.1
X-6.4 I1.1
G1 X-6.384 Y0.257 F850
X-6.38 Y0.407
X-6.416 Y0.552
X-6.479 Y0.689
X-6.562 Y0.813
X-6.662 Y0.925
X-6.776 Y1.022
X-6.902 Y1.104
X-7.037 Y1.17
X-7.179 Y1.218
X-7.326 Y1.248
X-7.475 Y1.261
X-7.625 Y1.256
X-7.773 Y1.232
X-7.917 Y1.191
X-8.056 Y1.134
X-8.186 Y1.06
X-8.307 Y0.971
X-8.417 Y0.868
X-8.513 Y0.754
X-8.596 Y0.628
X-8.662 Y0.494
X-8.713 Y0.352
X-8.746 Y0.206
X-8.762 Y0.057
X-8.759 Y-0.093
X-8.74 Y-0.242
X-8.702 Y-0.387
X-8.648 Y-0.527
X-8.577 Y-0.659
X-8.492 Y-0.782
X-8.392 Y-0.894
X-8.279 Y-0.994
X-8.156 Y-1.079
X-8.024 Y-1.149
X-7.884 Y-1.203
X-7.738 Y-1.24
X-7.59 Y-1.26
X-7.44 Y-1.261
X-7.29 Y-1.245
X-7.144 Y-1.212
X-7.003 Y-1.161
X-6.869 Y-1.094
X-6.744 Y-1.011
X-6.629 Y-0.915
X-6.527 Y-0.805
X-6.438 Y-0.684
X-6.365 Y-0.553
X-6.307 Y-0.415
X-6.263 Y-0.271
X-6.228 Y-0.123
X-6.207 Y0.126
X-6.232 Y0.374
X-6.3 Y0.615
X-6.411 Y0.839
X-6.433 Y0.876
X-6.453 Y0.899
X-6.477 Y0.923
X-6.723 Y1.129
X-6.748 Y1.15
X-6.798 Y1.187
X-6.813 Y1.198
G3 X-7.076 Y1.116 I-0.077 J-0.217
X-6.717 Y0.854 I0.18 J-0.131
X-6.748 Y1.15 I-0.18 J0.131
G1 X-6.769 Y1.168
X-6.813 Y1.198
X-6.959 Y1.255
X-7.12 Y1.314
X-7.192 Y1.337
X-7.225 Y1.348
X-7.251 Y1.357
X-7.31 Y1.362
X-7.353 Y1.364
X-7.396
G3 X-7.374 Y0.729 I0.011 J-0.318
X-7.242 Y0.763 I-0.011 J0.318
G1 X-7.218 Y0.775
G3 X-7.251 Y1.357 I-0.143 J0.284
G1 X-7.288 Y1.362
X-7.324 Y1.364
X-7.623
X-7.66
X-7.689
X-7.765 Y1.354
G3 X-7.894 Y1.136 I0.071 J-0.19
X-7.497 Y1.191 I0.199 J0.028
X-7.689 Y1.364 I-0.199 J-0.028
G1 X-7.726 Y1.361
X-7.762 Y1.354
X-7.835 Y1.33
X-8.098 Y1.234
X-8.127 Y1.224
X-8.179 Y1.201
X-8.23 Y1.168
X-8.273 Y1.132
X-8.492 Y0.949
X-8.529 Y0.917
X-8.575 Y0.862
G3 X-8.246 Y0.68 I0.164 J-0.091
X-8.43 Y0.958 I-0.164 J0.091
G1 X-8.482 Y0.944
X-8.529 Y0.917
X-8.567 Y0.876
X-8.654 Y0.73
X-8.761 Y0.544
X-8.78 Y0.511
X-8.796 Y0.474
X-8.807 Y0.438
X-8.86 Y0.146
X-8.871 Y0.066
X-8.874 Y0.013
X-8.873 Y-0.041
X-8.867 Y-0.094
G3 X-8.237 Y-0.011 I0.313 J0.056
G1 X-8.241 Y0.036
G3 X-8.871 Y0.066 I-0.317 J-0.027
G1 X-8.881 Y0
X-8.857 Y-0.16
X-8.819 Y-0.372
X-8.813 Y-0.408
X-8.807 Y-0.438
X-8.786 Y-0.498
G3 X-8.361 Y-0.292 I0.212 J0.103
X-8.573 Y-0.159 I-0.212 J-0.103
X-8.801 Y-0.334 J-0.236
G1 X-8.81 Y-0.386
X-8.807 Y-0.438
X-8.796 Y-0.474
X-8.78 Y-0.511
X-8.654 Y-0.73
X-8.606 Y-0.81
X-8.584 Y-0.846
X-8.567 Y-0.876
X-8.563 Y-0.88
X-8.57 Y-0.866
X-8.567 Y-0.876
X-8.529 Y-0.917
X-8.273 Y-1.132
X-8.23 Y-1.168
X-8.179 Y-1.201
X-8.127 Y-1.224
X-7.835 Y-1.33
X-7.795 Y-1.343
X-7.744 Y-1.358
G3 X-7.468 Y-1.177 I0.035 J0.248
X-7.948 Y-1.043 I-0.24 J0.067
X-7.795 Y-1.343 I0.24 J-0.067
G1 X-7.762 Y-1.354
X-7.726 Y-1.361
X-7.689 Y-1.364
X-7.357
X-7.324
X-7.288 Y-1.362
X-7.251 Y-1.357
X-7.105 Y-1.308
X-6.959 Y-1.255
X-6.879 Y-1.223
X-6.843 Y-1.209
X-6.818 Y-1.197
X-6.794 Y-1.184
X-6.771 Y-1.169
G3 X-7.129 Y-0.679 I-0.179 J0.245
X-6.963 Y-1.227 I0.179 J-0.245
G1 X-6.902 Y-1.224
X-6.843 Y-1.209
X-6.813 Y-1.198
X-6.769 Y-1.168
X-6.521 Y-0.96
X-6.497 Y-0.939
X-6.477 Y-0.923
X-6.433 Y-0.875
X-6.416 Y-0.832
X-6.411 Y-0.786
X-6.418 Y-0.74
X-6.437 Y-0.698
X-6.466 Y-0.662
G3 X-6.7 Y-0.913 I-0.117 J-0.126
X-6.477 Y-0.923 I0.117 J0.126
G1 X-6.453 Y-0.899
X-6.433 Y-0.876
X-6.375 Y-0.78
X-6.229 Y-0.528
X-6.207 Y-0.483
X-6.193 Y-0.438
X-6.14 Y-0.146
X-6.119 Y0
X-6.14 Y0.146
X-6.193 Y0.438
X-6.207 Y0.483
X-6.229 Y0.528
X-6.375 Y0.78
X-6.411 Y0.839
G3 X-6.823 Y0.945 I-0.266 J-0.175
G1 X-6.864 Y0.909 Z-11.245
X-6.903 Y0.874 Z-11.231
X-6.94 Y0.841 Z-11.208
X-6.956 Y0.795 Z-11.173
X-6.97 Y0.756 Z-11.129
X-6.981 Y0.725 Z-11.078
X-6.989 Y0.704 Z-11.022
X-6.993 Y0.693 Z-10.963
Y0.692 Z-10.932
G0 Z5
X-8.574 Y-0.236
Z-8.75
G3 X-6.426 Y0.236 Z-8.871 I1.074 J0.236 F283.3
X-8.574 Y-0.236 Z-8.991 I-1.074 J-0.236
X-6.426 Y0.236 Z-9.112 I1.074 J0.236
X-8.574 Y-0.236 Z-9.233 I-1.074 J-0.236
X-6.426 Y0.236 Z-9.353 I1.074 J0.236
X-8.574 Y-0.236 Z-9.474 I-1.074 J-0.236
X-6.426 Y0.236 Z-9.595 I1.074 J0.236
X-8.574 Y-0.236 Z-9.715 I-1.074 J-0.236
X-6.426 Y0.236 Z-9.836 I1.074 J0.236
X-8.574 Y-0.236 Z-9.957 I-1.074 J-0.236
X-6.426 Y0.236 Z-10.077 I1.074 J0.236
X-8.574 Y-0.236 Z-10.198 I-1.074 J-0.236
X-6.426 Y0.236 Z-10.319 I1.074 J0.236
X-8.574 Y-0.236 Z-10.439 I-1.074 J-0.236
X-6.426 Y0.236 Z-10.56 I1.074 J0.236
X-8.574 Y-0.236 Z-10.681 I-1.074 J-0.236
X-6.426 Y0.236 Z-10.802 I1.074 J0.236
X-8.574 Y-0.236 Z-10.922 I-1.074 J-0.236
X-6.426 Y0.236 Z-11.043 I1.074 J0.236
X-8.574 Y-0.236 Z-11.164 I-1.074 J-0.236
X-6.426 Y0.236 Z-11.284 I1.074 J0.236
X-8.574 Y-0.236 Z-11.405 I-1.074 J-0.236
X-6.426 Y0.236 Z-11.526 I1.074 J0.236
X-8.574 Y-0.236 Z-11.646 I-1.074 J-0.236
X-6.426 Y0.236 Z-11.767 I1.074 J0.236
X-8.574 Y-0.236 Z-11.888 I-1.074 J-0.236
X-6.4 Y0 Z-12 I1.074 J0.236
X-8.6 I-1.1
X-6.4 I1.1
G1 X-6.384 Y0.257 F850
X-6.38 Y0.407
X-6.416 Y0.552
X-6.479 Y0.689
X-6.562 Y0.813
X-6.662 Y0.925
X-6.776 Y1.022
X-6.902 Y1.104
X-7.037 Y1.17
X-7.179 Y1.218
X-7.326 Y1.248
X-7.475 Y1.261
X-7.625 Y1.256
X-7.773 Y1.232
X-7.917 Y1.191
X-8.056 Y1.134
X-8.186 Y1.06
X-8.307 Y0.971
X-8.417 Y0.868
X-8.513 Y0.754
X-8.596 Y0.628
X-8.662 Y0.494
X-8.713 Y0.352
X-8.746 Y0.206
X-8.762 Y0.057
X-8.759 Y-0.093
X-8.74 Y-0.242
X-8.702 Y-0.387
X-8.648 Y-0.527
X-8.577 Y-0.659
X-8.492 Y-0.782
X-8.392 Y-0.894
X-8.279 Y-0.994
X-8.156 Y-1.079
X-8.024 Y-1.149
X-7.884 Y-1.203
X-7.738 Y-1.24
X-7.59 Y-1.26
X-7.44 Y-1.261
X-7.29 Y-1.245
X-7.144 Y-1.212
X-7.003 Y-1.161
X-6.869 Y-1.094
X-6.744 Y-1.011
X-6.629 Y-0.915
X-6.527 Y-0.805
X-6.438 Y-0.684
X-6.365 Y-0.553
X-6.307 Y-0.415
X-6.263 Y-0.271
X-6.228 Y-0.123
X-6.207 Y0.126
X-6.232 Y0.374
X-6.3 Y0.615
X-6.411 Y0.839
X-6.433 Y0.876
X-6.453 Y0.899
X-6.477 Y0.923
X-6.723 Y1.129
X-6.748 Y1.15
X-6.798 Y1.187
X-6.813 Y1.198
G3 X-7.076 Y1.116 I-0.077 J-0.217
X-6.717 Y0.854 I0.18 J-0.131
X-6.748 Y1.15 I-0.18 J0.131
G1 X-6.769 Y1.168
X-6.813 Y1.198
X-6.959 Y1.255
X-7.12 Y1.314
X-7.192 Y1.337
X-7.225 Y1.348
X-7.251 Y1.357
X-7.31 Y1.362
X-7.353 Y1.364
X-7.396
G3 X-7.374 Y0.729 I0.011 J-0.318
X-7.242 Y0.763 I-0.011 J0.318
G1 X-7.218 Y0.775
G3 X-7.251 Y1.357 I-0.143 J0.284
G1 X-7.288 Y1.362
X-7.324 Y1.364
X-7.623
X-7.66
X-7.689
X-7.765 Y1.354
G3 X-7.894 Y1.136 I0.071 J-0.19
X-7.497 Y1.191 I0.199 J0.028
X-7.689 Y1.364 I-0.199 J-0.028
G1 X-7.726 Y1.361
X-7.762 Y1.354
X-7.835 Y1.33
X-8.098 Y1.234
X-8.127 Y1.224
X-8.179 Y1.201
X-8.23 Y1.168
X-8.273 Y1.132
X-8.492 Y0.949
X-8.529 Y0.917
X-8.575 Y0.862
G3 X-8.246 Y0.68 I0.164 J-0.091
X-8.43 Y0.958 I-0.164 J0.091
G1 X-8.482 Y0.944
X-8.529 Y0.917
X-8.567 Y0.876
X-8.654 Y0.73
X-8.761 Y0.544
X-8.78 Y0.511
X-8.796 Y0.474
X-8.807 Y0.438
X-8.86 Y0.146
X-8.871 Y0.066
X-8.874 Y0.013
X-8.873 Y-0.041
X-8.867 Y-0.094
G3 X-8.237 Y-0.011 I0.313 J0.056
G1 X-8.241 Y0.036
G3 X-8.871 Y0.066 I-0.317 J-0.027
G1 X-8.881 Y0
X-8.857 Y-0.16
X-8.819 Y-0.372
X-8.813 Y-0.408
X-8.807 Y-0.438
X-8.786 Y-0.498
G3 X-8.361 Y-0.292 I0.212 J0.103
X-8.573 Y-0.159 I-0.212 J-0.103
X-8.801 Y-0.334 J-0.236
G1 X-8.81 Y-0.386
X-8.807 Y-0.438
X-8.796 Y-0.474
X-8.78 Y-0.511
X-8.654 Y-0.73
X-8.606 Y-0.81
X-8.584 Y-0.846
X-8.567 Y-0.876
X-8.563 Y-0.88
X-8.57 Y-0.866
X-8.567 Y-0.876
X-8.529 Y-0.917
X-8.273 Y-1.132
X-8.23 Y-1.168
X-8.179 Y-1.201
X-8.127 Y-1.224
X-7.835 Y-1.33
X-7.795 Y-1.343
X-7.744 Y-1.358
G3 X-7.468 Y-1.177 I0.035 J0.248
X-7.948 Y-1.043 I-0.24 J0.067
X-7.795 Y-1.343 I0.24 J-0.067
G1 X-7.762 Y-1.354
X-7.726 Y-1.361
X-7.689 Y-1.364
X-7.357
X-7.324
X-7.288 Y-1.362
X-7.251 Y-1.357
X-7.105 Y-1.308
X-6.959 Y-1.255
X-6.879 Y-1.223
X-6.843 Y-1.209
X-6.818 Y-1.197
X-6.794 Y-1.184
X-6.771 Y-1.169
G3 X-7.129 Y-0.679 I-0.179 J0.245
X-6.963 Y-1.227 I0.179 J-0.245
G1 X-6.902 Y-1.224
X-6.843 Y-1.209
X-6.813 Y-1.198
X-6.769 Y-1.168
X-6.521 Y-0.96
X-6.497 Y-0.939
X-6.477 Y-0.923
X-6.433 Y-0.875
X-6.416 Y-0.832
X-6.411 Y-0.786
X-6.418 Y-0.74
X-6.437 Y-0.698
X-6.466 Y-0.662
G3 X-6.7 Y-0.913 I-0.117 J-0.126
X-6.477 Y-0.923 I0.117 J0.126
G1 X-6.453 Y-0.899
X-6.433 Y-0.876
X-6.375 Y-0.78
X-6.229 Y-0.528
X-6.207 Y-0.483
X-6.193 Y-0.438
X-6.14 Y-0.146
X-6.119 Y0
X-6.14 Y0.146
X-6.193 Y0.438
X-6.207 Y0.483
X-6.229 Y0.528
X-6.375 Y0.78
X-6.411 Y0.839
G3 X-6.993 Y0.692 I-0.266 J-0.175
G1 X-6.999 Y0.621 Z-11.992
X-7.005 Y0.554 Z-11.969
X-7.01 Y0.494 Z-11.931
X-7.015 Y0.444 Z-11.88
X-7.018 Y0.406 Z-11.82
X-7.02 Y0.383 Z-11.753
X-7.021 Y0.375 Z-11.682
G0 Z15

(adaptive_roughing 3)
X-60.07 Y0.255
Z15
Z5
Z2.5
G3 X-57.93 Y-0.255 Z2.379 I1.07 J-0.255 F283.3
X-60.07 Y0.255 Z2.259 I-1.07 J0.255
X-57.93 Y-0.255 Z2.138 I1.07 J-0.255
X-60.07 Y0.255 Z2.017 I-1.07 J0.255
X-57.93 Y-0.255 Z1.897 I1.07 J-0.255
X-60.07 Y0.255 Z1.776 I-1.07 J0.255
X-57.93 Y-0.255 Z1.655 I1.07 J-0.255
X-60.07 Y0.255 Z1.535 I-1.07 J0.255
X-57.93 Y-0.255 Z1.414 I1.07 J-0.255
X-60.07 Y0.255 Z1.293 I-1.07 J0.255
X-57.93 Y-0.255 Z1.173 I1.07 J-0.255
X-60.07 Y0.255 Z1.052 I-1.07 J0.255
X-57.93 Y-0.255 Z0.931 I1.07 J-0.255
X-60.07 Y0.255 Z0.811 I-1.07 J0.255
X-57.93 Y-0.255 Z0.69 I1.07 J-0.255
X-60.07 Y0.255 Z0.569 I-1.07 J0.255
X-57.93 Y-0.255 Z0.448 I1.07 J-0.255
X-60.07 Y0.255 Z0.328 I-1.07 J0.255
X-57.93 Y-0.255 Z0.207 I1.07 J-0.255
X-60.07 Y0.255 Z0.086 I-1.07 J0.255
X-57.93 Y-0.255 Z-0.034 I1.07 J-0.255
X-60.07 Y0.255 Z-0.155 I-1.07 J0.255
X-57.93 Y-0.255 Z-0.276 I1.07 J-0.255
X-60.07 Y0.255 Z-0.396 I-1.07 J0.255
X-57.93 Y-0.255 Z-0.517 I1.07 J-0.255
X-60.07 Y0.255 Z-0.638 I-1.07 J0.255
X-57.93 Y-0.255 Z-0.758 I1.07 J-0.255
X-60.07 Y0.255 Z-0.879 I-1.07 J0.255
X-57.93 Y-0.255 Z-1 I1.07 J-0.255
X-60.07 Y0.255 Z-1.12 I-1.07 J0.255
X-59.129 Y-1.092 Z-1.185 I1.07 J-0.255
X-57.9 Y0 Z-1.25 I0.129 J1.092
X-60.1 I-1.1
X-57.9 I1.1
G1 X-57.884 Y0.257 F850
X-57.88 Y0.407
X-57.916 Y0.552
X-57.979 Y0.689
X-58.062 Y0.813
X-58.162 Y0.925
X-58.276 Y1.022
X-58.402 Y1.104
X-58.537 Y1.17
X-58.679 Y1.218
X-58.826 Y1.248
X-58.975 Y1.261
X-59.125 Y1.256
X-59.273 Y1.232
X-59.417 Y1.191
X-59.556 Y1.134
X-59.686 Y1.06
X-59.807 Y0.971
X-59.917 Y0.868
X-60.013 Y0.754
X-60.096 Y0.628
X-60.162 Y0.494
X-60.213 Y0.352
X-60.246 Y0.206
X-60.262 Y0.057
X-60.259 Y-0.093
X-60.24 Y-0.242
X-60.202 Y-0.387
X-60.148 Y-0.527
X-60.077 Y-0.659
X-59.992 Y-0.782
X-59.892 Y-0.894
X-59.779 Y-0.994
X-59.656 Y-1.079
X-59.524 Y-1.149
X-59.384 Y-1.203
X-59.238 Y-1.24
X-59.09 Y-1.26
X-58.94 Y-1.261
X-58.79 Y-1.245
X-58.644 Y-1.212
X-58.503 Y-1.161
X-58.369 Y-1.094
X-58.244 Y-1.011
X-58.129 Y-0.915
X-58.027 Y-0.805
X-57.938 Y-0.684
X-57.865 Y-0.553
X-57.807 Y-0.415
X-57.763 Y-0.271
X-57.728 Y-0.125
X-57.702 Y0.022
X-57.693 Y0.172
X-57.7 Y0.322
X-57.725 Y0.47
X-57.77 Y0.613
X-57.833 Y0.749
X-57.912 Y0.876
X-58.007 Y0.993
X-58.114 Y1.098
X-58.233 Y1.19
X-58.361 Y1.268
X-58.497 Y1.331
X-58.639 Y1.379
X-58.785 Y1.411
X-58.934 Y1.428
X-59.084
X-59.233 Y1.411
X-59.38 Y1.379
X-59.522 Y1.332
X-59.659 Y1.27
X-59.789 Y1.195
X-59.91 Y1.106
X-60.021 Y1.005
X-60.12 Y0.893
X-60.208 Y0.771
X-60.281 Y0.641
X-60.341 Y0.503
X-60.386 Y0.36
X-60.416 Y0.213
X-60.431 Y0.064
X-60.43 Y-0.086
X-60.414 Y-0.235
X-60.381 Y-0.382
X-60.334 Y-0.524
X-60.271 Y-0.66
X-60.195 Y-0.79
