%
(1001)
(origin stock top)
(T1  D=2 CR=0 - ZMIN=-3.3 - flat end mill)
G90 G94
G17
G21

(adaptive_roughing 2)
M9
T1 M6
S7500 M3
G54
M8
G0 X-18.052 Y30.356
Z53.7
Z5
Z2.5
G3 X-19.949 Y30.243 Z2.396 I-0.948 J-0.056 F283.3
X-18.052 Y30.356 Z2.292 I0.948 J0.056
X-19.949 Y30.243 Z2.187 I-0.948 J-0.056
X-18.052 Y30.356 Z2.083 I0.948 J0.056
X-19.949 Y30.243 Z1.979 I-0.948 J-0.056
X-18.052 Y30.356 Z1.875 I0.948 J0.056
X-19.949 Y30.243 Z1.77 I-0.948 J-0.056
X-18.052 Y30.356 Z1.666 I0.948 J0.056
X-19.949 Y30.243 Z1.562 I-0.948 J-0.056
X-18.052 Y30.356 Z1.458 I0.948 J0.056
X-19.949 Y30.243 Z1.354 I-0.948 J-0.056
X-18.052 Y30.356 Z1.249 I0.948 J0.056
X-19.949 Y30.243 Z1.145 I-0.948 J-0.056
X-18.052 Y30.356 Z1.041 I0.948 J0.056
X-19.949 Y30.243 Z0.937 I-0.948 J-0.056
X-18.052 Y30.356 Z0.832 I0.948 J0.056
X-19.949 Y30.243 Z0.728 I-0.948 J-0.056
X-18.052 Y30.356 Z0.624 I0.948 J0.056
X-19.949 Y30.243 Z0.52 I-0.948 J-0.056
X-18.052 Y30.356 Z0.416 I0.948 J0.056
X-19.949 Y30.243 Z0.311 I-0.948 J-0.056
X-18.052 Y30.356 Z0.207 I0.948 J0.056
X-19.949 Y30.243 Z0.103 I-0.948 J-0.056
X-18.052 Y30.356 Z-0.001 I0.948 J0.056
X-19.949 Y30.243 Z-0.106 I-0.948 J-0.056
X-18.052 Y30.356 Z-0.21 I0.948 J0.056
X-19.949 Y30.243 Z-0.314 I-0.948 J-0.056
X-18.052 Y30.356 Z-0.418 I0.948 J0.056
X-19.949 Y30.243 Z-0.522 I-0.948 J-0.056
X-18.052 Y30.356 Z-0.627 I0.948 J0.056
X-19.949 Y30.243 Z-0.731 I-0.948 J-0.056
X-18.052 Y30.356 Z-0.835 I0.948 J0.056
X-19.949 Y30.243 Z-0.939 I-0.948 J-0.056
X-18.052 Y30.356 Z-1.044 I0.948 J0.056
X-19.949 Y30.243 Z-1.148 I-0.948 J-0.056
X-18.05 Y30.3 Z-1.25 I0.948 J0.056
X-19.95 I-0.95
X-18.05 I0.95
G1 X-18.035 Y30.596 F850
X-18.034 Y30.746
X-18.079 Y30.889
X-18.153 Y31.019
X-18.249 Y31.134
X-18.363 Y31.232
X-18.489 Y31.313
X-18.626 Y31.375
X-18.77 Y31.417
X-18.918 Y31.439
X-19.068 Y31.44
X-19.217 Y31.422
X-19.363 Y31.385
X-19.501 Y31.328
X-19.632 Y31.254
X-19.751 Y31.163
X-19.858 Y31.058
X-19.95 Y30.939
X-20.025 Y30.81
X-20.083 Y30.671
X-20.122 Y30.527
X-20.142 Y30.378
X-20.143 Y30.228
X-20.124 Y30.079
X-20.085 Y29.934
X-20.028 Y29.795
X-19.953 Y29.665
X-19.862 Y29.546
X-19.756 Y29.44
X-19.637 Y29.349
X-19.507 Y29.274
X-19.369 Y29.216
X-19.224 Y29.177
X-19.075 Y29.158
X-18.925
X-18.776 Y29.177
X-18.632 Y29.216
X-18.493 Y29.274
X-18.363 Y29.349
X-18.244 Y29.44
X-18.138 Y29.547
X-18.047 Y29.666
X-17.973 Y29.796
X-17.915 Y29.935
X-17.873 Y30.078
X-17.841 Y30.225
X-17.817 Y30.373
X-17.809 Y30.523
X-17.82 Y30.672
X-17.851 Y30.819
X-17.904 Y30.959
X-17.976 Y31.091
X-18.065 Y31.212
X-18.168 Y31.321
X-18.285 Y31.415
X-18.412 Y31.494
X-18.549 Y31.556
X-18.692 Y31.602
X-18.839 Y31.63
X-18.989 Y31.642
X-19.138 Y31.636
X-19.287 Y31.614
X-19.432 Y31.575
X-19.571 Y31.52
X-19.703 Y31.449
X-19.826 Y31.363
X-19.94 Y31.265
X-20.042 Y31.155
X-20.131 Y31.034
X-20.206 Y30.904
X-20.265 Y30.767
X-20.309 Y30.623
X-20.336 Y30.476
X-20.348 Y30.326
X-20.343 Y30.176
X-20.321 Y30.028
X-20.283 Y29.883
X-20.228 Y29.743
X-20.158 Y29.61
X-20.074 Y29.486
X-19.977 Y29.371
X-19.868 Y29.268
X-19.749 Y29.178
X-19.619 Y29.102
X-19.482 Y29.041
X-19.339 Y28.996
X-19.192 Y28.966
X-19.043 Y28.953
X-18.893 Y28.956
X-18.744 Y28.976
X-18.599 Y29.013
X-18.459 Y29.066
X-18.325 Y29.134
X-18.199 Y29.216
X-18.084 Y29.311
X-17.979 Y29.419
X-17.888 Y29.538
X-17.81 Y29.666
X-17.743 Y29.801
X-17.688 Y29.94
X-17.645 Y30.084
X-17.615 Y30.231
X-17.598 Y30.38
X-17.595 Y30.53
X-17.61 Y30.679
X-17.641 Y30.826
X-17.688 Y30.968
X-17.75 Y31.105
X-17.826 Y31.234
X-17.917 Y31.353
X-18.02 Y31.462
X-18.135 Y31.559
X-18.259 Y31.642
X-18.392 Y31.713
X-18.531 Y31.769
X-18.675 Y31.811
X-18.822 Y31.839
X-18.972 Y31.851
X-19.122 Y31.849
X-19.271 Y31.831
X-19.417 Y31.799
X-19.56 Y31.752
X-19.697 Y31.692
X-19.828 Y31.619
X-19.952 Y31.534
X-20.067 Y31.437
X-20.171 Y31.33
X-20.265 Y31.213
X-20.346 Y31.087
X-20.416 Y30.954
X-20.472 Y30.815
X-20.515 Y30.671
X-20.544 Y30.524
X-20.559 Y30.375
Y30.225
X-20.544 Y30.075
X-20.515 Y29.928
X-20.472 Y29.784
X-20.416 Y29.645
X-20.347 Y29.512
X-20.265 Y29.386
X-20.172 Y29.269
X-20.067 Y29.162
X-19.953 Y29.065
X-19.83 Y28.979
X-19.699 Y28.905
X-19.562 Y28.844
X-19.42 Y28.797
X-19.273 Y28.764
X-19.125 Y28.745
X-18.975 Y28.74
X-18.825 Y28.75
X-18.677 Y28.774
X-18.532 Y28.812
X-18.391 Y28.864
X-18.256 Y28.929
X-18.128 Y29.007
X-18.008 Y29.097
X-17.897 Y29.197
X-17.796 Y29.308
X-17.705 Y29.428
X-17.624 Y29.554
X-17.554 Y29.687
X-17.495 Y29.824
X-17.447 Y29.967
X-17.411 Y30.112
X-17.387 Y30.26
X-17.377 Y30.41
X-17.38 Y30.56
X-17.396 Y30.709
X-17.426 Y30.856
X-17.47 Y30.999
X-17.528 Y31.138
X-17.598 Y31.27
X-17.68 Y31.396
X-17.774 Y31.513
X-17.878 Y31.621
X-17.992 Y31.718
X-18.115 Y31.805
X-18.245 Y31.88
X-18.381 Y31.943
X-18.522 Y31.993
X-18.667 Y32.031
X-18.815 Y32.056
X-18.965 Y32.068
X-19.115 Y32.067
X-19.264 Y32.052
X-19.412 Y32.025
X-19.556 Y31.985
X-19.697 Y31.933
X-19.832 Y31.869
X-19.962 Y31.793
X-20.085 Y31.708
X-20.201 Y31.612
X-20.307 Y31.506
X-20.404 Y31.392
X-20.491 Y31.27
X-20.568 Y31.141
X-20.633 Y31.005
X-20.687 Y30.865
X-20.729 Y30.721
X-20.759 Y30.574
X-20.776 Y30.425
X-20.78 Y30.276
X-20.771 Y30.126
X-20.75 Y29.977
X-20.717 Y29.831
X-20.671 Y29.688
X-20.614 Y29.549
X-20.545 Y29.416
X-20.465 Y29.289
X-20.375 Y29.169
X-20.275 Y29.058
X-20.165 Y28.955
X-20.048 Y28.862
X-19.923 Y28.779
X-19.792 Y28.706
X-19.655 Y28.645
X-19.513 Y28.595
X-19.368 Y28.558
X-19.22 Y28.534
X-19.07 Y28.522
X-18.92
X-18.771 Y28.536
X-18.623 Y28.561
X-18.478 Y28.599
X-18.336 Y28.648
X-18.2 Y28.71
X-18.069 Y28.783
X-17.945 Y28.867
X-17.828 Y28.961
X-17.719 Y29.064
X-17.618 Y29.175
X-17.526 Y29.294
X-17.443 Y29.419
X-17.37 Y29.55
X-17.306 Y29.686
X-17.253 Y29.826
X-17.211 Y29.97
X-17.18 Y30.117
X-17.161 Y30.265
X-17.152 Y30.415
X-17.156 Y30.565
X-17.171 Y30.714
X-17.199 Y30.862
X-17.238 Y31.007
X-17.29 Y31.147
X-17.353 Y31.283
X-17.427 Y31.414
X-17.511 Y31.538
X-17.605 Y31.655
X-17.708 Y31.764
X-17.82 Y31.864
X-17.94 Y31.954
X-18.066 Y32.035
X-18.199 Y32.105
X-18.337 Y32.164
X-18.479 Y32.212
X-18.624 Y32.25
X-18.772 Y32.275
X-18.921 Y32.29
X-19.071 Y32.293
X-19.221 Y32.283
X-19.369 Y32.262
X-19.516 Y32.23
X-19.66 Y32.187
X-19.8 Y32.133
X-19.935 Y32.069
X-20.065 Y31.995
X-20.19 Y31.911
X-20.308 Y31.818
X-20.418 Y31.716
X-20.52 Y31.606
X-20.613 Y31.489
X-20.698 Y31.365
X-20.773 Y31.235
X-20.838 Y31.1
X-20.893 Y30.961
X-20.938 Y30.817
X-20.971 Y30.671
X-20.994 Y30.523
X-21.004 Y30.373
Y30.223
X-20.993 Y30.074
X-20.97 Y29.925
X-20.937 Y29.779
X-20.893 Y29.636
X-20.838 Y29.496
X-20.773 Y29.361
X-20.698 Y29.231
X-20.613 Y29.107
X-20.519 Y28.99
X-20.417 Y28.881
X-20.307 Y28.779
X-20.189 Y28.685
X-20.065 Y28.601
X-19.936 Y28.525
X-19.801 Y28.46
X-19.661 Y28.406
X-19.517 Y28.362
X-19.371 Y28.329
X-19.223 Y28.307
X-19.073 Y28.296
X-18.923
X-18.773 Y28.307
X-18.625 Y28.329
X-18.479 Y28.363
X-18.336 Y28.407
X-18.196 Y28.462
X-18.061 Y28.528
X-17.931 Y28.603
X-17.807 Y28.687
X-17.69 Y28.78
X-17.579 Y28.882
X-17.475 Y28.99
X-17.379 Y29.105
X-17.292 Y29.227
X-17.213 Y29.355
X-17.143 Y29.487
X-17.082 Y29.624
X-17.03 Y29.765
X-16.989 Y29.909
X-16.957 Y30.056
X-16.935 Y30.204
X-16.924 Y30.354
X-16.923 Y30.504
X-16.933 Y30.654
X-16.954 Y30.802
X-16.985 Y30.949
X-17.027 Y31.093
X-17.08 Y31.233
X-17.142 Y31.37
X-17.214 Y31.501
X-17.295 Y31.628
X-17.385 Y31.748
X-17.484 Y31.86
X-17.59 Y31.966
X-17.705 Y32.063
X-17.825 Y32.152
X-17.952 Y32.232
X-18.085 Y32.303
X-18.221 Y32.364
X-18.362 Y32.416
X-18.506 Y32.458
X-18.653 Y32.489
X-18.801 Y32.511
X-18.951 Y32.521
X-19.101
X-19.251 Y32.511
X-19.399 Y32.49
X-19.546 Y32.46
X-19.691 Y32.42
X-19.832 Y32.37
X-19.97 Y32.31
X-20.103 Y32.241
X-20.231 Y32.163
X-20.354 Y32.077
X-20.47 Y31.982
X-20.58 Y31.88
X-20.683 Y31.771
X-20.778 Y31.655
X-20.865 Y31.533
X-20.944 Y31.405
X-21.014 Y31.273
X-21.075 Y31.136
X-21.126 Y30.995
X-21.168 Y30.851
X-21.2 Y30.704
X-21.222 Y30.556
X-21.234 Y30.406
X-21.237 Y30.256
X-21.229 Y30.106
X-21.211 Y29.957
X-21.183 Y29.81
X-21.146 Y29.665
X-21.098 Y29.523
X-21.041 Y29.384
X-20.975 Y29.249
X-20.9 Y29.119
X-20.817 Y28.995
X-20.725 Y28.876
X-20.626 Y28.763
X-20.52 Y28.658
X-20.406 Y28.559
X-20.287 Y28.469
X-20.161 Y28.387
X-20.03 Y28.314
X-19.895 Y28.249
X-19.755 Y28.194
X-19.612 Y28.148
X-19.467 Y28.112
X-19.319 Y28.085
X-19.17 Y28.069
X-19.02 Y28.062
X-18.87 Y28.066
X-18.721 Y28.08
X-18.573 Y28.104
X-18.427 Y28.137
X-18.283 Y28.181
X-18.143 Y28.233
X-18.006 Y28.295
X-17.874 Y28.366
X-17.746 Y28.445
X-17.625 Y28.533
X-17.509 Y28.628
X-17.399 Y28.73
X-17.296 Y28.839
X-17.2 Y28.955
X-17.111 Y29.076
X-17.03 Y29.202
X-16.957 Y29.333
X-16.892 Y29.468
X-16.836 Y29.607
X-16.788 Y29.749
X-16.749 Y29.894
X-16.72 Y30.041
X-16.7 Y30.19
X-16.689 Y30.34
X-16.688 Y30.49
X-16.696 Y30.639
X-16.714 Y30.788
X-16.742 Y30.936
X-16.779 Y31.081
X-16.825 Y31.224
X-16.881 Y31.363
X-16.945 Y31.498
X-17.018 Y31.629
X-17.1 Y31.755
X-17.189 Y31.876
X-17.286 Y31.99
X-17.391 Y32.098
X-17.502 Y32.199
X-17.619 Y32.292
X-17.742 Y32.377
X-17.871 Y32.455
X-18.004 Y32.524
X-18.141 Y32.585
X-18.282 Y32.636
X-18.426 Y32.679
X-18.572 Y32.713
X-18.72 Y32.737
X-18.869 Y32.752
X-19.019 Y32.757
X-19.169 Y32.754
X-19.319 Y32.74
X-19.467 Y32.718
X-19.614 Y32.686
X-19.758 Y32.645
X-19.9 Y32.596
X-20.038 Y32.538
X-20.172 Y32.472
X-20.303 Y32.397
X-20.428 Y32.315
X-20.548 Y32.225
X-20.662 Y32.128
X-20.77 Y32.024
X-20.872 Y31.913
X-20.967 Y31.797
X-21.054 Y31.675
X-21.134 Y31.548
X-21.206 Y31.417
X-21.27 Y31.281
X-21.326 Y31.142
X-21.373 Y30.999
X-21.411 Y30.854
X-21.44 Y30.707
X-21.46 Y30.558
X-21.471 Y30.409
X-21.473 Y30.259
X-21.466 Y30.109
X-21.45 Y29.96
X-21.425 Y29.812
X-21.392 Y29.666
X-21.349 Y29.522
X-21.298 Y29.381
X-21.238 Y29.244
X-21.169 Y29.11
X-21.093 Y28.981
X-21.009 Y28.857
X-20.918 Y28.737
X-20.82 Y28.624
X-20.715 Y28.517
X-20.604 Y28.416
X-20.487 Y28.322
X-20.364 Y28.236
X-20.237 Y28.157
X-20.105 Y28.086
X-19.968 Y28.023
X-19.829 Y27.969
X-19.686 Y27.923
X-19.54 Y27.886
X-19.393 Y27.857
X-19.244 Y27.838
X-19.095 Y27.828
X-18.945 Y27.826
X-18.795 Y27.834
X-18.646 Y27.851
X-18.498 Y27.877
X-18.352 Y27.912
X-18.209 Y27.956
X-18.068 Y28.008
X-17.931 Y28.069
X-17.797 Y28.137
X-17.668 Y28.213
X-17.544 Y28.297
X-17.424 Y28.388
X-17.31 Y28.485
X-17.202 Y28.589
X-17.1 Y28.699
X-17.005 Y28.815
X-16.916 Y28.936
X-16.835 Y29.062
X-16.76 Y29.192
X-16.693 Y29.326
X-16.634 Y29.464
X-16.582 Y29.605
X-16.539 Y29.748
X-16.504 Y29.894
X-16.477 Y30.042
X-16.459 Y30.191
X-16.45 Y30.34
X-16.449 Y30.49
X-16.457 Y30.64
X-16.473 Y30.789
X-16.498 Y30.937
X-16.532 Y31.083
X-16.574 Y31.227
X-16.625 Y31.369
X-16.684 Y31.507
X-16.751 Y31.641
X-16.825 Y31.771
X-16.908 Y31.896
X-16.997 Y32.017
X-17.094 Y32.131
X-17.197 Y32.241
X-17.306 Y32.343
X-17.421 Y32.44
X-17.541 Y32.529
X-17.666 Y32.612
X-17.796 Y32.686
X-17.931 Y32.754
X-18.068 Y32.813
X-18.209 Y32.864
X-18.353 Y32.907
X-18.499 Y32.942
X-18.647 Y32.968
X-18.796 Y32.986
X-18.945 Y32.995
X-19.095 Y32.996
X-19.245 Y32.989
X-19.394 Y32.972
X-19.542 Y32.948
X-19.689 Y32.915
X-19.833 Y32.874
X-19.975 Y32.824
X-20.113 Y32.768
X-20.249 Y32.703
X-20.38 Y32.631
X-20.508 Y32.552
X-20.63 Y32.465
X-20.748 Y32.372
X-20.86 Y32.273
X-20.967 Y32.167
X-21.067 Y32.056
X-21.161 Y31.939
X-21.249 Y31.817
X-21.329 Y31.691
X-21.403 Y31.56
X-21.469 Y31.425
X-21.528 Y31.287
X-21.579 Y31.146
X-21.622 Y31.003
X-21.657 Y30.857
X-21.684 Y30.709
X-21.702 Y30.56
X-21.712 Y30.411
X-21.714 Y30.261
X-21.708 Y30.111
X-21.694 Y29.962
X-21.671 Y29.813
X-21.64 Y29.666
X-21.601 Y29.522
X-21.555 Y29.379
X-21.5 Y29.239
X-21.437 Y29.103
X-21.368 Y28.97
X-21.29 Y28.842
X-21.206 Y28.717
X-21.115 Y28.598
X-21.018 Y28.484
X-20.915 Y28.375
X-20.806 Y28.272
X-20.691 Y28.175
X-20.571 Y28.085
X-20.447 Y28.002
X-20.318 Y27.925
X-20.184 Y27.856
X-20.048 Y27.795
X-19.908 Y27.741
X-19.765 Y27.695
X-19.62 Y27.657
X-19.473 Y27.627
X-19.324 Y27.604
X-19.175 Y27.59
X-19.025 Y27.585
X-18.875 Y27.587
X-18.726 Y27.598
X-18.577 Y27.618
X-18.429 Y27.645
X-18.284 Y27.681
X-18.14 Y27.724
X-17.999 Y27.776
X-17.861 Y27.835
X-17.727 Y27.901
X-17.596 Y27.974
X-17.469 Y28.054
X-17.347 Y28.141
X-17.229 Y28.234
X-17.117 Y28.333
X-17.01 Y28.439
X-16.909 Y28.549
X-16.813 Y28.665
X-16.724 Y28.786
X-16.642 Y28.911
X-16.566 Y29.04
X-16.496 Y29.173
X-16.434 Y29.31
X-16.378 Y29.449
X-16.33 Y29.591
X-16.29 Y29.736
X-16.257 Y29.882
X-16.233 Y30.03
X-16.216 Y30.179
X-16.207 Y30.329
X-16.205 Y30.479
X-16.212 Y30.629
X-16.227 Y30.778
X-16.249 Y30.926
X-16.279 Y31.073
X-16.317 Y31.218
X-16.363 Y31.361
X-16.417 Y31.501
X-16.478 Y31.638
X-16.546 Y31.772
X-16.621 Y31.902
X-16.704 Y32.027
X-16.792 Y32.148
X-16.888 Y32.264
X-16.989 Y32.375
X-17.096 Y32.48
X-17.208 Y32.579
X-17.325 Y32.673
X-17.448 Y32.76
X-17.574 Y32.84
X-17.705 Y32.913
X-17.84 Y32.979
X-17.978 Y33.038
X-18.119 Y33.09
X-18.262 Y33.134
X-18.407 Y33.171
X-18.555 Y33.2
X-18.703 Y33.221
X-18.852 Y33.235
X-19.002 Y33.24
X-19.152 Y33.238
X-19.302 Y33.229
X-19.451 Y33.211
X-19.599 Y33.185
X-19.745 Y33.152
X-19.889 Y33.112
X-20.032 Y33.064
X-20.171 Y33.009
X-20.308 Y32.946
X-20.441 Y32.877
X-20.57 Y32.802
X-20.696 Y32.719
X-20.817 Y32.631
X-20.933 Y32.536
X-21.044 Y32.435
X-21.15 Y32.329
X-21.251 Y32.218
X-21.345 Y32.101
X-21.434 Y31.98
X-21.516 Y31.855
X-21.592 Y31.725
X-21.661 Y31.592
X-21.723 Y31.456
X-21.779 Y31.317
X-21.827 Y31.175
X-21.868 Y31.03
X-21.901 Y30.884
X-21.927 Y30.736
X-21.946 Y30.587
X-21.956 Y30.438
X-21.959 Y30.288
X-21.955 Y30.138
X-21.943 Y29.988
X-21.924 Y29.84
X-21.897 Y29.692
X-21.863 Y29.546
X-21.821 Y29.402
X-21.772 Y29.26
X-21.716 Y29.121
X-21.652 Y28.985
X-21.582 Y28.852
X-21.505 Y28.724
X-21.422 Y28.599
X-21.333 Y28.478
X-21.238 Y28.362
X-21.137 Y28.251
X-21.03 Y28.146
X-20.919 Y28.045
X-20.802 Y27.951
X-20.681 Y27.863
X-20.555 Y27.781
X-20.426 Y27.705
X-20.292 Y27.637
X-20.156 Y27.575
X-20.016 Y27.52
X-19.874 Y27.472
X-19.729 Y27.431
X-19.583 Y27.398
X-19.435 Y27.372
X-19.287 Y27.354
X-19.137 Y27.343
X-18.987 Y27.339
X-18.837 Y27.344
X-18.688 Y27.356
X-18.539 Y27.376
X-18.391 Y27.403
X-18.245 Y27.438
X-18.101 Y27.479
X-17.96 Y27.528
X-17.82 Y27.584
X-17.684 Y27.647
X-17.551 Y27.716
X-17.422 Y27.792
X-17.296 Y27.874
X-17.175 Y27.962
X-17.058 Y28.056
X-16.946 Y28.156
X-16.839 Y28.261
X-16.737 Y28.371
X-16.641 Y28.486
X-16.55 Y28.605
X-16.465 Y28.729
X-16.386 Y28.857
X-16.313 Y28.988
X-16.246 Y29.122
X-16.186 Y29.26
X-16.133 Y29.4
X-16.087 Y29.542
X-16.047 Y29.687
X-16.015 Y29.834
X-15.99 Y29.982
X-15.972 Y30.131
X-15.962 Y30.28
X-15.958 Y30.43
X-15.962 Y30.58
X-15.973 Y30.73
X-15.991 Y30.879
X-16.017 Y31.026
X-16.05 Y31.173
X-16.09 Y31.317
X-16.137 Y31.46
X-16.191 Y31.6
X-16.252 Y31.737
X-16.32 Y31.87
X-16.394 Y32.001
X-16.474 Y32.127
X-16.561 Y32.25
X-16.653 Y32.368
X-16.751 Y32.482
X-16.855 Y32.59
X-16.964 Y32.694
X-17.077 Y32.791
X-17.196 Y32.884
X-17.318 Y32.97
X-17.445 Y33.05
X-17.576 Y33.123
X-17.71 Y33.19
X-17.847 Y33.251
X-17.987 Y33.305
X-18.13 Y33.352
X-18.274 Y33.393
X-18.42 Y33.426
X-18.568 Y33.452
X-18.717 Y33.471
X-18.866 Y33.483
X-19.016 Y33.488
X-19.166 Y33.485
X-19.316 Y33.475
X-19.465 Y33.458
X-19.613 Y33.434
X-19.76 Y33.403
X-19.905 Y33.365
X-20.048 Y33.32
X-20.189 Y33.269
X-20.327 Y33.211
X-20.463 Y33.146
X-20.595 Y33.076
X-20.724 Y32.999
X-20.848 Y32.915
X-20.969 Y32.826
X-21.086 Y32.732
X-21.197 Y32.632
X-21.304 Y32.527
X-21.406 Y32.416
X-21.503 Y32.302
X-21.594 Y32.183
X-21.68 Y32.059
X-21.759 Y31.932
X-21.833 Y31.802
X-21.901 Y31.668
X-21.962 Y31.531
X-22.016 Y31.391
X-22.064 Y31.249
X-22.105 Y31.105
X-22.139 Y30.959
X-22.167 Y30.811
X-22.187 Y30.663
X-22.2 Y30.513
X-22.207 Y30.363
Y30.213
X-22.199 Y30.063
X-22.185 Y29.914
X-22.164 Y29.766
X-22.136 Y29.618
X-22.1 Y29.473
X-22.058 Y29.329
X-22.009 Y29.187
X-21.954 Y29.047
X-21.892 Y28.911
X-21.824 Y28.777
X-21.749 Y28.647
X-21.669 Y28.52
X-21.583 Y28.397
X-21.492 Y28.278
X-21.395 Y28.164
X-21.292 Y28.054
X-21.185 Y27.95
X-21.073 Y27.85
X-20.956 Y27.756
X-20.835 Y27.667
X-20.71 Y27.585
X-20.581 Y27.508
X-20.448 Y27.437
X-20.313 Y27.373
X-20.175 Y27.315
X-20.034 Y27.263
X-19.891 Y27.218
X-19.746 Y27.179
X-19.599 Y27.148
X-19.451 Y27.123
X-19.302 Y27.105
X-19.153 Y27.095
X-19.003 Y27.091
X-18.853 Y27.095
X-18.703 Y27.105
X-18.554 Y27.123
X-18.406 Y27.147
X-18.259 Y27.178
X-18.114 Y27.216
X-17.971 Y27.26
X-17.83 Y27.311
X-17.691 Y27.368
X-17.555 Y27.432
X-17.423 Y27.502
X-17.293 Y27.578
X-17.168 Y27.66
X-17.046 Y27.747
X-16.928 Y27.84
X-16.814 Y27.938
X-16.705 Y28.041
X-16.601 Y28.149
X-16.502 Y28.261
X-16.408 Y28.378
X-16.319 Y28.499
X-16.235 Y28.623
X-16.157 Y28.751
X-16.085 Y28.883
X-16.019 Y29.017
X-15.959 Y29.155
X-15.905 Y29.295
X-15.857 Y29.437
X-15.816 Y29.582
X-15.782 Y29.728
X-15.754 Y29.875
X-15.733 Y30.023
X-15.718 Y30.173
X-15.71 Y30.322
X-15.708 Y30.472
X-15.714 Y30.622
X-15.726 Y30.772
X-15.745 Y30.921
X-15.77 Y31.068
X-15.803 Y31.215
X-15.842 Y31.36
X-15.888 Y31.503
X-15.94 Y31.643
X-15.998 Y31.781
X-16.063 Y31.917
X-16.133 Y32.049
X-16.21 Y32.178
X-16.292 Y32.304
X-16.38 Y32.425
X-16.473 Y32.543
X-16.572 Y32.656
X-16.675 Y32.764
X-16.784 Y32.868
X-16.897 Y32.966
X-17.015 Y33.059
X-17.136 Y33.147
X-17.262 Y33.23
X-17.391 Y33.306
X-17.523 Y33.377
X-17.658 Y33.442
X-17.796 Y33.5
X-17.937 Y33.553
X-18.079 Y33.599
X-18.224 Y33.638
X-18.37 Y33.671
X-18.518 Y33.698
X-18.667 Y33.718
X-18.816 Y33.731
X-18.966 Y33.737
X-19.116
X-19.266 Y33.73
X-19.415 Y33.717
X-19.564 Y33.697
X-19.712 Y33.67
X-19.858 Y33.637
X-20.003 Y33.598
X-20.146 Y33.553
X-20.286 Y33.501
X-20.425 Y33.443
X-20.56 Y33.378
X-20.693 Y33.308
X-20.822 Y33.232
X-20.948 Y33.151
X-21.07 Y33.064
X-21.189 Y32.972
X-21.303 Y32.875
X-21.413 Y32.773
X-21.518 Y32.666
X-21.619 Y32.555
X-21.715 Y32.439
X-21.805 Y32.32
X-21.891 Y32.196
X-21.971 Y32.069
X-22.045 Y31.939
X-22.113 Y31.806
X-22.176 Y31.669
X-22.232 Y31.53
X-22.283 Y31.389
X-22.327 Y31.246
X-22.365 Y31.101
X-22.396 Y30.954
X-22.422 Y30.806
X-22.441 Y30.657
X-22.453 Y30.508
X-22.459 Y30.358
X-22.458 Y30.208
X-22.451 Y30.058
X-22.438 Y29.909
X-22.417 Y29.76
X-22.391 Y29.612
X-22.358 Y29.466
X-22.319 Y29.321
X-22.273 Y29.178
X-22.221 Y29.038
X-22.164 Y28.899
X-22.1 Y28.763
X-22.031 Y28.63
X-21.955 Y28.501
X-21.875 Y28.374
X-21.789 Y28.251
X-21.697 Y28.132
X-21.601 Y28.017
X-21.499 Y27.907
X-21.393 Y27.801
X-21.283 Y27.7
X-21.168 Y27.603
X-21.049 Y27.512
X-20.926 Y27.426
X-20.8 Y27.345
X-20.67 Y27.27
X-20.537 Y27.2
X-20.401 Y27.136
X-20.263 Y27.078
X-20.122 Y27.027
X-19.979 Y26.981
X-19.834 Y26.942
X-19.688 Y26.909
X-19.54 Y26.882
X-19.392 Y26.862
X-19.242 Y26.848
X-19.092 Y26.841
X-18.942 Y26.84
X-18.793 Y26.846
X-18.643 Y26.858
X-18.494 Y26.877
X-18.346 Y26.902
X-18.2 Y26.933
X-18.054 Y26.971
X-17.911 Y27.014
X-17.769 Y27.064
X-17.63 Y27.12
X-17.494 Y27.182
X-17.36 Y27.25
X-17.229 Y27.323
X-17.101 Y27.401
X-16.977 Y27.485
X-16.856 Y27.574
X-16.739 Y27.668
X-16.626 Y27.767
X-16.518 Y27.871
X-16.414 Y27.979
X-16.314 Y28.091
X-16.219 Y28.207
X-16.13 Y28.327
X-16.045 Y28.451
X-15.965 Y28.578
X-15.891 Y28.709
X-15.822 Y28.842
X-15.759 Y28.978
X-15.702 Y29.117
X-15.65 Y29.257
X-15.604 Y29.4
X-15.564 Y29.545
X-15.531 Y29.691
X-15.503 Y29.839
X-15.482 Y29.987
X-15.467 Y30.136
X-15.458 Y30.286
X-15.455 Y30.436
X-15.459 Y30.586
X-15.469 Y30.736
X-15.485 Y30.885
X-15.507 Y31.033
X-15.536 Y31.18
X-15.571 Y31.326
X-15.611 Y31.471
X-15.658 Y31.613
X-15.711 Y31.753
X-15.77 Y31.891
X-15.835 Y32.027
X-15.905 Y32.159
X-15.981 Y32.289
X-16.062 Y32.415
X-16.149 Y32.537
X-16.24 Y32.656
X-16.337 Y32.771
X-16.438 Y32.882
X-16.544 Y32.988
X-16.654 Y33.09
X-16.768 Y33.187
X-16.886 Y33.279
X-17.008 Y33.366
X-17.134 Y33.448
X-17.263 Y33.525
X-17.395 Y33.596
X-17.53 Y33.661
X-17.668 Y33.721
X-17.808 Y33.775
X-17.95 Y33.823
X-18.094 Y33.866
X-18.239 Y33.902
X-18.386 Y33.932
X-18.534 Y33.956
X-18.683 Y33.974
X-18.833 Y33.986
X-18.983 Y33.991
X-19.133 Y33.99
X-19.282 Y33.983
X-19.432 Y33.97
X-19.581 Y33.951
X-19.728 Y33.926
X-19.875 Y33.894
X-20.02 Y33.857
X-20.164 Y33.814
X-20.306 Y33.764
X-20.445 Y33.71
X-20.583 Y33.649
X-20.718 Y33.583
X-20.849 Y33.511
X-20.978 Y33.434
X-21.104 Y33.352
X-21.226 Y33.265
X-21.345 Y33.173
X-21.46 Y33.076
X-21.571 Y32.974
X-21.678 Y32.867
X-21.78 Y32.756
X-21.878 Y32.641
X-21.971 Y32.523
X-22.06 Y32.4
X-22.143 Y32.274
X-22.221 Y32.144
X-22.294 Y32.012
X-22.361 Y31.876
X-22.422 Y31.738
X-22.478 Y31.599
X-22.528 Y31.457
X-22.572 Y31.313
X-22.611 Y31.166
X-22.643 Y31.019
X-22.669 Y30.87
X-22.69 Y30.72
X-22.704 Y30.569
X-22.712 Y30.417
X-22.713 Y30.266
X-22.709 Y30.114
X-22.698 Y29.963
X-22.682 Y29.812
X-22.659 Y29.662
X-22.63 Y29.513
X-22.595 Y29.365
X-22.554 Y29.219
X-22.507 Y29.076
X-22.454 Y28.935
X-22.396 Y28.795
X-22.332 Y28.659
X-22.263 Y28.524
X-22.187 Y28.393
X-22.107 Y28.264
X-22.021 Y28.139
X-21.93 Y28.018
X-21.835 Y27.9
X-21.734 Y27.786
X-21.629 Y27.676
X-21.519 Y27.571
X-21.405 Y27.47
X-21.287 Y27.373
X-21.166 Y27.282
X-21.041 Y27.196
X-20.913 Y27.116
X-20.783 Y27.041
X-20.649 Y26.971
X-20.513 Y26.907
X-20.373 Y26.848
X-20.231 Y26.795
X-20.087 Y26.748
X-19.941 Y26.707
X-19.793 Y26.671
X-19.644 Y26.642
X-19.494 Y26.619
X-19.342 Y26.602
X-19.19 Y26.591
X-19.037 Y26.586
X-18.884 Y26.587
X-18.732 Y26.595
X-18.58 Y26.609
X-18.43 Y26.629
X-18.28 Y26.655
X-18.132 Y26.687
X-17.984 Y26.726
X-17.838 Y26.77
X-17.693 Y26.821
X-17.549 Y26.878
X-17.408 Y26.94
X-17.269 Y27.009
X-17.133 Y27.083
X-17 Y27.163
X-16.869 Y27.249
X-16.743 Y27.34
X-16.62 Y27.436
X-16.5 Y27.537
X-16.385 Y27.643
X-16.274 Y27.754
X-16.167 Y27.87
X-16.066 Y27.99
X-15.969 Y28.114
X-15.877 Y28.242
X-15.79 Y28.374
X-15.709 Y28.509
X-15.633 Y28.648
X-15.563 Y28.789
X-15.499 Y28.934
X-15.441 Y29.08
X-15.389 Y29.229
X-15.343 Y29.38
X-15.304 Y29.532
X-15.27 Y29.686
X-15.243 Y29.841
X-15.223 Y29.996
X-15.208 Y30.152
X-15.2 Y30.309
X-15.199 Y30.465
X-15.204 Y30.621
X-15.215 Y30.777
X-15.232 Y30.932
X-15.256 Y31.086
X-15.286 Y31.239
X-15.322 Y31.39
X-15.365 Y31.539
X-15.413 Y31.687
X-15.468 Y31.833
X-15.528 Y31.976
X-15.594 Y32.117
X-15.666 Y32.255
X-15.744 Y32.39
X-15.827 Y32.522
X-15.915 Y32.651
X-16.009 Y32.775
X-16.107 Y32.896
X-16.211 Y33.013
X-16.319 Y33.126
X-16.432 Y33.234
X-16.549 Y33.337
X-16.67 Y33.435
X-16.795 Y33.529
X-16.924 Y33.617
X-17.057 Y33.7
X-17.193 Y33.778
X-17.332 Y33.85
X-17.475 Y33.917
X-17.62 Y33.978
X-17.767 Y34.033
X-17.917 Y34.082
X-18.069 Y34.124
X-18.223 Y34.161
X-18.378 Y34.191
X-18.534 Y34.215
X-18.691 Y34.232
X-18.849 Y34.244
X-19.007 Y34.248
X-19.166 Y34.246
X-19.324 Y34.238
X-19.483 Y34.223
X-19.641 Y34.202
X-19.798 Y34.174
X-19.954 Y34.14
X-20.108 Y34.099
X-20.262 Y34.052
X-20.4 Y34.003
X-20.414 Y33.998
X-20.485 Y33.968
X-20.558 Y33.938
X-20.6 Y33.921
X-20.803 Y33.824
X-20.941 Y33.752
X-21.077 Y33.673
X-21.21 Y33.589
X-21.26 Y33.554
X-21.27 Y33.546
G3 X-21.046 Y33.217 I0.127 J-0.154
G1 X-20.877 Y33.311
X-20.596 Y33.467
X-20.432 Y33.559
G3 X-20.6 Y33.921 I-0.097 J0.175
G1 X-20.974 Y33.765
X-21.003 Y33.749
X-21.061 Y33.707
X-21.407 Y33.441
X-21.51 Y33.362
X-21.522 Y33.353
X-21.66 Y33.235
X-21.773 Y33.131
X-21.883 Y33.021
X-21.977 Y32.918
X-22.007 Y32.881
G3 X-21.706 Y32.621 I0.163 J-0.116
G1 X-21.567 Y32.756
X-21.401 Y32.916
X-21.267 Y33.046
G3 X-21.522 Y33.353 I-0.139 J0.144
G1 X-21.809 Y33.132
X-21.841 Y33.098
X-22.168 Y32.671
X-22.213 Y32.613
X-22.237 Y32.582
X-22.331 Y32.446
X-22.413 Y32.316
X-22.49 Y32.182
X-22.549 Y32.069
X-22.569 Y32.025
G3 X-22.21 Y31.853 I0.187 J-0.07
G1 X-22.11 Y32.019
X-22.007 Y32.191
X-21.911 Y32.352
G3 X-22.237 Y32.582 I-0.172 J0.103
G1 X-22.433 Y32.326
X-22.444 Y32.311
X-22.46 Y32.286
X-22.471 Y32.261
X-22.674 Y31.77
X-22.683 Y31.75
X-22.709 Y31.687
X-22.777 Y31.495
X-22.822 Y31.352
X-22.861 Y31.206
X-22.886 Y31.093
X-22.893 Y31.046
G3 X-22.502 Y30.971 I0.199 J-0.019
G1 X-22.448 Y31.158
X-22.387 Y31.369
X-22.335 Y31.548
G3 X-22.709 Y31.687 I-0.192 J0.056
G1 X-22.849 Y31.347
X-22.856 Y31.318
X-22.861 Y31.289
X-22.937 Y30.714
X-22.941 Y30.679
X-22.947 Y30.635
X-22.959 Y30.485
X-22.965 Y30.333
Y30.179
X-22.96 Y30.071
X-22.955 Y30.025
G3 X-22.558 Y30.055 I0.197 J0.033
G1 X-22.555 Y30.248
X-22.553 Y30.411
X-22.55 Y30.599
G3 X-22.947 Y30.635 I-0.2 J0.003
G1 X-22.982 Y30.368
X-22.989 Y30.311
Y30.282
X-22.909 Y29.677
X-22.905 Y29.643
X-22.899 Y29.599
X-22.872 Y29.451
X-22.839 Y29.305
X-22.799 Y29.158
X-22.768 Y29.059
X-22.751 Y29.015
G3 X-22.375 Y29.147 I0.182 J0.083
G1 X-22.422 Y29.335
X-22.46 Y29.485
X-22.506 Y29.667
G3 X-22.899 Y29.599 I-0.194 J-0.049
G1 X-22.864 Y29.332
X-22.855 Y29.274
X-22.835 Y29.217
X-22.644 Y28.756
X-22.596 Y28.641
X-22.585 Y28.614
X-22.521 Y28.479
X-22.45 Y28.345
X-22.373 Y28.212
X-22.318 Y28.126
X-22.291 Y28.088
G3 X-21.962 Y28.313 I0.154 J0.127
G1 X-22.056 Y28.482
X-22.132 Y28.618
X-22.223 Y28.781
G3 X-22.585 Y28.614 I-0.175 J-0.097
G1 X-22.501 Y28.411
X-22.448 Y28.296
X-22.444 Y28.289
X-22.098 Y27.837
X-22.097 Y27.835
X-22.048 Y27.772
X-21.925 Y27.627
X-21.823 Y27.517
X-21.716 Y27.41
X-21.634 Y27.335
X-21.597 Y27.305
G3 X-21.337 Y27.607 I0.116 J0.163
G1 X-21.472 Y27.747
X-21.612 Y27.892
X-21.741 Y28.027
G3 X-22.048 Y27.772 I-0.144 J-0.139
G1 X-21.868 Y27.537
X-21.83 Y27.49
X-21.752 Y27.424
X-21.388 Y27.144
X-21.291 Y27.07
X-21.262 Y27.048
X-21.138 Y26.962
X-21.011 Y26.882
X-20.88 Y26.806
X-20.79 Y26.76
X-20.747 Y26.74
G3 X-20.574 Y27.099 I0.07 J0.187
G1 X-20.74 Y27.199
X-20.871 Y27.277
X-21.032 Y27.373
G3 X-21.262 Y27.048 I-0.103 J-0.172
G1 X-21.061 Y26.893
X-21.003 Y26.851
X-20.946 Y26.823
X-20.485 Y26.632
X-20.421 Y26.605
X-20.393 Y26.594
X-20.193 Y26.522
X-20.05 Y26.478
X-19.904 Y26.439
X-19.792 Y26.414
X-19.746 Y26.407
G3 X-19.67 Y26.798 I0.019 J0.199
G1 X-19.857 Y26.852
X-20.075 Y26.916
X-20.254 Y26.968
G3 X-20.393 Y26.594 I-0.056 J-0.192
G1 X-20.053 Y26.453
X-20.024 Y26.444
X-19.908 Y26.428
X-19.447 Y26.368
X-19.384 Y26.359
X-19.355 Y26.355
X-19.176 Y26.341
X-19.026 Y26.335
X-18.875
X-18.775 Y26.34
X-18.728 Y26.344
G3 X-18.757 Y26.742 I-0.033 J0.197
G1 X-18.951 Y26.745
X-19.132 Y26.749
X-19.318 Y26.753
G3 X-19.355 Y26.355 I-0.004 J-0.2
G1 X-19.102 Y26.322
X-18.986 Y26.311
X-18.756 Y26.341
X-18.41 Y26.386
X-18.347 Y26.395
X-18.318 Y26.398
X-18.139 Y26.431
X-17.993 Y26.464
X-17.845 Y26.504
X-17.771 Y26.528
X-17.726 Y26.544
G3 X-17.856 Y26.921 I-0.083 J0.182
G1 X-18.046 Y26.875
X-18.204 Y26.836
X-18.385 Y26.792
G3 X-18.318 Y26.398 I0.047 J-0.194
G1 X-18.007 Y26.439
X-17.978 Y26.444
X-17.947 Y26.453
X-17.39 Y26.684
X-17.373 Y26.691
X-17.338 Y26.705
X-17.139 Y26.8
X-17.006 Y26.869
X-16.906 Y26.928
X-16.876 Y26.945
X-16.848 Y26.965
X-16.82 Y26.985
G3 X-17.041 Y27.316 I-0.127 J0.154
G1 X-17.215 Y27.223
X-17.34 Y27.156
X-17.502 Y27.069
G3 X-17.338 Y26.705 I0.094 J-0.176
G1 X-17.027 Y26.834
X-16.998 Y26.849
X-16.97 Y26.87
X-16.462 Y27.259
X-16.451 Y27.268
X-16.416 Y27.295
X-16.257 Y27.43
X-16.147 Y27.532
X-16.114 Y27.566
X-16.091 Y27.592
X-16.069 Y27.619
G3 X-16.368 Y27.882 I-0.163 J0.116
G1 X-16.514 Y27.747
X-16.534 Y27.728
X-16.668 Y27.605
G3 X-16.416 Y27.295 I0.136 J-0.147
G1 X-16.22 Y27.445
X-16.195 Y27.466
X-16.169 Y27.49
X-15.99 Y27.723
X-15.681 Y28.125
X-15.661 Y28.151
X-15.644 Y28.173
X-15.559 Y28.297
X-15.536 Y28.335
X-15.516 Y28.374
X-15.498 Y28.414
G3 X-15.856 Y28.589 I-0.187 J0.07
G1 X-15.872 Y28.563
X-15.969 Y28.405
G3 X-15.644 Y28.173 I0.17 J-0.105
G1 X-15.552 Y28.296
X-15.529 Y28.34
X-15.165 Y29.217
X-15.145 Y29.274
X-15.136 Y29.332
X-15.011 Y30.282
Y30.311
X-15.033 Y30.483
X-15.143 Y31.318
X-15.151 Y31.347
X-15.529 Y32.26
X-15.544 Y32.293
X-15.566 Y32.326
X-16.145 Y33.08
X-16.166 Y33.106
X-16.191 Y33.132
X-16.34 Y33.247
X-16.984 Y33.741
X-17.005 Y33.754
X-17.027 Y33.766
X-17.834 Y34.1
X-17.949 Y34.147
X-17.978 Y34.156
X-18.006 Y34.161
X-18.938 Y34.283
X-18.986 Y34.289
X-19.062 Y34.283
X-19.937 Y34.168
X-20.024 Y34.156
X-20.139 Y34.112
X-20.414 Y33.998
G3 X-20.331 Y33.616 I0.083 J-0.182
G1 X-20.288 Y33.62
X-20.25 Y33.642 Z-1.245
X-20.214 Y33.663 Z-1.23
X-20.182 Y33.682 Z-1.206
X-20.166 Y33.709 Z-1.175
X-20.153 Y33.729 Z-1.137
X-20.146 Y33.741 Z-1.095
X-20.143 Y33.746 Z-1.05
G0 Z5
X-18.052 Y50.356
Z2.5
G3 X-19.949 Y50.243 Z2.396 I-0.948 J-0.056 F283.3
X-18.052 Y50.356 Z2.292 I0.948 J0.056
X-19.949 Y50.243 Z2.187 I-0.948 J-0.056
X-18.052 Y50.356 Z2.083 I0.948 J0.056
X-19.949 Y50.243 Z1.979 I-0.948 J-0.056
X-18.052 Y50.356 Z1.875 I0.948 J0.056
X-19.949 Y50.243 Z1.77 I-0.948 J-0.056
X-18.052 Y50.356 Z1.666 I0.948 J0.056
X-19.949 Y50.243 Z1.562 I-0.948 J-0.056
X-18.052 Y50.356 Z1.458 I0.948 J0.056
X-19.949 Y50.243 Z1.354 I-0.948 J-0.056
X-18.052 Y50.356 Z1.249 I0.948 J0.056
X-19.949 Y50.243 Z1.145 I-0.948 J-0.056
X-18.052 Y50.356 Z1.041 I0.948 J0.056
X-19.949 Y50.243 Z0.937 I-0.948 J-0.056
X-18.052 Y50.356 Z0.832 I0.948 J0.056
X-19.949 Y50.243 Z0.728 I-0.948 J-0.056
X-18.052 Y50.356 Z0.624 I0.948 J0.056
X-19.949 Y50.243 Z0.52 I-0.948 J-0.056
X-18.052 Y50.356 Z0.416 I0.948 J0.056
X-19.949 Y50.243 Z0.311 I-0.948 J-0.056
X-18.052 Y50.356 Z0.207 I0.948 J0.056
X-19.949 Y50.243 Z0.103 I-0.948 J-0.056
X-18.052 Y50.356 Z-0.001 I0.948 J0.056
X-19.949 Y50.243 Z-0.106 I-0.948 J-0.056
X-18.052 Y50.356 Z-0.21 I0.948 J0.056
X-19.949 Y50.243 Z-0.314 I-0.948 J-0.056
X-18.052 Y50.356 Z-0.418 I0.948 J0.056
X-19.949 Y50.243 Z-0.522 I-0.948 J-0.056
X-18.052 Y50.356 Z-0.627 I0.948 J0.056
X-19.949 Y50.243 Z-0.731 I-0.948 J-0.056
X-18.052 Y50.356 Z-0.835 I0.948 J0.056
X-19.949 Y50.243 Z-0.939 I-0.948 J-0.056
X-18.052 Y50.356 Z-1.044 I0.948 J0.056
X-19.949 Y50.243 Z-1.148 I-0.948 J-0.056
X-18.05 Y50.3 Z-1.25 I0.948 J0.056
X-19.95 I-0.95
X-18.05 I0.95
G1 X-18.035 Y50.595 F850
X-18.034 Y50.745
X-18.079 Y50.888
X-18.153 Y51.019
X-18.249 Y51.134
X-18.363 Y51.232
X-18.489 Y51.313
X-18.626 Y51.374
X-18.77 Y51.416
X-18.918 Y51.438
X-19.068 Y51.44
X-19.217 Y51.422
X-19.363 Y51.384
X-19.502 Y51.328
X-19.632 Y51.254
X-19.751 Y51.163
X-19.858 Y51.058
X-19.95 Y50.939
X-20.025 Y50.809
X-20.083 Y50.671
X-20.122 Y50.526
X-20.142 Y50.377
X-20.143 Y50.227
X-20.124 Y50.079
X-20.085 Y49.934
X-20.028 Y49.795
X-19.953 Y49.665
X-19.862 Y49.546
X-19.756 Y49.44
X-19.637 Y49.348
X-19.507 Y49.273
X-19.369 Y49.216
X-19.224 Y49.177
X-19.075 Y49.157
X-18.925
X-18.776 Y49.177
X-18.632 Y49.216
X-18.493 Y49.273
X-18.363 Y49.349
X-18.244 Y49.44
X-18.138 Y49.546
X-18.047 Y49.665
X-17.973 Y49.795
X-17.915 Y49.934
X-17.873 Y50.078
X-17.841 Y50.224
X-17.817 Y50.373
X-17.809 Y50.522
X-17.82 Y50.672
X-17.851 Y50.819
X-17.904 Y50.959
X-17.976 Y51.091
X-18.065 Y51.212
X-18.168 Y51.32
X-18.285 Y51.415
X-18.412 Y51.493
X-18.549 Y51.556
X-18.692 Y51.601
X-18.839 Y51.63
X-18.989 Y51.641
X-19.138 Y51.636
X-19.287 Y51.614
X-19.432 Y51.575
X-19.571 Y51.519
X-19.703 Y51.448
X-19.827 Y51.363
X-19.94 Y51.265
X-20.042 Y51.155
X-20.131 Y51.034
X-20.206 Y50.904
X-20.265 Y50.766
X-20.309 Y50.623
X-20.336 Y50.475
X-20.348 Y50.326
X-20.343 Y50.176
X-20.321 Y50.027
X-20.283 Y49.882
X-20.228 Y49.743
X-20.158 Y49.61
X-20.074 Y49.486
X-19.977 Y49.371
X-19.869 Y49.268
X-19.749 Y49.178
X-19.619 Y49.102
X-19.482 Y49.041
X-19.339 Y48.995
X-19.192 Y48.966
X-19.043 Y48.952
X-18.893 Y48.955
X-18.744 Y48.976
X-18.599 Y49.012
X-18.459 Y49.065
X-18.325 Y49.133
X-18.199 Y49.216
X-18.084 Y49.311
X-17.979 Y49.419
X-17.888 Y49.538
X-17.81 Y49.666
X-17.743 Y49.8
X-17.689 Y49.94
X-17.645 Y50.083
X-17.615 Y50.23
X-17.598 Y50.379
X-17.595 Y50.529
X-17.61 Y50.679
X-17.641 Y50.825
X-17.688 Y50.968
X-17.75 Y51.104
X-17.826 Y51.233
X-17.917 Y51.353
X-18.02 Y51.462
X-18.135 Y51.558
X-18.259 Y51.642
X-18.392 Y51.712
X-18.531 Y51.769
X-18.675 Y51.811
X-18.822 Y51.838
X-18.972 Y51.851
X-19.122 Y51.848
X-19.271 Y51.831
X-19.417 Y51.798
X-19.56 Y51.752
X-19.697 Y51.692
X-19.828 Y51.619
X-19.952 Y51.534
X-20.067 Y51.437
X-20.171 Y51.33
X-20.265 Y51.212
X-20.346 Y51.086
X-20.416 Y50.953
X-20.472 Y50.814
X-20.515 Y50.671
X-20.544 Y50.524
X-20.559 Y50.374
Y50.224
X-20.544 Y50.075
X-20.515 Y49.928
X-20.472 Y49.784
X-20.416 Y49.645
X-20.347 Y49.512
X-20.265 Y49.386
X-20.172 Y49.269
X-20.067 Y49.161
X-19.953 Y49.064
X-19.83 Y48.979
X-19.699 Y48.905
X-19.562 Y48.844
X-19.42 Y48.797
X-19.273 Y48.763
X-19.125 Y48.744
X-18.975 Y48.74
X-18.825 Y48.75
X-18.677 Y48.774
X-18.532 Y48.811
X-18.391 Y48.863
X-18.256 Y48.928
X-18.128 Y49.006
X-18.008 Y49.096
X-17.897 Y49.197
X-17.796 Y49.308
X-17.705 Y49.427
X-17.624 Y49.554
X-17.554 Y49.686
X-17.495 Y49.824
X-17.447 Y49.966
X-17.411 Y50.112
X-17.387 Y50.26
X-17.377 Y50.41
X-17.38 Y50.56
X-17.396 Y50.709
X-17.426 Y50.856
X-17.47 Y50.999
X-17.528 Y51.138
X-17.598 Y51.27
X-17.68 Y51.395
X-17.774 Y51.512
X-17.878 Y51.62
X-17.992 Y51.718
X-18.115 Y51.805
X-18.245 Y51.879
X-18.381 Y51.942
X-18.522 Y51.993
X-18.667 Y52.03
X-18.815 Y52.055
X-18.965 Y52.067
X-19.115 Y52.066
X-19.264 Y52.052
X-19.412 Y52.025
X-19.556 Y51.984
X-19.697 Y51.932
X-19.832 Y51.868
X-19.962 Y51.793
X-20.085 Y51.707
X-20.201 Y51.611
X-20.307 Y51.506
X-20.404 Y51.391
X-20.491 Y51.269
X-20.568 Y51.14
X-20.633 Y51.005
X-20.687 Y50.865
X-20.729 Y50.721
X-20.759 Y50.574
X-20.776 Y50.425
X-20.78 Y50.275
X-20.771 Y50.125
X-20.75 Y49.977
X-20.717 Y49.831
X-20.671 Y49.688
X-20.614 Y49.549
X-20.545 Y49.416
X-20.465 Y49.289
X-20.375 Y49.169
X-20.275 Y49.057
X-20.165 Y48.955
X-20.048 Y48.861
X-19.923 Y48.778
X-19.792 Y48.706
X-19.655 Y48.645
X-19.513 Y48.595
X-19.368 Y48.558
X-19.22 Y48.533
X-19.07 Y48.521
X-18.92 Y48.522
X-18.771 Y48.535
X-18.623 Y48.561
X-18.478 Y48.598
X-18.336 Y48.648
X-18.2 Y48.71
X-18.069 Y48.783
X-17.945 Y48.867
X-17.828 Y48.961
X-17.719 Y49.064
X-17.618 Y49.175
X-17.526 Y49.294
X-17.443 Y49.419
X-17.37 Y49.549
X-17.306 Y49.685
X-17.253 Y49.826
X-17.211 Y49.97
X-17.18 Y50.116
X-17.161 Y50.265
X-17.152 Y50.415
X-17.156 Y50.565
X-17.171 Y50.714
X-17.199 Y50.861
X-17.238 Y51.006
X-17.29 Y51.147
X-17.353 Y51.283
X-17.427 Y51.414
X-17.511 Y51.538
X-17.605 Y51.655
X-17.708 Y51.764
X-17.82 Y51.864
X-17.94 Y51.954
X-18.066 Y52.034
X-18.199 Y52.104
X-18.337 Y52.164
X-18.479 Y52.212
X-18.624 Y52.249
X-18.772 Y52.275
X-18.921 Y52.289
X-19.071 Y52.292
X-19.221 Y52.283
X-19.369 Y52.262
X-19.516 Y52.23
X-19.66 Y52.187
X-19.8 Y52.133
X-19.935 Y52.068
X-20.066 Y51.994
X-20.19 Y51.911
X-20.308 Y51.818
X-20.418 Y51.716
X-20.52 Y51.606
X-20.613 Y51.489
X-20.698 Y51.365
X-20.773 Y51.235
X-20.838 Y51.1
X-20.893 Y50.96
X-20.938 Y50.817
X-20.971 Y50.671
X-20.994 Y50.522
X-21.005 Y50.373
X-21.004 Y50.223
X-20.993 Y50.073
X-20.97 Y49.925
X-20.937 Y49.779
X-20.893 Y49.635
X-20.838 Y49.496
X-20.773 Y49.36
X-20.698 Y49.231
X-20.613 Y49.107
X-20.519 Y48.99
X-20.417 Y48.88
X-20.307 Y48.778
X-20.189 Y48.685
X-20.065 Y48.6
X-19.936 Y48.525
X-19.801 Y48.46
X-19.661 Y48.405
X-19.517 Y48.361
X-19.371 Y48.329
X-19.223 Y48.307
X-19.073 Y48.296
X-18.923
X-18.774 Y48.307
X-18.625 Y48.329
X-18.479 Y48.362
X-18.336 Y48.407
X-18.196 Y48.462
X-18.061 Y48.527
X-17.931 Y48.603
X-17.807 Y48.687
X-17.69 Y48.78
X-17.579 Y48.881
X-17.475 Y48.99
X-17.379 Y49.105
X-17.292 Y49.227
X-17.213 Y49.354
X-17.143 Y49.487
X-17.082 Y49.624
X-17.03 Y49.765
X-16.989 Y49.909
X-16.957 Y50.056
X-16.935 Y50.204
X-16.924 Y50.354
X-16.923 Y50.503
X-16.933 Y50.653
X-16.954 Y50.802
X-16.985 Y50.948
X-17.027 Y51.092
X-17.08 Y51.233
X-17.142 Y51.369
X-17.214 Y51.501
X-17.295 Y51.627
X-17.385 Y51.747
X-17.484 Y51.86
X-17.59 Y51.965
X-17.705 Y52.063
X-17.825 Y52.151
X-17.952 Y52.231
X-18.085 Y52.302
X-18.221 Y52.364
X-18.362 Y52.416
X-18.506 Y52.458
X-18.653 Y52.489
X-18.801 Y52.51
X-18.951 Y52.521
X-19.101
X-19.251 Y52.51
X-19.399 Y52.49
X-19.546 Y52.459
X-19.691 Y52.419
X-19.832 Y52.369
X-19.97 Y52.31
X-20.103 Y52.241
X-20.231 Y52.163
X-20.354 Y52.077
X-20.47 Y51.982
X-20.58 Y51.88
X-20.683 Y51.77
X-20.778 Y51.654
X-20.865 Y51.532
X-20.944 Y51.405
X-21.014 Y51.272
X-21.075 Y51.135
X-21.126 Y50.994
X-21.168 Y50.85
X-21.2 Y50.704
X-21.222 Y50.555
X-21.234 Y50.406
X-21.237 Y50.256
X-21.229 Y50.106
X-21.211 Y49.957
X-21.183 Y49.81
X-21.146 Y49.664
X-21.098 Y49.522
X-21.041 Y49.383
X-20.975 Y49.249
X-20.9 Y49.119
X-20.817 Y48.994
X-20.725 Y48.875
X-20.626 Y48.763
X-20.52 Y48.657
X-20.406 Y48.559
X-20.287 Y48.469
X-20.161 Y48.387
X-20.03 Y48.313
X-19.895 Y48.249
X-19.755 Y48.194
X-19.612 Y48.148
X-19.467 Y48.112
X-19.319 Y48.085
X-19.17 Y48.069
X-19.02 Y48.062
X-18.87 Y48.066
X-18.721 Y48.08
X-18.573 Y48.103
X-18.427 Y48.137
X-18.283 Y48.18
X-18.143 Y48.233
X-18.006 Y48.295
X-17.874 Y48.366
X-17.746 Y48.445
X-17.625 Y48.533
X-17.509 Y48.628
X-17.399 Y48.73
X-17.296 Y48.839
X-17.2 Y48.954
X-17.111 Y49.075
X-17.03 Y49.201
X-16.957 Y49.332
X-16.892 Y49.468
X-16.836 Y49.607
X-16.788 Y49.749
X-16.749 Y49.894
X-16.72 Y50.041
X-16.7 Y50.19
X-16.689 Y50.339
X-16.688 Y50.489
X-16.696 Y50.639
X-16.714 Y50.788
X-16.742 Y50.935
X-16.779 Y51.081
X-16.825 Y51.223
X-16.881 Y51.363
X-16.945 Y51.498
X-17.018 Y51.629
X-17.1 Y51.755
X-17.189 Y51.875
X-17.286 Y51.99
X-17.391 Y52.097
X-17.502 Y52.198
X-17.619 Y52.292
X-17.742 Y52.377
X-17.871 Y52.455
X-18.004 Y52.524
X-18.141 Y52.584
X-18.282 Y52.636
X-18.426 Y52.679
X-18.572 Y52.712
X-18.72 Y52.736
X-18.869 Y52.751
X-19.019 Y52.757
X-19.169 Y52.753
X-19.319 Y52.74
X-19.467 Y52.717
X-19.614 Y52.686
X-19.758 Y52.645
X-19.9 Y52.596
X-20.038 Y52.538
X-20.172 Y52.471
X-20.303 Y52.397
X-20.428 Y52.315
X-20.548 Y52.225
X-20.662 Y52.127
X-20.77 Y52.023
X-20.872 Y51.913
X-20.967 Y51.797
X-21.054 Y51.675
X-21.134 Y51.548
X-21.206 Y51.416
X-21.27 Y51.281
X-21.326 Y51.141
X-21.373 Y50.999
X-21.411 Y50.854
X-21.44 Y50.707
X-21.46 Y50.558
X-21.471 Y50.408
X-21.473 Y50.259
X-21.466 Y50.109
X-21.45 Y49.96
X-21.425 Y49.812
X-21.392 Y49.665
X-21.349 Y49.522
X-21.298 Y49.381
X-21.238 Y49.243
X-21.169 Y49.11
X-21.093 Y48.981
X-21.009 Y48.856
X-20.918 Y48.737
X-20.82 Y48.624
X-20.715 Y48.516
X-20.604 Y48.416
X-20.487 Y48.322
X-20.364 Y48.235
X-20.237 Y48.156
X-20.105 Y48.085
X-19.968 Y48.023
X-19.829 Y47.968
X-19.686 Y47.923
X-19.54 Y47.885
X-19.393 Y47.857
X-19.244 Y47.838
X-19.095 Y47.827
X-18.945 Y47.826
X-18.795 Y47.834
X-18.646 Y47.851
X-18.498 Y47.877
X-18.352 Y47.912
X-18.209 Y47.956
X-18.068 Y48.008
X-17.931 Y48.068
X-17.797 Y48.137
X-17.668 Y48.213
X-17.544 Y48.296
X-17.424 Y48.387
X-17.31 Y48.485
X-17.202 Y48.589
X-17.1 Y48.699
X-17.005 Y48.815
X-16.916 Y48.936
X-16.835 Y49.061
X-16.76 Y49.192
X-16.693 Y49.326
X-16.634 Y49.464
X-16.582 Y49.604
X-16.539 Y49.748
X-16.504 Y49.894
X-16.477 Y50.041
X-16.459 Y50.19
X-16.45 Y50.34
X-16.449 Y50.49
X-16.457 Y50.64
X-16.473 Y50.789
X-16.498 Y50.937
X-16.532 Y51.083
X-16.574 Y51.227
X-16.625 Y51.368
X-16.684 Y51.506
X-16.751 Y51.64
X-16.825 Y51.77
X-16.908 Y51.896
X-16.997 Y52.016
X-17.094 Y52.131
X-17.197 Y52.24
X-17.306 Y52.343
X-17.421 Y52.439
X-17.541 Y52.529
X-17.666 Y52.611
X-17.796 Y52.686
X-17.931 Y52.753
X-18.068 Y52.812
X-18.209 Y52.863
X-18.353 Y52.906
X-18.499 Y52.941
X-18.647 Y52.968
X-18.796 Y52.985
X-18.945 Y52.995
X-19.095 Y52.996
X-19.245 Y52.988
X-19.394 Y52.972
X-19.542 Y52.947
X-19.689 Y52.914
X-19.833 Y52.873
X-19.975 Y52.824
X-20.113 Y52.767
X-20.249 Y52.703
X-20.38 Y52.63
X-20.508 Y52.551
X-20.63 Y52.465
X-20.748 Y52.372
X-20.86 Y52.273
X-20.967 Y52.167
X-21.067 Y52.055
X-21.161 Y51.939
X-21.249 Y51.817
X-21.329 Y51.69
X-21.403 Y51.56
X-21.469 Y51.425
X-21.528 Y51.287
X-21.579 Y51.146
X-21.622 Y51.002
X-21.657 Y50.856
X-21.684 Y50.709
X-21.702 Y50.56
X-21.712 Y50.41
X-21.714 Y50.26
X-21.708 Y50.11
X-21.694 Y49.961
X-21.671 Y49.813
X-21.64 Y49.666
X-21.601 Y49.521
X-21.555 Y49.379
X-21.5 Y49.239
X-21.437 Y49.103
X-21.368 Y48.97
X-21.29 Y48.841
X-21.206 Y48.717
X-21.115 Y48.598
X-21.018 Y48.483
X-20.915 Y48.375
X-20.806 Y48.272
X-20.691 Y48.175
X-20.571 Y48.085
X-20.447 Y48.001
X-20.318 Y47.925
X-20.184 Y47.856
X-20.048 Y47.795
X-19.908 Y47.741
X-19.765 Y47.695
X-19.62 Y47.656
X-19.473 Y47.626
X-19.324 Y47.604
X-19.175 Y47.59
X-19.025 Y47.584
X-18.875 Y47.587
X-18.726 Y47.598
X-18.577 Y47.617
X-18.429 Y47.645
X-18.284 Y47.681
X-18.14 Y47.724
X-17.999 Y47.775
X-17.861 Y47.834
X-17.727 Y47.9
X-17.596 Y47.974
X-17.469 Y48.054
X-17.347 Y48.14
X-17.229 Y48.234
X-17.117 Y48.333
X-17.01 Y48.438
X-16.909 Y48.549
X-16.813 Y48.665
X-16.724 Y48.786
X-16.642 Y48.911
X-16.566 Y49.04
X-16.496 Y49.173
X-16.434 Y49.309
X-16.378 Y49.449
X-16.33 Y49.591
X-16.29 Y49.735
X-16.257 Y49.882
X-16.233 Y50.03
X-16.216 Y50.179
X-16.207 Y50.329
X-16.205 Y50.479
X-16.212 Y50.628
X-16.227 Y50.778
X-16.249 Y50.926
X-16.279 Y51.073
X-16.317 Y51.218
X-16.363 Y51.361
X-16.417 Y51.501
X-16.478 Y51.638
X-16.546 Y51.772
X-16.621 Y51.901
X-16.704 Y52.027
X-16.792 Y52.148
X-16.888 Y52.264
X-16.989 Y52.374
X-17.096 Y52.48
X-17.208 Y52.579
X-17.325 Y52.672
X-17.448 Y52.759
X-17.574 Y52.839
X-17.705 Y52.913
X-17.84 Y52.979
X-17.978 Y53.038
X-18.119 Y53.089
X-18.262 Y53.133
X-18.407 Y53.17
X-18.555 Y53.199
X-18.703 Y53.221
X-18.852 Y53.234
X-19.002 Y53.24
X-19.152 Y53.238
X-19.302 Y53.228
X-19.451 Y53.21
X-19.599 Y53.185
X-19.745 Y53.152
X-19.889 Y53.111
X-20.032 Y53.063
X-20.171 Y53.008
X-20.308 Y52.946
X-20.441 Y52.877
X-20.57 Y52.801
X-20.696 Y52.719
X-20.817 Y52.63
X-20.933 Y52.536
X-21.044 Y52.435
X-21.15 Y52.329
X-21.251 Y52.217
X-21.345 Y52.101
X-21.434 Y51.98
X-21.516 Y51.854
X-21.592 Y51.725
X-21.661 Y51.592
X-21.724 Y51.456
X-21.779 Y51.316
X-21.827 Y51.174
X-21.868 Y51.03
X-21.901 Y50.884
X-21.927 Y50.736
X-21.946 Y50.587
X-21.956 Y50.437
X-21.959 Y50.287
X-21.955 Y50.137
X-21.943 Y49.988
X-21.924 Y49.839
X-21.897 Y49.692
X-21.863 Y49.546
X-21.821 Y49.401
X-21.772 Y49.26
X-21.716 Y49.121
X-21.652 Y48.985
X-21.582 Y48.852
X-21.505 Y48.723
X-21.422 Y48.598
X-21.333 Y48.478
X-21.238 Y48.362
X-21.137 Y48.251
X-21.03 Y48.145
X-20.919 Y48.045
X-20.802 Y47.951
X-20.681 Y47.862
X-20.555 Y47.78
X-20.426 Y47.705
X-20.292 Y47.636
X-20.156 Y47.574
X-20.016 Y47.52
X-19.874 Y47.472
X-19.729 Y47.431
X-19.583 Y47.398
X-19.436 Y47.372
X-19.287 Y47.353
X-19.137 Y47.342
X-18.987 Y47.339
X-18.837 Y47.343
X-18.688 Y47.356
X-18.539 Y47.375
X-18.391 Y47.403
X-18.245 Y47.437
X-18.101 Y47.479
X-17.96 Y47.528
X-17.82 Y47.584
X-17.684 Y47.646
X-17.551 Y47.716
X-17.422 Y47.791
X-17.296 Y47.873
X-17.175 Y47.962
X-17.058 Y48.056
X-16.946 Y48.155
X-16.839 Y48.261
X-16.737 Y48.371
X-16.641 Y48.486
X-16.55 Y48.605
X-16.465 Y48.729
X-16.386 Y48.856
X-16.313 Y48.987
X-16.246 Y49.122
X-16.186 Y49.259
X-16.133 Y49.399
X-16.087 Y49.542
X-16.048 Y49.687
X-16.015 Y49.833
X-15.99 Y49.981
X-15.972 Y50.13
X-15.962 Y50.28
X-15.958 Y50.43
X-15.962 Y50.58
X-15.973 Y50.729
X-15.991 Y50.878
X-16.017 Y51.026
X-16.05 Y51.172
X-16.09 Y51.317
X-16.137 Y51.459
X-16.191 Y51.599
X-16.252 Y51.736
X-16.32 Y51.87
X-16.394 Y52
X-16.474 Y52.127
X-16.561 Y52.25
X-16.653 Y52.368
X-16.751 Y52.481
X-16.855 Y52.59
X-16.964 Y52.693
X-17.077 Y52.791
X-17.196 Y52.883
X-17.318 Y52.969
X-17.445 Y53.049
X-17.576 Y53.123
X-17.71 Y53.19
X-17.847 Y53.251
X-17.987 Y53.305
X-18.13 Y53.352
X-18.274 Y53.392
X-18.42 Y53.426
X-18.568 Y53.452
X-18.717 Y53.471
X-18.866 Y53.483
X-19.016 Y53.488
X-19.166 Y53.485
X-19.316 Y53.475
X-19.465 Y53.458
X-19.613 Y53.434
X-19.76 Y53.403
X-19.905 Y53.365
X-20.048 Y53.32
X-20.189 Y53.268
X-20.327 Y53.21
X-20.463 Y53.146
X-20.595 Y53.075
X-20.724 Y52.998
X-20.848 Y52.915
X-20.969 Y52.826
X-21.086 Y52.731
X-21.197 Y52.631
X-21.304 Y52.526
X-21.406 Y52.416
X-21.503 Y52.301
X-21.594 Y52.182
X-21.68 Y52.059
X-21.759 Y51.932
X-21.833 Y51.801
X-21.901 Y51.667
X-21.962 Y51.53
X-22.016 Y51.391
X-22.064 Y51.249
X-22.105 Y51.104
X-22.139 Y50.958
X-22.167 Y50.811
X-22.187 Y50.662
X-22.2 Y50.513
X-22.207 Y50.363
Y50.213
X-22.199 Y50.063
X-22.185 Y49.914
X-22.164 Y49.765
X-22.136 Y49.618
X-22.1 Y49.472
X-22.058 Y49.328
X-22.009 Y49.186
X-21.954 Y49.047
X-21.892 Y48.91
X-21.824 Y48.777
X-21.75 Y48.646
X-21.669 Y48.52
X-21.583 Y48.397
X-21.492 Y48.278
X-21.395 Y48.164
X-21.292 Y48.054
X-21.185 Y47.949
X-21.073 Y47.85
X-20.956 Y47.756
X-20.835 Y47.667
X-20.71 Y47.584
X-20.581 Y47.508
X-20.449 Y47.437
X-20.313 Y47.372
X-20.175 Y47.314
X-20.034 Y47.262
X-19.891 Y47.217
X-19.746 Y47.179
X-19.599 Y47.147
X-19.451 Y47.123
X-19.302 Y47.105
X-19.153 Y47.094
X-19.003 Y47.091
X-18.853 Y47.094
X-18.703 Y47.105
X-18.554 Y47.122
X-18.406 Y47.147
X-18.26 Y47.178
X-18.114 Y47.215
X-17.971 Y47.26
X-17.83 Y47.311
X-17.691 Y47.368
X-17.555 Y47.432
X-17.423 Y47.501
X-17.293 Y47.577
X-17.168 Y47.659
X-17.046 Y47.747
X-16.928 Y47.839
X-16.814 Y47.938
X-16.706 Y48.041
X-16.601 Y48.148
X-16.502 Y48.261
X-16.408 Y48.378
X-16.319 Y48.498
X-16.235 Y48.623
X-16.157 Y48.751
X-16.085 Y48.882
X-16.019 Y49.017
X-15.959 Y49.155
X-15.905 Y49.295
X-15.858 Y49.437
X-15.817 Y49.581
X-15.782 Y49.727
X-15.754 Y49.874
X-15.733 Y50.023
X-15.718 Y50.172
X-15.71 Y50.322
X-15.708 Y50.472
X-15.714 Y50.622
X-15.726 Y50.771
X-15.745 Y50.92
X-15.77 Y51.068
X-15.803 Y51.214
X-15.842 Y51.359
X-15.888 Y51.502
X-15.94 Y51.643
X-15.998 Y51.781
X-16.063 Y51.916
X-16.133 Y52.049
X-16.21 Y52.178
X-16.292 Y52.303
X-16.38 Y52.425
X-16.473 Y52.542
X-16.572 Y52.655
X-16.675 Y52.764
X-16.784 Y52.867
X-16.897 Y52.966
X-17.015 Y53.059
X-17.136 Y53.147
X-17.262 Y53.229
X-17.391 Y53.306
X-17.523 Y53.376
X-17.658 Y53.441
X-17.796 Y53.5
X-17.937 Y53.552
X-18.079 Y53.598
X-18.224 Y53.638
X-18.37 Y53.671
X-18.518 Y53.698
X-18.667 Y53.717
X-18.816 Y53.73
X-18.966 Y53.737
X-19.116
X-19.266 Y53.73
X-19.415 Y53.716
X-19.564 Y53.696
X-19.712 Y53.67
X-19.858 Y53.637
X-20.003 Y53.598
X-20.146 Y53.552
X-20.286 Y53.5
X-20.425 Y53.442
X-20.56 Y53.378
X-20.693 Y53.308
X-20.822 Y53.232
X-20.948 Y53.151
X-21.07 Y53.064
X-21.189 Y52.972
X-21.303 Y52.874
X-21.413 Y52.772
X-21.518 Y52.666
X-21.619 Y52.554
X-21.715 Y52.439
X-21.805 Y52.319
X-21.891 Y52.196
X-21.971 Y52.069
X-22.045 Y51.939
X-22.113 Y51.805
X-22.176 Y51.669
X-22.232 Y51.53
X-22.283 Y51.389
X-22.327 Y51.245
X-22.365 Y51.1
X-22.396 Y50.954
X-22.422 Y50.806
X-22.441 Y50.657
X-22.453 Y50.507
X-22.459 Y50.358
X-22.458 Y50.208
X-22.451 Y50.058
X-22.438 Y49.908
X-22.417 Y49.76
X-22.391 Y49.612
X-22.358 Y49.466
X-22.319 Y49.321
X-22.273 Y49.178
X-22.221 Y49.037
X-22.164 Y48.899
X-22.1 Y48.763
X-22.031 Y48.63
X-21.955 Y48.5
X-21.875 Y48.374
X-21.789 Y48.251
X-21.697 Y48.132
X-21.601 Y48.017
X-21.499 Y47.907
X-21.393 Y47.801
X-21.283 Y47.699
X-21.168 Y47.603
X-21.049 Y47.511
X-20.926 Y47.425
X-20.8 Y47.344
X-20.67 Y47.269
X-20.537 Y47.2
X-20.401 Y47.136
X-20.263 Y47.078
X-20.122 Y47.026
X-19.979 Y46.981
X-19.834 Y46.942
X-19.688 Y46.909
X-19.54 Y46.882
X-19.392 Y46.862
X-19.242 Y46.848
X-19.092 Y46.841
X-18.942 Y46.84
X-18.793 Y46.846
X-18.643 Y46.858
X-18.494 Y46.876
X-18.346 Y46.901
X-18.2 Y46.933
X-18.054 Y46.97
X-17.911 Y47.014
X-17.769 Y47.064
X-17.63 Y47.12
X-17.494 Y47.182
X-17.36 Y47.249
X-17.229 Y47.322
X-17.101 Y47.401
X-16.977 Y47.485
X-16.856 Y47.574
X-16.739 Y47.668
X-16.626 Y47.767
X-16.518 Y47.87
X-16.414 Y47.978
X-16.314 Y48.091
X-16.219 Y48.207
X-16.13 Y48.327
X-16.045 Y48.451
X-15.965 Y48.578
X-15.891 Y48.708
X-15.822 Y48.842
X-15.759 Y48.978
X-15.702 Y49.116
X-15.65 Y49.257
X-15.604 Y49.4
X-15.564 Y49.545
X-15.531 Y49.691
X-15.503 Y49.838
X-15.482 Y49.987
X-15.467 Y50.136
X-15.458 Y50.286
X-15.455 Y50.436
X-15.459 Y50.586
X-15.469 Y50.735
X-15.485 Y50.884
X-15.507 Y51.033
X-15.536 Y51.18
X-15.571 Y51.326
X-15.612 Y51.47
X-15.658 Y51.613
X-15.711 Y51.753
X-15.77 Y51.891
X-15.835 Y52.026
X-15.905 Y52.159
X-15.981 Y52.288
X-16.062 Y52.414
X-16.149 Y52.537
X-16.24 Y52.656
X-16.337 Y52.771
X-16.438 Y52.881
X-16.544 Y52.988
X-16.654 Y53.089
X-16.768 Y53.187
X-16.886 Y53.279
X-17.008 Y53.366
X-17.134 Y53.448
X-17.263 Y53.524
X-17.395 Y53.595
X-17.53 Y53.661
X-17.668 Y53.721
X-17.808 Y53.775
X-17.95 Y53.823
X-18.094 Y53.865
X-18.239 Y53.901
X-18.386 Y53.932
X-18.534 Y53.956
X-18.683 Y53.973
X-18.833 Y53.985
X-18.983 Y53.991
X-19.133 Y53.99
X-19.282 Y53.983
X-19.432 Y53.97
X-19.581 Y53.951
X-19.728 Y53.925
X-19.875 Y53.894
X-20.02 Y53.856
X-20.164 Y53.813
X-20.306 Y53.764
X-20.445 Y53.709
X-20.583 Y53.649
X-20.718 Y53.582
X-20.85 Y53.511
X-20.978 Y53.434
X-21.104 Y53.352
X-21.226 Y53.265
X-21.345 Y53.173
X-21.46 Y53.075
X-21.571 Y52.973
X-21.678 Y52.867
X-21.78 Y52.756
X-21.878 Y52.641
X-21.971 Y52.522
X-22.06 Y52.4
X-22.143 Y52.273
X-22.221 Y52.144
X-22.294 Y52.011
X-22.361 Y51.876
X-22.422 Y51.738
X-22.478 Y51.598
X-22.528 Y51.456
X-22.572 Y51.312
X-22.611 Y51.166
X-22.643 Y51.018
X-22.669 Y50.869
X-22.69 Y50.719
X-22.704 Y50.568
X-22.712 Y50.417
X-22.714 Y50.266
X-22.709 Y50.114
X-22.699 Y49.963
X-22.682 Y49.812
X-22.659 Y49.662
X-22.63 Y49.512
X-22.595 Y49.365
X-22.554 Y49.219
X-22.507 Y49.075
X-22.454 Y48.934
X-22.396 Y48.795
X-22.332 Y48.658
X-22.263 Y48.524
X-22.187 Y48.392
X-22.107 Y48.264
X-22.021 Y48.139
X-21.93 Y48.017
X-21.835 Y47.9
X-21.734 Y47.786
X-21.629 Y47.676
X-21.519 Y47.57
X-21.405 Y47.469
X-21.287 Y47.373
X-21.166 Y47.282
X-21.041 Y47.196
X-20.913 Y47.116
X-20.783 Y47.041
X-20.649 Y46.971
X-20.513 Y46.907
X-20.373 Y46.848
X-20.231 Y46.795
X-20.087 Y46.748
X-19.941 Y46.706
X-19.793 Y46.671
X-19.644 Y46.642
X-19.494 Y46.618
X-19.342 Y46.601
X-19.19 Y46.59
X-19.037 Y46.585
X-18.884 Y46.587
X-18.732 Y46.595
X-18.58 Y46.608
X-18.43 Y46.628
X-18.28 Y46.655
X-18.132 Y46.687
X-17.984 Y46.725
X-17.838 Y46.77
X-17.693 Y46.82
X-17.549 Y46.877
X-17.408 Y46.94
X-17.269 Y47.008
X-17.133 Y47.083
X-17 Y47.163
X-16.869 Y47.249
X-16.743 Y47.339
X-16.62 Y47.435
X-16.5 Y47.537
X-16.385 Y47.643
X-16.274 Y47.754
X-16.167 Y47.87
X-16.066 Y47.989
X-15.969 Y48.114
X-15.877 Y48.242
X-15.79 Y48.373
X-15.709 Y48.509
X-15.633 Y48.647
X-15.563 Y48.789
X-15.499 Y48.933
X-15.441 Y49.08
X-15.389 Y49.229
X-15.343 Y49.379
X-15.304 Y49.531
X-15.27 Y49.685
X-15.243 Y49.84
X-15.223 Y49.996
X-15.208 Y50.152
X-15.2 Y50.308
X-15.199 Y50.465
X-15.204 Y50.621
X-15.215 Y50.777
X-15.232 Y50.932
X-15.256 Y51.086
X-15.286 Y51.238
X-15.323 Y51.389
X-15.365 Y51.539
X-15.413 Y51.687
X-15.468 Y51.832
X-15.528 Y51.976
X-15.594 Y52.117
X-15.666 Y52.255
X-15.744 Y52.39
X-15.827 Y52.522
X-15.915 Y52.65
X-16.009 Y52.775
X-16.107 Y52.896
X-16.211 Y53.013
X-16.319 Y53.125
X-16.432 Y53.233
X-16.549 Y53.336
X-16.67 Y53.435
X-16.795 Y53.528
X-16.924 Y53.617
X-17.057 Y53.7
X-17.193 Y53.778
X-17.332 Y53.85
X-17.475 Y53.917
X-17.62 Y53.978
X-17.767 Y54.032
X-17.917 Y54.081
X-18.069 Y54.124
X-18.223 Y54.161
X-18.378 Y54.191
X-18.534 Y54.215
X-18.691 Y54.232
X-18.849 Y54.243
X-19.007 Y54.248
X-19.166 Y54.246
X-19.324 Y54.238
X-19.483 Y54.223
X-19.641 Y54.202
X-19.798 Y54.174
X-19.954 Y54.14
X-20.109 Y54.099
X-20.262 Y54.052
X-20.406 Y54.001
X-20.42 Y53.995
X-20.474 Y53.973
X-20.485 Y53.968
X-20.6 Y53.921
X-20.802 Y53.825
X-20.94 Y53.752
X-21.076 Y53.674
X-21.21 Y53.589
X-21.263 Y53.552
X-21.273 Y53.544
G3 X-21.048 Y53.215 I0.127 J-0.154
G1 X-20.88 Y53.309
X-20.596 Y53.467
X-20.432 Y53.559
G3 X-20.6 Y53.921 I-0.097 J0.175
G1 X-20.946 Y53.777
X-20.98 Y53.762
X-21.014 Y53.743
X-21.407 Y53.441
X-21.464 Y53.397
X-21.496 Y53.373
X-21.664 Y53.229
X-21.777 Y53.126
X-21.886 Y53.017
X-21.984 Y52.91
X-22.014 Y52.873
G3 X-21.712 Y52.613 I0.163 J-0.116
G1 X-21.572 Y52.747
X-21.375 Y52.937
X-21.241 Y53.066
G3 X-21.496 Y53.373 I-0.139 J0.144
G1 X-21.795 Y53.143
X-21.81 Y53.131
X-21.826 Y53.115
X-21.876 Y53.052
X-22.142 Y52.706
X-22.213 Y52.613
X-22.23 Y52.591
X-22.332 Y52.443
X-22.413 Y52.314
X-22.49 Y52.181
X-22.55 Y52.065
X-22.57 Y52.022
G3 X-22.211 Y51.849 I0.187 J-0.07
G1 X-22.112 Y52.015
X-22 Y52.201
X-21.904 Y52.361
G3 X-22.23 Y52.591 I-0.172 J0.103
G1 X-22.444 Y52.312
X-22.463 Y52.279
X-22.573 Y52.015
X-22.668 Y51.785
X-22.674 Y51.77
X-22.697 Y51.715
X-22.778 Y51.488
X-22.823 Y51.344
X-22.861 Y51.2
X-22.887 Y51.085
X-22.894 Y51.038
G3 X-22.503 Y50.963 I0.199 J-0.019
G1 X-22.448 Y51.15
X-22.375 Y51.398
X-22.323 Y51.576
G3 X-22.697 Y51.715 I-0.192 J0.056
G1 X-22.811 Y51.44
X-22.855 Y51.325
X-22.872 Y51.209
X-22.932 Y50.749
X-22.941 Y50.686
X-22.944 Y50.657
X-22.958 Y50.484
X-22.964 Y50.334
Y50.181
X-22.959 Y50.066
X-22.954 Y50.019
G3 X-22.557 Y50.049 I0.197 J0.033
G1 X-22.554 Y50.242
X-22.55 Y50.434
X-22.547 Y50.621
G3 X-22.944 Y50.657 I-0.2 J0.004
G1 X-22.978 Y50.403
X-22.989 Y50.288
X-22.959 Y50.058
X-22.914 Y49.713
X-22.905 Y49.643
X-22.899 Y49.597
X-22.872 Y49.45
X-22.839 Y49.304
X-22.799 Y49.156
X-22.768 Y49.061
X-22.752 Y49.017
G3 X-22.376 Y49.149 I0.182 J0.083
G1 X-22.423 Y49.336
X-22.46 Y49.484
X-22.506 Y49.665
G3 X-22.899 Y49.597 I-0.194 J-0.049
G1 X-22.861 Y49.31
X-22.856 Y49.281
X-22.848 Y49.252
X-22.611 Y48.676
X-22.596 Y48.641
X-22.578 Y48.597
X-22.514 Y48.462
X-22.441 Y48.327
X-22.363 Y48.194
X-22.322 Y48.131
X-22.296 Y48.096
G3 X-21.968 Y48.32 I0.154 J0.127
G1 X-22.062 Y48.489
X-22.125 Y48.601
X-22.216 Y48.765
G3 X-22.578 Y48.597 I-0.175 J-0.098
G1 X-22.467 Y48.331
X-22.457 Y48.309
X-22.444 Y48.288
X-22.124 Y47.87
X-22.098 Y47.837
X-22.063 Y47.792
X-21.918 Y47.621
X-21.817 Y47.511
X-21.71 Y47.405
X-21.63 Y47.332
X-21.594 Y47.302
G3 X-21.333 Y47.603 I0.116 J0.163
G1 X-21.468 Y47.744
X-21.628 Y47.912
X-21.756 Y48.046
G3 X-22.063 Y47.792 I-0.145 J-0.138
G1 X-21.858 Y47.525
X-21.805 Y47.466
X-21.734 Y47.41
X-21.291 Y47.07
X-21.283 Y47.064
X-21.251 Y47.039
X-21.128 Y46.954
X-20.999 Y46.874
X-20.866 Y46.798
X-20.795 Y46.762
X-20.754 Y46.743
G3 X-20.582 Y47.102 I0.07 J0.187
G1 X-20.747 Y47.202
X-20.86 Y47.269
X-21.021 Y47.365
G3 X-21.251 Y47.039 I-0.103 J-0.172
G1 X-21.017 Y46.86
X-20.994 Y46.846
X-20.972 Y46.834
X-20.485 Y46.632
X-20.417 Y46.604
X-20.369 Y46.584
X-20.198 Y46.523
X-20.054 Y46.478
X-19.908 Y46.439
X-19.801 Y46.416
X-19.755 Y46.408
G3 X-19.68 Y46.799 I0.019 J0.199
G1 X-19.866 Y46.853
X-20.052 Y46.906
X-20.231 Y46.958
G3 X-20.369 Y46.584 I-0.055 J-0.192
G1 X-20.139 Y46.488
X-20.024 Y46.444
X-19.908 Y46.428
X-19.492 Y46.373
X-19.447 Y46.368
X-19.384 Y46.359
X-19.166 Y46.342
X-19.016 Y46.335
X-18.866 Y46.336
X-18.771 Y46.34
X-18.724 Y46.345
G3 X-18.752 Y46.742 I-0.033 J0.197
G1 X-18.947 Y46.747
X-19.161 Y46.752
X-19.346 Y46.756
G3 X-19.384 Y46.359 I-0.005 J-0.2
G1 X-19.102 Y46.322
X-18.986 Y46.311
X-18.756 Y46.341
X-18.41 Y46.386
X-18.347 Y46.395
X-18.318 Y46.398
X-18.137 Y46.432
X-17.991 Y46.465
X-17.843 Y46.504
X-17.772 Y46.527
X-17.728 Y46.544
G3 X-17.858 Y46.92 I-0.083 J0.182
G1 X-18.048 Y46.874
X-18.204 Y46.836
X-18.385 Y46.792
G3 X-18.318 Y46.398 I0.047 J-0.194
G1 X-18.007 Y46.439
X-17.978 Y46.444
X-17.949 Y46.453
X-17.373 Y46.691
X-17.336 Y46.706
X-17.305 Y46.719
X-17.145 Y46.795
X-17.013 Y46.864
X-16.913 Y46.922
X-16.884 Y46.94
X-16.855 Y46.959
X-16.827 Y46.98
G3 X-17.049 Y47.31 I-0.127 J0.154
G1 X-17.222 Y47.217
X-17.308 Y47.17
X-17.47 Y47.082
G3 X-17.305 Y46.719 I0.095 J-0.176
G1 X-17.027 Y46.834
X-16.998 Y46.85
X-16.969 Y46.87
X-16.451 Y47.268
X-16.416 Y47.295
X-16.392 Y47.313
X-16.261 Y47.425
X-16.142 Y47.535
X-16.118 Y47.56
X-16.096 Y47.586
X-16.074 Y47.613
G3 X-16.373 Y47.875 I-0.163 J0.116
G1 X-16.51 Y47.747
X-16.644 Y47.622
G3 X-16.392 Y47.313 I0.136 J-0.146
G1 X-16.197 Y47.463
X-16.174 Y47.485
X-16.142 Y47.525
X-15.7 Y48.101
X-15.669 Y48.141
X-15.644 Y48.173
X-15.559 Y48.297
X-15.536 Y48.335
X-15.516 Y48.374
X-15.498 Y48.414
G3 X-15.856 Y48.589 I-0.187 J0.07
G1 X-15.872 Y48.563
X-15.969 Y48.405
G3 X-15.644 Y48.173 I0.17 J-0.105
G1 X-15.567 Y48.273
X-15.548 Y48.302
X-15.533 Y48.331
X-15.199 Y49.137
X-15.152 Y49.252
X-15.144 Y49.281
X-15.139 Y49.31
X-15.025 Y50.173
X-15.011 Y50.288
X-15.022 Y50.403
X-15.128 Y51.209
X-15.145 Y51.325
X-15.189 Y51.44
X-15.529 Y52.26
X-15.541 Y52.285
X-15.555 Y52.311
X-16.124 Y53.052
X-16.164 Y53.103
X-16.192 Y53.133
X-16.986 Y53.743
X-17.027 Y53.766
X-17.949 Y54.147
X-17.978 Y54.156
X-18.007 Y54.161
X-18.871 Y54.274
X-18.986 Y54.289
X-19.102 Y54.278
X-19.908 Y54.172
X-20.024 Y54.156
X-20.139 Y54.112
X-20.42 Y53.995
G3 X-20.337 Y53.613 I0.083 J-0.182
G1 X-20.294 Y53.618
X-20.256 Y53.64 Z-1.245
X-20.22 Y53.661 Z-1.23
X-20.188 Y53.679 Z-1.206
X-20.172 Y53.706 Z-1.175
X-20.16 Y53.726 Z-1.137
X-20.152 Y53.739 Z-1.095
X-20.149 Y53.743 Z-1.05
G0 Z5
X1.948 Y30.356
Z2.5
G3 X0.052 Y30.243 Z2.396 I-0.948 J-0.056 F283.3
X1.948 Y30.356 Z2.292 I0.948 J0.056
X0.052 Y30.243 Z2.187 I-0.948 J-0.056
X1.948 Y30.356 Z2.083 I0.948 J0.056
X0.052 Y30.243 Z1.979 I-0.948 J-0.056
X1.948 Y30.356 Z1.875 I0.948 J0.056
X0.052 Y30.243 Z1.77 I-0.948 J-0.056
X1.948 Y30.356 Z1.666 I0.948 J0.056
X0.052 Y30.243 Z1.562 I-0.948 J-0.056
X1.948 Y30.356 Z1.458 I0.948 J0.056
X0.052 Y30.243 Z1.354 I-0.948 J-0.056
X1.948 Y30.356 Z1.249 I0.948 J0.056
X0.052 Y30.243 Z1.145 I-0.948 J-0.056
X1.948 Y30.356 Z1.041 I0.948 J0.056
X0.052 Y30.243 Z0.937 I-0.948 J-0.056
X1.948 Y30.356 Z0.832 I0.948 J0.056
X0.052 Y30.243 Z0.728 I-0.948 J-0.056
X1.948 Y30.356 Z0.624 I0.948 J0.056
X0.052 Y30.243 Z0.52 I-0.948 J-0.056
X1.948 Y30.356 Z0.416 I0.948 J0.056
X0.052 Y30.243 Z0.311 I-0.948 J-0.056
X1.948 Y30.356 Z0.207 I0.948 J0.056
X0.052 Y30.243 Z0.103 I-0.948 J-0.056
X1.948 Y30.356 Z-0.001 I0.948 J0.056
X0.052 Y30.243 Z-0.106 I-0.948 J-0.056
X1.948 Y30.356 Z-0.21 I0.948 J0.056
X0.052 Y30.243 Z-0.314 I-0.948 J-0.056
X1.948 Y30.356 Z-0.418 I0.948 J0.056
X0.052 Y30.243 Z-0.522 I-0.948 J-0.056
X1.948 Y30.356 Z-0.627 I0.948 J0.056
X0.052 Y30.243 Z-0.731 I-0.948 J-0.056
X1.948 Y30.356 Z-0.835 I0.948 J0.056
X0.052 Y30.243 Z-0.939 I-0.948 J-0.056
X1.948 Y30.356 Z-1.044 I0.948 J0.056
X0.052 Y30.243 Z-1.148 I-0.948 J-0.056
X1.95 Y30.3 Z-1.25 I0.948 J0.056
X0.05 I-0.95
X1.95 I0.95
G1 X1.965 Y30.596 F850
X1.967 Y30.746
X1.921 Y30.889
X1.847 Y31.019
X1.751 Y31.134
X1.638 Y31.233
X1.511 Y31.313
X1.374 Y31.375
X1.23 Y31.417
X1.082 Y31.439
X0.932 Y31.441
X0.783 Y31.422
X0.638 Y31.385
X0.499 Y31.328
X0.369 Y31.254
X0.249 Y31.164
X0.142 Y31.058
X0.051 Y30.939
X-0.025 Y30.81
X-0.083 Y30.671
X-0.122 Y30.527
X-0.142 Y30.378
Y30.228
X-0.123 Y30.079
X-0.085 Y29.934
X-0.028 Y29.795
X0.047 Y29.665
X0.138 Y29.546
X0.244 Y29.44
X0.363 Y29.349
X0.493 Y29.274
X0.632 Y29.216
X0.777 Y29.177
X0.925 Y29.158
X1.075
X1.224 Y29.177
X1.369 Y29.216
X1.507 Y29.274
X1.637 Y29.349
X1.756 Y29.44
X1.862 Y29.547
X1.953 Y29.666
X2.028 Y29.796
X2.085 Y29.935
X2.127 Y30.078
X2.16 Y30.225
X2.183 Y30.373
X2.191 Y30.523
X2.181 Y30.672
X2.149 Y30.819
X2.096 Y30.959
X2.024 Y31.091
X1.936 Y31.212
X1.832 Y31.321
X1.716 Y31.415
X1.588 Y31.494
X1.452 Y31.556
X1.309 Y31.602
X1.161 Y31.63
X1.012 Y31.642
X0.862 Y31.636
X0.714 Y31.614
X0.569 Y31.575
X0.429 Y31.52
X0.297 Y31.449
X0.174 Y31.363
X0.061 Y31.265
X-0.041 Y31.155
X-0.13 Y31.034
X-0.205 Y30.904
X-0.265 Y30.767
X-0.308 Y30.623
X-0.336 Y30.476
X-0.347 Y30.326
X-0.342 Y30.176
X-0.321 Y30.028
X-0.282 Y29.883
X-0.228 Y29.743
X-0.158 Y29.61
X-0.074 Y29.486
X0.023 Y29.371
X0.132 Y29.268
X0.252 Y29.178
X0.381 Y29.102
X0.518 Y29.041
X0.661 Y28.996
X0.808 Y28.966
X0.957 Y28.953
X1.107 Y28.956
X1.256 Y28.976
X1.401 Y29.013
X1.542 Y29.066
X1.675 Y29.134
X1.801 Y29.216
X1.917 Y29.311
X2.021 Y29.419
X2.113 Y29.538
X2.191 Y29.666
X2.257 Y29.801
X2.312 Y29.94
X2.355 Y30.084
X2.385 Y30.231
X2.403 Y30.38
X2.405 Y30.53
X2.391 Y30.679
X2.36 Y30.826
X2.313 Y30.968
X2.251 Y31.105
X2.174 Y31.234
X2.083 Y31.353
X1.98 Y31.462
X1.865 Y31.559
X1.741 Y31.642
X1.608 Y31.713
X1.469 Y31.769
X1.325 Y31.811
X1.178 Y31.839
X1.029 Y31.851
X0.879 Y31.849
X0.73 Y31.831
X0.583 Y31.799
X0.441 Y31.752
X0.303 Y31.692
X0.172 Y31.619
X0.048 Y31.534
X-0.066 Y31.438
X-0.171 Y31.33
X-0.264 Y31.213
X-0.346 Y31.087
X-0.415 Y30.954
X-0.472 Y30.815
X-0.515 Y30.671
X-0.544 Y30.524
X-0.558 Y30.375
Y30.225
X-0.544 Y30.075
X-0.515 Y29.928
X-0.472 Y29.784
X-0.416 Y29.645
X-0.347 Y29.512
X-0.265 Y29.386
X-0.171 Y29.269
X-0.067 Y29.162
X0.048 Y29.065
X0.171 Y28.979
X0.301 Y28.905
X0.438 Y28.844
X0.581 Y28.797
X0.727 Y28.764
X0.876 Y28.745
X1.026 Y28.74
X1.175 Y28.75
X1.323 Y28.774
X1.469 Y28.812
X1.609 Y28.864
X1.745 Y28.929
X1.873 Y29.007
X1.993 Y29.097
X2.104 Y29.197
X2.205 Y29.308
X2.296 Y29.428
X2.376 Y29.554
X2.446 Y29.687
X2.506 Y29.824
X2.554 Y29.967
X2.59 Y30.112
X2.613 Y30.26
X2.624 Y30.41
X2.621 Y30.56
X2.604 Y30.709
X2.574 Y30.856
X2.53 Y30.999
X2.473 Y31.138
X2.402 Y31.27
X2.32 Y31.396
X2.226 Y31.513
X2.122 Y31.621
X2.008 Y31.718
X1.886 Y31.805
X1.756 Y31.88
X1.619 Y31.943
X1.478 Y31.993
X1.333 Y32.031
X1.185 Y32.056
X1.036 Y32.068
X0.886 Y32.067
X0.736 Y32.052
X0.589 Y32.025
X0.444 Y31.985
X0.304 Y31.933
X0.168 Y31.869
X0.038 Y31.793
X-0.085 Y31.708
X-0.2 Y31.612
X-0.307 Y31.506
X-0.404 Y31.392
X-0.491 Y31.27
X-0.567 Y31.141
X-0.633 Y31.006
X-0.686 Y30.866
X-0.728 Y30.722
X-0.758 Y30.575
X-0.775 Y30.425
X-0.78 Y30.276
X-0.771 Y30.126
X-0.75 Y29.977
X-0.716 Y29.831
X-0.671 Y29.688
X-0.613 Y29.55
X-0.545 Y29.416
X-0.465 Y29.289
X-0.375 Y29.169
X-0.274 Y29.058
X-0.165 Y28.955
X-0.048 Y28.862
X0.077 Y28.779
X0.209 Y28.706
X0.345 Y28.645
X0.487 Y28.595
X0.632 Y28.558
X0.78 Y28.534
X0.93 Y28.522
X1.08 Y28.523
X1.229 Y28.536
X1.377 Y28.561
X1.522 Y28.599
X1.664 Y28.648
X1.801 Y28.71
X1.932 Y28.783
X2.056 Y28.867
X2.173 Y28.961
X2.282 Y29.064
X2.382 Y29.175
X2.474 Y29.294
X2.557 Y29.419
X2.631 Y29.55
X2.694 Y29.686
X2.747 Y29.826
X2.789 Y29.97
X2.82 Y30.117
X2.84 Y30.266
X2.848 Y30.415
X2.845 Y30.565
X2.829 Y30.714
X2.802 Y30.862
X2.762 Y31.007
X2.71 Y31.147
X2.647 Y31.284
X2.573 Y31.414
X2.489 Y31.538
X2.395 Y31.655
X2.292 Y31.764
X2.18 Y31.864
X2.061 Y31.955
X1.934 Y32.035
X1.801 Y32.105
X1.664 Y32.164
X1.522 Y32.212
X1.376 Y32.25
X1.228 Y32.276
X1.079 Y32.29
X0.929 Y32.293
X0.779 Y32.283
X0.631 Y32.262
X0.484 Y32.23
X0.341 Y32.187
X0.201 Y32.133
X0.065 Y32.069
X-0.065 Y31.995
X-0.19 Y31.911
X-0.307 Y31.818
X-0.418 Y31.716
X-0.52 Y31.606
X-0.613 Y31.489
X-0.697 Y31.365
X-0.772 Y31.235
X-0.838 Y31.1
X-0.893 Y30.961
X-0.937 Y30.817
X-0.971 Y30.671
X-0.993 Y30.523
X-1.004 Y30.373
Y30.223
X-0.992 Y30.074
X-0.97 Y29.925
X-0.936 Y29.779
X-0.892 Y29.636
X-0.838 Y29.496
X-0.773 Y29.361
X-0.697 Y29.231
X-0.613 Y29.107
X-0.519 Y28.99
X-0.416 Y28.881
X-0.306 Y28.779
X-0.189 Y28.685
X-0.065 Y28.601
X0.065 Y28.525
X0.2 Y28.46
X0.339 Y28.406
X0.483 Y28.362
X0.629 Y28.329
X0.778 Y28.307
X0.927 Y28.296
X1.077
X1.227 Y28.307
X1.375 Y28.329
X1.521 Y28.363
X1.665 Y28.407
X1.804 Y28.462
X1.939 Y28.528
X2.069 Y28.603
X2.193 Y28.687
X2.311 Y28.781
X2.421 Y28.882
X2.525 Y28.99
X2.621 Y29.105
X2.709 Y29.227
X2.788 Y29.355
X2.858 Y29.487
X2.919 Y29.624
X2.97 Y29.765
X3.012 Y29.909
X3.043 Y30.056
X3.065 Y30.204
X3.077 Y30.354
X3.078 Y30.504
X3.068 Y30.654
X3.047 Y30.802
X3.015 Y30.949
X2.973 Y31.093
X2.921 Y31.233
X2.859 Y31.37
X2.787 Y31.502
X2.706 Y31.628
X2.616 Y31.748
X2.517 Y31.86
X2.41 Y31.966
X2.296 Y32.063
X2.175 Y32.152
X2.048 Y32.232
X1.916 Y32.303
X1.779 Y32.364
X1.638 Y32.416
X1.494 Y32.458
X1.348 Y32.489
X1.199 Y32.511
X1.049 Y32.521
X0.899
X0.75 Y32.511
X0.601 Y32.49
X0.454 Y32.46
X0.31 Y32.42
X0.168 Y32.37
X0.031 Y32.31
X-0.103 Y32.241
X-0.231 Y32.163
X-0.353 Y32.077
X-0.47 Y31.982
X-0.58 Y31.88
X-0.682 Y31.771
X-0.777 Y31.655
X-0.865 Y31.533
X-0.944 Y31.405
X-1.014 Y31.273
X-1.075 Y31.136
X-1.126 Y30.995
X-1.168 Y30.851
X-1.2 Y30.704
X-1.222 Y30.556
X-1.234 Y30.406
X-1.236 Y30.256
X-1.228 Y30.106
X-1.211 Y29.958
X-1.183 Y29.81
X-1.145 Y29.665
X-1.098 Y29.523
X-1.041 Y29.384
X-0.975 Y29.249
X-0.9 Y29.119
X-0.817 Y28.995
X-0.725 Y28.876
X-0.626 Y28.763
X-0.519 Y28.658
X-0.406 Y28.559
X-0.286 Y28.469
X-0.161 Y28.387
X-0.03 Y28.314
X0.106 Y28.249
X0.245 Y28.194
X0.388 Y28.148
X0.533 Y28.112
X0.681 Y28.085
X0.83 Y28.069
X0.98 Y28.063
X1.13 Y28.066
X1.279 Y28.08
X1.428 Y28.104
X1.574 Y28.137
X1.717 Y28.181
X1.858 Y28.234
X1.994 Y28.295
X2.127 Y28.366
X2.254 Y28.446
X2.376 Y28.533
X2.492 Y28.628
X2.601 Y28.73
X2.705 Y28.839
X2.801 Y28.955
X2.889 Y29.076
X2.97 Y29.202
X3.043 Y29.333
X3.108 Y29.468
X3.165 Y29.607
X3.212 Y29.749
X3.251 Y29.894
X3.28 Y30.041
X3.3 Y30.19
X3.311 Y30.34
X3.312 Y30.49
X3.304 Y30.639
X3.286 Y30.788
X3.259 Y30.936
X3.222 Y31.081
X3.175 Y31.224
X3.12 Y31.363
X3.055 Y31.499
X2.982 Y31.629
X2.901 Y31.755
X2.811 Y31.876
X2.714 Y31.99
X2.61 Y32.098
X2.499 Y32.199
X2.381 Y32.292
X2.258 Y32.378
X2.129 Y32.455
X1.996 Y32.524
X1.859 Y32.585
X1.718 Y32.636
X1.574 Y32.679
X1.428 Y32.713
X1.28 Y32.737
X1.131 Y32.752
X0.981 Y32.757
X0.831 Y32.754
X0.682 Y32.74
X0.533 Y32.718
X0.387 Y32.686
X0.242 Y32.645
X0.101 Y32.596
X-0.038 Y32.538
X-0.172 Y32.472
X-0.302 Y32.397
X-0.428 Y32.315
X-0.548 Y32.225
X-0.662 Y32.128
X-0.77 Y32.024
X-0.872 Y31.913
X-0.966 Y31.797
X-1.054 Y31.675
X-1.134 Y31.548
X-1.206 Y31.417
X-1.27 Y31.281
X-1.325 Y31.142
X-1.372 Y30.999
X-1.41 Y30.854
X-1.44 Y30.707
X-1.46 Y30.558
X-1.471 Y30.409
X-1.473 Y30.259
X-1.466 Y30.109
X-1.45 Y29.96
X-1.425 Y29.812
X-1.391 Y29.666
X-1.349 Y29.522
X-1.297 Y29.381
X-1.237 Y29.244
X-1.169 Y29.11
X-1.093 Y28.981
X-1.009 Y28.857
X-0.918 Y28.737
X-0.82 Y28.624
X-0.715 Y28.517
X-0.604 Y28.416
X-0.487 Y28.322
X-0.364 Y28.236
X-0.236 Y28.157
X-0.104 Y28.086
X0.032 Y28.023
X0.172 Y27.969
X0.315 Y27.923
X0.46 Y27.886
X0.607 Y27.857
X0.756 Y27.838
X0.906 Y27.828
X1.056 Y27.826
X1.205 Y27.834
X1.354 Y27.851
X1.502 Y27.877
X1.648 Y27.912
X1.792 Y27.956
X1.932 Y28.008
X2.069 Y28.069
X2.203 Y28.137
X2.332 Y28.213
X2.457 Y28.297
X2.576 Y28.388
X2.69 Y28.485
X2.798 Y28.589
X2.9 Y28.699
X2.995 Y28.815
X3.084 Y28.936
X3.166 Y29.062
X3.24 Y29.192
X3.307 Y29.326
X3.367 Y29.464
X3.418 Y29.605
X3.462 Y29.748
X3.497 Y29.894
X3.523 Y30.042
X3.541 Y30.191
X3.551 Y30.341
Y30.491
X3.544 Y30.64
X3.527 Y30.789
X3.502 Y30.937
X3.468 Y31.083
X3.426 Y31.227
X3.376 Y31.369
X3.317 Y31.507
X3.25 Y31.641
X3.175 Y31.771
X3.093 Y31.896
X3.003 Y32.017
X2.907 Y32.131
X2.804 Y32.241
X2.695 Y32.343
X2.58 Y32.44
X2.459 Y32.529
X2.334 Y32.612
X2.204 Y32.687
X2.07 Y32.754
X1.932 Y32.813
X1.791 Y32.864
X1.647 Y32.907
X1.501 Y32.942
X1.354 Y32.968
X1.205 Y32.986
X1.055 Y32.995
X0.905 Y32.996
X0.755 Y32.989
X0.606 Y32.972
X0.458 Y32.948
X0.312 Y32.915
X0.168 Y32.874
X0.026 Y32.825
X-0.113 Y32.768
X-0.248 Y32.703
X-0.38 Y32.631
X-0.507 Y32.552
X-0.63 Y32.465
X-0.748 Y32.372
X-0.86 Y32.273
X-0.966 Y32.167
X-1.067 Y32.056
X-1.161 Y31.939
X-1.248 Y31.817
X-1.329 Y31.691
X-1.403 Y31.56
X-1.469 Y31.425
X-1.528 Y31.287
X-1.579 Y31.146
X-1.622 Y31.003
X-1.657 Y30.857
X-1.683 Y30.709
X-1.702 Y30.56
X-1.712 Y30.411
X-1.714 Y30.261
X-1.708 Y30.111
X-1.693 Y29.962
X-1.671 Y29.813
X-1.64 Y29.666
X-1.601 Y29.522
X-1.554 Y29.379
X-1.5 Y29.239
X-1.437 Y29.103
X-1.367 Y28.97
X-1.29 Y28.842
X-1.206 Y28.717
X-1.115 Y28.598
X-1.018 Y28.484
X-0.914 Y28.375
X-0.805 Y28.272
X-0.691 Y28.175
X-0.571 Y28.085
X-0.446 Y28.002
X-0.317 Y27.925
X-0.184 Y27.856
X-0.047 Y27.795
X0.093 Y27.741
X0.236 Y27.695
X0.381 Y27.657
X0.528 Y27.627
X0.676 Y27.604
X0.825 Y27.59
X0.975 Y27.585
X1.125 Y27.587
X1.275 Y27.598
X1.423 Y27.618
X1.571 Y27.645
X1.717 Y27.681
X1.86 Y27.725
X2.001 Y27.776
X2.139 Y27.835
X2.274 Y27.901
X2.405 Y27.974
X2.531 Y28.054
X2.654 Y28.141
X2.771 Y28.234
X2.884 Y28.333
X2.991 Y28.439
X3.092 Y28.549
X3.187 Y28.665
X3.276 Y28.786
X3.359 Y28.911
X3.435 Y29.04
X3.504 Y29.173
X3.567 Y29.31
X3.622 Y29.449
X3.67 Y29.591
X3.71 Y29.736
X3.743 Y29.882
X3.768 Y30.03
X3.785 Y30.179
X3.794 Y30.329
X3.795 Y30.479
X3.788 Y30.629
X3.774 Y30.778
X3.751 Y30.926
X3.721 Y31.073
X3.683 Y31.218
X3.637 Y31.361
X3.584 Y31.501
X3.523 Y31.638
X3.454 Y31.772
X3.379 Y31.902
X3.297 Y32.027
X3.208 Y32.148
X3.113 Y32.264
X3.012 Y32.375
X2.905 Y32.48
X2.793 Y32.579
X2.675 Y32.673
X2.553 Y32.76
X2.426 Y32.84
X2.295 Y32.913
X2.161 Y32.979
X2.023 Y33.038
X1.882 Y33.09
X1.738 Y33.134
X1.593 Y33.171
X1.446 Y33.2
X1.297 Y33.221
X1.148 Y33.235
X0.998 Y33.24
X0.848 Y33.238
X0.698 Y33.229
X0.549 Y33.211
X0.402 Y33.185
X0.255 Y33.152
X0.111 Y33.112
X-0.031 Y33.064
X-0.171 Y33.009
X-0.307 Y32.946
X-0.44 Y32.877
X-0.57 Y32.802
X-0.695 Y32.719
X-0.816 Y32.631
X-0.933 Y32.536
X-1.044 Y32.436
X-1.15 Y32.329
X-1.25 Y32.218
X-1.345 Y32.101
X-1.433 Y31.98
X-1.516 Y31.855
X-1.591 Y31.725
X-1.661 Y31.592
X-1.723 Y31.456
X-1.779 Y31.317
X-1.827 Y31.175
X-1.868 Y31.03
X-1.901 Y30.884
X-1.927 Y30.736
X-1.945 Y30.587
X-1.956 Y30.438
X-1.959 Y30.288
X-1.955 Y30.138
X-1.943 Y29.988
X-1.923 Y29.84
X-1.897 Y29.692
X-1.862 Y29.546
X-1.821 Y29.402
X-1.772 Y29.26
X-1.715 Y29.121
X-1.652 Y28.985
X-1.582 Y28.853
X-1.505 Y28.724
X-1.422 Y28.599
X-1.333 Y28.478
X-1.237 Y28.362
X-1.136 Y28.252
X-1.03 Y28.146
X-0.918 Y28.046
X-0.802 Y27.951
X-0.681 Y27.863
X-0.555 Y27.781
X-0.425 Y27.705
X-0.292 Y27.637
X-0.155 Y27.575
X-0.016 Y27.52
X0.127 Y27.472
X0.271 Y27.431
X0.417 Y27.398
X0.565 Y27.372
X0.714 Y27.354
X0.863 Y27.343
X1.013 Y27.339
X1.163 Y27.344
X1.313 Y27.356
X1.461 Y27.376
X1.609 Y27.403
X1.755 Y27.438
X1.899 Y27.479
X2.041 Y27.528
X2.18 Y27.584
X2.316 Y27.647
X2.449 Y27.716
X2.579 Y27.792
X2.704 Y27.874
X2.826 Y27.962
X2.943 Y28.056
X3.055 Y28.156
X3.162 Y28.261
X3.263 Y28.371
X3.36 Y28.486
X3.451 Y28.605
X3.535 Y28.729
X3.614 Y28.857
X3.687 Y28.988
X3.754 Y29.122
X3.814 Y29.26
X3.867 Y29.4
X3.914 Y29.542
X3.953 Y29.687
X3.985 Y29.834
X4.01 Y29.982
X4.028 Y30.131
X4.039 Y30.28
X4.042 Y30.43
X4.038 Y30.58
X4.027 Y30.73
X4.009 Y30.879
X3.984 Y31.026
X3.951 Y31.173
X3.911 Y31.317
X3.864 Y31.46
X3.81 Y31.6
X3.748 Y31.737
X3.681 Y31.871
X3.607 Y32.001
X3.526 Y32.127
X3.439 Y32.25
X3.347 Y32.368
X3.249 Y32.482
X3.145 Y32.59
X3.037 Y32.694
X2.923 Y32.791
X2.805 Y32.884
X2.682 Y32.97
X2.555 Y33.05
X2.424 Y33.123
X2.29 Y33.19
X2.153 Y33.251
X2.013 Y33.305
X1.871 Y33.352
X1.726 Y33.393
X1.58 Y33.426
X1.432 Y33.452
X1.284 Y33.471
X1.134 Y33.483
X0.984 Y33.488
X0.834 Y33.485
X0.684 Y33.475
X0.535 Y33.458
X0.387 Y33.434
X0.241 Y33.403
X0.096 Y33.365
X-0.048 Y33.32
X-0.189 Y33.269
X-0.327 Y33.211
X-0.462 Y33.146
X-0.595 Y33.076
X-0.723 Y32.999
X-0.848 Y32.915
X-0.969 Y32.826
X-1.085 Y32.732
X-1.197 Y32.632
X-1.304 Y32.527
X-1.406 Y32.416
X-1.502 Y32.302
X-1.594 Y32.183
X-1.679 Y32.059
X-1.759 Y31.932
X-1.833 Y31.802
X-1.9 Y31.668
X-1.961 Y31.531
X-2.016 Y31.391
X-2.064 Y31.249
X-2.105 Y31.105
X-2.139 Y30.959
X-2.166 Y30.811
X-2.187 Y30.663
X-2.2 Y30.513
X-2.207 Y30.363
X-2.206 Y30.213
X-2.199 Y30.063
X-2.185 Y29.914
X-2.163 Y29.766
X-2.135 Y29.618
X-2.1 Y29.473
X-2.058 Y29.329
X-2.009 Y29.187
X-1.954 Y29.047
X-1.892 Y28.911
X-1.823 Y28.777
X-1.749 Y28.647
X-1.669 Y28.52
X-1.583 Y28.397
X-1.491 Y28.278
X-1.394 Y28.164
X-1.292 Y28.054
X-1.185 Y27.95
X-1.072 Y27.85
X-0.956 Y27.756
X-0.834 Y27.667
X-0.709 Y27.585
X-0.58 Y27.508
X-0.448 Y27.437
X-0.313 Y27.373
X-0.174 Y27.315
X-0.034 Y27.263
X0.109 Y27.218
X0.254 Y27.179
X0.401 Y27.148
X0.549 Y27.123
X0.698 Y27.105
X0.848 Y27.095
X0.998 Y27.091
X1.147 Y27.095
X1.297 Y27.105
X1.446 Y27.123
X1.594 Y27.147
X1.741 Y27.178
X1.886 Y27.216
X2.029 Y27.26
X2.17 Y27.311
X2.309 Y27.368
X2.445 Y27.432
X2.578 Y27.502
X2.707 Y27.578
X2.833 Y27.66
X2.955 Y27.747
X3.072 Y27.84
X3.186 Y27.938
X3.295 Y28.041
X3.399 Y28.149
X3.498 Y28.261
X3.593 Y28.378
X3.682 Y28.499
X3.765 Y28.623
X3.843 Y28.751
X3.916 Y28.883
X3.982 Y29.017
X4.042 Y29.155
X4.095 Y29.295
X4.143 Y29.437
X4.184 Y29.582
X4.218 Y29.728
X4.246 Y29.875
X4.268 Y30.023
X4.283 Y30.173
X4.291 Y30.322
X4.292 Y30.472
X4.287 Y30.622
X4.275 Y30.772
X4.256 Y30.921
X4.23 Y31.068
X4.198 Y31.215
X4.158 Y31.36
X4.113 Y31.503
X4.061 Y31.643
X4.002 Y31.781
X3.938 Y31.917
X3.867 Y32.049
X3.791 Y32.178
X3.708 Y32.304
X3.62 Y32.425
X3.527 Y32.543
X3.429 Y32.656
X3.325 Y32.764
X3.216 Y32.868
X3.103 Y32.966
X2.986 Y33.059
X2.864 Y33.147
X2.739 Y33.23
X2.61 Y33.306
X2.478 Y33.377
X2.342 Y33.442
X2.204 Y33.5
X2.064 Y33.553
X1.921 Y33.599
X1.776 Y33.638
X1.63 Y33.671
X1.482 Y33.698
X1.334 Y33.718
X1.184 Y33.731
X1.034 Y33.737
X0.884
X0.734 Y33.73
X0.585 Y33.717
X0.436 Y33.697
X0.289 Y33.67
X0.142 Y33.638
X-0.002 Y33.598
X-0.145 Y33.553
X-0.286 Y33.501
X-0.424 Y33.443
X-0.56 Y33.378
X-0.692 Y33.308
X-0.822 Y33.233
X-0.948 Y33.151
X-1.07 Y33.064
X-1.188 Y32.972
X-1.303 Y32.875
X-1.413 Y32.773
X-1.518 Y32.666
X-1.619 Y32.555
X-1.714 Y32.439
X-1.805 Y32.32
X-1.89 Y32.196
X-1.97 Y32.069
X-2.044 Y31.939
X-2.113 Y31.806
X-2.175 Y31.669
X-2.232 Y31.53
X-2.282 Y31.389
X-2.326 Y31.246
X-2.364 Y31.101
X-2.396 Y30.954
X-2.421 Y30.806
X-2.44 Y30.657
X-2.453 Y30.508
X-2.459 Y30.358
X-2.458 Y30.208
X-2.451 Y30.058
X-2.437 Y29.909
X-2.417 Y29.76
X-2.39 Y29.612
X-2.357 Y29.466
X-2.318 Y29.321
X-2.273 Y29.178
X-2.221 Y29.038
X-2.163 Y28.899
X-2.1 Y28.763
X-2.03 Y28.63
X-1.955 Y28.501
X-1.874 Y28.374
X-1.788 Y28.251
X-1.697 Y28.132
X-1.6 Y28.018
X-1.499 Y27.907
X-1.393 Y27.801
X-1.282 Y27.7
X-1.167 Y27.603
X-1.048 Y27.512
X-0.926 Y27.426
X-0.799 Y27.345
X-0.669 Y27.27
X-0.537 Y27.2
X-0.401 Y27.136
X-0.262 Y27.078
X-0.122 Y27.027
X0.021 Y26.981
X0.166 Y26.942
X0.312 Y26.909
X0.46 Y26.882
X0.609 Y26.862
X0.758 Y26.848
X0.908 Y26.841
X1.058 Y26.84
X1.208 Y26.846
X1.357 Y26.858
X1.506 Y26.877
X1.654 Y26.902
X1.801 Y26.933
X1.946 Y26.971
X2.089 Y27.015
X2.231 Y27.064
X2.37 Y27.12
X2.507 Y27.182
X2.641 Y27.25
X2.772 Y27.323
X2.899 Y27.401
X3.024 Y27.485
X3.144 Y27.574
X3.261 Y27.668
X3.374 Y27.767
X3.483 Y27.871
X3.587 Y27.979
X3.686 Y28.091
X3.781 Y28.207
X3.871 Y28.327
X3.956 Y28.451
X4.035 Y28.578
X4.109 Y28.709
X4.178 Y28.842
X4.241 Y28.978
X4.299 Y29.117
X4.35 Y29.258
X4.396 Y29.4
X4.436 Y29.545
X4.47 Y29.691
X4.497 Y29.839
X4.519 Y29.987
X4.534 Y30.136
X4.543 Y30.286
X4.545 Y30.436
X4.542 Y30.586
X4.532 Y30.736
X4.516 Y30.885
X4.493 Y31.033
X4.465 Y31.18
X4.43 Y31.326
X4.389 Y31.471
X4.342 Y31.613
X4.289 Y31.753
X4.23 Y31.891
X4.166 Y32.027
X4.095 Y32.159
X4.019 Y32.289
X3.938 Y32.415
X3.852 Y32.537
X3.76 Y32.656
X3.664 Y32.771
X3.563 Y32.882
X3.457 Y32.988
X3.347 Y33.09
X3.232 Y33.187
X3.114 Y33.279
X2.992 Y33.366
X2.866 Y33.448
X2.737 Y33.525
X2.605 Y33.596
X2.47 Y33.661
X2.333 Y33.721
X2.193 Y33.775
X2.051 Y33.823
X1.907 Y33.866
X1.761 Y33.902
X1.614 Y33.932
X1.466 Y33.956
X1.317 Y33.974
X1.168 Y33.986
X1.018 Y33.991
X0.868 Y33.99
X0.718 Y33.983
X0.569 Y33.97
X0.42 Y33.951
X0.272 Y33.926
X0.125 Y33.894
X-0.02 Y33.857
X-0.164 Y33.814
X-0.305 Y33.764
X-0.445 Y33.71
X-0.582 Y33.649
X-0.717 Y33.583
X-0.849 Y33.511
X-0.978 Y33.434
X-1.104 Y33.352
X-1.226 Y33.265
X-1.344 Y33.173
X-1.459 Y33.076
X-1.57 Y32.974
X-1.677 Y32.867
X-1.78 Y32.756
X-1.878 Y32.641
X-1.971 Y32.523
X-2.059 Y32.4
X-2.143 Y32.274
X-2.221 Y32.144
X-2.293 Y32.012
X-2.361 Y31.876
X-2.422 Y31.738
X-2.478 Y31.599
X-2.528 Y31.457
X-2.572 Y31.313
X-2.61 Y31.166
X-2.643 Y31.019
X-2.669 Y30.87
X-2.689 Y30.72
X-2.703 Y30.569
X-2.711 Y30.417
X-2.713 Y30.266
X-2.709 Y30.114
X-2.698 Y29.963
X-2.681 Y29.812
X-2.658 Y29.662
X-2.629 Y29.513
X-2.594 Y29.365
X-2.553 Y29.219
X-2.506 Y29.076
X-2.454 Y28.935
X-2.396 Y28.795
X-2.332 Y28.659
X-2.262 Y28.524
X-2.187 Y28.393
X-2.107 Y28.264
X-2.021 Y28.139
X-1.93 Y28.018
X-1.834 Y27.9
X-1.734 Y27.786
X-1.629 Y27.676
X-1.519 Y27.571
X-1.405 Y27.47
X-1.287 Y27.373
X-1.165 Y27.282
X-1.04 Y27.196
X-0.913 Y27.116
X-0.783 Y27.041
X-0.649 Y26.971
X-0.512 Y26.907
X-0.373 Y26.849
X-0.231 Y26.795
X-0.087 Y26.748
X0.059 Y26.707
X0.207 Y26.671
X0.356 Y26.642
X0.507 Y26.619
X0.658 Y26.602
X0.811 Y26.591
X0.963 Y26.586
X1.116 Y26.587
X1.268 Y26.595
X1.42 Y26.609
X1.571 Y26.629
X1.72 Y26.655
X1.869 Y26.687
X2.016 Y26.726
X2.163 Y26.77
X2.308 Y26.821
X2.451 Y26.878
X2.592 Y26.94
X2.731 Y27.009
X2.867 Y27.083
X3.001 Y27.163
X3.131 Y27.249
X3.258 Y27.34
X3.381 Y27.436
X3.5 Y27.537
X3.615 Y27.643
X3.726 Y27.754
X3.833 Y27.87
X3.935 Y27.99
X4.032 Y28.114
X4.123 Y28.242
X4.21 Y28.374
X4.291 Y28.509
X4.367 Y28.648
X4.437 Y28.789
X4.501 Y28.934
X4.559 Y29.08
X4.611 Y29.229
X4.657 Y29.38
X4.697 Y29.532
X4.73 Y29.686
X4.757 Y29.841
X4.778 Y29.996
X4.792 Y30.152
X4.8 Y30.309
X4.802 Y30.465
X4.797 Y30.621
X4.786 Y30.777
X4.768 Y30.932
X4.744 Y31.086
X4.714 Y31.239
X4.678 Y31.39
X4.636 Y31.539
X4.587 Y31.687
X4.533 Y31.833
X4.472 Y31.976
X4.406 Y32.117
X4.334 Y32.255
X4.257 Y32.39
X4.174 Y32.522
X4.085 Y32.651
X3.992 Y32.775
X3.893 Y32.896
X3.789 Y33.013
X3.681 Y33.126
X3.569 Y33.234
X3.452 Y33.337
X3.331 Y33.435
X3.206 Y33.529
X3.076 Y33.617
X2.944 Y33.7
X2.808 Y33.778
X2.668 Y33.851
X2.526 Y33.917
X2.381 Y33.978
X2.233 Y34.033
X2.083 Y34.082
X1.931 Y34.124
X1.777 Y34.161
X1.622 Y34.191
X1.466 Y34.215
X1.309 Y34.233
X1.152 Y34.244
X0.993 Y34.248
X0.835 Y34.246
X0.676 Y34.238
X0.518 Y34.223
X0.36 Y34.202
X0.203 Y34.174
X0.047 Y34.14
X-0.108 Y34.099
X-0.261 Y34.052
X-0.402 Y34.003
X-0.415 Y33.997
X-0.546 Y33.943
X-0.558 Y33.938
X-0.615 Y33.914
X-0.799 Y33.827
X-0.938 Y33.754
X-1.074 Y33.675
X-1.208 Y33.59
X-1.257 Y33.556
X-1.268 Y33.548
G3 X-1.043 Y33.219 I0.127 J-0.154
G1 X-0.874 Y33.313
X-0.611 Y33.461
X-0.447 Y33.552
G3 X-0.615 Y33.914 I-0.098 J0.175
G1 X-0.949 Y33.776
X-0.978 Y33.763
X-1.007 Y33.747
X-1.468 Y33.394
X-1.51 Y33.362
X-1.532 Y33.345
X-1.657 Y33.239
X-1.771 Y33.134
X-1.881 Y33.023
X-1.976 Y32.919
X-2.007 Y32.882
G3 X-1.704 Y32.623 I0.163 J-0.116
G1 X-1.566 Y32.757
X-1.411 Y32.908
X-1.276 Y33.039
G3 X-1.532 Y33.345 I-0.139 J0.143
G1 X-1.698 Y33.217
X-1.808 Y33.132
X-1.814 Y33.127
X-1.903 Y33.017
X-2.159 Y32.683
X-2.169 Y32.671
X-2.217 Y32.608
X-2.334 Y32.439
X-2.415 Y32.311
X-2.491 Y32.178
X-2.553 Y32.059
X-2.573 Y32.015
G3 X-2.214 Y31.842 I0.187 J-0.07
G1 X-2.114 Y32.008
X-1.988 Y32.218
X-1.891 Y32.377
G3 X-2.217 Y32.608 I-0.171 J0.103
G1 X-2.434 Y32.326
X-2.454 Y32.297
X-2.468 Y32.268
X-2.683 Y31.75
X-2.709 Y31.687
X-2.721 Y31.658
X-2.775 Y31.506
X-2.82 Y31.362
X-2.859 Y31.215
X-2.885 Y31.098
X-2.892 Y31.051
G3 X-2.501 Y30.978 I0.199 J-0.019
G1 X-2.448 Y31.164
X-2.398 Y31.34
X-2.346 Y31.52
G3 X-2.721 Y31.658 I-0.192 J0.055
G1 X-2.826 Y31.405
X-2.851 Y31.341
X-2.861 Y31.289
X-2.937 Y30.714
X-2.941 Y30.679
X-2.947 Y30.635
X-2.959 Y30.485
X-2.965 Y30.333
Y30.178
X-2.96 Y30.069
X-2.955 Y30.023
G3 X-2.558 Y30.053 I0.197 J0.033
G1 X-2.555 Y30.246
X-2.553 Y30.411
X-2.55 Y30.599
G3 X-2.947 Y30.635 I-0.2 J0.003
G1 X-2.989 Y30.311
Y30.282
X-2.909 Y29.677
X-2.905 Y29.643
X-2.899 Y29.598
X-2.872 Y29.451
X-2.839 Y29.304
X-2.799 Y29.157
X-2.767 Y29.057
X-2.75 Y29.014
G3 X-2.375 Y29.146 I0.182 J0.083
G1 X-2.422 Y29.333
X-2.46 Y29.485
X-2.506 Y29.667
G3 X-2.899 Y29.598 I-0.194 J-0.049
G1 X-2.859 Y29.295
X-2.856 Y29.277
X-2.851 Y29.258
X-2.835 Y29.217
X-2.644 Y28.756
X-2.62 Y28.7
X-2.596 Y28.641
X-2.519 Y28.477
X-2.449 Y28.345
X-2.373 Y28.213
X-2.312 Y28.119
X-2.285 Y28.08
G3 X-1.955 Y28.304 I0.154 J0.127
G1 X-2.049 Y28.474
X-2.144 Y28.645
X-2.234 Y28.808
G3 X-2.596 Y28.641 I-0.175 J-0.097
G1 X-2.501 Y28.411
X-2.448 Y28.296
X-2.362 Y28.181
X-2.097 Y27.835
X-2.068 Y27.798
X-2.044 Y27.767
X-1.927 Y27.629
X-1.826 Y27.519
X-1.718 Y27.411
X-1.634 Y27.335
X-1.597 Y27.305
G3 X-1.337 Y27.607 I0.116 J0.163
G1 X-1.472 Y27.746
X-1.608 Y27.887
X-1.737 Y28.022
G3 X-2.044 Y27.767 I-0.144 J-0.139
G1 X-1.831 Y27.49
X-1.814 Y27.473
X-1.688 Y27.375
X-1.388 Y27.144
X-1.353 Y27.117
X-1.289 Y27.069
X-1.131 Y26.959
X-1.004 Y26.879
X-0.874 Y26.804
X-0.781 Y26.756
X-0.737 Y26.736
G3 X-0.564 Y27.095 I0.07 J0.187
G1 X-0.73 Y27.195
X-0.899 Y27.298
X-1.059 Y27.394
G3 X-1.289 Y27.069 I-0.104 J-0.171
G1 X-1.088 Y26.914
X-1.007 Y26.853
X-0.888 Y26.799
X-0.431 Y26.609
X-0.376 Y26.587
X-0.332 Y26.568
X-0.191 Y26.518
X-0.045 Y26.474
X0.105 Y26.435
X0.191 Y26.416
X0.235 Y26.409
G3 X0.308 Y26.801 I0.019 J0.199
G1 X0.123 Y26.853
X-0.014 Y26.892
X-0.195 Y26.943
G3 X-0.332 Y26.568 I-0.054 J-0.192
G1 X-0.053 Y26.453
X-0.011 Y26.442
X0.607 Y26.36
X0.642 Y26.356
X0.686 Y26.35
X0.835 Y26.338
X0.987 Y26.333
X1.141 Y26.334
X1.211 Y26.338
X1.255 Y26.342
G3 X1.225 Y26.739 I-0.033 J0.197
G1 X1.032 Y26.742
X0.909 Y26.744
X0.722 Y26.747
G3 X0.686 Y26.35 I-0.003 J-0.2
G1 X0.952 Y26.315
X1.01 Y26.311
X1.068 Y26.318
X1.644 Y26.393
X1.679 Y26.398
X1.723 Y26.404
X1.871 Y26.431
X2.02 Y26.465
X2.17 Y26.507
X2.217 Y26.522
X2.259 Y26.538
G3 X2.128 Y26.914 I-0.083 J0.182
G1 X1.939 Y26.867
X1.837 Y26.842
X1.656 Y26.797
G3 X1.723 Y26.404 I0.048 J-0.194
G1 X1.99 Y26.439
X2.021 Y26.444
X2.053 Y26.453
X2.566 Y26.665
X2.61 Y26.684
X2.681 Y26.713
X2.857 Y26.797
X2.99 Y26.866
X3.09 Y26.924
X3.119 Y26.942
X3.148 Y26.961
X3.176 Y26.982
G3 X2.954 Y27.312 I-0.127 J0.154
G1 X2.781 Y27.219
X2.679 Y27.164
X2.516 Y27.077
G3 X2.681 Y26.713 I0.095 J-0.176
G1 X2.969 Y26.833
X2.998 Y26.848
X3.027 Y26.867
X3.538 Y27.259
X3.603 Y27.31
X3.629 Y27.329
X3.743 Y27.426
X3.854 Y27.53
X3.877 Y27.553
X3.898 Y27.578
X3.919 Y27.603
G3 X3.62 Y27.866 I-0.162 J0.117
G1 X3.51 Y27.764
X3.376 Y27.638
G3 X3.629 Y27.329 I0.137 J-0.146
G1 X3.718 Y27.398
X3.83 Y27.49
X3.949 Y27.643
X4.295 Y28.093
X4.332 Y28.141
X4.362 Y28.181
X4.447 Y28.304
X4.459 Y28.325
X4.471 Y28.347
X4.482 Y28.369
G3 X4.129 Y28.554 I-0.185 J0.076
G1 X4.04 Y28.417
G3 X4.362 Y28.181 I0.168 J-0.109
G1 X4.41 Y28.244
X4.449 Y28.296
X4.501 Y28.411
X4.835 Y29.217
X4.855 Y29.274
X4.871 Y29.386
X4.986 Y30.261
X4.989 Y30.3
X4.986 Y30.339
X4.861 Y31.289
X4.856 Y31.318
X4.849 Y31.347
X4.468 Y32.268
X4.454 Y32.297
X4.434 Y32.326
X3.834 Y33.107
X3.808 Y33.132
X3.718 Y33.202
X3.027 Y33.733
X2.998 Y33.753
X2.969 Y33.767
X2.105 Y34.126
X2.047 Y34.149
X2.019 Y34.156
X1.937 Y34.168
X1.062 Y34.283
X1.007 Y34.289
X0.952 Y34.285
X0.03 Y34.164
X-0.027 Y34.155
X-0.085 Y34.134
X-0.415 Y33.997
G3 X-0.332 Y33.615 I0.083 J-0.182
G1 X-0.29 Y33.62
X-0.252 Y33.642 Z-1.245
X-0.216 Y33.662 Z-1.23
X-0.184 Y33.681 Z-1.206
X-0.167 Y33.708 Z-1.175
X-0.155 Y33.728 Z-1.137
X-0.147 Y33.741 Z-1.095
X-0.145 Y33.745 Z-1.05
G0 Z5
X1.948 Y50.357
Z2.5
G3 X0.052 Y50.244 Z2.396 I-0.948 J-0.056 F283.3
X1.948 Y50.357 Z2.292 I0.948 J0.056
X0.052 Y50.244 Z2.187 I-0.948 J-0.056
X1.948 Y50.357 Z2.083 I0.948 J0.056
X0.052 Y50.244 Z1.979 I-0.948 J-0.056
X1.948 Y50.357 Z1.875 I0.948 J0.056
X0.052 Y50.244 Z1.77 I-0.948 J-0.056
X1.948 Y50.357 Z1.666 I0.948 J0.056
X0.052 Y50.244 Z1.562 I-0.948 J-0.056
X1.948 Y50.357 Z1.458 I0.948 J0.056
X0.052 Y50.244 Z1.354 I-0.948 J-0.056
X1.948 Y50.357 Z1.249 I0.948 J0.056
X0.052 Y50.244 Z1.145 I-0.948 J-0.056
X1.948 Y50.357 Z1.041 I0.948 J0.056
X0.052 Y50.244 Z0.937 I-0.948 J-0.056
X1.948 Y50.357 Z0.832 I0.948 J0.056
X0.052 Y50.244 Z0.728 I-0.948 J-0.056
X1.948 Y50.357 Z0.624 I0.948 J0.056
X0.052 Y50.244 Z0.52 I-0.948 J-0.056
X1.948 Y50.357 Z0.416 I0.948 J0.056
X0.052 Y50.244 Z0.311 I-0.948 J-0.056
X1.948 Y50.357 Z0.207 I0.948 J0.056
X0.052 Y50.244 Z0.103 I-0.948 J-0.056
X1.948 Y50.357 Z-0.001 I0.948 J0.056
X0.052 Y50.244 Z-0.106 I-0.948 J-0.056
X1.948 Y50.357 Z-0.21 I0.948 J0.056
X0.052 Y50.244 Z-0.314 I-0.948 J-0.056
X1.948 Y50.357 Z-0.418 I0.948 J0.056
X0.052 Y50.244 Z-0.522 I-0.948 J-0.056
X1.948 Y50.357 Z-0.627 I0.948 J0.056
X0.052 Y50.244 Z-0.731 I-0.948 J-0.056
X1.948 Y50.357 Z-0.835 I0.948 J0.056
X0.052 Y50.244 Z-0.939 I-0.948 J-0.056
X1.948 Y50.357 Z-1.044 I0.948 J0.056
X0.052 Y50.244 Z-1.148 I-0.948 J-0.056
X1.95 Y50.3 Z-1.25 I0.948 J0.056
X0.05 I-0.95
X1.95 I0.95
G1 X1.965 Y50.596 F850
X1.967 Y50.746
X1.922 Y50.889
X1.847 Y51.019
X1.751 Y51.135
X1.638 Y51.233
X1.511 Y51.313
X1.374 Y51.375
X1.23 Y51.417
X1.082 Y51.439
X0.932 Y51.441
X0.783 Y51.423
X0.638 Y51.385
X0.499 Y51.329
X0.369 Y51.255
X0.249 Y51.164
X0.142 Y51.058
X0.051 Y50.94
X-0.025 Y50.81
X-0.083 Y50.672
X-0.122 Y50.527
X-0.142 Y50.378
Y50.228
X-0.123 Y50.08
X-0.085 Y49.935
X-0.028 Y49.796
X0.047 Y49.666
X0.138 Y49.547
X0.244 Y49.441
X0.363 Y49.349
X0.493 Y49.274
X0.632 Y49.217
X0.777 Y49.178
X0.925 Y49.158
X1.075
X1.224 Y49.178
X1.369 Y49.217
X1.507 Y49.274
X1.637 Y49.349
X1.756 Y49.441
X1.862 Y49.547
X1.953 Y49.666
X2.028 Y49.796
X2.085 Y49.935
X2.127 Y50.079
X2.16 Y50.225
X2.183 Y50.373
X2.191 Y50.523
X2.181 Y50.673
X2.149 Y50.819
X2.096 Y50.96
X2.025 Y51.092
X1.936 Y51.213
X1.832 Y51.321
X1.716 Y51.415
X1.588 Y51.494
X1.452 Y51.557
X1.309 Y51.602
X1.161 Y51.631
X1.012 Y51.642
X0.862 Y51.637
X0.714 Y51.615
X0.569 Y51.576
X0.429 Y51.52
X0.297 Y51.449
X0.174 Y51.364
X0.061 Y51.266
X-0.041 Y51.155
X-0.13 Y51.035
X-0.205 Y50.905
X-0.265 Y50.767
X-0.308 Y50.624
X-0.336 Y50.476
X-0.347 Y50.327
X-0.342 Y50.177
X-0.321 Y50.028
X-0.282 Y49.883
X-0.228 Y49.744
X-0.158 Y49.611
X-0.074 Y49.486
X0.023 Y49.372
X0.132 Y49.269
X0.252 Y49.179
X0.381 Y49.103
X0.518 Y49.042
X0.661 Y48.996
X0.808 Y48.967
X0.957 Y48.953
X1.107 Y48.956
X1.256 Y48.976
X1.401 Y49.013
X1.542 Y49.066
X1.675 Y49.134
X1.801 Y49.216
X1.917 Y49.312
X2.021 Y49.42
X2.113 Y49.538
X2.191 Y49.666
X2.257 Y49.801
X2.312 Y49.941
X2.355 Y50.084
X2.385 Y50.231
X2.403 Y50.38
X2.405 Y50.53
X2.391 Y50.679
X2.36 Y50.826
X2.313 Y50.969
X2.251 Y51.105
X2.174 Y51.234
X2.083 Y51.354
X1.98 Y51.463
X1.865 Y51.559
X1.741 Y51.643
X1.608 Y51.713
X1.469 Y51.769
X1.325 Y51.812
X1.178 Y51.839
X1.029 Y51.852
X0.879 Y51.849
X0.73 Y51.832
X0.583 Y51.799
X0.441 Y51.753
X0.303 Y51.693
X0.172 Y51.62
X0.048 Y51.535
X-0.066 Y51.438
X-0.171 Y51.33
X-0.264 Y51.213
X-0.346 Y51.087
X-0.415 Y50.954
X-0.472 Y50.815
X-0.515 Y50.672
X-0.544 Y50.524
X-0.558 Y50.375
Y50.225
X-0.544 Y50.076
X-0.515 Y49.929
X-0.472 Y49.785
X-0.416 Y49.646
X-0.347 Y49.513
X-0.265 Y49.387
X-0.171 Y49.27
X-0.067 Y49.162
X0.048 Y49.065
X0.171 Y48.979
X0.301 Y48.906
X0.438 Y48.845
X0.581 Y48.797
X0.727 Y48.764
X0.876 Y48.745
X1.026 Y48.741
X1.175 Y48.75
X1.323 Y48.774
X1.469 Y48.812
X1.609 Y48.864
X1.745 Y48.929
X1.873 Y49.007
X1.993 Y49.097
X2.104 Y49.198
X2.205 Y49.309
X2.296 Y49.428
X2.376 Y49.554
X2.447 Y49.687
X2.506 Y49.825
X2.554 Y49.967
X2.59 Y50.113
X2.613 Y50.261
X2.624 Y50.41
X2.621 Y50.56
X2.604 Y50.709
X2.574 Y50.856
X2.53 Y51
X2.473 Y51.138
X2.402 Y51.271
X2.32 Y51.396
X2.226 Y51.513
X2.122 Y51.621
X2.008 Y51.719
X1.886 Y51.805
X1.756 Y51.88
X1.619 Y51.943
X1.478 Y51.993
X1.333 Y52.031
X1.185 Y52.056
X1.036 Y52.068
X0.886 Y52.067
X0.736 Y52.053
X0.589 Y52.025
X0.444 Y51.985
X0.304 Y51.933
X0.168 Y51.869
X0.038 Y51.794
X-0.085 Y51.708
X-0.2 Y51.612
X-0.307 Y51.507
X-0.404 Y51.392
X-0.491 Y51.27
X-0.567 Y51.141
X-0.633 Y51.006
X-0.686 Y50.866
X-0.728 Y50.722
X-0.758 Y50.575
X-0.775 Y50.426
X-0.78 Y50.276
X-0.771 Y50.126
X-0.75 Y49.978
X-0.716 Y49.832
X-0.671 Y49.689
X-0.613 Y49.55
X-0.545 Y49.417
X-0.465 Y49.289
X-0.375 Y49.17
X-0.274 Y49.058
X-0.165 Y48.956
X-0.048 Y48.862
X0.077 Y48.779
X0.209 Y48.707
X0.346 Y48.645
X0.487 Y48.596
X0.632 Y48.559
X0.78 Y48.534
X0.93 Y48.522
X1.08 Y48.523
X1.229 Y48.536
X1.377 Y48.561
X1.522 Y48.599
X1.664 Y48.649
X1.801 Y48.711
X1.932 Y48.784
X2.056 Y48.868
X2.173 Y48.962
X2.282 Y49.065
X2.382 Y49.176
X2.474 Y49.294
X2.557 Y49.419
X2.631 Y49.55
X2.694 Y49.686
X2.747 Y49.826
X2.789 Y49.97
X2.82 Y50.117
X2.84 Y50.266
X2.848 Y50.416
X2.845 Y50.566
X2.829 Y50.715
X2.802 Y50.862
X2.762 Y51.007
X2.71 Y51.148
X2.647 Y51.284
X2.573 Y51.414
X2.489 Y51.539
X2.395 Y51.656
X2.292 Y51.764
X2.18 Y51.864
X2.061 Y51.955
X1.934 Y52.035
X1.801 Y52.105
X1.664 Y52.165
X1.522 Y52.213
X1.376 Y52.25
X1.228 Y52.276
X1.079 Y52.29
X0.929 Y52.293
X0.779 Y52.284
X0.631 Y52.263
X0.484 Y52.231
X0.341 Y52.187
X0.201 Y52.133
X0.065 Y52.069
X-0.065 Y51.995
X-0.19 Y51.911
X-0.307 Y51.818
X-0.417 Y51.717
X-0.52 Y51.607
X-0.613 Y51.489
X-0.697 Y51.365
X-0.772 Y51.236
X-0.838 Y51.1
X-0.893 Y50.961
X-0.937 Y50.818
X-0.971 Y50.672
X-0.993 Y50.523
X-1.004 Y50.374
Y50.224
X-0.992 Y50.074
X-0.97 Y49.926
X-0.936 Y49.78
X-0.892 Y49.636
X-0.838 Y49.496
X-0.773 Y49.361
X-0.697 Y49.231
X-0.613 Y49.108
X-0.519 Y48.991
X-0.416 Y48.881
X-0.306 Y48.779
X-0.189 Y48.686
X-0.065 Y48.601
X0.065 Y48.526
X0.2 Y48.461
X0.34 Y48.406
X0.483 Y48.362
X0.629 Y48.329
X0.778 Y48.308
X0.927 Y48.297
X1.077
X1.227 Y48.308
X1.375 Y48.33
X1.522 Y48.363
X1.665 Y48.408
X1.804 Y48.463
X1.939 Y48.528
X2.069 Y48.603
X2.193 Y48.688
X2.311 Y48.781
X2.421 Y48.882
X2.525 Y48.991
X2.621 Y49.106
X2.709 Y49.228
X2.788 Y49.355
X2.858 Y49.488
X2.919 Y49.625
X2.97 Y49.766
X3.012 Y49.91
X3.043 Y50.056
X3.065 Y50.205
X3.077 Y50.354
X3.078 Y50.504
X3.068 Y50.654
X3.047 Y50.803
X3.015 Y50.949
X2.973 Y51.093
X2.921 Y51.234
X2.859 Y51.37
X2.787 Y51.502
X2.706 Y51.628
X2.616 Y51.748
X2.517 Y51.861
X2.41 Y51.966
X2.296 Y52.063
X2.175 Y52.152
X2.048 Y52.232
X1.916 Y52.303
X1.779 Y52.365
X1.638 Y52.417
X1.494 Y52.458
X1.348 Y52.49
X1.199 Y52.511
X1.049 Y52.521
X0.899 Y52.522
X0.75 Y52.511
X0.601 Y52.491
X0.454 Y52.46
X0.31 Y52.42
X0.168 Y52.37
X0.031 Y52.311
X-0.103 Y52.242
X-0.231 Y52.164
X-0.353 Y52.077
X-0.47 Y51.983
X-0.58 Y51.881
X-0.682 Y51.771
X-0.777 Y51.655
X-0.865 Y51.533
X-0.944 Y51.406
X-1.014 Y51.273
X-1.075 Y51.136
X-1.126 Y50.995
X-1.168 Y50.851
X-1.2 Y50.705
X-1.222 Y50.556
X-1.234 Y50.407
X-1.236 Y50.257
X-1.228 Y50.107
X-1.211 Y49.958
X-1.183 Y49.811
X-1.145 Y49.665
X-1.098 Y49.523
X-1.041 Y49.384
X-0.975 Y49.25
X-0.9 Y49.12
X-0.817 Y48.995
X-0.725 Y48.876
X-0.626 Y48.764
X-0.519 Y48.658
X-0.406 Y48.56
X-0.286 Y48.47
X-0.161 Y48.387
X-0.03 Y48.314
X0.106 Y48.25
X0.245 Y48.194
X0.388 Y48.149
X0.534 Y48.112
X0.681 Y48.086
X0.83 Y48.069
X0.98 Y48.063
X1.13 Y48.067
X1.279 Y48.08
X1.428 Y48.104
X1.574 Y48.138
X1.717 Y48.181
X1.858 Y48.234
X1.994 Y48.296
X2.127 Y48.367
X2.254 Y48.446
X2.376 Y48.533
X2.492 Y48.629
X2.602 Y48.731
X2.705 Y48.84
X2.801 Y48.955
X2.889 Y49.076
X2.97 Y49.202
X3.043 Y49.333
X3.108 Y49.468
X3.165 Y49.607
X3.212 Y49.75
X3.251 Y49.895
X3.28 Y50.042
X3.3 Y50.19
X3.311 Y50.34
X3.312 Y50.49
X3.304 Y50.64
X3.286 Y50.789
X3.259 Y50.936
X3.222 Y51.082
X3.175 Y51.224
X3.12 Y51.364
X3.055 Y51.499
X2.982 Y51.63
X2.901 Y51.756
X2.811 Y51.876
X2.714 Y51.99
X2.61 Y52.098
X2.499 Y52.199
X2.381 Y52.292
X2.258 Y52.378
X2.129 Y52.455
X1.996 Y52.524
X1.859 Y52.585
X1.718 Y52.637
X1.574 Y52.679
X1.428 Y52.713
X1.28 Y52.737
X1.131 Y52.752
X0.981 Y52.758
X0.831 Y52.754
X0.682 Y52.741
X0.533 Y52.718
X0.387 Y52.686
X0.242 Y52.646
X0.101 Y52.597
X-0.038 Y52.539
X-0.172 Y52.472
X-0.302 Y52.398
X-0.428 Y52.315
X-0.548 Y52.226
X-0.662 Y52.128
X-0.77 Y52.024
X-0.872 Y51.914
X-0.966 Y51.798
X-1.054 Y51.676
X-1.134 Y51.549
X-1.206 Y51.417
X-1.27 Y51.282
X-1.325 Y51.142
X-1.372 Y51
X-1.41 Y50.855
X-1.44 Y50.708
X-1.46 Y50.559
X-1.471 Y50.409
X-1.473 Y50.259
X-1.466 Y50.11
X-1.45 Y49.96
X-1.425 Y49.812
X-1.391 Y49.666
X-1.349 Y49.523
X-1.297 Y49.382
X-1.237 Y49.244
X-1.169 Y49.111
X-1.093 Y48.981
X-1.009 Y48.857
X-0.918 Y48.738
X-0.819 Y48.624
X-0.715 Y48.517
X-0.604 Y48.416
X-0.487 Y48.323
X-0.364 Y48.236
X-0.236 Y48.157
X-0.104 Y48.086
X0.032 Y48.024
X0.172 Y47.969
X0.315 Y47.923
X0.46 Y47.886
X0.607 Y47.858
X0.756 Y47.838
X0.906 Y47.828
X1.056 Y47.827
X1.205 Y47.835
X1.354 Y47.852
X1.502 Y47.878
X1.648 Y47.913
X1.792 Y47.956
X1.932 Y48.009
X2.069 Y48.069
X2.203 Y48.137
X2.332 Y48.214
X2.457 Y48.297
X2.576 Y48.388
X2.69 Y48.486
X2.798 Y48.59
X2.9 Y48.7
X2.995 Y48.816
X3.084 Y48.937
X3.166 Y49.062
X3.24 Y49.193
X3.307 Y49.327
X3.367 Y49.464
X3.418 Y49.605
X3.462 Y49.749
X3.497 Y49.895
X3.523 Y50.042
X3.541 Y50.191
X3.551 Y50.341
X3.552 Y50.491
X3.544 Y50.641
X3.527 Y50.79
X3.502 Y50.938
X3.468 Y51.084
X3.426 Y51.228
X3.376 Y51.369
X3.317 Y51.507
X3.25 Y51.641
X3.175 Y51.771
X3.093 Y51.897
X3.003 Y52.017
X2.907 Y52.132
X2.804 Y52.241
X2.695 Y52.344
X2.58 Y52.44
X2.459 Y52.53
X2.334 Y52.612
X2.204 Y52.687
X2.07 Y52.754
X1.932 Y52.813
X1.791 Y52.864
X1.647 Y52.907
X1.501 Y52.942
X1.354 Y52.968
X1.205 Y52.986
X1.055 Y52.996
X0.905 Y52.997
X0.755 Y52.989
X0.606 Y52.973
X0.458 Y52.948
X0.312 Y52.915
X0.168 Y52.874
X0.026 Y52.825
X-0.113 Y52.768
X-0.248 Y52.703
X-0.38 Y52.631
X-0.507 Y52.552
X-0.63 Y52.466
X-0.748 Y52.373
X-0.86 Y52.273
X-0.966 Y52.168
X-1.067 Y52.056
X-1.161 Y51.939
X-1.248 Y51.818
X-1.329 Y51.691
X-1.403 Y51.56
X-1.469 Y51.426
X-1.528 Y51.288
X-1.579 Y51.147
X-1.622 Y51.003
X-1.657 Y50.857
X-1.683 Y50.71
X-1.702 Y50.561
X-1.712 Y50.411
X-1.714 Y50.261
X-1.708 Y50.111
X-1.693 Y49.962
X-1.671 Y49.814
X-1.64 Y49.667
X-1.601 Y49.522
X-1.554 Y49.379
X-1.499 Y49.24
X-1.437 Y49.103
X-1.367 Y48.971
X-1.29 Y48.842
X-1.206 Y48.718
X-1.115 Y48.599
X-1.018 Y48.484
X-0.914 Y48.376
X-0.805 Y48.273
X-0.691 Y48.176
X-0.571 Y48.086
X-0.446 Y48.002
X-0.317 Y47.926
X-0.184 Y47.857
X-0.047 Y47.795
X0.093 Y47.741
X0.236 Y47.695
X0.381 Y47.657
X0.528 Y47.627
X0.676 Y47.605
X0.825 Y47.591
X0.975 Y47.585
X1.125 Y47.588
X1.275 Y47.599
X1.423 Y47.618
X1.571 Y47.646
X1.717 Y47.681
X1.86 Y47.725
X2.001 Y47.776
X2.139 Y47.835
X2.274 Y47.901
X2.405 Y47.974
X2.532 Y48.054
X2.654 Y48.141
X2.771 Y48.234
X2.884 Y48.334
X2.991 Y48.439
X3.092 Y48.55
X3.187 Y48.666
X3.276 Y48.786
X3.359 Y48.912
X3.435 Y49.041
X3.504 Y49.174
X3.567 Y49.31
X3.622 Y49.45
X3.67 Y49.592
X3.71 Y49.736
X3.743 Y49.883
X3.768 Y50.031
X3.785 Y50.18
X3.794 Y50.329
X3.795 Y50.479
X3.788 Y50.629
X3.774 Y50.778
X3.751 Y50.927
X3.721 Y51.074
X3.683 Y51.219
X3.637 Y51.362
X3.584 Y51.502
X3.523 Y51.639
X3.454 Y51.772
X3.379 Y51.902
X3.297 Y52.027
X3.208 Y52.148
X3.113 Y52.264
X3.012 Y52.375
X2.905 Y52.48
X2.793 Y52.58
X2.675 Y52.673
X2.553 Y52.76
X2.426 Y52.84
X2.295 Y52.913
X2.161 Y52.98
X2.023 Y53.039
X1.882 Y53.09
X1.738 Y53.134
X1.593 Y53.171
X1.446 Y53.2
X1.297 Y53.221
X1.148 Y53.235
X0.998 Y53.241
X0.848 Y53.239
X0.698 Y53.229
X0.549 Y53.211
X0.402 Y53.186
X0.255 Y53.153
X0.111 Y53.112
X-0.031 Y53.064
X-0.171 Y53.009
X-0.307 Y52.947
X-0.44 Y52.878
X-0.57 Y52.802
X-0.695 Y52.72
X-0.816 Y52.631
X-0.933 Y52.537
X-1.044 Y52.436
X-1.15 Y52.33
X-1.25 Y52.218
X-1.345 Y52.102
X-1.433 Y51.981
X-1.516 Y51.855
X-1.591 Y51.726
X-1.661 Y51.593
X-1.723 Y51.456
X-1.779 Y51.317
X-1.827 Y51.175
X-1.868 Y51.031
X-1.901 Y50.884
X-1.927 Y50.737
X-1.945 Y50.588
X-1.956 Y50.438
X-1.959 Y50.288
X-1.955 Y50.138
X-1.943 Y49.989
X-1.923 Y49.84
X-1.896 Y49.692
X-1.862 Y49.546
X-1.821 Y49.402
X-1.772 Y49.261
X-1.715 Y49.122
X-1.652 Y48.986
X-1.582 Y48.853
X-1.505 Y48.724
X-1.422 Y48.599
X-1.332 Y48.479
X-1.237 Y48.363
X-1.136 Y48.252
X-1.03 Y48.146
X-0.918 Y48.046
X-0.802 Y47.951
X-0.681 Y47.863
X-0.555 Y47.781
X-0.425 Y47.706
X-0.292 Y47.637
X-0.155 Y47.575
X-0.016 Y47.52
X0.127 Y47.473
X0.271 Y47.432
X0.417 Y47.399
X0.565 Y47.373
X0.714 Y47.354
X0.863 Y47.343
X1.013 Y47.34
X1.163 Y47.344
X1.313 Y47.357
X1.461 Y47.376
X1.609 Y47.403
X1.755 Y47.438
X1.899 Y47.48
X2.041 Y47.529
X2.18 Y47.585
X2.316 Y47.647
X2.449 Y47.716
X2.579 Y47.792
X2.704 Y47.874
X2.826 Y47.962
X2.943 Y48.057
X3.055 Y48.156
X3.162 Y48.261
X3.263 Y48.372
X3.36 Y48.487
X3.451 Y48.606
X3.536 Y48.73
X3.615 Y48.857
X3.687 Y48.988
X3.754 Y49.123
X3.814 Y49.26
X3.867 Y49.4
X3.914 Y49.543
X3.953 Y49.688
X3.985 Y49.834
X4.01 Y49.982
X4.028 Y50.131
X4.039 Y50.281
X4.042 Y50.431
X4.038 Y50.581
X4.027 Y50.73
X4.009 Y50.879
X3.984 Y51.027
X3.951 Y51.173
X3.911 Y51.318
X3.864 Y51.46
X3.81 Y51.6
X3.748 Y51.737
X3.681 Y51.871
X3.607 Y52.001
X3.526 Y52.128
X3.439 Y52.25
X3.347 Y52.369
X3.249 Y52.482
X3.146 Y52.591
X3.037 Y52.694
X2.923 Y52.792
X2.805 Y52.884
X2.682 Y52.97
X2.555 Y53.05
X2.424 Y53.124
X2.29 Y53.191
X2.153 Y53.252
X2.013 Y53.305
X1.871 Y53.353
X1.726 Y53.393
X1.58 Y53.426
X1.432 Y53.453
X1.284 Y53.472
X1.134 Y53.484
X0.984 Y53.488
X0.834 Y53.486
X0.684 Y53.476
X0.535 Y53.459
X0.387 Y53.435
X0.241 Y53.404
X0.096 Y53.366
X-0.048 Y53.321
X-0.189 Y53.269
X-0.327 Y53.211
X-0.462 Y53.147
X-0.595 Y53.076
X-0.723 Y52.999
X-0.848 Y52.916
X-0.969 Y52.827
X-1.085 Y52.732
X-1.197 Y52.632
X-1.304 Y52.527
X-1.406 Y52.417
X-1.502 Y52.302
X-1.594 Y52.183
X-1.679 Y52.06
X-1.759 Y51.933
X-1.833 Y51.802
X-1.9 Y51.668
X-1.961 Y51.531
X-2.016 Y51.392
X-2.064 Y51.249
X-2.105 Y51.105
X-2.139 Y50.959
X-2.166 Y50.812
X-2.187 Y50.663
X-2.2 Y50.514
X-2.207 Y50.364
X-2.206 Y50.214
X-2.199 Y50.064
X-2.185 Y49.915
X-2.163 Y49.766
X-2.135 Y49.619
X-2.1 Y49.473
X-2.058 Y49.329
X-2.009 Y49.187
X-1.954 Y49.048
X-1.892 Y48.911
X-1.823 Y48.778
X-1.749 Y48.647
X-1.669 Y48.521
X-1.583 Y48.398
X-1.491 Y48.279
X-1.394 Y48.165
X-1.292 Y48.055
X-1.184 Y47.95
X-1.072 Y47.851
X-0.955 Y47.756
X-0.834 Y47.668
X-0.709 Y47.585
X-0.58 Y47.508
X-0.448 Y47.438
X-0.313 Y47.373
X-0.174 Y47.315
X-0.034 Y47.263
X0.109 Y47.218
X0.254 Y47.18
X0.401 Y47.148
X0.549 Y47.123
X0.698 Y47.106
X0.848 Y47.095
X0.998 Y47.092
X1.148 Y47.095
X1.297 Y47.106
X1.446 Y47.123
X1.594 Y47.147
X1.741 Y47.178
X1.886 Y47.216
X2.029 Y47.261
X2.17 Y47.312
X2.309 Y47.369
X2.445 Y47.432
X2.578 Y47.502
X2.707 Y47.578
X2.833 Y47.66
X2.955 Y47.747
X3.072 Y47.84
X3.186 Y47.938
X3.295 Y48.041
X3.399 Y48.149
X3.499 Y48.262
X3.593 Y48.378
X3.682 Y48.499
X3.765 Y48.624
X3.843 Y48.752
X3.916 Y48.883
X3.982 Y49.018
X4.042 Y49.155
X4.095 Y49.295
X4.143 Y49.438
X4.184 Y49.582
X4.218 Y49.728
X4.246 Y49.875
X4.268 Y50.024
X4.283 Y50.173
X4.291 Y50.323
X4.292 Y50.473
X4.287 Y50.623
X4.275 Y50.772
X4.256 Y50.921
X4.23 Y51.069
X4.198 Y51.215
X4.158 Y51.36
X4.113 Y51.503
X4.061 Y51.644
X4.002 Y51.782
X3.938 Y51.917
X3.867 Y52.05
X3.791 Y52.179
X3.708 Y52.304
X3.621 Y52.426
X3.527 Y52.543
X3.429 Y52.656
X3.325 Y52.764
X3.216 Y52.868
X3.103 Y52.967
X2.986 Y53.06
X2.864 Y53.148
X2.739 Y53.23
X2.61 Y53.307
X2.478 Y53.377
X2.342 Y53.442
X2.204 Y53.501
X2.064 Y53.553
X1.921 Y53.599
X1.776 Y53.639
X1.63 Y53.672
X1.482 Y53.698
X1.334 Y53.718
X1.184 Y53.731
X1.034 Y53.738
X0.884
X0.735 Y53.731
X0.585 Y53.717
X0.436 Y53.697
X0.289 Y53.671
X0.142 Y53.638
X-0.002 Y53.599
X-0.145 Y53.553
X-0.286 Y53.501
X-0.424 Y53.443
X-0.56 Y53.379
X-0.692 Y53.309
X-0.822 Y53.233
X-0.948 Y53.151
X-1.07 Y53.065
X-1.188 Y52.972
X-1.303 Y52.875
X-1.413 Y52.773
X-1.518 Y52.667
X-1.619 Y52.555
X-1.714 Y52.44
X-1.805 Y52.32
X-1.89 Y52.197
X-1.97 Y52.07
X-2.044 Y51.94
X-2.113 Y51.806
X-2.175 Y51.67
X-2.232 Y51.531
X-2.282 Y51.389
X-2.326 Y51.246
X-2.364 Y51.101
X-2.396 Y50.954
X-2.421 Y50.807
X-2.44 Y50.658
X-2.453 Y50.508
X-2.459 Y50.358
X-2.458 Y50.208
X-2.451 Y50.059
X-2.437 Y49.909
X-2.417 Y49.761
X-2.39 Y49.613
X-2.357 Y49.467
X-2.318 Y49.322
X-2.273 Y49.179
X-2.221 Y49.038
X-2.163 Y48.9
X-2.1 Y48.764
X-2.03 Y48.631
X-1.955 Y48.501
X-1.874 Y48.375
X-1.788 Y48.252
X-1.697 Y48.133
X-1.6 Y48.018
X-1.499 Y47.907
X-1.393 Y47.801
X-1.282 Y47.7
X-1.167 Y47.604
X-1.048 Y47.512
X-0.926 Y47.426
X-0.799 Y47.345
X-0.669 Y47.27
X-0.537 Y47.2
X-0.401 Y47.137
X-0.262 Y47.079
X-0.122 Y47.027
X0.021 Y46.982
X0.166 Y46.942
X0.312 Y46.909
X0.46 Y46.883
X0.609 Y46.863
X0.758 Y46.849
X0.908 Y46.842
X1.058 Y46.841
X1.208 Y46.847
X1.357 Y46.859
X1.506 Y46.877
X1.654 Y46.902
X1.801 Y46.934
X1.946 Y46.971
X2.089 Y47.015
X2.231 Y47.065
X2.37 Y47.121
X2.507 Y47.183
X2.641 Y47.25
X2.772 Y47.323
X2.899 Y47.402
X3.024 Y47.486
X3.144 Y47.575
X3.261 Y47.669
X3.374 Y47.768
X3.483 Y47.871
X3.587 Y47.979
X3.686 Y48.091
X3.781 Y48.208
X3.871 Y48.328
X3.956 Y48.452
X4.035 Y48.579
X4.109 Y48.709
X4.178 Y48.842
X4.241 Y48.979
X4.299 Y49.117
X4.35 Y49.258
X4.396 Y49.401
X4.436 Y49.545
X4.47 Y49.692
X4.497 Y49.839
X4.519 Y49.987
X4.534 Y50.137
X4.543 Y50.286
X4.545 Y50.436
X4.542 Y50.586
X4.532 Y50.736
X4.516 Y50.885
X4.493 Y51.033
X4.465 Y51.181
X4.43 Y51.327
X4.389 Y51.471
X4.342 Y51.613
X4.289 Y51.754
X4.23 Y51.892
X4.166 Y52.027
X4.095 Y52.16
X4.019 Y52.289
X3.938 Y52.415
X3.852 Y52.538
X3.76 Y52.657
X3.664 Y52.771
X3.563 Y52.882
X3.457 Y52.989
X3.347 Y53.09
X3.232 Y53.187
X3.114 Y53.28
X2.992 Y53.367
X2.866 Y53.449
X2.737 Y53.525
X2.605 Y53.596
X2.47 Y53.662
X2.333 Y53.722
X2.193 Y53.776
X2.051 Y53.824
X1.907 Y53.866
X1.761 Y53.902
X1.614 Y53.932
X1.466 Y53.956
X1.317 Y53.974
X1.168 Y53.986
X1.018 Y53.992
X0.868 Y53.991
X0.718 Y53.984
X0.569 Y53.971
X0.42 Y53.951
X0.272 Y53.926
X0.125 Y53.895
X-0.02 Y53.857
X-0.164 Y53.814
X-0.305 Y53.765
X-0.445 Y53.71
X-0.582 Y53.649
X-0.717 Y53.583
X-0.849 Y53.512
X-0.978 Y53.435
X-1.103 Y53.353
X-1.226 Y53.266
X-1.344 Y53.173
X-1.459 Y53.076
X-1.57 Y52.974
X-1.677 Y52.868
X-1.78 Y52.757
X-1.878 Y52.642
X-1.971 Y52.523
X-2.059 Y52.4
X-2.142 Y52.274
X-2.221 Y52.145
X-2.293 Y52.012
X-2.361 Y51.877
X-2.422 Y51.739
X-2.478 Y51.599
X-2.528 Y51.457
X-2.572 Y51.313
X-2.61 Y51.167
X-2.643 Y51.019
X-2.669 Y50.87
X-2.689 Y50.72
X-2.703 Y50.569
X-2.711 Y50.418
X-2.713 Y50.266
X-2.709 Y50.115
X-2.698 Y49.964
X-2.681 Y49.813
X-2.658 Y49.663
X-2.629 Y49.513
X-2.594 Y49.366
X-2.553 Y49.22
X-2.506 Y49.076
X-2.454 Y48.935
X-2.396 Y48.796
X-2.332 Y48.659
X-2.262 Y48.525
X-2.187 Y48.393
X-2.107 Y48.265
X-2.021 Y48.14
X-1.93 Y48.018
X-1.834 Y47.9
X-1.734 Y47.787
X-1.629 Y47.677
X-1.519 Y47.571
X-1.405 Y47.47
X-1.287 Y47.374
X-1.165 Y47.283
X-1.04 Y47.197
X-0.913 Y47.116
X-0.782 Y47.042
X-0.649 Y46.972
X-0.512 Y46.908
X-0.373 Y46.849
X-0.231 Y46.796
X-0.087 Y46.749
X0.059 Y46.707
X0.207 Y46.672
X0.356 Y46.642
X0.507 Y46.619
X0.658 Y46.602
X0.811 Y46.591
X0.963 Y46.586
X1.116 Y46.588
X1.268 Y46.595
X1.42 Y46.609
X1.571 Y46.629
X1.72 Y46.655
X1.869 Y46.688
X2.016 Y46.726
X2.163 Y46.771
X2.308 Y46.821
X2.451 Y46.878
X2.592 Y46.941
X2.731 Y47.009
X2.867 Y47.084
X3.001 Y47.164
X3.131 Y47.249
X3.258 Y47.34
X3.381 Y47.436
X3.5 Y47.538
X3.615 Y47.644
X3.726 Y47.755
X3.833 Y47.87
X3.935 Y47.99
X4.032 Y48.114
X4.124 Y48.242
X4.21 Y48.374
X4.291 Y48.51
X4.367 Y48.648
X4.437 Y48.79
X4.501 Y48.934
X4.559 Y49.081
X4.611 Y49.229
X4.657 Y49.38
X4.697 Y49.532
X4.73 Y49.686
X4.757 Y49.841
X4.778 Y49.997
X4.792 Y50.153
X4.8 Y50.309
X4.802 Y50.466
X4.797 Y50.622
X4.786 Y50.777
X4.768 Y50.932
X4.744 Y51.086
X4.714 Y51.239
X4.678 Y51.39
X4.636 Y51.54
X4.587 Y51.688
X4.533 Y51.833
X4.472 Y51.977
X4.406 Y52.118
X4.334 Y52.256
X4.257 Y52.391
X4.174 Y52.523
X4.085 Y52.651
X3.992 Y52.776
X3.893 Y52.897
X3.789 Y53.014
X3.681 Y53.126
X3.569 Y53.234
X3.452 Y53.337
X3.331 Y53.436
X3.206 Y53.529
X3.076 Y53.618
X2.944 Y53.701
X2.808 Y53.779
X2.668 Y53.851
X2.526 Y53.918
X2.381 Y53.978
X2.233 Y54.033
X2.083 Y54.082
X1.931 Y54.125
