%
(1001)
(origin stock top outer edge centre)
(T1  D=3.18 CR=0 - ZMIN=-4 - flat end mill)
G90 G94
G17
G21

(adaptive_roughing 2)
M9
T1 M6
S6000 M3
G54
M8
G0 X-19.598 Y28.913
Z53.7
Z5
Z2.5
G3 X-18.402 Y31.687 Z2.334 I0.598 J1.387 F283.3
X-19.598 Y28.913 Z2.169 I-0.598 J-1.387
X-18.402 Y31.687 Z2.003 I0.598 J1.387
X-19.598 Y28.913 Z1.837 I-0.598 J-1.387
X-18.402 Y31.687 Z1.671 I0.598 J1.387
X-19.598 Y28.913 Z1.506 I-0.598 J-1.387
X-18.402 Y31.687 Z1.34 I0.598 J1.387
X-19.598 Y28.913 Z1.174 I-0.598 J-1.387
X-18.402 Y31.687 Z1.009 I0.598 J1.387
X-19.598 Y28.913 Z0.843 I-0.598 J-1.387
X-18.402 Y31.687 Z0.677 I0.598 J1.387
X-19.598 Y28.913 Z0.511 I-0.598 J-1.387
X-18.402 Y31.687 Z0.346 I0.598 J1.387
X-19.598 Y28.913 Z0.18 I-0.598 J-1.387
X-18.402 Y31.687 Z0.014 I0.598 J1.387
X-19.598 Y28.913 Z-0.151 I-0.598 J-1.387
X-18.402 Y31.687 Z-0.317 I0.598 J1.387
X-19.598 Y28.913 Z-0.483 I-0.598 J-1.387
X-18.402 Y31.687 Z-0.649 I0.598 J1.387
X-19.598 Y28.913 Z-0.814 I-0.598 J-1.387
X-18.402 Y31.687 Z-0.98 I0.598 J1.387
X-19.598 Y28.913 Z-1.146 I-0.598 J-1.387
X-17.49 Y30.3 Z-1.25 I0.598 J1.387
X-20.511 I-1.51
X-17.49 I1.51
G1 X-17.48 Y30.683 F850
Y30.833
X-17.512 Y30.98
X-17.566 Y31.12
X-17.636 Y31.253
X-17.721 Y31.376
X-17.818 Y31.49
X-17.927 Y31.594
X-18.045 Y31.687
X-18.171 Y31.768
X-18.304 Y31.838
X-18.442 Y31.894
X-18.586 Y31.938
X-18.733 Y31.969
X-18.882 Y31.987
X-19.032 Y31.991
X-19.181 Y31.982
X-19.33 Y31.959
X-19.475 Y31.924
X-19.617 Y31.875
X-19.754 Y31.815
X-19.886 Y31.742
X-20.01 Y31.658
X-20.126 Y31.563
X-20.234 Y31.458
X-20.331 Y31.345
X-20.419 Y31.223
X-20.495 Y31.093
X-20.559 Y30.958
X-20.611 Y30.817
X-20.651 Y30.673
X-20.677 Y30.525
X-20.691 Y30.376
Y30.226
X-20.677 Y30.076
X-20.651 Y29.929
X-20.612 Y29.784
X-20.56 Y29.643
X-20.495 Y29.508
X-20.419 Y29.378
X-20.332 Y29.256
X-20.234 Y29.142
X-20.127 Y29.038
X-20.011 Y28.943
X-19.887 Y28.859
X-19.755 Y28.786
X-19.618 Y28.725
X-19.476 Y28.676
X-19.331 Y28.641
X-19.183 Y28.618
X-19.033 Y28.608
X-18.883 Y28.612
X-18.734 Y28.629
X-18.587 Y28.659
X-18.443 Y28.702
X-18.304 Y28.758
X-18.17 Y28.826
X-18.043 Y28.905
X-17.923 Y28.995
X-17.812 Y29.096
X-17.71 Y29.206
X-17.618 Y29.324
X-17.537 Y29.451
X-17.467 Y29.584
X-17.41 Y29.722
X-17.365 Y29.865
X-17.33 Y30.011
X-17.302 Y30.159
X-17.281 Y30.307
X-17.268 Y30.456
X-17.267 Y30.606
X-17.281 Y30.756
X-17.308 Y30.903
X-17.35 Y31.047
X-17.405 Y31.187
X-17.474 Y31.32
X-17.555 Y31.447
X-17.647 Y31.565
X-17.75 Y31.674
X-17.862 Y31.774
X-17.982 Y31.864
X-18.109 Y31.943
X-18.243 Y32.011
X-18.382 Y32.068
X-18.525 Y32.113
X-18.671 Y32.146
X-18.82 Y32.167
X-18.969 Y32.177
X-19.119 Y32.174
X-19.268 Y32.159
X-19.416 Y32.132
X-19.561 Y32.093
X-19.702 Y32.043
X-19.839 Y31.981
X-19.97 Y31.909
X-20.096 Y31.827
X-20.214 Y31.734
X-20.325 Y31.633
X-20.427 Y31.524
X-20.52 Y31.406
X-20.604 Y31.281
X-20.677 Y31.15
X-20.739 Y31.014
X-20.79 Y30.873
X-20.83 Y30.728
X-20.858 Y30.581
X-20.875 Y30.432
X-20.88 Y30.282
X-20.872 Y30.132
X-20.853 Y29.983
X-20.822 Y29.837
X-20.779 Y29.693
X-20.725 Y29.553
X-20.66 Y29.418
X-20.584 Y29.289
X-20.498 Y29.165
X-20.403 Y29.05
X-20.299 Y28.941
X-20.187 Y28.842
X-20.067 Y28.752
X-19.94 Y28.672
X-19.807 Y28.602
X-19.669 Y28.543
X-19.527 Y28.496
X-19.381 Y28.46
X-19.233 Y28.435
X-19.084 Y28.423
X-18.934 Y28.422
X-18.784 Y28.433
X-18.636 Y28.456
X-18.49 Y28.491
X-18.347 Y28.537
X-18.209 Y28.595
X-18.076 Y28.664
X-17.948 Y28.743
X-17.827 Y28.832
X-17.714 Y28.93
X-17.609 Y29.037
X-17.512 Y29.152
X-17.425 Y29.274
X-17.348 Y29.403
X-17.282 Y29.537
X-17.224 Y29.676
X-17.175 Y29.817
X-17.134 Y29.962
X-17.103 Y30.108
X-17.081 Y30.257
X-17.07 Y30.406
X-17.069 Y30.556
X-17.08 Y30.706
X-17.103 Y30.854
X-17.138 Y31
X-17.185 Y31.142
X-17.244 Y31.28
X-17.314 Y31.413
X-17.394 Y31.54
X-17.485 Y31.659
X-17.584 Y31.772
X-17.692 Y31.875
X-17.809 Y31.971
X-17.932 Y32.056
X-18.061 Y32.132
X-18.196 Y32.198
X-18.335 Y32.253
X-18.478 Y32.298
X-18.624 Y32.332
X-18.773 Y32.355
X-18.922 Y32.367
X-19.072 Y32.368
X-19.222 Y32.358
X-19.37 Y32.338
X-19.517 Y32.306
X-19.661 Y32.264
X-19.801 Y32.211
X-19.938 Y32.148
X-20.069 Y32.076
X-20.195 Y31.994
X-20.314 Y31.903
X-20.427 Y31.804
X-20.532 Y31.697
X-20.629 Y31.583
X-20.718 Y31.462
X-20.797 Y31.335
X-20.867 Y31.202
X-20.928 Y31.065
X-20.978 Y30.923
X-21.017 Y30.779
X-21.047 Y30.631
X-21.065 Y30.483
X-21.073 Y30.333
X-21.07 Y30.183
X-21.056 Y30.033
X-21.032 Y29.885
X-20.997 Y29.74
X-20.951 Y29.597
X-20.895 Y29.458
X-20.829 Y29.323
X-20.753 Y29.193
X-20.668 Y29.07
X-20.575 Y28.952
X-20.474 Y28.842
X-20.364 Y28.739
X-20.248 Y28.644
X-20.125 Y28.558
X-19.996 Y28.481
X-19.862 Y28.414
X-19.724 Y28.357
X-19.581 Y28.31
X-19.436 Y28.273
X-19.288 Y28.247
X-19.139 Y28.232
X-18.989 Y28.227
X-18.839 Y28.233
X-18.69 Y28.25
X-18.542 Y28.278
X-18.397 Y28.316
X-18.256 Y28.365
X-18.118 Y28.424
X-17.985 Y28.493
X-17.857 Y28.571
X-17.735 Y28.659
X-17.619 Y28.754
X-17.511 Y28.858
X-17.41 Y28.969
X-17.318 Y29.088
X-17.234 Y29.212
X-17.158 Y29.341
X-17.091 Y29.475
X-17.032 Y29.613
X-16.981 Y29.754
X-16.939 Y29.898
X-16.907 Y30.045
X-16.884 Y30.193
X-16.871 Y30.343
X-16.868 Y30.493
X-16.875 Y30.642
X-16.893 Y30.791
X-16.921 Y30.939
X-16.96 Y31.084
X-17.009 Y31.225
X-17.069 Y31.363
X-17.138 Y31.496
X-17.218 Y31.623
X-17.306 Y31.745
X-17.402 Y31.859
X-17.506 Y31.967
X-17.618 Y32.067
X-17.737 Y32.159
X-17.861 Y32.242
X-17.992 Y32.317
X-18.127 Y32.382
X-18.266 Y32.437
X-18.409 Y32.483
X-18.555 Y32.519
X-18.702 Y32.545
X-18.852 Y32.561
X-19.002 Y32.567
X-19.151 Y32.563
X-19.301 Y32.549
X-19.449 Y32.525
X-19.595 Y32.491
X-19.739 Y32.448
X-19.879 Y32.394
X-20.015 Y32.332
X-20.147 Y32.261
X-20.274 Y32.181
X-20.395 Y32.092
X-20.511 Y31.997
X-20.62 Y31.893
X-20.722 Y31.783
X-20.816 Y31.667
X-20.902 Y31.544
X-20.98 Y31.416
X-21.05 Y31.283
X-21.11 Y31.146
X-21.161 Y31.005
X-21.202 Y30.86
X-21.234 Y30.714
X-21.257 Y30.566
X-21.27 Y30.416
X-21.272 Y30.266
X-21.266 Y30.116
X-21.249 Y29.967
X-21.222 Y29.82
X-21.186 Y29.674
X-21.139 Y29.531
X-21.084 Y29.392
X-21.019 Y29.257
X-20.946 Y29.126
X-20.864 Y29
X-20.774 Y28.88
X-20.677 Y28.766
X-20.572 Y28.659
X-20.46 Y28.558
X-20.343 Y28.466
X-20.219 Y28.381
X-20.089 Y28.305
X-19.955 Y28.238
X-19.817 Y28.179
X-19.675 Y28.13
X-19.531 Y28.091
X-19.384 Y28.06
X-19.235 Y28.04
X-19.086 Y28.029
X-18.936 Y28.028
X-18.786 Y28.037
X-18.637 Y28.056
X-18.49 Y28.085
X-18.345 Y28.124
X-18.203 Y28.172
X-18.064 Y28.229
X-17.93 Y28.296
X-17.8 Y28.371
X-17.675 Y28.454
X-17.556 Y28.546
X-17.443 Y28.644
X-17.337 Y28.75
X-17.238 Y28.863
X-17.146 Y28.981
X-17.061 Y29.105
X-16.984 Y29.234
X-16.915 Y29.367
X-16.854 Y29.504
X-16.8 Y29.644
X-16.756 Y29.787
X-16.72 Y29.933
X-16.692 Y30.08
X-16.674 Y30.229
X-16.664 Y30.379
Y30.529
X-16.674 Y30.678
X-16.693 Y30.827
X-16.722 Y30.974
X-16.761 Y31.119
X-16.809 Y31.261
X-16.866 Y31.4
X-16.932 Y31.535
X-17.007 Y31.665
X-17.09 Y31.79
X-17.181 Y31.909
X-17.279 Y32.022
X-17.385 Y32.129
X-17.497 Y32.228
X-17.616 Y32.32
X-17.74 Y32.404
X-17.87 Y32.479
X-18.004 Y32.547
X-18.142 Y32.606
X-18.283 Y32.656
X-18.428 Y32.697
X-18.574 Y32.729
X-18.722 Y32.752
X-18.872 Y32.766
X-19.022 Y32.77
X-19.171 Y32.766
X-19.321 Y32.752
X-19.469 Y32.729
X-19.615 Y32.696
X-19.76 Y32.655
X-19.901 Y32.605
X-20.039 Y32.546
X-20.173 Y32.479
X-20.303 Y32.405
X-20.429 Y32.322
X-20.549 Y32.232
X-20.663 Y32.135
X-20.771 Y32.031
X-20.873 Y31.921
X-20.968 Y31.805
X-21.056 Y31.683
X-21.135 Y31.556
X-21.207 Y31.425
X-21.271 Y31.289
X-21.327 Y31.15
X-21.374 Y31.007
X-21.412 Y30.862
X-21.442 Y30.715
X-21.463 Y30.567
X-21.475 Y30.417
X-21.478 Y30.267
X-21.471 Y30.117
X-21.456 Y29.968
X-21.431 Y29.82
X-21.397 Y29.674
X-21.355 Y29.53
X-21.304 Y29.389
X-21.244 Y29.251
X-21.177 Y29.117
X-21.101 Y28.988
X-21.018 Y28.863
X-20.928 Y28.743
X-20.83 Y28.629
X-20.726 Y28.522
X-20.615 Y28.421
X-20.498 Y28.326
X-20.376 Y28.239
X-20.249 Y28.16
X-20.117 Y28.089
X-19.981 Y28.025
X-19.841 Y27.97
X-19.699 Y27.923
X-19.554 Y27.885
X-19.406 Y27.856
X-19.258 Y27.836
X-19.108 Y27.825
X-18.958 Y27.823
X-18.808 Y27.83
X-18.659 Y27.846
X-18.511 Y27.871
X-18.365 Y27.906
X-18.222 Y27.949
X-18.081 Y28
X-17.943 Y28.06
X-17.81 Y28.128
X-17.68 Y28.204
X-17.556 Y28.287
X-17.436 Y28.378
X-17.322 Y28.476
X-17.215 Y28.58
X-17.113 Y28.69
X-17.018 Y28.806
X-16.929 Y28.928
X-16.848 Y29.053
X-16.774 Y29.184
X-16.706 Y29.318
X-16.647 Y29.456
X-16.595 Y29.596
X-16.551 Y29.74
X-16.515 Y29.885
X-16.487 Y30.033
X-16.468 Y30.181
X-16.457 Y30.331
X-16.455 Y30.481
X-16.462 Y30.631
X-16.477 Y30.78
X-16.502 Y30.928
X-16.535 Y31.074
X-16.576 Y31.219
X-16.626 Y31.36
X-16.684 Y31.498
X-16.751 Y31.633
X-16.825 Y31.763
X-16.907 Y31.888
X-16.997 Y32.009
X-17.094 Y32.123
X-17.197 Y32.232
X-17.306 Y32.335
X-17.422 Y32.431
X-17.543 Y32.519
X-17.668 Y32.601
X-17.799 Y32.675
X-17.933 Y32.742
X-18.071 Y32.8
X-18.213 Y32.851
X-18.356 Y32.893
X-18.503 Y32.927
X-18.65 Y32.952
X-18.799 Y32.969
X-18.949 Y32.978
X-19.099 Y32.977
X-19.249 Y32.969
X-19.398 Y32.951
X-19.546 Y32.926
X-19.692 Y32.892
X-19.836 Y32.85
X-19.977 Y32.799
X-20.116 Y32.741
X-20.25 Y32.676
X-20.381 Y32.603
X-20.508 Y32.522
X-20.63 Y32.435
X-20.747 Y32.34
X-20.858 Y32.24
X-20.963 Y32.133
X-21.063 Y32.021
X-21.156 Y31.903
X-21.242 Y31.78
X-21.321 Y31.653
X-21.393 Y31.522
X-21.458 Y31.386
X-21.515 Y31.247
X-21.564 Y31.106
X-21.605 Y30.961
X-21.637 Y30.815
X-21.662 Y30.667
X-21.678 Y30.518
X-21.686 Y30.368
Y30.218
X-21.677 Y30.068
X-21.66 Y29.919
X-21.635 Y29.771
X-21.601 Y29.625
X-21.56 Y29.481
X-21.51 Y29.34
X-21.452 Y29.201
X-21.387 Y29.066
X-21.315 Y28.935
X-21.235 Y28.808
X-21.148 Y28.685
X-21.055 Y28.568
X-20.955 Y28.456
X-20.849 Y28.35
X-20.737 Y28.25
X-20.62 Y28.156
X-20.498 Y28.069
X-20.371 Y27.989
X-20.24 Y27.916
X-20.105 Y27.851
X-19.967 Y27.793
X-19.825 Y27.743
X-19.681 Y27.701
X-19.535 Y27.667
X-19.387 Y27.641
X-19.238 Y27.624
X-19.088 Y27.614
X-18.938
X-18.789 Y27.621
X-18.64 Y27.637
X-18.492 Y27.661
X-18.345 Y27.694
X-18.201 Y27.735
X-18.059 Y27.783
X-17.92 Y27.84
X-17.784 Y27.904
X-17.652 Y27.976
X-17.525 Y28.054
X-17.401 Y28.14
X-17.283 Y28.232
X-17.17 Y28.33
X-17.062 Y28.434
X-16.96 Y28.544
X-16.863 Y28.659
X-16.773 Y28.779
X-16.69 Y28.904
X-16.613 Y29.032
X-16.543 Y29.165
X-16.479 Y29.301
X-16.423 Y29.44
X-16.374 Y29.582
X-16.333 Y29.726
X-16.299 Y29.872
X-16.273 Y30.02
X-16.255 Y30.169
X-16.244 Y30.318
X-16.242 Y30.468
X-16.248 Y30.618
X-16.262 Y30.768
X-16.284 Y30.916
X-16.314 Y31.063
X-16.352 Y31.208
X-16.398 Y31.351
X-16.451 Y31.491
X-16.513 Y31.628
X-16.581 Y31.761
X-16.657 Y31.891
X-16.74 Y32.016
X-16.829 Y32.136
X-16.925 Y32.251
X-17.028 Y32.361
X-17.136 Y32.465
X-17.249 Y32.563
X-17.368 Y32.655
X-17.492 Y32.74
X-17.62 Y32.818
X-17.752 Y32.889
X-17.887 Y32.953
X-18.026 Y33.01
X-18.168 Y33.059
X-18.312 Y33.101
X-18.458 Y33.134
X-18.606 Y33.161
X-18.755 Y33.179
X-18.904 Y33.189
X-19.054 Y33.191
X-19.204 Y33.186
X-19.354 Y33.172
X-19.502 Y33.151
X-19.649 Y33.121
X-19.795 Y33.085
X-19.938 Y33.04
X-20.079 Y32.989
X-20.217 Y32.93
X-20.352 Y32.864
X-20.483 Y32.791
X-20.61 Y32.711
X-20.733 Y32.625
X-20.851 Y32.533
X-20.964 Y32.434
X-21.072 Y32.33
X-21.174 Y32.22
X-21.27 Y32.105
X-21.361 Y31.985
X-21.445 Y31.861
X-21.522 Y31.733
X-21.593 Y31.6
X-21.657 Y31.465
X-21.714 Y31.326
X-21.763 Y31.184
X-21.805 Y31.04
X-21.84 Y30.894
X-21.867 Y30.747
X-21.886 Y30.598
X-21.898 Y30.449
X-21.901 Y30.299
X-21.897 Y30.149
X-21.886 Y29.999
X-21.866 Y29.85
X-21.839 Y29.703
X-21.804 Y29.557
X-21.762 Y29.413
X-21.713 Y29.271
X-21.656 Y29.132
X-21.592 Y28.997
X-21.522 Y28.864
X-21.444 Y28.736
X-21.36 Y28.612
X-21.269 Y28.492
X-21.173 Y28.377
X-21.071 Y28.268
X-20.963 Y28.163
X-20.85 Y28.065
X-20.732 Y27.972
X-20.609 Y27.886
X-20.482 Y27.806
X-20.351 Y27.732
X-20.217 Y27.666
X-20.079 Y27.607
X-19.938 Y27.554
X-19.795 Y27.51
X-19.65 Y27.472
X-19.503 Y27.443
X-19.355 Y27.421
X-19.205 Y27.406
X-19.055 Y27.4
X-18.905 Y27.401
X-18.756 Y27.409
X-18.607 Y27.426
X-18.459 Y27.45
X-18.312 Y27.481
X-18.167 Y27.521
X-18.025 Y27.568
X-17.885 Y27.622
X-17.748 Y27.683
X-17.614 Y27.751
X-17.484 Y27.826
X-17.358 Y27.907
X-17.236 Y27.995
X-17.119 Y28.088
X-17.007 Y28.187
X-16.899 Y28.292
X-16.797 Y28.402
X-16.7 Y28.516
X-16.609 Y28.636
X-16.524 Y28.759
X-16.445 Y28.887
X-16.373 Y29.018
X-16.307 Y29.153
X-16.248 Y29.291
X-16.195 Y29.431
X-16.149 Y29.574
X-16.11 Y29.719
X-16.079 Y29.866
X-16.054 Y30.014
X-16.037 Y30.163
X-16.028 Y30.312
X-16.025 Y30.462
X-16.03 Y30.612
X-16.043 Y30.762
X-16.063 Y30.91
X-16.091 Y31.058
X-16.126 Y31.203
X-16.169 Y31.347
X-16.219 Y31.489
X-16.276 Y31.628
X-16.339 Y31.763
X-16.41 Y31.896
X-16.487 Y32.024
X-16.571 Y32.149
X-16.66 Y32.269
X-16.756 Y32.385
X-16.858 Y32.495
X-16.965 Y32.6
X-17.077 Y32.7
X-17.194 Y32.794
X-17.315 Y32.881
X-17.441 Y32.963
X-17.571 Y33.038
X-17.705 Y33.106
X-17.841 Y33.168
X-17.981 Y33.223
X-18.123 Y33.271
X-18.267 Y33.312
X-18.413 Y33.346
X-18.561 Y33.373
X-18.71 Y33.392
X-18.859 Y33.404
X-19.009 Y33.408
X-19.159 Y33.406
X-19.309 Y33.395
X-19.458 Y33.378
X-19.606 Y33.353
X-19.752 Y33.321
X-19.897 Y33.281
X-20.04 Y33.235
X-20.18 Y33.182
X-20.318 Y33.123
X-20.452 Y33.057
X-20.584 Y32.984
X-20.711 Y32.905
X-20.835 Y32.82
X-20.954 Y32.729
X-21.069 Y32.633
X-21.179 Y32.531
X-21.284 Y32.423
X-21.383 Y32.311
X-21.477 Y32.194
X-21.565 Y32.073
X-21.648 Y31.948
X-21.724 Y31.818
X-21.794 Y31.686
X-21.858 Y31.55
X-21.915 Y31.411
X-21.965 Y31.27
X-22.008 Y31.126
X-22.045 Y30.981
X-22.074 Y30.834
X-22.096 Y30.685
X-22.111 Y30.536
X-22.118 Y30.386
X-22.119 Y30.236
X-22.112 Y30.086
X-22.098 Y29.937
X-22.077 Y29.788
X-22.049 Y29.641
X-22.014 Y29.495
X-21.972 Y29.351
X-21.923 Y29.209
X-21.867 Y29.07
X-21.805 Y28.934
X-21.736 Y28.8
X-21.661 Y28.671
X-21.579 Y28.545
X-21.492 Y28.423
X-21.399 Y28.305
X-21.3 Y28.192
X-21.196 Y28.084
X-21.087 Y27.981
X-20.973 Y27.884
X-20.855 Y27.792
X-20.732 Y27.705
X-20.605 Y27.625
X-20.475 Y27.551
X-20.341 Y27.483
X-20.204 Y27.422
X-20.064 Y27.367
X-19.922 Y27.32
X-19.778 Y27.279
X-19.632 Y27.245
X-19.484 Y27.218
X-19.335 Y27.199
X-19.186 Y27.186
X-19.036 Y27.181
X-18.886 Y27.183
X-18.736 Y27.192
X-18.587 Y27.208
X-18.439 Y27.231
X-18.292 Y27.262
X-18.147 Y27.299
X-18.004 Y27.344
X-17.863 Y27.395
X-17.724 Y27.453
X-17.589 Y27.517
X-17.457 Y27.588
X-17.328 Y27.665
X-17.203 Y27.748
X-17.082 Y27.837
X-16.965 Y27.931
X-16.853 Y28.03
X-16.745 Y28.135
X-16.642 Y28.244
X-16.545 Y28.358
X-16.453 Y28.476
X-16.366 Y28.598
X-16.285 Y28.725
X-16.21 Y28.854
X-16.14 Y28.988
X-16.077 Y29.124
X-16.021 Y29.263
X-15.97 Y29.404
X-15.927 Y29.547
X-15.889 Y29.693
X-15.859 Y29.84
X-15.835 Y29.988
X-15.818 Y30.137
X-15.808 Y30.286
X-15.804 Y30.436
X-15.808 Y30.586
X-15.819 Y30.736
X-15.837 Y30.885
X-15.862 Y31.033
X-15.893 Y31.179
X-15.932 Y31.324
X-15.977 Y31.467
X-16.029 Y31.608
X-16.088 Y31.746
X-16.153 Y31.881
X-16.224 Y32.013
X-16.302 Y32.142
X-16.385 Y32.266
X-16.474 Y32.387
X-16.569 Y32.503
X-16.669 Y32.615
X-16.774 Y32.722
X-16.884 Y32.824
X-16.999 Y32.92
X-17.118 Y33.011
X-17.242 Y33.096
X-17.369 Y33.176
X-17.5 Y33.249
X-17.634 Y33.316
X-17.771 Y33.377
X-17.911 Y33.432
X-18.053 Y33.48
X-18.197 Y33.522
X-18.343 Y33.557
X-18.49 Y33.585
X-18.639 Y33.606
X-18.788 Y33.621
X-18.938 Y33.628
X-19.088 Y33.629
X-19.238 Y33.622
X-19.387 Y33.609
X-19.536 Y33.589
X-19.683 Y33.563
X-19.83 Y33.529
X-19.974 Y33.489
X-20.117 Y33.443
X-20.257 Y33.39
X-20.395 Y33.331
X-20.53 Y33.266
X-20.662 Y33.195
X-20.791 Y33.118
X-20.916 Y33.035
X-21.037 Y32.946
X-21.154 Y32.852
X-21.266 Y32.753
X-21.374 Y32.649
X-21.477 Y32.54
X-21.576 Y32.427
X-21.669 Y32.309
X-21.756 Y32.187
X-21.838 Y32.062
X-21.915 Y31.932
X-21.985 Y31.8
X-22.05 Y31.665
X-22.108 Y31.527
X-22.16 Y31.386
X-22.206 Y31.243
X-22.245 Y31.098
X-22.278 Y30.952
X-22.304 Y30.804
X-22.323 Y30.655
X-22.335 Y30.506
X-22.341 Y30.356
X-22.34 Y30.206
X-22.333 Y30.056
X-22.318 Y29.907
X-22.297 Y29.758
X-22.27 Y29.611
X-22.236 Y29.465
X-22.195 Y29.32
X-22.148 Y29.178
X-22.095 Y29.038
X-22.035 Y28.9
X-21.969 Y28.765
X-21.897 Y28.634
X-21.819 Y28.506
X-21.736 Y28.381
X-21.647 Y28.26
X-21.553 Y28.144
X-21.453 Y28.031
X-21.349 Y27.923
X-21.24 Y27.82
X-21.126 Y27.722
X-21.009 Y27.629
X-20.887 Y27.542
X-20.761 Y27.46
X-20.632 Y27.383
X-20.5 Y27.313
X-20.364 Y27.249
X-20.226 Y27.191
X-20.085 Y27.139
X-19.942 Y27.094
X-19.797 Y27.055
X-19.651 Y27.022
X-19.503 Y26.997
X-19.354 Y26.978
X-19.205 Y26.965
X-19.055 Y26.959
X-18.905 Y26.96
X-18.755 Y26.967
X-18.606 Y26.981
X-18.457 Y27.002
X-18.31 Y27.03
X-18.164 Y27.064
X-18.019 Y27.105
X-17.877 Y27.152
X-17.737 Y27.206
X-17.599 Y27.265
X-17.464 Y27.331
X-17.332 Y27.403
X-17.204 Y27.48
X-17.079 Y27.563
X-16.957 Y27.651
X-16.84 Y27.744
X-16.727 Y27.842
X-16.618 Y27.945
X-16.513 Y28.053
X-16.413 Y28.165
X-16.319 Y28.281
X-16.229 Y28.402
X-16.145 Y28.526
X-16.066 Y28.653
X-15.992 Y28.784
X-15.951 Y28.867
X-15.922 Y28.931
X-15.843 Y29.124
X-15.824 Y29.168
X-15.812 Y29.199
X-15.761 Y29.34
X-15.744 Y29.394
X-15.722 Y29.471
X-15.705 Y29.55
X-15.692 Y29.63
G3 X-16.315 Y29.746 I-0.317 J0.03
G1 X-16.407 Y29.416
G3 X-15.812 Y29.199 I0.306 J-0.086
G1 X-15.756 Y29.333
X-15.724 Y29.416
X-15.701 Y29.561
X-15.624 Y30.145
X-15.61 Y30.252
X-15.608 Y30.291
X-15.61 Y30.348
X-15.699 Y31.02
X-15.719 Y31.166
X-15.756 Y31.267
X-16.048 Y31.971
X-16.067 Y32.006
X-16.092 Y32.042
X-16.54 Y32.625
X-16.58 Y32.676
X-16.632 Y32.727
X-17.26 Y33.209
X-17.311 Y33.242
X-17.361 Y33.266
X-18.091 Y33.568
X-18.127 Y33.579
X-18.164 Y33.586
X-18.966 Y33.692
X-19.003 Y33.693
X-19.039 Y33.691
X-19.842 Y33.585
X-19.879 Y33.577
X-19.915 Y33.566
X-20.645 Y33.263
X-20.681 Y33.247
X-20.718 Y33.225
X-20.74 Y33.209
X-21.311 Y32.771
X-21.379 Y32.718
X-21.417 Y32.68
X-21.46 Y32.625
X-21.908 Y32.042
X-21.934 Y32.005
X-21.953 Y31.969
X-22.225 Y31.312
X-22.281 Y31.166
X-22.301 Y31.02
X-22.378 Y30.437
X-22.392 Y30.291
X-22.376 Y30.145
X-22.299 Y29.561
X-22.276 Y29.416
X-22.218 Y29.27
X-21.976 Y28.686
X-21.944 Y28.613
X-21.921 Y28.577
X-21.446 Y27.956
X-21.414 Y27.917
X-21.374 Y27.878
X-21.287 Y27.811
X-20.716 Y27.373
X-20.68 Y27.352
X-20.644 Y27.336
X-19.915 Y27.034
X-19.879 Y27.023
X-19.842 Y27.015
X-19.039 Y26.909
X-19.003 Y26.907
X-18.966 Y26.908
X-18.164 Y27.014
X-18.127 Y27.021
X-18.091 Y27.032
X-17.361 Y27.334
X-17.286 Y27.373
X-17.215 Y27.425
X-16.632 Y27.873
X-16.587 Y27.915
X-16.554 Y27.956
X-16.106 Y28.54
X-16.073 Y28.585
X-16.048 Y28.629
X-15.922 Y28.931
G3 X-16.079 Y29.328 I-0.298 J0.111
G1 X-16.128 Y29.339 Z-1.246
X-16.175 Y29.35 Z-1.234
X-16.22 Y29.361 Z-1.215
X-16.271 Y29.348 Z-1.18
X-16.315 Y29.337 Z-1.135
X-16.349 Y29.328 Z-1.083
X-16.372 Y29.322 Z-1.025
X-16.381 Y29.317 Z-0.979
X-16.384 Y29.315 Z-0.932
G0 Z5
X-19.598 Y28.912
Z1.25
G3 X-18.402 Y31.686 Z1.084 I0.598 J1.387 F283.3
X-19.598 Y28.912 Z0.919 I-0.598 J-1.387
X-18.402 Y31.686 Z0.753 I0.598 J1.387
X-19.598 Y28.912 Z0.587 I-0.598 J-1.387
X-18.402 Y31.686 Z0.421 I0.598 J1.387
X-19.598 Y28.912 Z0.256 I-0.598 J-1.387
X-18.402 Y31.686 Z0.09 I0.598 J1.387
X-19.598 Y28.912 Z-0.076 I-0.598 J-1.387
X-18.402 Y31.686 Z-0.241 I0.598 J1.387
X-19.598 Y28.912 Z-0.407 I-0.598 J-1.387
X-18.402 Y31.686 Z-0.573 I0.598 J1.387
X-19.598 Y28.912 Z-0.739 I-0.598 J-1.387
X-18.402 Y31.686 Z-0.904 I0.598 J1.387
X-19.598 Y28.912 Z-1.07 I-0.598 J-1.387
X-18.402 Y31.686 Z-1.236 I0.598 J1.387
X-19.598 Y28.912 Z-1.401 I-0.598 J-1.387
X-18.402 Y31.686 Z-1.567 I0.598 J1.387
X-19.598 Y28.912 Z-1.733 I-0.598 J-1.387
X-18.402 Y31.686 Z-1.899 I0.598 J1.387
X-19.598 Y28.912 Z-2.064 I-0.598 J-1.387
X-18.402 Y31.686 Z-2.23 I0.598 J1.387
X-19.598 Y28.912 Z-2.396 I-0.598 J-1.387
X-17.49 Y30.299 Z-2.5 I0.598 J1.387
X-20.511 I-1.51
X-17.49 I1.51
G1 X-17.48 Y30.683 F850
Y30.833
X-17.512 Y30.979
X-17.566 Y31.119
X-17.636 Y31.252
X-17.721 Y31.376
X-17.818 Y31.49
X-17.927 Y31.593
X-18.044 Y31.686
X-18.17 Y31.768
X-18.303 Y31.837
X-18.442 Y31.894
X-18.586 Y31.938
X-18.732 Y31.969
X-18.881 Y31.986
X-19.031 Y31.99
X-19.181 Y31.981
X-19.329 Y31.959
X-19.475 Y31.923
X-19.617 Y31.875
X-19.754 Y31.814
X-19.885 Y31.741
X-20.01 Y31.657
X-20.126 Y31.562
X-20.233 Y31.458
X-20.331 Y31.344
X-20.418 Y31.222
X-20.495 Y31.093
X-20.559 Y30.957
X-20.611 Y30.817
X-20.651 Y30.672
X-20.677 Y30.524
X-20.69 Y30.375
X-20.691 Y30.225
X-20.677 Y30.076
X-20.651 Y29.928
X-20.611 Y29.783
X-20.559 Y29.642
X-20.495 Y29.507
X-20.419 Y29.378
X-20.332 Y29.256
X-20.234 Y29.142
X-20.127 Y29.037
X-20.011 Y28.942
X-19.886 Y28.858
X-19.755 Y28.785
X-19.618 Y28.724
X-19.476 Y28.676
X-19.331 Y28.64
X-19.182 Y28.617
X-19.033 Y28.608
X-18.883 Y28.611
X-18.734 Y28.628
X-18.587 Y28.659
X-18.443 Y28.702
X-18.304 Y28.757
X-18.17 Y28.825
X-18.043 Y28.904
X-17.923 Y28.995
X-17.811 Y29.095
X-17.709 Y29.205
X-17.618 Y29.324
X-17.537 Y29.45
X-17.467 Y29.583
X-17.41 Y29.722
X-17.365 Y29.865
X-17.33 Y30.011
X-17.302 Y30.158
X-17.28 Y30.306
X-17.268 Y30.456
X-17.267 Y30.606
X-17.28 Y30.755
X-17.308 Y30.903
X-17.35 Y31.047
X-17.405 Y31.186
X-17.474 Y31.32
X-17.554 Y31.446
X-17.647 Y31.564
X-17.749 Y31.674
X-17.861 Y31.773
X-17.982 Y31.863
X-18.109 Y31.942
X-18.243 Y32.01
X-18.382 Y32.067
X-18.525 Y32.112
X-18.671 Y32.145
X-18.819 Y32.167
X-18.969 Y32.176
X-19.119 Y32.174
X-19.268 Y32.159
X-19.416 Y32.132
X-19.561 Y32.093
X-19.702 Y32.042
X-19.839 Y31.981
X-19.97 Y31.908
X-20.095 Y31.826
X-20.214 Y31.734
X-20.325 Y31.633
X-20.427 Y31.523
X-20.52 Y31.405
X-20.603 Y31.281
X-20.676 Y31.15
X-20.739 Y31.013
X-20.79 Y30.872
X-20.83 Y30.728
X-20.858 Y30.58
X-20.875 Y30.431
X-20.879 Y30.281
X-20.872 Y30.131
X-20.853 Y29.983
X-20.822 Y29.836
X-20.779 Y29.692
X-20.725 Y29.552
X-20.66 Y29.417
X-20.584 Y29.288
X-20.498 Y29.165
X-20.403 Y29.049
X-20.299 Y28.941
X-20.186 Y28.841
X-20.067 Y28.751
X-19.94 Y28.671
X-19.807 Y28.602
X-19.669 Y28.543
X-19.527 Y28.495
X-19.381 Y28.459
X-19.233 Y28.435
X-19.083 Y28.422
X-18.933 Y28.421
X-18.784 Y28.432
X-18.636 Y28.455
X-18.49 Y28.49
X-18.347 Y28.537
X-18.209 Y28.595
X-18.075 Y28.663
X-17.948 Y28.742
X-17.827 Y28.831
X-17.714 Y28.929
X-17.608 Y29.036
X-17.512 Y29.151
X-17.425 Y29.273
X-17.348 Y29.402
X-17.281 Y29.536
X-17.224 Y29.675
X-17.175 Y29.817
X-17.134 Y29.961
X-17.102 Y30.108
X-17.081 Y30.256
X-17.069 Y30.406
Y30.556
X-17.08 Y30.705
X-17.103 Y30.853
X-17.138 Y30.999
X-17.185 Y31.142
X-17.244 Y31.28
X-17.314 Y31.412
X-17.394 Y31.539
X-17.484 Y31.659
X-17.584 Y31.771
X-17.692 Y31.875
X-17.808 Y31.97
X-17.931 Y32.056
X-18.061 Y32.132
X-18.196 Y32.197
X-18.335 Y32.253
X-18.478 Y32.297
X-18.624 Y32.331
X-18.772 Y32.354
X-18.922 Y32.367
X-19.072 Y32.368
X-19.222 Y32.358
X-19.37 Y32.337
X-19.517 Y32.306
X-19.661 Y32.263
X-19.801 Y32.211
X-19.937 Y32.148
X-20.069 Y32.075
X-20.194 Y31.993
X-20.314 Y31.902
X-20.426 Y31.803
X-20.531 Y31.696
X-20.629 Y31.582
X-20.717 Y31.461
X-20.797 Y31.334
X-20.867 Y31.201
X-20.927 Y31.064
X-20.977 Y30.923
X-21.017 Y30.778
X-21.046 Y30.631
X-21.065 Y30.482
X-21.073 Y30.332
X-21.07 Y30.182
X-21.056 Y30.033
X-21.032 Y29.885
X-20.996 Y29.739
X-20.951 Y29.596
X-20.895 Y29.457
X-20.829 Y29.322
X-20.753 Y29.193
X-20.668 Y29.069
X-20.575 Y28.952
X-20.473 Y28.841
X-20.364 Y28.738
X-20.248 Y28.644
X-20.125 Y28.558
X-19.996 Y28.481
X-19.862 Y28.414
X-19.723 Y28.356
X-19.581 Y28.309
X-19.435 Y28.273
X-19.288 Y28.247
X-19.139 Y28.231
X-18.989 Y28.226
X-18.839 Y28.233
X-18.69 Y28.249
X-18.542 Y28.277
X-18.397 Y28.315
X-18.255 Y28.364
X-18.118 Y28.423
X-17.984 Y28.492
X-17.856 Y28.571
X-17.734 Y28.658
X-17.619 Y28.754
X-17.511 Y28.857
X-17.41 Y28.969
X-17.318 Y29.087
X-17.234 Y29.211
X-17.158 Y29.341
X-17.09 Y29.475
X-17.031 Y29.612
X-16.981 Y29.754
X-16.939 Y29.898
X-16.907 Y30.044
X-16.884 Y30.193
X-16.871 Y30.342
X-16.868 Y30.492
X-16.875 Y30.642
X-16.892 Y30.791
X-16.921 Y30.938
X-16.959 Y31.083
X-17.009 Y31.225
X-17.069 Y31.362
X-17.138 Y31.495
X-17.217 Y31.622
X-17.305 Y31.744
X-17.402 Y31.859
X-17.506 Y31.967
X-17.618 Y32.067
X-17.736 Y32.159
X-17.861 Y32.242
X-17.991 Y32.316
X-18.127 Y32.381
X-18.266 Y32.437
X-18.409 Y32.482
X-18.555 Y32.518
X-18.702 Y32.544
X-18.851 Y32.56
X-19.001 Y32.566
X-19.151 Y32.562
X-19.301 Y32.548
X-19.449 Y32.524
X-19.595 Y32.49
X-19.738 Y32.447
X-19.879 Y32.394
X-20.015 Y32.331
X-20.147 Y32.26
X-20.274 Y32.18
X-20.395 Y32.092
X-20.511 Y31.996
X-20.619 Y31.893
X-20.721 Y31.783
X-20.816 Y31.666
X-20.902 Y31.543
X-20.98 Y31.415
X-21.049 Y31.282
X-21.11 Y31.145
X-21.161 Y31.004
X-21.202 Y30.86
X-21.234 Y30.713
X-21.257 Y30.565
X-21.269 Y30.415
X-21.272 Y30.265
X-21.265 Y30.116
X-21.249 Y29.967
X-21.222 Y29.819
X-21.185 Y29.673
X-21.139 Y29.531
X-21.084 Y29.391
X-21.019 Y29.256
X-20.946 Y29.125
X-20.864 Y29
X-20.774 Y28.879
X-20.676 Y28.765
X-20.572 Y28.658
X-20.46 Y28.558
X-20.342 Y28.465
X-20.218 Y28.38
X-20.089 Y28.304
X-19.955 Y28.237
X-19.817 Y28.179
X-19.675 Y28.13
X-19.53 Y28.09
X-19.384 Y28.06
X-19.235 Y28.039
X-19.085 Y28.029
X-18.935 Y28.028
X-18.786 Y28.037
X-18.637 Y28.055
X-18.49 Y28.084
X-18.345 Y28.123
X-18.203 Y28.171
X-18.064 Y28.229
X-17.93 Y28.295
X-17.8 Y28.37
X-17.675 Y28.454
X-17.556 Y28.545
X-17.443 Y28.644
X-17.337 Y28.75
X-17.238 Y28.862
X-17.146 Y28.981
X-17.061 Y29.104
X-16.984 Y29.233
X-16.915 Y29.366
X-16.853 Y29.503
X-16.8 Y29.643
X-16.756 Y29.786
X-16.719 Y29.932
X-16.692 Y30.08
X-16.674 Y30.228
X-16.664 Y30.378
Y30.528
X-16.674 Y30.678
X-16.693 Y30.827
X-16.722 Y30.974
X-16.761 Y31.119
X-16.809 Y31.261
X-16.866 Y31.399
X-16.932 Y31.534
X-17.007 Y31.664
X-17.09 Y31.789
X-17.181 Y31.908
X-17.279 Y32.021
X-17.385 Y32.128
X-17.497 Y32.227
X-17.616 Y32.319
X-17.74 Y32.403
X-17.87 Y32.479
X-18.004 Y32.546
X-18.142 Y32.605
X-18.283 Y32.655
X-18.427 Y32.696
X-18.574 Y32.728
X-18.722 Y32.751
X-18.871 Y32.765
X-19.021 Y32.77
X-19.171 Y32.765
X-19.321 Y32.751
X-19.469 Y32.728
X-19.615 Y32.696
X-19.759 Y32.654
X-19.901 Y32.604
X-20.039 Y32.546
X-20.173 Y32.479
X-20.303 Y32.404
X-20.428 Y32.321
X-20.549 Y32.232
X-20.663 Y32.135
X-20.771 Y32.031
X-20.873 Y31.921
X-20.968 Y31.804
X-21.055 Y31.683
X-21.135 Y31.556
X-21.207 Y31.424
X-21.271 Y31.288
X-21.327 Y31.149
X-21.374 Y31.006
X-21.412 Y30.862
X-21.442 Y30.715
X-21.463 Y30.566
X-21.475 Y30.416
X-21.478 Y30.266
X-21.471 Y30.117
X-21.456 Y29.967
X-21.431 Y29.819
X-21.397 Y29.673
X-21.355 Y29.529
X-21.304 Y29.388
X-21.244 Y29.251
X-21.176 Y29.117
X-21.101 Y28.987
X-21.018 Y28.862
X-20.927 Y28.743
X-20.83 Y28.629
X-20.725 Y28.521
X-20.615 Y28.42
X-20.498 Y28.326
X-20.376 Y28.239
X-20.248 Y28.16
X-20.116 Y28.088
X-19.98 Y28.025
X-19.841 Y27.97
X-19.698 Y27.923
X-19.553 Y27.885
X-19.406 Y27.855
X-19.258 Y27.835
X-19.108 Y27.824
X-18.958 Y27.822
X-18.808 Y27.829
X-18.659 Y27.845
X-18.511 Y27.871
X-18.365 Y27.905
X-18.221 Y27.948
X-18.081 Y27.999
X-17.943 Y28.059
X-17.809 Y28.127
X-17.68 Y28.203
X-17.555 Y28.287
X-17.436 Y28.377
X-17.322 Y28.475
X-17.214 Y28.579
X-17.113 Y28.69
X-17.018 Y28.806
X-16.929 Y28.927
X-16.848 Y29.053
X-16.773 Y29.183
X-16.706 Y29.317
X-16.647 Y29.455
X-16.595 Y29.596
X-16.551 Y29.739
X-16.515 Y29.885
X-16.487 Y30.032
X-16.467 Y30.181
X-16.457 Y30.33
X-16.455 Y30.48
X-16.461 Y30.63
X-16.477 Y30.779
X-16.501 Y30.927
X-16.534 Y31.074
X-16.576 Y31.218
X-16.626 Y31.359
X-16.684 Y31.497
X-16.751 Y31.632
X-16.825 Y31.762
X-16.907 Y31.888
X-16.997 Y32.008
X-17.093 Y32.123
X-17.197 Y32.232
X-17.306 Y32.334
X-17.421 Y32.43
X-17.542 Y32.519
X-17.668 Y32.6
X-17.799 Y32.675
X-17.933 Y32.741
X-18.071 Y32.8
X-18.212 Y32.85
X-18.356 Y32.892
X-18.502 Y32.926
X-18.65 Y32.952
X-18.799 Y32.969
X-18.949 Y32.977
X-19.099
X-19.249 Y32.968
X-19.398 Y32.951
X-19.546 Y32.925
X-19.692 Y32.891
X-19.836 Y32.849
X-19.977 Y32.799
X-20.115 Y32.741
X-20.25 Y32.675
X-20.381 Y32.602
X-20.508 Y32.521
X-20.63 Y32.434
X-20.746 Y32.34
X-20.858 Y32.239
X-20.963 Y32.133
X-21.063 Y32.02
X-21.155 Y31.903
X-21.242 Y31.78
X-21.321 Y31.652
X-21.393 Y31.521
X-21.457 Y31.385
X-21.514 Y31.247
X-21.563 Y31.105
X-21.604 Y30.961
X-21.637 Y30.814
X-21.662 Y30.666
X-21.678 Y30.517
X-21.686 Y30.367
Y30.217
X-21.677 Y30.068
X-21.66 Y29.919
X-21.635 Y29.771
X-21.601 Y29.625
X-21.559 Y29.48
X-21.51 Y29.339
X-21.452 Y29.2
X-21.387 Y29.065
X-21.314 Y28.934
X-21.235 Y28.807
X-21.148 Y28.685
X-21.054 Y28.567
X-20.954 Y28.455
X-20.849 Y28.349
X-20.737 Y28.249
X-20.62 Y28.155
X-20.498 Y28.068
X-20.371 Y27.988
X-20.24 Y27.915
X-20.105 Y27.85
X-19.966 Y27.792
X-19.825 Y27.742
X-19.681 Y27.7
X-19.535 Y27.666
X-19.387 Y27.64
X-19.238 Y27.623
X-19.088 Y27.614
X-18.938 Y27.613
X-18.788 Y27.621
X-18.639 Y27.636
X-18.491 Y27.661
X-18.345 Y27.693
X-18.201 Y27.734
X-18.059 Y27.783
X-17.92 Y27.839
X-17.784 Y27.903
X-17.652 Y27.975
X-17.524 Y28.054
X-17.401 Y28.139
X-17.283 Y28.231
X-17.169 Y28.329
X-17.062 Y28.434
X-16.959 Y28.543
X-16.863 Y28.658
X-16.773 Y28.778
X-16.69 Y28.903
X-16.613 Y29.032
X-16.542 Y29.164
X-16.479 Y29.3
X-16.423 Y29.439
X-16.374 Y29.581
X-16.333 Y29.725
X-16.299 Y29.872
X-16.273 Y30.019
X-16.255 Y30.168
X-16.244 Y30.318
X-16.242 Y30.468
X-16.248 Y30.618
X-16.261 Y30.767
X-16.284 Y30.915
X-16.314 Y31.062
X-16.352 Y31.207
X-16.398 Y31.35
X-16.451 Y31.49
X-16.512 Y31.627
X-16.581 Y31.761
X-16.657 Y31.89
X-16.74 Y32.015
X-16.829 Y32.136
X-16.925 Y32.251
X-17.027 Y32.361
X-17.135 Y32.465
X-17.249 Y32.562
X-17.368 Y32.654
X-17.492 Y32.739
X-17.62 Y32.817
X-17.752 Y32.888
X-17.887 Y32.952
X-18.026 Y33.009
X-18.168 Y33.058
X-18.312 Y33.1
X-18.458 Y33.134
X-18.606 Y33.16
X-18.755 Y33.178
X-18.904 Y33.188
X-19.054 Y33.191
X-19.204 Y33.185
X-19.354 Y33.171
X-19.502 Y33.15
X-19.649 Y33.121
X-19.795 Y33.084
X-19.938 Y33.04
X-20.079 Y32.988
X-20.217 Y32.929
X-20.351 Y32.863
X-20.482 Y32.79
X-20.61 Y32.711
X-20.732 Y32.624
X-20.85 Y32.532
X-20.964 Y32.433
X-21.071 Y32.329
X-21.174 Y32.219
X-21.27 Y32.104
X-21.36 Y31.985
X-21.444 Y31.86
X-21.522 Y31.732
X-21.593 Y31.6
X-21.657 Y31.464
X-21.713 Y31.325
X-21.763 Y31.184
X-21.805 Y31.04
X-21.84 Y30.894
X-21.867 Y30.746
X-21.886 Y30.597
X-21.897 Y30.448
X-21.901 Y30.298
X-21.897 Y30.148
X-21.885 Y29.998
X-21.866 Y29.85
X-21.839 Y29.702
X-21.804 Y29.556
X-21.762 Y29.412
X-21.713 Y29.271
X-21.656 Y29.132
X-21.592 Y28.996
X-21.521 Y28.864
X-21.444 Y28.735
X-21.36 Y28.611
X-21.269 Y28.492
X-21.173 Y28.377
X-21.07 Y28.267
X-20.962 Y28.163
X-20.849 Y28.064
X-20.731 Y27.972
X-20.609 Y27.885
X-20.482 Y27.805
X-20.351 Y27.732
X-20.217 Y27.665
X-20.079 Y27.606
X-19.938 Y27.554
X-19.795 Y27.509
X-19.65 Y27.472
X-19.503 Y27.442
X-19.354 Y27.42
X-19.205 Y27.406
X-19.055 Y27.399
X-18.905 Y27.4
X-18.756 Y27.409
X-18.606 Y27.425
X-18.458 Y27.449
X-18.312 Y27.481
X-18.167 Y27.52
X-18.024 Y27.567
X-17.885 Y27.621
X-17.748 Y27.682
X-17.614 Y27.75
X-17.484 Y27.825
X-17.358 Y27.906
X-17.236 Y27.994
X-17.119 Y28.087
X-17.006 Y28.187
X-16.899 Y28.291
X-16.797 Y28.401
X-16.7 Y28.516
X-16.609 Y28.635
X-16.524 Y28.759
X-16.445 Y28.886
X-16.373 Y29.018
X-16.307 Y29.152
X-16.247 Y29.29
X-16.195 Y29.431
X-16.149 Y29.573
X-16.11 Y29.718
X-16.079 Y29.865
X-16.054 Y30.013
X-16.037 Y30.162
X-16.027 Y30.312
X-16.025 Y30.462
X-16.03 Y30.612
X-16.043 Y30.761
X-16.063 Y30.91
X-16.091 Y31.057
X-16.126 Y31.203
X-16.169 Y31.347
X-16.218 Y31.488
X-16.275 Y31.627
X-16.339 Y31.763
X-16.41 Y31.895
X-16.487 Y32.024
X-16.57 Y32.148
X-16.66 Y32.269
X-16.756 Y32.384
X-16.857 Y32.494
X-16.964 Y32.6
X-17.076 Y32.699
X-17.194 Y32.793
X-17.315 Y32.881
X-17.441 Y32.962
X-17.571 Y33.037
X-17.704 Y33.106
X-17.841 Y33.168
X-17.981 Y33.223
X-18.123 Y33.271
X-18.267 Y33.312
X-18.413 Y33.346
X-18.561 Y33.372
X-18.71 Y33.391
X-18.859 Y33.403
X-19.009 Y33.408
X-19.159 Y33.405
X-19.309 Y33.395
X-19.458 Y33.377
X-19.605 Y33.352
X-19.752 Y33.32
X-19.897 Y33.281
X-20.04 Y33.235
X-20.18 Y33.182
X-20.318 Y33.122
X-20.452 Y33.056
X-20.583 Y32.983
X-20.711 Y32.905
X-20.835 Y32.82
X-20.954 Y32.729
X-21.069 Y32.632
X-21.179 Y32.53
X-21.283 Y32.423
X-21.383 Y32.31
X-21.477 Y32.194
X-21.565 Y32.072
X-21.648 Y31.947
X-21.724 Y31.818
X-21.794 Y31.685
X-21.857 Y31.549
X-21.914 Y31.41
X-21.965 Y31.269
X-22.008 Y31.126
X-22.044 Y30.98
X-22.074 Y30.833
X-22.096 Y30.685
X-22.111 Y30.535
X-22.118 Y30.385
X-22.119 Y30.235
X-22.112 Y30.086
X-22.098 Y29.936
X-22.077 Y29.788
X-22.049 Y29.64
X-22.014 Y29.495
X-21.972 Y29.351
X-21.923 Y29.209
X-21.867 Y29.07
X-21.805 Y28.933
X-21.736 Y28.8
X-21.661 Y28.67
X-21.579 Y28.544
X-21.492 Y28.422
X-21.399 Y28.305
X-21.3 Y28.192
X-21.196 Y28.084
X-21.087 Y27.981
X-20.973 Y27.883
X-20.854 Y27.791
X-20.732 Y27.705
X-20.605 Y27.624
X-20.475 Y27.55
X-20.341 Y27.482
X-20.204 Y27.421
X-20.064 Y27.367
X-19.922 Y27.319
X-19.778 Y27.278
X-19.631 Y27.244
X-19.484 Y27.218
X-19.335 Y27.198
X-19.186 Y27.186
X-19.036 Y27.18
X-18.886 Y27.182
X-18.736 Y27.191
X-18.587 Y27.207
X-18.439 Y27.231
X-18.292 Y27.261
X-18.147 Y27.298
X-18.003 Y27.343
X-17.862 Y27.394
X-17.724 Y27.452
X-17.589 Y27.517
X-17.456 Y27.587
X-17.328 Y27.664
X-17.203 Y27.747
X-17.082 Y27.836
X-16.965 Y27.93
X-16.853 Y28.03
X-16.745 Y28.134
X-16.642 Y28.243
X-16.545 Y28.357
X-16.452 Y28.475
X-16.366 Y28.598
X-16.284 Y28.724
X-16.209 Y28.854
X-16.14 Y28.987
X-16.077 Y29.123
X-16.021 Y29.262
X-15.97 Y29.403
X-15.926 Y29.547
X-15.889 Y29.692
X-15.859 Y29.839
X-15.835 Y29.987
X-15.818 Y30.136
X-15.808 Y30.286
X-15.804 Y30.436
X-15.808 Y30.586
X-15.819 Y30.735
X-15.837 Y30.884
X-15.861 Y31.032
X-15.893 Y31.179
X-15.932 Y31.324
X-15.977 Y31.467
X-16.029 Y31.607
X-16.088 Y31.745
X-16.153 Y31.881
X-16.224 Y32.013
X-16.301 Y32.141
X-16.385 Y32.266
X-16.474 Y32.386
X-16.568 Y32.503
X-16.669 Y32.615
X-16.774 Y32.721
X-16.884 Y32.823
X-16.999 Y32.92
X-17.118 Y33.011
X-17.242 Y33.096
X-17.369 Y33.175
X-17.5 Y33.249
X-17.634 Y33.316
X-17.771 Y33.377
X-17.911 Y33.431
X-18.053 Y33.48
X-18.197 Y33.521
X-18.343 Y33.556
X-18.49 Y33.584
X-18.638 Y33.606
X-18.788 Y33.62
X-18.937 Y33.628
X-19.087
X-19.237 Y33.622
X-19.387 Y33.609
X-19.535 Y33.589
X-19.683 Y33.562
X-19.829 Y33.529
X-19.974 Y33.489
X-20.117 Y33.442
X-20.257 Y33.39
X-20.395 Y33.331
X-20.53 Y33.265
X-20.662 Y33.194
X-20.791 Y33.117
X-20.916 Y33.034
X-21.037 Y32.946
X-21.154 Y32.852
X-21.266 Y32.753
X-21.374 Y32.648
X-21.477 Y32.539
X-21.575 Y32.426
X-21.668 Y32.308
X-21.756 Y32.187
X-21.838 Y32.061
X-21.914 Y31.932
X-21.985 Y31.799
X-22.049 Y31.664
X-22.108 Y31.526
X-22.16 Y31.385
X-22.206 Y31.242
X-22.245 Y31.098
X-22.278 Y30.951
X-22.303 Y30.803
X-22.323 Y30.655
X-22.335 Y30.505
X-22.341 Y30.355
X-22.34 Y30.205
X-22.332 Y30.056
X-22.318 Y29.906
X-22.297 Y29.758
X-22.27 Y29.61
X-22.235 Y29.464
X-22.195 Y29.32
X-22.148 Y29.177
X-22.095 Y29.037
X-22.035 Y28.9
X-21.969 Y28.765
X-21.897 Y28.633
X-21.819 Y28.505
X-21.736 Y28.38
X-21.647 Y28.26
X-21.552 Y28.143
X-21.453 Y28.031
X-21.349 Y27.923
X-21.24 Y27.82
X-21.126 Y27.722
X-21.008 Y27.629
X-20.887 Y27.541
X-20.761 Y27.459
X-20.632 Y27.383
X-20.499 Y27.312
X-20.364 Y27.248
X-20.226 Y27.19
X-20.085 Y27.138
X-19.942 Y27.093
X-19.797 Y27.054
X-19.65 Y27.022
X-19.503 Y26.996
X-19.354 Y26.977
X-19.204 Y26.964
X-19.055 Y26.958
X-18.905 Y26.959
X-18.755 Y26.967
X-18.605 Y26.981
X-18.457 Y27.002
X-18.309 Y27.029
X-18.163 Y27.064
X-18.019 Y27.104
X-17.877 Y27.151
X-17.737 Y27.205
X-17.599 Y27.265
X-17.464 Y27.33
X-17.332 Y27.402
X-17.204 Y27.479
X-17.079 Y27.562
X-16.957 Y27.65
X-16.84 Y27.743
X-16.726 Y27.842
X-16.617 Y27.945
X-16.513 Y28.052
X-16.413 Y28.164
X-16.318 Y28.281
X-16.229 Y28.401
X-16.144 Y28.525
X-16.066 Y28.652
X-15.992 Y28.783
X-15.953 Y28.862
X-15.925 Y28.925
X-15.843 Y29.124
X-15.824 Y29.168
X-15.812 Y29.199
X-15.761 Y29.34
X-15.744 Y29.393
X-15.722 Y29.471
X-15.705 Y29.55
X-15.692 Y29.629
G3 X-16.315 Y29.746 I-0.317 J0.03
G1 X-16.407 Y29.416
G3 X-15.812 Y29.199 I0.306 J-0.086
G1 X-15.756 Y29.333
X-15.724 Y29.416
X-15.701 Y29.561
X-15.624 Y30.145
X-15.61 Y30.252
X-15.608 Y30.291
X-15.61 Y30.348
X-15.699 Y31.02
X-15.719 Y31.166
X-15.756 Y31.267
X-16.048 Y31.971
X-16.067 Y32.006
X-16.092 Y32.042
X-16.54 Y32.625
X-16.58 Y32.676
X-16.632 Y32.727
X-17.26 Y33.209
X-17.311 Y33.242
X-17.361 Y33.266
X-18.091 Y33.568
X-18.127 Y33.579
X-18.164 Y33.586
X-18.966 Y33.692
X-19.003 Y33.693
X-19.039 Y33.691
X-19.842 Y33.585
X-19.879 Y33.577
X-19.915 Y33.566
X-20.645 Y33.263
X-20.681 Y33.247
X-20.718 Y33.225
X-20.74 Y33.209
X-21.311 Y32.771
X-21.379 Y32.718
X-21.417 Y32.68
X-21.46 Y32.625
X-21.908 Y32.042
X-21.934 Y32.005
X-21.953 Y31.969
X-22.225 Y31.312
X-22.281 Y31.166
X-22.301 Y31.02
X-22.378 Y30.437
X-22.392 Y30.291
X-22.376 Y30.145
X-22.299 Y29.561
X-22.276 Y29.416
X-22.218 Y29.27
X-21.976 Y28.686
X-21.944 Y28.613
X-21.921 Y28.577
X-21.446 Y27.956
X-21.414 Y27.917
X-21.374 Y27.878
X-21.287 Y27.811
X-20.716 Y27.373
X-20.68 Y27.352
X-20.644 Y27.336
X-19.915 Y27.034
X-19.879 Y27.023
X-19.842 Y27.015
X-19.039 Y26.909
X-19.003 Y26.907
X-18.966 Y26.908
X-18.164 Y27.014
X-18.127 Y27.021
X-18.091 Y27.032
X-17.361 Y27.334
X-17.286 Y27.373
X-17.215 Y27.425
X-16.632 Y27.873
X-16.587 Y27.915
X-16.554 Y27.956
X-16.106 Y28.54
X-16.073 Y28.585
X-16.048 Y28.629
X-15.925 Y28.925
G3 X-16.082 Y29.322 I-0.298 J0.111
G1 X-16.13 Y29.333 Z-2.496
X-16.178 Y29.344 Z-2.484
X-16.223 Y29.355 Z-2.465
X-16.274 Y29.342 Z-2.43
X-16.317 Y29.331 Z-2.385
X-16.351 Y29.322 Z-2.333
X-16.374 Y29.316 Z-2.275
X-16.383 Y29.311 Z-2.229
X-16.386 Y29.309 Z-2.182
G0 Z5
X-19.597 Y28.912
Z0
G3 X-18.4 Y31.686 Z-0.166 I0.598 J1.387 F283.3
X-19.597 Y28.912 Z-0.331 I-0.598 J-1.387
X-18.4 Y31.686 Z-0.497 I0.598 J1.387
X-19.597 Y28.912 Z-0.663 I-0.598 J-1.387
X-18.4 Y31.686 Z-0.829 I0.598 J1.387
X-19.597 Y28.912 Z-0.994 I-0.598 J-1.387
X-18.4 Y31.686 Z-1.16 I0.598 J1.387
X-19.597 Y28.912 Z-1.326 I-0.598 J-1.387
X-18.4 Y31.686 Z-1.491 I0.598 J1.387
X-19.597 Y28.912 Z-1.657 I-0.598 J-1.387
X-18.4 Y31.686 Z-1.823 I0.598 J1.387
X-19.597 Y28.912 Z-1.989 I-0.598 J-1.387
X-18.4 Y31.686 Z-2.154 I0.598 J1.387
X-19.597 Y28.912 Z-2.32 I-0.598 J-1.387
X-18.4 Y31.686 Z-2.486 I0.598 J1.387
X-19.597 Y28.912 Z-2.651 I-0.598 J-1.387
X-18.4 Y31.686 Z-2.817 I0.598 J1.387
X-19.597 Y28.912 Z-2.983 I-0.598 J-1.387
X-18.4 Y31.686 Z-3.149 I0.598 J1.387
X-19.597 Y28.912 Z-3.314 I-0.598 J-1.387
X-18.4 Y31.686 Z-3.48 I0.598 J1.387
X-19.597 Y28.912 Z-3.646 I-0.598 J-1.387
X-17.488 Y30.299 Z-3.75 I0.598 J1.387
X-20.509 I-1.51
X-17.488 I1.51
G1 X-17.478 Y30.682 F850
X-17.479 Y30.832
X-17.511 Y30.979
X-17.564 Y31.119
X-17.635 Y31.252
X-17.719 Y31.375
X-17.817 Y31.489
X-17.925 Y31.593
X-18.043 Y31.686
X-18.169 Y31.767
X-18.302 Y31.837
X-18.441 Y31.894
X-18.584 Y31.938
X-18.731 Y31.968
X-18.88 Y31.986
X-19.03 Y31.99
X-19.18 Y31.981
X-19.328 Y31.959
X-19.474 Y31.923
X-19.616 Y31.875
X-19.753 Y31.814
X-19.884 Y31.741
X-20.008 Y31.657
X-20.125 Y31.562
X-20.232 Y31.458
X-20.33 Y31.344
X-20.417 Y31.222
X-20.493 Y31.093
X-20.558 Y30.957
X-20.61 Y30.817
X-20.649 Y30.672
X-20.676 Y30.524
X-20.689 Y30.375
Y30.225
X-20.676 Y30.075
X-20.649 Y29.928
X-20.61 Y29.783
X-20.558 Y29.642
X-20.494 Y29.507
X-20.418 Y29.377
X-20.33 Y29.255
X-20.233 Y29.142
X-20.125 Y29.037
X-20.009 Y28.942
X-19.885 Y28.858
X-19.754 Y28.785
X-19.617 Y28.724
X-19.475 Y28.676
X-19.329 Y28.64
X-19.181 Y28.617
X-19.031 Y28.607
X-18.881 Y28.611
X-18.732 Y28.628
X-18.585 Y28.658
X-18.442 Y28.701
X-18.302 Y28.757
X-18.168 Y28.825
X-18.041 Y28.904
X-17.921 Y28.994
X-17.81 Y29.095
X-17.708 Y29.205
X-17.616 Y29.324
X-17.535 Y29.45
X-17.466 Y29.583
X-17.408 Y29.721
X-17.363 Y29.864
X-17.329 Y30.01
X-17.301 Y30.158
X-17.279 Y30.306
X-17.266 Y30.456
Y30.606
X-17.279 Y30.755
X-17.307 Y30.902
X-17.348 Y31.047
X-17.404 Y31.186
X-17.472 Y31.319
X-17.553 Y31.446
X-17.645 Y31.564
X-17.748 Y31.673
X-17.86 Y31.773
X-17.98 Y31.863
X-18.108 Y31.942
X-18.241 Y32.01
X-18.38 Y32.067
X-18.523 Y32.112
X-18.669 Y32.145
X-18.818 Y32.167
X-18.968 Y32.176
X-19.118 Y32.173
X-19.267 Y32.158
X-19.414 Y32.131
X-19.559 Y32.093
X-19.701 Y32.042
X-19.837 Y31.98
X-19.969 Y31.908
X-20.094 Y31.826
X-20.212 Y31.734
X-20.323 Y31.632
X-20.425 Y31.523
X-20.519 Y31.405
X-20.602 Y31.281
X-20.675 Y31.149
X-20.737 Y31.013
X-20.789 Y30.872
X-20.828 Y30.727
X-20.857 Y30.58
X-20.873 Y30.431
X-20.878 Y30.281
X-20.871 Y30.131
X-20.852 Y29.983
X-20.82 Y29.836
X-20.778 Y29.692
X-20.723 Y29.552
X-20.658 Y29.417
X-20.582 Y29.288
X-20.497 Y29.165
X-20.401 Y29.049
X-20.297 Y28.941
X-20.185 Y28.841
X-20.065 Y28.751
X-19.938 Y28.671
X-19.805 Y28.601
X-19.667 Y28.543
X-19.525 Y28.495
X-19.38 Y28.459
X-19.232 Y28.435
X-19.082 Y28.422
X-18.932 Y28.421
X-18.782 Y28.432
X-18.634 Y28.455
X-18.488 Y28.49
X-18.346 Y28.536
X-18.207 Y28.594
X-18.074 Y28.663
X-17.947 Y28.742
X-17.826 Y28.831
X-17.712 Y28.929
X-17.607 Y29.036
X-17.511 Y29.151
X-17.424 Y29.273
X-17.347 Y29.402
X-17.28 Y29.536
X-17.222 Y29.675
X-17.173 Y29.816
X-17.132 Y29.961
X-17.101 Y30.107
X-17.079 Y30.256
X-17.068 Y30.405
Y30.555
X-17.079 Y30.705
X-17.102 Y30.853
X-17.137 Y30.999
X-17.184 Y31.142
X-17.242 Y31.28
X-17.312 Y31.412
X-17.393 Y31.539
X-17.483 Y31.659
X-17.583 Y31.771
X-17.691 Y31.875
X-17.807 Y31.97
X-17.93 Y32.055
X-18.059 Y32.131
X-18.194 Y32.197
X-18.334 Y32.252
X-18.477 Y32.297
X-18.623 Y32.331
X-18.771 Y32.354
X-18.921 Y32.366
X-19.071 Y32.367
X-19.22 Y32.358
X-19.369 Y32.337
X-19.515 Y32.305
X-19.659 Y32.263
X-19.8 Y32.21
X-19.936 Y32.147
X-20.067 Y32.075
X-20.193 Y31.993
X-20.312 Y31.902
X-20.425 Y31.803
X-20.53 Y31.696
X-20.627 Y31.582
X-20.716 Y31.461
X-20.795 Y31.334
X-20.866 Y31.201
X-20.926 Y31.064
X-20.976 Y30.922
X-21.016 Y30.778
X-21.045 Y30.631
X-21.063 Y30.482
X-21.071 Y30.332
X-21.068 Y30.182
X-21.055 Y30.033
X-21.03 Y29.885
X-20.995 Y29.739
X-20.949 Y29.596
X-20.893 Y29.457
X-20.827 Y29.322
X-20.752 Y29.193
X-20.667 Y29.069
X-20.573 Y28.951
X-20.472 Y28.841
X-20.363 Y28.738
X-20.246 Y28.643
X-20.124 Y28.557
X-19.995 Y28.481
X-19.861 Y28.413
X-19.722 Y28.356
X-19.579 Y28.309
X-19.434 Y28.273
X-19.286 Y28.246
X-19.137 Y28.231
X-18.987 Y28.226
X-18.837 Y28.232
X-18.688 Y28.249
X-18.541 Y28.277
X-18.396 Y28.315
X-18.254 Y28.364
X-18.116 Y28.423
X-17.983 Y28.492
X-17.855 Y28.57
X-17.733 Y28.658
X-17.618 Y28.753
X-17.509 Y28.857
X-17.409 Y28.969
X-17.316 Y29.087
X-17.232 Y29.211
X-17.157 Y29.34
X-17.089 Y29.474
X-17.03 Y29.612
X-16.979 Y29.754
X-16.938 Y29.898
X-16.905 Y30.044
X-16.883 Y30.192
X-16.869 Y30.342
X-16.866 Y30.492
X-16.873 Y30.642
X-16.891 Y30.791
X-16.919 Y30.938
X-16.958 Y31.083
X-17.008 Y31.224
X-17.067 Y31.362
X-17.137 Y31.495
X-17.216 Y31.622
X-17.304 Y31.744
X-17.4 Y31.859
X-17.505 Y31.966
X-17.616 Y32.066
X-17.735 Y32.158
X-17.86 Y32.242
X-17.99 Y32.316
X-18.125 Y32.381
X-18.265 Y32.436
X-18.407 Y32.482
X-18.553 Y32.518
X-18.701 Y32.544
X-18.85 Y32.56
X-19 Y32.566
X-19.15 Y32.562
X-19.299 Y32.548
X-19.447 Y32.524
X-19.593 Y32.49
X-19.737 Y32.447
X-19.877 Y32.394
X-20.014 Y32.331
X-20.145 Y32.26
X-20.272 Y32.18
X-20.394 Y32.092
X-20.509 Y31.996
X-20.618 Y31.893
X-20.72 Y31.782
X-20.814 Y31.666
X-20.901 Y31.543
X-20.979 Y31.415
X-21.048 Y31.282
X-21.108 Y31.145
X-21.159 Y31.004
X-21.201 Y30.86
X-21.233 Y30.713
X-21.255 Y30.565
X-21.268 Y30.415
X-21.271 Y30.265
X-21.264 Y30.115
X-21.247 Y29.966
X-21.22 Y29.819
X-21.184 Y29.673
X-21.138 Y29.531
X-21.082 Y29.391
X-21.017 Y29.256
X-20.944 Y29.125
X-20.862 Y28.999
X-20.772 Y28.879
X-20.675 Y28.765
X-20.57 Y28.658
X-20.459 Y28.557
X-20.341 Y28.465
X-20.217 Y28.38
X-20.088 Y28.304
X-19.954 Y28.237
X-19.815 Y28.178
X-19.674 Y28.129
X-19.529 Y28.09
X-19.382 Y28.06
X-19.234 Y28.039
X-19.084 Y28.028
X-18.934 Y28.027
X-18.784 Y28.036
X-18.635 Y28.055
X-18.488 Y28.084
X-18.343 Y28.123
X-18.201 Y28.171
X-18.063 Y28.228
X-17.928 Y28.295
X-17.798 Y28.37
X-17.674 Y28.453
X-17.555 Y28.545
X-17.442 Y28.644
X-17.336 Y28.75
X-17.236 Y28.862
X-17.144 Y28.98
X-17.06 Y29.104
X-16.982 Y29.233
X-16.913 Y29.366
X-16.852 Y29.503
X-16.799 Y29.643
X-16.754 Y29.786
X-16.718 Y29.932
X-16.691 Y30.079
X-16.672 Y30.228
X-16.663 Y30.378
Y30.528
X-16.672 Y30.678
X-16.692 Y30.826
X-16.721 Y30.974
X-16.759 Y31.118
X-16.807 Y31.261
X-16.864 Y31.399
X-16.931 Y31.534
X-17.005 Y31.664
X-17.088 Y31.789
X-17.179 Y31.908
X-17.278 Y32.021
X-17.383 Y32.128
X-17.496 Y32.227
X-17.614 Y32.319
X-17.739 Y32.403
X-17.868 Y32.479
X-18.002 Y32.546
X-18.14 Y32.605
X-18.282 Y32.655
X-18.426 Y32.696
X-18.572 Y32.728
X-18.721 Y32.751
X-18.87 Y32.765
X-19.02 Y32.77
X-19.17 Y32.765
X-19.319 Y32.751
X-19.467 Y32.728
X-19.614 Y32.695
X-19.758 Y32.654
X-19.899 Y32.604
X-20.037 Y32.545
X-20.172 Y32.479
X-20.302 Y32.404
X-20.427 Y32.321
X-20.547 Y32.231
X-20.662 Y32.134
X-20.77 Y32.031
X-20.872 Y31.92
X-20.966 Y31.804
X-21.054 Y31.682
X-21.134 Y31.555
X-21.206 Y31.424
X-21.27 Y31.288
X-21.325 Y31.149
X-21.372 Y31.006
X-21.411 Y30.861
X-21.441 Y30.714
X-21.462 Y30.566
X-21.473 Y30.416
X-21.476 Y30.266
X-21.47 Y30.116
X-21.454 Y29.967
X-21.429 Y29.819
X-21.396 Y29.673
X-21.353 Y29.529
X-21.302 Y29.388
X-21.243 Y29.251
X-21.175 Y29.117
X-21.1 Y28.987
X-21.016 Y28.862
X-20.926 Y28.742
X-20.828 Y28.629
X-20.724 Y28.521
X-20.613 Y28.42
X-20.496 Y28.326
X-20.374 Y28.239
X-20.247 Y28.159
X-20.115 Y28.088
X-19.979 Y28.024
X-19.84 Y27.969
X-19.697 Y27.923
X-19.552 Y27.885
X-19.405 Y27.855
X-19.256 Y27.835
X-19.107 Y27.824
X-18.957 Y27.822
X-18.807 Y27.829
X-18.658 Y27.845
X-18.51 Y27.871
X-18.364 Y27.905
X-18.22 Y27.948
X-18.079 Y27.999
X-17.942 Y28.059
X-17.808 Y28.127
X-17.679 Y28.203
X-17.554 Y28.286
X-17.435 Y28.377
X-17.321 Y28.475
X-17.213 Y28.579
X-17.111 Y28.69
X-17.016 Y28.806
X-16.928 Y28.927
X-16.846 Y29.053
X-16.772 Y29.183
X-16.705 Y29.317
X-16.645 Y29.455
X-16.593 Y29.595
X-16.549 Y29.739
X-16.513 Y29.884
X-16.485 Y30.032
X-16.466 Y30.181
X-16.455 Y30.33
X-16.453 Y30.48
X-16.46 Y30.63
X-16.476 Y30.779
X-16.5 Y30.927
X-16.533 Y31.074
X-16.574 Y31.218
X-16.624 Y31.359
X-16.683 Y31.497
X-16.749 Y31.632
X-16.824 Y31.762
X-16.906 Y31.888
X-16.995 Y32.008
X-17.092 Y32.123
X-17.195 Y32.231
X-17.305 Y32.334
X-17.42 Y32.43
X-17.541 Y32.519
X-17.667 Y32.6
X-17.797 Y32.674
X-17.932 Y32.741
X-18.07 Y32.8
X-18.211 Y32.85
X-18.355 Y32.892
X-18.501 Y32.926
X-18.649 Y32.952
X-18.798 Y32.968
X-18.948 Y32.977
X-19.098 Y32.976
X-19.247 Y32.968
X-19.396 Y32.95
X-19.544 Y32.925
X-19.69 Y32.891
X-19.834 Y32.849
X-19.976 Y32.799
X-20.114 Y32.741
X-20.249 Y32.675
X-20.38 Y32.602
X-20.506 Y32.521
X-20.628 Y32.434
X-20.745 Y32.34
X-20.856 Y32.239
X-20.962 Y32.132
X-21.061 Y32.02
X-21.154 Y31.902
X-21.24 Y31.78
X-21.32 Y31.652
X-21.392 Y31.521
X-21.456 Y31.385
X-21.513 Y31.246
X-21.562 Y31.105
X-21.603 Y30.96
X-21.636 Y30.814
X-21.66 Y30.666
X-21.677 Y30.517
X-21.685 Y30.367
X-21.684 Y30.217
X-21.676 Y30.067
X-21.659 Y29.918
X-21.633 Y29.771
X-21.6 Y29.624
X-21.558 Y29.48
X-21.508 Y29.339
X-21.451 Y29.2
X-21.386 Y29.065
X-21.313 Y28.934
X-21.233 Y28.807
X-21.146 Y28.685
X-21.053 Y28.567
X-20.953 Y28.455
X-20.847 Y28.349
X-20.735 Y28.249
X-20.618 Y28.155
X-20.496 Y28.068
X-20.369 Y27.988
X-20.238 Y27.915
X-20.103 Y27.85
X-19.965 Y27.792
X-19.823 Y27.742
X-19.679 Y27.7
X-19.533 Y27.666
X-19.386 Y27.64
X-19.237 Y27.623
X-19.087 Y27.614
X-18.937 Y27.613
X-18.787 Y27.62
X-18.638 Y27.636
X-18.49 Y27.661
X-18.343 Y27.693
X-18.199 Y27.734
X-18.057 Y27.783
X-17.918 Y27.839
X-17.783 Y27.903
X-17.651 Y27.975
X-17.523 Y28.053
X-17.4 Y28.139
X-17.281 Y28.231
X-17.168 Y28.329
X-17.06 Y28.433
X-16.958 Y28.543
X-16.862 Y28.658
X-16.772 Y28.778
X-16.688 Y28.903
X-16.611 Y29.032
X-16.541 Y29.164
X-16.478 Y29.3
X-16.422 Y29.439
X-16.373 Y29.581
X-16.331 Y29.725
X-16.298 Y29.871
X-16.271 Y30.019
X-16.253 Y30.168
X-16.243 Y30.318
X-16.24 Y30.468
X-16.246 Y30.617
X-16.26 Y30.767
X-16.282 Y30.915
X-16.312 Y31.062
X-16.35 Y31.207
X-16.396 Y31.35
X-16.45 Y31.49
X-16.511 Y31.627
X-16.58 Y31.76
X-16.655 Y31.89
X-16.738 Y32.015
X-16.828 Y32.135
X-16.924 Y32.251
X-17.026 Y32.36
X-17.134 Y32.464
X-17.248 Y32.562
X-17.367 Y32.654
X-17.49 Y32.739
X-17.618 Y32.817
X-17.75 Y32.888
X-17.886 Y32.952
X-18.025 Y33.009
X-18.166 Y33.058
X-18.31 Y33.1
X-18.457 Y33.134
X-18.604 Y33.16
X-18.753 Y33.178
X-18.903 Y33.188
X-19.053 Y33.19
X-19.203 Y33.185
X-19.352 Y33.171
X-19.501 Y33.15
X-19.648 Y33.121
X-19.793 Y33.084
X-19.936 Y33.039
X-20.077 Y32.988
X-20.215 Y32.929
X-20.35 Y32.863
X-20.481 Y32.79
X-20.608 Y32.71
X-20.731 Y32.624
X-20.849 Y32.532
X-20.962 Y32.433
X-21.07 Y32.329
X-21.172 Y32.219
X-21.269 Y32.104
X-21.359 Y31.984
X-21.443 Y31.86
X-21.52 Y31.732
X-21.591 Y31.6
X-21.655 Y31.464
X-21.712 Y31.325
X-21.762 Y31.183
X-21.804 Y31.04
X-21.838 Y30.894
X-21.865 Y30.746
X-21.884 Y30.597
X-21.896 Y30.448
X-21.9 Y30.298
X-21.896 Y30.148
X-21.884 Y29.998
X-21.864 Y29.85
X-21.837 Y29.702
X-21.803 Y29.556
X-21.761 Y29.412
X-21.711 Y29.27
X-21.655 Y29.132
X-21.591 Y28.996
X-21.52 Y28.864
X-21.442 Y28.735
X-21.358 Y28.611
X-21.268 Y28.491
X-21.171 Y28.377
X-21.069 Y28.267
X-20.961 Y28.163
X-20.848 Y28.064
X-20.73 Y27.971
X-20.607 Y27.885
X-20.481 Y27.805
X-20.35 Y27.732
X-20.215 Y27.665
X-20.077 Y27.606
X-19.937 Y27.554
X-19.794 Y27.509
X-19.648 Y27.472
X-19.501 Y27.442
X-19.353 Y27.42
X-19.204 Y27.405
X-19.054 Y27.399
X-18.904 Y27.4
X-18.754 Y27.408
X-18.605 Y27.425
X-18.457 Y27.449
X-18.31 Y27.481
X-18.166 Y27.52
X-18.023 Y27.567
X-17.883 Y27.621
X-17.746 Y27.682
X-17.613 Y27.75
X-17.483 Y27.825
X-17.356 Y27.906
X-17.235 Y27.994
X-17.117 Y28.087
X-17.005 Y28.186
X-16.897 Y28.291
X-16.795 Y28.401
X-16.699 Y28.516
X-16.608 Y28.635
X-16.523 Y28.759
X-16.444 Y28.886
X-16.371 Y29.017
X-16.305 Y29.152
X-16.246 Y29.29
X-16.193 Y29.43
X-16.148 Y29.573
X-16.109 Y29.718
X-16.077 Y29.865
X-16.053 Y30.013
X-16.036 Y30.162
X-16.026 Y30.311
X-16.024 Y30.461
X-16.029 Y30.611
X-16.042 Y30.761
X-16.062 Y30.909
X-16.09 Y31.057
X-16.125 Y31.203
X-16.167 Y31.346
X-16.217 Y31.488
X-16.274 Y31.627
X-16.338 Y31.763
X-16.408 Y31.895
X-16.485 Y32.024
X-16.569 Y32.148
X-16.659 Y32.268
X-16.754 Y32.384
X-16.856 Y32.494
X-16.963 Y32.599
X-17.075 Y32.699
X-17.192 Y32.793
X-17.314 Y32.88
X-17.44 Y32.962
X-17.57 Y33.037
X-17.703 Y33.106
X-17.84 Y33.167
X-17.979 Y33.222
X-18.121 Y33.271
X-18.266 Y33.312
X-18.412 Y33.345
X-18.559 Y33.372
X-18.708 Y33.391
X-18.858 Y33.403
X-19.008 Y33.408
X-19.158 Y33.405
X-19.307 Y33.394
X-19.456 Y33.377
X-19.604 Y33.352
X-19.751 Y33.32
X-19.895 Y33.281
X-20.038 Y33.235
X-20.179 Y33.182
X-20.316 Y33.122
X-20.451 Y33.056
X-20.582 Y32.983
X-20.71 Y32.904
X-20.833 Y32.819
X-20.953 Y32.729
X-21.067 Y32.632
X-21.177 Y32.53
X-21.282 Y32.423
X-21.382 Y32.31
X-21.476 Y32.193
X-21.564 Y32.072
X-21.646 Y31.947
X-21.722 Y31.818
X-21.792 Y31.685
X-21.856 Y31.549
X-21.913 Y31.41
X-21.963 Y31.269
X-22.007 Y31.125
X-22.043 Y30.98
X-22.072 Y30.833
X-22.094 Y30.684
X-22.109 Y30.535
X-22.117 Y30.385
Y30.235
X-22.11 Y30.085
X-22.097 Y29.936
X-22.076 Y29.788
X-22.047 Y29.64
X-22.012 Y29.494
X-21.97 Y29.35
X-21.921 Y29.209
X-21.866 Y29.069
X-21.803 Y28.933
X-21.734 Y28.8
X-21.659 Y28.67
X-21.578 Y28.544
X-21.49 Y28.422
X-21.397 Y28.305
X-21.298 Y28.192
X-21.194 Y28.084
X-21.085 Y27.981
X-20.971 Y27.883
X-20.853 Y27.791
X-20.73 Y27.705
X-20.604 Y27.624
X-20.473 Y27.55
X-20.339 Y27.482
X-20.202 Y27.421
X-20.063 Y27.366
X-19.921 Y27.319
X-19.776 Y27.278
X-19.63 Y27.244
X-19.482 Y27.218
X-19.334 Y27.198
X-19.184 Y27.185
X-19.034 Y27.18
X-18.884 Y27.182
X-18.735 Y27.191
X-18.585 Y27.207
X-18.437 Y27.23
X-18.29 Y27.261
X-18.145 Y27.298
X-18.002 Y27.343
X-17.861 Y27.394
X-17.723 Y27.452
X-17.587 Y27.516
X-17.455 Y27.587
X-17.326 Y27.664
X-17.201 Y27.747
X-17.08 Y27.836
X-16.963 Y27.93
X-16.851 Y28.029
X-16.743 Y28.134
X-16.641 Y28.243
X-16.543 Y28.357
X-16.451 Y28.475
X-16.364 Y28.598
X-16.283 Y28.724
X-16.208 Y28.854
X-16.139 Y28.987
X-16.076 Y29.123
X-16.019 Y29.262
X-15.969 Y29.403
X-15.925 Y29.547
X-15.888 Y29.692
X-15.857 Y29.839
X-15.833 Y29.987
X-15.816 Y30.136
X-15.806 Y30.286
X-15.803 Y30.435
X-15.807 Y30.585
X-15.817 Y30.735
X-15.835 Y30.884
X-15.86 Y31.032
X-15.892 Y31.179
X-15.93 Y31.323
X-15.976 Y31.466
X-16.028 Y31.607
X-16.086 Y31.745
X-16.151 Y31.88
X-16.223 Y32.012
X-16.3 Y32.141
X-16.383 Y32.266
X-16.472 Y32.386
X-16.567 Y32.503
X-16.667 Y32.614
X-16.772 Y32.721
X-16.883 Y32.823
X-16.997 Y32.919
X-17.117 Y33.01
X-17.24 Y33.096
X-17.367 Y33.175
X-17.498 Y33.248
X-17.632 Y33.316
X-17.769 Y33.377
X-17.909 Y33.431
X-18.051 Y33.479
X-18.195 Y33.521
X-18.341 Y33.556
X-18.488 Y33.584
X-18.637 Y33.605
X-18.786 Y33.62
X-18.936 Y33.627
X-19.086 Y33.628
X-19.236 Y33.622
X-19.385 Y33.608
X-19.534 Y33.589
X-19.682 Y33.562
X-19.828 Y33.528
X-19.972 Y33.489
X-20.115 Y33.442
X-20.256 Y33.389
X-20.393 Y33.33
X-20.529 Y33.265
X-20.661 Y33.194
X-20.789 Y33.117
X-20.914 Y33.034
X-21.035 Y32.945
X-21.152 Y32.852
X-21.265 Y32.752
X-21.373 Y32.648
X-21.476 Y32.539
X-21.574 Y32.426
X-21.667 Y32.308
X-21.755 Y32.186
X-21.837 Y32.061
X-21.913 Y31.932
X-21.983 Y31.799
X-22.048 Y31.664
X-22.106 Y31.526
X-22.159 Y31.385
X-22.204 Y31.242
X-22.244 Y31.097
X-22.276 Y30.951
X-22.302 Y30.803
X-22.321 Y30.655
X-22.334 Y30.505
X-22.339 Y30.355
Y30.205
X-22.331 Y30.055
X-22.317 Y29.906
X-22.296 Y29.757
X-22.268 Y29.61
X-22.234 Y29.464
X-22.194 Y29.32
X-22.146 Y29.177
X-22.093 Y29.037
X-22.033 Y28.899
X-21.967 Y28.765
X-21.896 Y28.633
X-21.818 Y28.505
X-21.734 Y28.38
X-21.645 Y28.259
X-21.551 Y28.143
X-21.452 Y28.03
X-21.347 Y27.923
X-21.238 Y27.82
X-21.125 Y27.721
X-21.007 Y27.629
X-20.885 Y27.541
X-20.76 Y27.459
X-20.63 Y27.383
X-20.498 Y27.312
X-20.362 Y27.248
X-20.224 Y27.19
X-20.083 Y27.138
X-19.94 Y27.093
X-19.795 Y27.054
X-19.649 Y27.022
X-19.501 Y26.996
X-19.352 Y26.977
X-19.203 Y26.964
X-19.053 Y26.958
X-18.903 Y26.959
X-18.753 Y26.966
X-18.604 Y26.981
X-18.455 Y27.002
X-18.308 Y27.029
X-18.162 Y27.063
X-18.018 Y27.104
X-17.875 Y27.151
X-17.735 Y27.205
X-17.597 Y27.264
X-17.463 Y27.33
X-17.331 Y27.402
X-17.202 Y27.479
X-17.077 Y27.562
X-16.956 Y27.65
X-16.838 Y27.743
X-16.725 Y27.841
X-16.616 Y27.944
X-16.511 Y28.052
X-16.412 Y28.164
X-16.317 Y28.28
X-16.227 Y28.401
X-16.143 Y28.525
X-16.064 Y28.652
X-15.991 Y28.783
X-15.96 Y28.845
X-15.932 Y28.909
X-15.843 Y29.124
X-15.824 Y29.168
X-15.812 Y29.199
X-15.761 Y29.34
X-15.745 Y29.389
X-15.723 Y29.468
X-15.705 Y29.548
X-15.692 Y29.629
G3 X-16.315 Y29.745 I-0.317 J0.03
G1 X-16.407 Y29.416
G3 X-15.812 Y29.199 I0.306 J-0.086
G1 X-15.756 Y29.333
X-15.724 Y29.416
X-15.701 Y29.561
X-15.624 Y30.145
X-15.61 Y30.252
X-15.608 Y30.291
X-15.61 Y30.348
X-15.699 Y31.02
X-15.719 Y31.166
X-15.756 Y31.267
X-16.048 Y31.971
X-16.067 Y32.006
X-16.092 Y32.042
X-16.54 Y32.625
X-16.58 Y32.676
X-16.632 Y32.727
X-17.26 Y33.209
X-17.311 Y33.242
X-17.361 Y33.266
X-18.091 Y33.568
X-18.127 Y33.579
X-18.164 Y33.586
X-18.966 Y33.692
X-19.003 Y33.693
X-19.039 Y33.691
X-19.842 Y33.585
X-19.879 Y33.577
X-19.915 Y33.566
X-20.645 Y33.263
X-20.681 Y33.247
X-20.718 Y33.225
X-20.74 Y33.209
X-21.311 Y32.771
X-21.379 Y32.718
X-21.417 Y32.68
X-21.46 Y32.625
X-21.908 Y32.042
X-21.934 Y32.005
X-21.953 Y31.969
X-22.225 Y31.312
X-22.281 Y31.166
X-22.301 Y31.02
X-22.378 Y30.437
X-22.392 Y30.291
X-22.376 Y30.145
X-22.299 Y29.561
X-22.276 Y29.416
X-22.218 Y29.27
X-21.976 Y28.686
X-21.944 Y28.613
X-21.921 Y28.577
X-21.446 Y27.956
X-21.414 Y27.917
X-21.374 Y27.878
X-21.287 Y27.811
X-20.716 Y27.373
X-20.68 Y27.352
X-20.644 Y27.336
X-19.915 Y27.034
X-19.879 Y27.023
X-19.842 Y27.015
X-19.039 Y26.909
X-19.003 Y26.907
X-18.966 Y26.908
X-18.164 Y27.014
X-18.127 Y27.021
X-18.091 Y27.032
X-17.361 Y27.334
X-17.286 Y27.373
X-17.215 Y27.425
X-16.632 Y27.873
X-16.587 Y27.915
X-16.554 Y27.956
X-16.106 Y28.54
X-16.073 Y28.585
X-16.048 Y28.629
X-15.932 Y28.909
G3 X-16.089 Y29.305 I-0.298 J0.111
G1 X-16.137 Y29.316 Z-3.746
X-16.185 Y29.327 Z-3.734
X-16.23 Y29.338 Z-3.715
X-16.281 Y29.325 Z-3.68
X-16.324 Y29.314 Z-3.635
X-16.358 Y29.305 Z-3.583
X-16.381 Y29.299 Z-3.525
X-16.39 Y29.294 Z-3.479
X-16.393 Y29.293 Z-3.432
G0 Z5
X-19.444 Y28.856
Z-1.25
G3 X-18.556 Y31.744 Z-1.416 I0.444 J1.444 F283.3
X-19.444 Y28.856 Z-1.581 I-0.444 J-1.444
X-18.556 Y31.744 Z-1.747 I0.444 J1.444
X-19.444 Y28.856 Z-1.913 I-0.444 J-1.444
X-18.556 Y31.744 Z-2.079 I0.444 J1.444
X-19.444 Y28.856 Z-2.244 I-0.444 J-1.444
X-18.556 Y31.744 Z-2.41 I0.444 J1.444
X-19.444 Y28.856 Z-2.576 I-0.444 J-1.444
X-18.556 Y31.744 Z-2.741 I0.444 J1.444
X-19.444 Y28.856 Z-2.907 I-0.444 J-1.444
X-18.556 Y31.744 Z-3.073 I0.444 J1.444
X-19.444 Y28.856 Z-3.239 I-0.444 J-1.444
X-18.556 Y31.744 Z-3.404 I0.444 J1.444
X-19.444 Y28.856 Z-3.57 I-0.444 J-1.444
X-18.556 Y31.744 Z-3.736 I0.444 J1.444
X-19.444 Y28.856 Z-3.901 I-0.444 J-1.444
X-17.49 Y30.3 Z-4 I0.444 J1.444
X-20.511 I-1.51
X-17.49 I1.51
G1 X-17.48 Y30.683 F850
Y30.833
X-17.512 Y30.98
X-17.566 Y31.12
X-17.636 Y31.252
X-17.721 Y31.376
X-17.818 Y31.49
X-17.927 Y31.594
X-18.044 Y31.687
X-18.17 Y31.768
X-18.303 Y31.838
X-18.442 Y31.894
X-18.586 Y31.938
X-18.733 Y31.969
X-18.881 Y31.987
X-19.031 Y31.991
X-19.181 Y31.982
X-19.329 Y31.959
X-19.475 Y31.924
X-19.617 Y31.875
X-19.754 Y31.815
X-19.885 Y31.742
X-20.01 Y31.658
X-20.126 Y31.563
X-20.233 Y31.458
X-20.331 Y31.345
X-20.419 Y31.223
X-20.495 Y31.093
X-20.559 Y30.958
X-20.611 Y30.817
X-20.651 Y30.673
X-20.677 Y30.525
X-20.691 Y30.376
Y30.226
X-20.677 Y30.076
X-20.651 Y29.929
X-20.612 Y29.784
X-20.559 Y29.643
X-20.495 Y29.508
X-20.419 Y29.378
X-20.332 Y29.256
X-20.234 Y29.142
X-20.127 Y29.038
X-20.011 Y28.943
X-19.886 Y28.859
X-19.755 Y28.786
X-19.618 Y28.725
X-19.476 Y28.676
X-19.331 Y28.641
X-19.182 Y28.618
X-19.033 Y28.608
X-18.883 Y28.612
X-18.734 Y28.629
X-18.587 Y28.659
X-18.443 Y28.702
X-18.304 Y28.758
X-18.17 Y28.826
X-18.043 Y28.905
X-17.923 Y28.995
X-17.812 Y29.096
X-17.71 Y29.206
X-17.618 Y29.324
X-17.537 Y29.451
X-17.467 Y29.584
X-17.41 Y29.722
X-17.365 Y29.865
X-17.33 Y30.011
X-17.302 Y30.159
X-17.281 Y30.307
X-17.268 Y30.456
X-17.267 Y30.606
X-17.281 Y30.756
X-17.308 Y30.903
X-17.35 Y31.047
X-17.405 Y31.187
X-17.474 Y31.32
X-17.555 Y31.447
X-17.647 Y31.565
X-17.749 Y31.674
X-17.861 Y31.774
X-17.982 Y31.864
X-18.109 Y31.943
X-18.243 Y32.011
X-18.382 Y32.068
X-18.525 Y32.113
X-18.671 Y32.146
X-18.819 Y32.167
X-18.969 Y32.177
X-19.119 Y32.174
X-19.268 Y32.159
X-19.416 Y32.132
X-19.561 Y32.093
X-19.702 Y32.043
X-19.839 Y31.981
X-19.97 Y31.909
X-20.096 Y31.827
X-20.214 Y31.734
X-20.325 Y31.633
X-20.427 Y31.524
X-20.52 Y31.406
X-20.604 Y31.281
X-20.677 Y31.15
X-20.739 Y31.014
X-20.79 Y30.873
X-20.83 Y30.728
X-20.858 Y30.581
X-20.875 Y30.432
X-20.88 Y30.282
X-20.872 Y30.132
X-20.853 Y29.983
X-20.822 Y29.837
X-20.779 Y29.693
X-20.725 Y29.553
X-20.66 Y29.418
X-20.584 Y29.289
X-20.498 Y29.165
X-20.403 Y29.049
X-20.299 Y28.941
X-20.187 Y28.842
X-20.067 Y28.752
X-19.94 Y28.672
X-19.807 Y28.602
X-19.669 Y28.543
X-19.527 Y28.496
X-19.381 Y28.46
X-19.233 Y28.435
X-19.084 Y28.423
X-18.934 Y28.422
X-18.784 Y28.433
X-18.636 Y28.456
X-18.49 Y28.491
X-18.347 Y28.537
X-18.209 Y28.595
X-18.076 Y28.664
X-17.948 Y28.743
X-17.827 Y28.832
X-17.714 Y28.93
X-17.609 Y29.037
X-17.512 Y29.152
X-17.425 Y29.274
X-17.348 Y29.403
X-17.281 Y29.537
X-17.224 Y29.675
X-17.175 Y29.817
X-17.134 Y29.962
X-17.102 Y30.108
X-17.081 Y30.257
X-17.07 Y30.406
X-17.069 Y30.556
X-17.08 Y30.706
X-17.103 Y30.854
X-17.138 Y31
X-17.185 Y31.142
X-17.244 Y31.28
X-17.314 Y31.413
X-17.394 Y31.54
X-17.484 Y31.659
X-17.584 Y31.772
X-17.692 Y31.875
X-17.808 Y31.971
X-17.931 Y32.056
X-18.061 Y32.132
X-18.196 Y32.198
X-18.335 Y32.253
X-18.478 Y32.298
X-18.624 Y32.332
X-18.773 Y32.355
X-18.922 Y32.367
X-19.072 Y32.368
X-19.222 Y32.358
X-19.37 Y32.338
X-19.517 Y32.306
X-19.661 Y32.264
X-19.801 Y32.211
X-19.937 Y32.148
X-20.069 Y32.076
X-20.194 Y31.994
X-20.314 Y31.903
X-20.426 Y31.804
X-20.532 Y31.697
X-20.629 Y31.583
X-20.717 Y31.462
X-20.797 Y31.334
X-20.867 Y31.202
X-20.927 Y31.065
X-20.977 Y30.923
X-21.017 Y30.778
X-21.046 Y30.631
X-21.065 Y30.483
X-21.073 Y30.333
X-21.07 Y30.183
X-21.056 Y30.033
X-21.032 Y29.885
X-20.997 Y29.74
X-20.951 Y29.597
X-20.895 Y29.458
X-20.829 Y29.323
X-20.753 Y29.193
X-20.668 Y29.07
X-20.575 Y28.952
X-20.473 Y28.842
X-20.364 Y28.739
X-20.248 Y28.644
X-20.125 Y28.558
X-19.996 Y28.481
X-19.862 Y28.414
X-19.723 Y28.357
X-19.581 Y28.31
X-19.436 Y28.273
X-19.288 Y28.247
X-19.139 Y28.232
X-18.989 Y28.227
X-18.839 Y28.233
X-18.69 Y28.25
X-18.542 Y28.278
X-18.397 Y28.316
X-18.255 Y28.365
X-18.118 Y28.424
X-17.984 Y28.493
X-17.856 Y28.571
X-17.735 Y28.658
X-17.619 Y28.754
X-17.511 Y28.858
X-17.41 Y28.969
X-17.318 Y29.088
X-17.234 Y29.212
X-17.158 Y29.341
X-17.091 Y29.475
X-17.031 Y29.613
X-16.981 Y29.754
X-16.939 Y29.898
X-16.907 Y30.045
X-16.884 Y30.193
X-16.871 Y30.343
X-16.868 Y30.493
X-16.875 Y30.642
X-16.892 Y30.791
X-16.921 Y30.939
X-16.96 Y31.084
X-17.009 Y31.225
X-17.069 Y31.363
X-17.138 Y31.496
X-17.217 Y31.623
X-17.305 Y31.745
X-17.402 Y31.859
X-17.506 Y31.967
X-17.618 Y32.067
X-17.736 Y32.159
X-17.861 Y32.242
X-17.992 Y32.317
X-18.127 Y32.382
X-18.266 Y32.437
X-18.409 Y32.483
X-18.555 Y32.519
X-18.702 Y32.545
X-18.852 Y32.561
X-19.001 Y32.567
X-19.151 Y32.563
X-19.301 Y32.549
X-19.449 Y32.525
X-19.595 Y32.491
X-19.738 Y32.448
X-19.879 Y32.394
X-20.015 Y32.332
X-20.147 Y32.261
X-20.274 Y32.181
X-20.395 Y32.092
X-20.511 Y31.997
X-20.62 Y31.893
X-20.721 Y31.783
X-20.816 Y31.667
X-20.902 Y31.544
X-20.98 Y31.416
X-21.049 Y31.283
X-21.11 Y31.146
X-21.161 Y31.004
X-21.202 Y30.86
X-21.234 Y30.714
X-21.257 Y30.566
X-21.269 Y30.416
X-21.272 Y30.266
X-21.265 Y30.116
X-21.249 Y29.967
X-21.222 Y29.82
X-21.185 Y29.674
X-21.139 Y29.531
X-21.084 Y29.392
X-21.019 Y29.257
X-20.946 Y29.126
X-20.864 Y29
X-20.774 Y28.88
X-20.677 Y28.766
X-20.572 Y28.659
X-20.46 Y28.558
X-20.342 Y28.466
X-20.218 Y28.381
X-20.089 Y28.305
X-19.955 Y28.238
X-19.817 Y28.179
X-19.675 Y28.13
X-19.531 Y28.091
X-19.384 Y28.06
X-19.235 Y28.04
X-19.085 Y28.029
X-18.935 Y28.028
X-18.786 Y28.037
X-18.637 Y28.056
X-18.49 Y28.085
X-18.345 Y28.124
X-18.203 Y28.172
X-18.064 Y28.229
X-17.93 Y28.296
X-17.8 Y28.371
X-17.675 Y28.454
X-17.556 Y28.546
X-17.443 Y28.644
X-17.337 Y28.75
X-17.238 Y28.863
X-17.146 Y28.981
X-17.061 Y29.105
X-16.984 Y29.234
X-16.915 Y29.367
X-16.853 Y29.504
X-16.8 Y29.644
X-16.756 Y29.787
X-16.72 Y29.933
X-16.692 Y30.08
X-16.674 Y30.229
X-16.664 Y30.379
Y30.529
X-16.674 Y30.678
X-16.693 Y30.827
X-16.722 Y30.974
X-16.761 Y31.119
X-16.809 Y31.261
X-16.866 Y31.4
X-16.932 Y31.535
X-17.007 Y31.665
X-17.09 Y31.79
X-17.181 Y31.909
X-17.279 Y32.022
X-17.385 Y32.129
X-17.497 Y32.228
X-17.616 Y32.32
X-17.74 Y32.404
X-17.87 Y32.479
X-18.004 Y32.547
X-18.142 Y32.606
X-18.283 Y32.656
X-18.427 Y32.697
X-18.574 Y32.729
X-18.722 Y32.752
X-18.871 Y32.766
X-19.021 Y32.77
X-19.171 Y32.766
X-19.321 Y32.752
X-19.469 Y32.729
X-19.615 Y32.696
X-19.76 Y32.655
X-19.901 Y32.605
X-20.039 Y32.546
X-20.173 Y32.479
X-20.303 Y32.405
X-20.428 Y32.322
X-20.549 Y32.232
X-20.663 Y32.135
X-20.771 Y32.031
X-20.873 Y31.921
X-20.968 Y31.805
X-21.055 Y31.683
X-21.135 Y31.556
X-21.207 Y31.425
X-21.271 Y31.289
X-21.327 Y31.15
X-21.374 Y31.007
X-21.412 Y30.862
X-21.442 Y30.715
X-21.463 Y30.567
X-21.475 Y30.417
X-21.478 Y30.267
X-21.471 Y30.117
X-21.456 Y29.968
X-21.431 Y29.82
X-21.397 Y29.674
X-21.355 Y29.53
X-21.304 Y29.389
X-21.244 Y29.251
X-21.177 Y29.117
X-21.101 Y28.988
X-21.018 Y28.863
X-20.927 Y28.743
X-20.83 Y28.629
X-20.726 Y28.522
X-20.615 Y28.421
X-20.498 Y28.326
X-20.376 Y28.239
X-20.248 Y28.16
X-20.117 Y28.089
X-19.981 Y28.025
X-19.841 Y27.97
X-19.699 Y27.923
X-19.553 Y27.885
X-19.406 Y27.856
X-19.258 Y27.836
X-19.108 Y27.825
X-18.958 Y27.823
X-18.808 Y27.83
X-18.659 Y27.846
X-18.511 Y27.871
X-18.365 Y27.906
X-18.222 Y27.948
X-18.081 Y28
X-17.943 Y28.06
X-17.809 Y28.128
X-17.68 Y28.204
X-17.555 Y28.287
X-17.436 Y28.378
X-17.322 Y28.476
X-17.214 Y28.58
X-17.113 Y28.69
X-17.018 Y28.806
X-16.929 Y28.928
X-16.848 Y29.053
X-16.773 Y29.184
X-16.706 Y29.318
X-16.647 Y29.456
X-16.595 Y29.596
X-16.551 Y29.74
X-16.515 Y29.885
X-16.487 Y30.033
X-16.467 Y30.181
X-16.457 Y30.331
X-16.455 Y30.481
X-16.462 Y30.631
X-16.477 Y30.78
X-16.501 Y30.928
X-16.534 Y31.074
X-16.576 Y31.218
X-16.626 Y31.36
X-16.684 Y31.498
X-16.751 Y31.633
X-16.825 Y31.763
X-16.907 Y31.888
X-16.997 Y32.009
X-17.093 Y32.123
X-17.197 Y32.232
X-17.306 Y32.335
X-17.422 Y32.431
X-17.542 Y32.519
X-17.668 Y32.601
X-17.799 Y32.675
X-17.933 Y32.742
X-18.071 Y32.8
X-18.212 Y32.851
X-18.356 Y32.893
X-18.502 Y32.927
X-18.65 Y32.952
X-18.799 Y32.969
X-18.949 Y32.978
X-19.099 Y32.977
X-19.249 Y32.969
X-19.398 Y32.951
X-19.546 Y32.926
X-19.692 Y32.892
X-19.836 Y32.85
X-19.977 Y32.799
X-20.115 Y32.741
X-20.25 Y32.676
X-20.381 Y32.603
X-20.508 Y32.522
X-20.63 Y32.435
X-20.746 Y32.34
X-20.858 Y32.24
X-20.963 Y32.133
X-21.063 Y32.021
X-21.156 Y31.903
X-21.242 Y31.78
X-21.321 Y31.653
X-21.393 Y31.522
X-21.458 Y31.386
X-21.514 Y31.247
X-21.563 Y31.106
X-21.604 Y30.961
X-21.637 Y30.815
X-21.662 Y30.667
X-21.678 Y30.518
X-21.686 Y30.368
Y30.218
X-21.677 Y30.068
X-21.66 Y29.919
X-21.635 Y29.771
X-21.601 Y29.625
X-21.559 Y29.481
X-21.51 Y29.34
X-21.452 Y29.201
X-21.387 Y29.066
X-21.314 Y28.935
X-21.235 Y28.808
X-21.148 Y28.685
X-21.054 Y28.568
X-20.955 Y28.456
X-20.849 Y28.35
X-20.737 Y28.25
X-20.62 Y28.156
X-20.498 Y28.069
X-20.371 Y27.989
X-20.24 Y27.916
X-20.105 Y27.851
X-19.966 Y27.793
X-19.825 Y27.743
X-19.681 Y27.701
X-19.535 Y27.667
X-19.387 Y27.641
X-19.238 Y27.624
X-19.088 Y27.614
X-18.938
X-18.789 Y27.621
X-18.639 Y27.637
X-18.491 Y27.661
X-18.345 Y27.694
X-18.201 Y27.735
X-18.059 Y27.783
X-17.92 Y27.84
X-17.784 Y27.904
X-17.652 Y27.975
X-17.525 Y28.054
X-17.401 Y28.14
X-17.283 Y28.232
X-17.17 Y28.33
X-17.062 Y28.434
X-16.959 Y28.544
X-16.863 Y28.659
X-16.773 Y28.779
X-16.69 Y28.904
X-16.613 Y29.032
X-16.543 Y29.165
X-16.479 Y29.301
X-16.423 Y29.44
X-16.374 Y29.582
X-16.333 Y29.726
X-16.299 Y29.872
X-16.273 Y30.02
X-16.255 Y30.169
X-16.244 Y30.318
X-16.242 Y30.468
X-16.248 Y30.618
X-16.262 Y30.768
X-16.284 Y30.916
X-16.314 Y31.063
X-16.352 Y31.208
X-16.398 Y31.351
X-16.451 Y31.491
X-16.512 Y31.628
X-16.581 Y31.761
X-16.657 Y31.891
X-16.74 Y32.016
X-16.829 Y32.136
X-16.925 Y32.251
X-17.027 Y32.361
X-17.136 Y32.465
X-17.249 Y32.563
X-17.368 Y32.655
X-17.492 Y32.74
X-17.62 Y32.818
X-17.752 Y32.889
X-17.887 Y32.953
X-18.026 Y33.01
X-18.168 Y33.059
X-18.312 Y33.101
X-18.458 Y33.134
X-18.606 Y33.161
X-18.755 Y33.179
X-18.904 Y33.189
X-19.054 Y33.191
X-19.204 Y33.186
X-19.354 Y33.172
X-19.502 Y33.151
X-19.649 Y33.121
X-19.795 Y33.085
X-19.938 Y33.04
X-20.079 Y32.989
X-20.217 Y32.93
X-20.351 Y32.864
X-20.483 Y32.791
X-20.61 Y32.711
X-20.732 Y32.625
X-20.85 Y32.533
X-20.964 Y32.434
X-21.071 Y32.33
X-21.174 Y32.22
X-21.27 Y32.105
X-21.36 Y31.985
X-21.444 Y31.861
X-21.522 Y31.733
X-21.593 Y31.6
X-21.657 Y31.465
X-21.713 Y31.326
X-21.763 Y31.184
X-21.805 Y31.04
X-21.84 Y30.894
X-21.867 Y30.747
X-21.886 Y30.598
X-21.897 Y30.449
X-21.901 Y30.299
X-21.897 Y30.149
X-21.885 Y29.999
X-21.866 Y29.85
X-21.839 Y29.703
X-21.804 Y29.557
X-21.762 Y29.413
X-21.713 Y29.271
X-21.656 Y29.132
X-21.592 Y28.997
X-21.522 Y28.864
X-21.444 Y28.736
X-21.36 Y28.612
X-21.269 Y28.492
X-21.173 Y28.377
X-21.07 Y28.268
X-20.963 Y28.163
X-20.85 Y28.065
X-20.732 Y27.972
X-20.609 Y27.886
X-20.482 Y27.806
X-20.351 Y27.732
X-20.217 Y27.666
X-20.079 Y27.607
X-19.938 Y27.554
X-19.795 Y27.51
X-19.65 Y27.472
X-19.503 Y27.443
X-19.354 Y27.421
X-19.205 Y27.406
X-19.055 Y27.4
X-18.905 Y27.401
X-18.756 Y27.409
X-18.606 Y27.426
X-18.458 Y27.45
X-18.312 Y27.481
X-18.167 Y27.521
X-18.025 Y27.567
X-17.885 Y27.622
X-17.748 Y27.683
X-17.614 Y27.751
X-17.484 Y27.826
X-17.358 Y27.907
X-17.236 Y27.995
X-17.119 Y28.088
X-17.006 Y28.187
X-16.899 Y28.292
X-16.797 Y28.402
X-16.7 Y28.516
X-16.609 Y28.636
X-16.524 Y28.759
X-16.445 Y28.887
X-16.373 Y29.018
X-16.307 Y29.153
X-16.247 Y29.291
X-16.195 Y29.431
X-16.149 Y29.574
X-16.11 Y29.719
X-16.079 Y29.866
X-16.054 Y30.014
X-16.037 Y30.163
X-16.027 Y30.312
X-16.025 Y30.462
X-16.03 Y30.612
X-16.043 Y30.762
X-16.063 Y30.91
X-16.091 Y31.058
X-16.126 Y31.203
X-16.169 Y31.347
X-16.219 Y31.489
X-16.275 Y31.628
X-16.339 Y31.763
X-16.41 Y31.896
X-16.487 Y32.024
X-16.57 Y32.149
X-16.66 Y32.269
X-16.756 Y32.385
X-16.857 Y32.495
X-16.964 Y32.6
X-17.077 Y32.7
X-17.194 Y32.794
X-17.315 Y32.881
X-17.441 Y32.963
X-17.571 Y33.038
X-17.705 Y33.106
X-17.841 Y33.168
X-17.981 Y33.223
X-18.123 Y33.271
X-18.267 Y33.312
X-18.413 Y33.346
X-18.561 Y33.373
X-18.71 Y33.392
X-18.859 Y33.404
X-19.009 Y33.408
X-19.159 Y33.405
X-19.309 Y33.395
X-19.458 Y33.378
X-19.606 Y33.353
X-19.752 Y33.321
X-19.897 Y33.281
X-20.04 Y33.235
X-20.18 Y33.182
X-20.318 Y33.123
X-20.452 Y33.057
X-20.584 Y32.984
X-20.711 Y32.905
X-20.835 Y32.82
X-20.954 Y32.729
X-21.069 Y32.633
X-21.179 Y32.531
X-21.284 Y32.423
X-21.383 Y32.311
X-21.477 Y32.194
X-21.565 Y32.073
X-21.648 Y31.948
X-21.724 Y31.818
X-21.794 Y31.686
X-21.857 Y31.55
X-21.914 Y31.411
X-21.965 Y31.27
X-22.008 Y31.126
X-22.044 Y30.981
X-22.074 Y30.834
X-22.096 Y30.685
X-22.111 Y30.536
X-22.118 Y30.386
X-22.119 Y30.236
X-22.112 Y30.086
X-22.098 Y29.937
X-22.077 Y29.788
X-22.049 Y29.641
X-22.014 Y29.495
X-21.972 Y29.351
X-21.923 Y29.209
X-21.867 Y29.07
X-21.805 Y28.934
X-21.736 Y28.8
X-21.661 Y28.671
X-21.579 Y28.545
X-21.492 Y28.423
X-21.399 Y28.305
X-21.3 Y28.192
X-21.196 Y28.084
X-21.087 Y27.981
X-20.973 Y27.884
X-20.854 Y27.792
X-20.732 Y27.705
X-20.605 Y27.625
X-20.475 Y27.551
X-20.341 Y27.483
X-20.204 Y27.422
X-20.064 Y27.367
X-19.922 Y27.32
X-19.778 Y27.279
X-19.632 Y27.245
X-19.484 Y27.218
X-19.335 Y27.199
X-19.186 Y27.186
X-19.036 Y27.181
X-18.886 Y27.183
X-18.736 Y27.192
X-18.587 Y27.208
X-18.439 Y27.231
X-18.292 Y27.262
X-18.147 Y27.299
X-18.003 Y27.343
X-17.862 Y27.395
X-17.724 Y27.453
X-17.589 Y27.517
X-17.456 Y27.588
X-17.328 Y27.665
X-17.203 Y27.748
X-17.082 Y27.837
X-16.965 Y27.931
X-16.853 Y28.03
X-16.745 Y28.135
X-16.642 Y28.244
X-16.545 Y28.358
X-16.452 Y28.476
X-16.366 Y28.598
X-16.285 Y28.725
X-16.209 Y28.854
X-16.14 Y28.988
X-16.077 Y29.124
X-16.021 Y29.263
X-15.97 Y29.404
X-15.926 Y29.547
X-15.889 Y29.693
X-15.859 Y29.84
X-15.835 Y29.988
X-15.818 Y30.137
X-15.808 Y30.286
X-15.804 Y30.436
X-15.808 Y30.586
X-15.819 Y30.736
X-15.837 Y30.885
X-15.861 Y31.033
X-15.893 Y31.179
X-15.932 Y31.324
X-15.977 Y31.467
X-16.029 Y31.608
X-16.088 Y31.746
X-16.153 Y31.881
X-16.224 Y32.013
X-16.301 Y32.142
X-16.385 Y32.266
X-16.474 Y32.387
X-16.569 Y32.503
X-16.669 Y32.615
X-16.774 Y32.722
X-16.884 Y32.824
X-16.999 Y32.92
X-17.118 Y33.011
X-17.242 Y33.096
X-17.369 Y33.176
X-17.5 Y33.249
X-17.634 Y33.316
X-17.771 Y33.377
X-17.911 Y33.432
X-18.053 Y33.48
X-18.197 Y33.522
X-18.343 Y33.557
X-18.49 Y33.585
X-18.638 Y33.606
X-18.788 Y33.621
X-18.938 Y33.628
X-19.088 Y33.629
X-19.237 Y33.622
X-19.387 Y33.609
X-19.536 Y33.589
X-19.683 Y33.563
X-19.829 Y33.529
X-19.974 Y33.489
X-20.117 Y33.443
X-20.257 Y33.39
X-20.395 Y33.331
X-20.53 Y33.266
X-20.662 Y33.195
X-20.791 Y33.118
X-20.916 Y33.035
X-21.037 Y32.946
X-21.154 Y32.852
X-21.266 Y32.753
X-21.374 Y32.649
X-21.477 Y32.54
X-21.575 Y32.427
X-21.668 Y32.309
X-21.756 Y32.187
X-21.838 Y32.062
X-21.914 Y31.932
X-21.985 Y31.8
X-22.05 Y31.665
X-22.108 Y31.527
X-22.16 Y31.386
X-22.206 Y31.243
X-22.245 Y31.098
X-22.278 Y30.952
X-22.304 Y30.804
X-22.323 Y30.655
X-22.335 Y30.506
X-22.341 Y30.356
X-22.34 Y30.206
X-22.332 Y30.056
X-22.318 Y29.907
X-22.297 Y29.758
X-22.27 Y29.611
X-22.236 Y29.465
X-22.195 Y29.32
X-22.148 Y29.178
X-22.095 Y29.038
X-22.035 Y28.9
X-21.969 Y28.765
X-21.897 Y28.634
X-21.819 Y28.506
X-21.736 Y28.381
X-21.647 Y28.26
X-21.552 Y28.143
X-21.453 Y28.031
X-21.349 Y27.923
X-21.24 Y27.82
X-21.126 Y27.722
X-21.009 Y27.629
X-20.887 Y27.542
X-20.761 Y27.46
X-20.632 Y27.383
X-20.5 Y27.313
X-20.364 Y27.249
X-20.226 Y27.191
X-20.085 Y27.139
X-19.942 Y27.094
X-19.797 Y27.055
X-19.651 Y27.022
X-19.503 Y26.997
X-19.354 Y26.977
X-19.205 Y26.965
X-19.055 Y26.959
X-18.905 Y26.96
X-18.755 Y26.967
X-18.606 Y26.981
X-18.457 Y27.002
X-18.31 Y27.03
X-18.163 Y27.064
X-18.019 Y27.105
X-17.877 Y27.152
X-17.737 Y27.206
X-17.599 Y27.265
X-17.464 Y27.331
X-17.332 Y27.403
X-17.204 Y27.48
X-17.079 Y27.563
X-16.957 Y27.651
X-16.84 Y27.744
X-16.726 Y27.842
X-16.617 Y27.945
X-16.513 Y28.053
X-16.413 Y28.165
X-16.318 Y28.281
X-16.229 Y28.401
X-16.145 Y28.526
X-16.066 Y28.653
X-15.992 Y28.784
X-15.951 Y28.866
X-15.923 Y28.93
X-15.843 Y29.124
X-15.824 Y29.168
X-15.812 Y29.199
X-15.761 Y29.34
X-15.744 Y29.393
X-15.722 Y29.471
X-15.705 Y29.55
X-15.692 Y29.629
G3 X-16.315 Y29.746 I-0.317 J0.03
G1 X-16.407 Y29.416
G3 X-15.812 Y29.199 I0.306 J-0.086
G1 X-15.756 Y29.333
X-15.724 Y29.416
X-15.701 Y29.561
X-15.624 Y30.145
X-15.61 Y30.252
X-15.608 Y30.291
X-15.61 Y30.348
X-15.699 Y31.02
X-15.719 Y31.166
X-15.756 Y31.267
X-16.048 Y31.971
X-16.067 Y32.006
X-16.092 Y32.042
X-16.54 Y32.625
X-16.58 Y32.676
X-16.632 Y32.727
X-17.26 Y33.209
X-17.311 Y33.242
X-17.361 Y33.266
X-18.091 Y33.568
X-18.127 Y33.579
X-18.164 Y33.586
X-18.966 Y33.692
X-19.003 Y33.693
X-19.039 Y33.691
X-19.842 Y33.585
X-19.879 Y33.577
X-19.915 Y33.566
X-20.645 Y33.263
X-20.681 Y33.247
X-20.718 Y33.225
X-20.74 Y33.209
X-21.311 Y32.771
X-21.379 Y32.718
X-21.417 Y32.68
X-21.46 Y32.625
X-21.908 Y32.042
X-21.934 Y32.005
X-21.953 Y31.969
X-22.225 Y31.312
X-22.281 Y31.166
X-22.301 Y31.02
X-22.378 Y30.437
X-22.392 Y30.291
X-22.376 Y30.145
X-22.299 Y29.561
X-22.276 Y29.416
X-22.218 Y29.27
X-21.976 Y28.686
X-21.944 Y28.613
X-21.921 Y28.577
X-21.446 Y27.956
X-21.414 Y27.917
X-21.374 Y27.878
X-21.287 Y27.811
X-20.716 Y27.373
X-20.68 Y27.352
X-20.644 Y27.336
X-19.915 Y27.034
X-19.879 Y27.023
X-19.842 Y27.015
X-19.039 Y26.909
X-19.003 Y26.907
X-18.966 Y26.908
X-18.164 Y27.014
X-18.127 Y27.021
X-18.091 Y27.032
X-17.361 Y27.334
X-17.286 Y27.373
X-17.215 Y27.425
X-16.632 Y27.873
X-16.587 Y27.915
X-16.554 Y27.956
X-16.106 Y28.54
X-16.073 Y28.585
X-16.048 Y28.629
X-15.923 Y28.93
G3 X-16.08 Y29.326 I-0.298 J0.111
G1 X-16.129 Y29.338 Z-3.996
X-16.176 Y29.349 Z-3.984
X-16.221 Y29.359 Z-3.965
X-16.272 Y29.346 Z-3.93
X-16.315 Y29.335 Z-3.885
X-16.349 Y29.326 Z-3.833
X-16.373 Y29.32 Z-3.775
X-16.382 Y29.315 Z-3.729
X-16.385 Y29.314 Z-3.682
G0 Z5
X0.402 Y28.912
Z2.5
G3 X1.599 Y31.686 Z2.334 I0.598 J1.387 F283.3
X0.402 Y28.912 Z2.169 I-0.598 J-1.387
X1.599 Y31.686 Z2.003 I0.598 J1.387
X0.402 Y28.912 Z1.837 I-0.598 J-1.387
X1.599 Y31.686 Z1.671 I0.598 J1.387
X0.402 Y28.912 Z1.506 I-0.598 J-1.387
X1.599 Y31.686 Z1.34 I0.598 J1.387
X0.402 Y28.912 Z1.174 I-0.598 J-1.387
X1.599 Y31.686 Z1.009 I0.598 J1.387
X0.402 Y28.912 Z0.843 I-0.598 J-1.387
X1.599 Y31.686 Z0.677 I0.598 J1.387
X0.402 Y28.912 Z0.511 I-0.598 J-1.387
X1.599 Y31.686 Z0.346 I0.598 J1.387
X0.402 Y28.912 Z0.18 I-0.598 J-1.387
X1.599 Y31.686 Z0.014 I0.598 J1.387
X0.402 Y28.912 Z-0.151 I-0.598 J-1.387
X1.599 Y31.686 Z-0.317 I0.598 J1.387
X0.402 Y28.912 Z-0.483 I-0.598 J-1.387
X1.599 Y31.686 Z-0.649 I0.598 J1.387
X0.402 Y28.912 Z-0.814 I-0.598 J-1.387
X1.599 Y31.686 Z-0.98 I0.598 J1.387
X0.402 Y28.912 Z-1.146 I-0.598 J-1.387
X2.511 Y30.299 Z-1.25 I0.598 J1.387
X-0.51 I-1.511
X2.511 I1.511
G1 X2.521 Y30.682 F850
X2.52 Y30.832
X2.488 Y30.979
X2.435 Y31.119
X2.364 Y31.252
X2.28 Y31.375
X2.182 Y31.489
X2.074 Y31.593
X1.956 Y31.686
X1.83 Y31.767
X1.697 Y31.837
X1.558 Y31.894
X1.415 Y31.937
X1.268 Y31.968
X1.119 Y31.986
X0.969 Y31.99
X0.819 Y31.981
X0.671 Y31.958
X0.525 Y31.923
X0.383 Y31.875
X0.246 Y31.814
X0.115 Y31.741
X-0.009 Y31.657
X-0.126 Y31.562
X-0.233 Y31.458
X-0.331 Y31.344
X-0.418 Y31.222
X-0.494 Y31.093
X-0.559 Y30.957
X-0.611 Y30.816
X-0.65 Y30.672
X-0.677 Y30.524
X-0.69 Y30.375
Y30.225
X-0.677 Y30.075
X-0.65 Y29.928
X-0.611 Y29.783
X-0.559 Y29.642
X-0.495 Y29.507
X-0.419 Y29.377
X-0.331 Y29.255
X-0.234 Y29.142
X-0.126 Y29.037
X-0.01 Y28.942
X0.114 Y28.858
X0.245 Y28.785
X0.382 Y28.724
X0.524 Y28.676
X0.67 Y28.64
X0.818 Y28.617
X0.968 Y28.607
X1.118 Y28.611
X1.267 Y28.628
X1.414 Y28.658
X1.557 Y28.701
X1.697 Y28.757
X1.831 Y28.825
X1.958 Y28.904
X2.078 Y28.994
X2.189 Y29.095
X2.291 Y29.205
X2.383 Y29.324
X2.464 Y29.45
X2.533 Y29.583
X2.591 Y29.721
X2.636 Y29.864
X2.67 Y30.01
X2.698 Y30.158
X2.72 Y30.306
X2.733 Y30.456
Y30.606
X2.72 Y30.755
X2.692 Y30.902
X2.651 Y31.047
X2.595 Y31.186
X2.527 Y31.319
X2.446 Y31.446
X2.354 Y31.564
X2.251 Y31.673
X2.139 Y31.773
X2.019 Y31.863
X1.891 Y31.942
X1.758 Y32.01
X1.619 Y32.067
X1.476 Y32.112
X1.33 Y32.145
X1.181 Y32.167
X1.031 Y32.176
X0.881 Y32.173
X0.732 Y32.158
X0.585 Y32.131
X0.44 Y32.093
X0.298 Y32.042
X0.162 Y31.98
X0.03 Y31.908
X-0.095 Y31.826
X-0.213 Y31.734
X-0.324 Y31.632
X-0.426 Y31.523
X-0.52 Y31.405
X-0.603 Y31.28
X-0.676 Y31.149
X-0.738 Y31.013
X-0.79 Y30.872
X-0.829 Y30.727
X-0.858 Y30.58
X-0.874 Y30.431
X-0.879 Y30.281
X-0.872 Y30.131
X-0.853 Y29.982
X-0.822 Y29.836
X-0.779 Y29.692
X-0.724 Y29.552
X-0.659 Y29.417
X-0.583 Y29.288
X-0.498 Y29.165
X-0.402 Y29.049
X-0.298 Y28.941
X-0.186 Y28.841
X-0.066 Y28.751
X0.061 Y28.671
X0.194 Y28.601
X0.332 Y28.543
X0.474 Y28.495
X0.619 Y28.459
X0.767 Y28.435
X0.917 Y28.422
X1.067 Y28.421
X1.217 Y28.432
X1.365 Y28.455
X1.511 Y28.49
X1.653 Y28.536
X1.792 Y28.594
X1.925 Y28.663
X2.052 Y28.742
X2.173 Y28.831
X2.287 Y28.929
X2.392 Y29.036
X2.488 Y29.151
X2.575 Y29.273
X2.652 Y29.402
X2.719 Y29.536
X2.777 Y29.675
X2.826 Y29.816
X2.867 Y29.961
X2.898 Y30.107
X2.92 Y30.256
X2.931 Y30.405
Y30.555
X2.92 Y30.705
X2.897 Y30.853
X2.862 Y30.999
X2.815 Y31.142
X2.757 Y31.28
X2.687 Y31.412
X2.606 Y31.539
X2.516 Y31.659
X2.416 Y31.771
X2.308 Y31.875
X2.192 Y31.97
X2.069 Y32.055
X1.94 Y32.131
X1.805 Y32.197
X1.665 Y32.252
X1.522 Y32.297
X1.376 Y32.331
X1.228 Y32.354
X1.078 Y32.366
X0.928 Y32.367
X0.779 Y32.358
X0.63 Y32.337
X0.484 Y32.305
X0.34 Y32.263
X0.199 Y32.21
X0.063 Y32.147
X-0.068 Y32.075
X-0.194 Y31.993
X-0.313 Y31.902
X-0.426 Y31.803
X-0.531 Y31.696
X-0.628 Y31.582
X-0.717 Y31.461
X-0.797 Y31.334
X-0.867 Y31.201
X-0.927 Y31.064
X-0.977 Y30.922
X-1.017 Y30.778
X-1.046 Y30.631
X-1.064 Y30.482
X-1.072 Y30.332
X-1.069 Y30.182
X-1.056 Y30.033
X-1.031 Y29.885
X-0.996 Y29.739
X-0.95 Y29.596
X-0.894 Y29.457
X-0.828 Y29.322
X-0.753 Y29.193
X-0.668 Y29.069
X-0.574 Y28.951
X-0.473 Y28.841
X-0.364 Y28.738
X-0.247 Y28.643
X-0.125 Y28.557
X0.004 Y28.481
X0.138 Y28.413
X0.277 Y28.356
X0.42 Y28.309
X0.565 Y28.272
X0.713 Y28.246
X0.862 Y28.231
X1.012 Y28.226
X1.162 Y28.232
X1.311 Y28.249
X1.458 Y28.277
X1.603 Y28.315
X1.745 Y28.364
X1.883 Y28.423
X2.016 Y28.492
X2.144 Y28.57
X2.266 Y28.658
X2.381 Y28.753
X2.49 Y28.857
X2.59 Y28.969
X2.683 Y29.087
X2.767 Y29.211
X2.842 Y29.34
X2.91 Y29.474
X2.969 Y29.612
X3.02 Y29.753
X3.061 Y29.898
X3.094 Y30.044
X3.116 Y30.192
X3.13 Y30.342
X3.133 Y30.492
X3.126 Y30.642
X3.108 Y30.791
X3.08 Y30.938
X3.041 Y31.083
X2.991 Y31.224
X2.932 Y31.362
X2.862 Y31.495
X2.783 Y31.622
X2.695 Y31.744
X2.599 Y31.859
X2.494 Y31.966
X2.383 Y32.066
X2.264 Y32.158
X2.139 Y32.242
X2.009 Y32.316
X1.874 Y32.381
X1.734 Y32.436
X1.592 Y32.482
X1.446 Y32.518
X1.298 Y32.544
X1.149 Y32.56
X0.999 Y32.566
X0.849 Y32.562
X0.7 Y32.548
X0.552 Y32.524
X0.406 Y32.49
X0.262 Y32.447
X0.122 Y32.394
X-0.015 Y32.331
X-0.146 Y32.26
X-0.273 Y32.18
X-0.395 Y32.092
X-0.51 Y31.996
X-0.619 Y31.893
X-0.721 Y31.782
X-0.815 Y31.666
X-0.902 Y31.543
X-0.98 Y31.415
X-1.049 Y31.282
X-1.109 Y31.145
X-1.16 Y31.004
X-1.202 Y30.86
X-1.234 Y30.713
X-1.256 Y30.565
X-1.269 Y30.415
X-1.272 Y30.265
X-1.265 Y30.115
X-1.248 Y29.966
X-1.221 Y29.819
X-1.185 Y29.673
X-1.139 Y29.531
X-1.083 Y29.391
X-1.018 Y29.256
X-0.945 Y29.125
X-0.863 Y28.999
X-0.773 Y28.879
X-0.676 Y28.765
X-0.571 Y28.658
X-0.46 Y28.557
X-0.342 Y28.465
X-0.218 Y28.38
X-0.089 Y28.304
X0.045 Y28.237
X0.184 Y28.178
X0.325 Y28.129
X0.47 Y28.09
X0.617 Y28.06
X0.765 Y28.039
X0.915 Y28.028
X1.065 Y28.027
X1.215 Y28.036
X1.364 Y28.055
X1.511 Y28.084
X1.656 Y28.123
X1.798 Y28.171
X1.936 Y28.228
X2.071 Y28.295
X2.201 Y28.37
X2.325 Y28.453
X2.444 Y28.545
X2.557 Y28.644
X2.663 Y28.749
X2.763 Y28.862
X2.855 Y28.98
X2.939 Y29.104
X3.017 Y29.233
X3.086 Y29.366
X3.147 Y29.503
X3.2 Y29.643
X3.245 Y29.786
X3.281 Y29.932
X3.308 Y30.079
X3.327 Y30.228
X3.336 Y30.378
Y30.528
X3.327 Y30.678
X3.307 Y30.826
X3.278 Y30.974
X3.24 Y31.118
X3.192 Y31.261
X3.135 Y31.399
X3.068 Y31.534
X2.994 Y31.664
X2.911 Y31.789
X2.82 Y31.908
X2.721 Y32.021
X2.616 Y32.128
X2.503 Y32.227
X2.385 Y32.319
X2.26 Y32.403
X2.131 Y32.479
X1.997 Y32.546
X1.859 Y32.605
X1.717 Y32.655
X1.573 Y32.696
X1.427 Y32.728
X1.278 Y32.751
X1.129 Y32.765
X0.979 Y32.77
X0.829 Y32.765
X0.68 Y32.751
X0.532 Y32.728
X0.385 Y32.695
X0.241 Y32.654
X0.1 Y32.604
X-0.038 Y32.545
X-0.173 Y32.479
X-0.303 Y32.404
X-0.428 Y32.321
X-0.548 Y32.231
X-0.663 Y32.134
X-0.771 Y32.031
X-0.873 Y31.92
X-0.967 Y31.804
X-1.055 Y31.682
X-1.135 Y31.555
X-1.207 Y31.424
X-1.271 Y31.288
X-1.326 Y31.149
X-1.373 Y31.006
X-1.412 Y30.861
X-1.442 Y30.714
X-1.463 Y30.566
X-1.474 Y30.416
X-1.477 Y30.266
X-1.471 Y30.116
X-1.455 Y29.967
X-1.43 Y29.819
X-1.397 Y29.673
X-1.354 Y29.529
X-1.303 Y29.388
X-1.244 Y29.25
X-1.176 Y29.117
X-1.101 Y28.987
X-1.017 Y28.862
X-0.927 Y28.742
X-0.829 Y28.629
X-0.725 Y28.521
X-0.614 Y28.42
X-0.497 Y28.326
X-0.375 Y28.239
X-0.248 Y28.159
X-0.116 Y28.088
X0.02 Y28.024
X0.159 Y27.969
X0.302 Y27.923
X0.447 Y27.885
X0.594 Y27.855
X0.743 Y27.835
X0.892 Y27.824
X1.042 Y27.822
X1.192 Y27.829
X1.341 Y27.845
X1.489 Y27.871
X1.635 Y27.905
X1.779 Y27.948
X1.92 Y27.999
X2.057 Y28.059
X2.191 Y28.127
X2.32 Y28.203
X2.445 Y28.286
X2.564 Y28.377
X2.678 Y28.475
X2.786 Y28.579
X2.888 Y28.69
X2.983 Y28.806
X3.071 Y28.927
X3.153 Y29.053
X3.227 Y29.183
X3.294 Y29.317
X3.354 Y29.455
X3.406 Y29.595
X3.45 Y29.739
X3.486 Y29.884
X3.514 Y30.032
X3.533 Y30.181
X3.544 Y30.33
X3.546 Y30.48
X3.539 Y30.63
X3.523 Y30.779
X3.499 Y30.927
X3.466 Y31.074
X3.425 Y31.218
X3.375 Y31.359
X3.316 Y31.497
X3.25 Y31.632
X3.175 Y31.762
X3.093 Y31.887
X3.004 Y32.008
X2.907 Y32.123
X2.804 Y32.231
X2.694 Y32.334
X2.579 Y32.43
X2.458 Y32.519
X2.332 Y32.6
X2.202 Y32.674
X2.067 Y32.741
X1.929 Y32.8
X1.788 Y32.85
X1.644 Y32.892
X1.498 Y32.926
X1.35 Y32.952
X1.201 Y32.968
X1.051 Y32.977
X0.901 Y32.976
X0.752 Y32.968
X0.603 Y32.95
X0.455 Y32.925
X0.309 Y32.891
X0.165 Y32.849
X0.023 Y32.799
X-0.115 Y32.741
X-0.25 Y32.675
X-0.381 Y32.602
X-0.507 Y32.521
X-0.629 Y32.434
X-0.746 Y32.34
X-0.857 Y32.239
X-0.963 Y32.132
X-1.062 Y32.02
X-1.155 Y31.902
X-1.241 Y31.78
X-1.321 Y31.652
X-1.393 Y31.521
X-1.457 Y31.385
X-1.514 Y31.246
X-1.563 Y31.105
X-1.604 Y30.96
X-1.637 Y30.814
X-1.661 Y30.666
X-1.678 Y30.517
X-1.686 Y30.367
X-1.685 Y30.217
X-1.677 Y30.067
X-1.66 Y29.918
X-1.634 Y29.771
X-1.601 Y29.624
X-1.559 Y29.48
X-1.509 Y29.339
X-1.452 Y29.2
X-1.387 Y29.065
X-1.314 Y28.934
X-1.234 Y28.807
X-1.147 Y28.684
X-1.054 Y28.567
X-0.954 Y28.455
X-0.848 Y28.349
X-0.736 Y28.249
X-0.619 Y28.155
X-0.497 Y28.068
X-0.37 Y27.988
X-0.239 Y27.915
X-0.104 Y27.85
X0.034 Y27.792
X0.176 Y27.742
X0.32 Y27.7
X0.466 Y27.666
X0.613 Y27.64
X0.762 Y27.623
X0.912 Y27.614
X1.062 Y27.613
X1.212 Y27.62
X1.361 Y27.636
X1.509 Y27.661
X1.656 Y27.693
X1.8 Y27.734
X1.942 Y27.783
X2.081 Y27.839
X2.216 Y27.903
X2.348 Y27.975
X2.476 Y28.053
X2.599 Y28.139
X2.718 Y28.231
X2.831 Y28.329
X2.939 Y28.433
X3.041 Y28.543
X3.137 Y28.658
X3.227 Y28.778
X3.311 Y28.903
X3.388 Y29.032
X3.458 Y29.164
X3.521 Y29.3
X3.577 Y29.439
X3.626 Y29.581
X3.668 Y29.725
X3.701 Y29.871
X3.728 Y30.019
X3.746 Y30.168
X3.756 Y30.318
X3.759 Y30.468
X3.753 Y30.617
X3.739 Y30.767
X3.717 Y30.915
X3.687 Y31.062
X3.649 Y31.207
X3.603 Y31.35
X3.549 Y31.49
X3.488 Y31.627
X3.419 Y31.76
X3.344 Y31.89
X3.261 Y32.015
X3.171 Y32.135
X3.075 Y32.251
X2.973 Y32.36
X2.865 Y32.464
X2.751 Y32.562
X2.632 Y32.654
X2.509 Y32.739
X2.381 Y32.817
X2.249 Y32.888
X2.113 Y32.952
X1.974 Y33.009
X1.833 Y33.058
X1.689 Y33.1
X1.542 Y33.134
X1.395 Y33.16
X1.246 Y33.178
X1.096 Y33.188
X0.946 Y33.19
X0.796 Y33.185
X0.647 Y33.171
X0.498 Y33.15
X0.351 Y33.121
X0.206 Y33.084
X0.063 Y33.039
X-0.078 Y32.988
X-0.216 Y32.929
X-0.351 Y32.863
X-0.482 Y32.79
X-0.609 Y32.71
X-0.732 Y32.624
X-0.85 Y32.532
X-0.963 Y32.433
X-1.071 Y32.329
X-1.173 Y32.219
X-1.27 Y32.104
X-1.36 Y31.984
X-1.444 Y31.86
X-1.521 Y31.732
X-1.592 Y31.6
X-1.656 Y31.464
X-1.713 Y31.325
X-1.763 Y31.183
X-1.805 Y31.04
X-1.839 Y30.894
X-1.866 Y30.746
X-1.885 Y30.597
X-1.897 Y30.448
X-1.901 Y30.298
X-1.897 Y30.148
X-1.885 Y29.998
X-1.865 Y29.85
X-1.838 Y29.702
X-1.804 Y29.556
X-1.762 Y29.412
X-1.712 Y29.27
X-1.656 Y29.132
X-1.592 Y28.996
X-1.521 Y28.864
X-1.443 Y28.735
X-1.359 Y28.611
X-1.269 Y28.491
X-1.172 Y28.377
X-1.07 Y28.267
X-0.962 Y28.163
X-0.849 Y28.064
X-0.731 Y27.971
X-0.608 Y27.885
X-0.482 Y27.805
X-0.351 Y27.732
X-0.216 Y27.665
X-0.078 Y27.606
X0.062 Y27.554
X0.205 Y27.509
X0.351 Y27.472
X0.498 Y27.442
X0.646 Y27.42
X0.795 Y27.405
X0.945 Y27.399
X1.095 Y27.4
X1.245 Y27.408
X1.394 Y27.425
X1.542 Y27.449
X1.689 Y27.481
X1.833 Y27.52
X1.976 Y27.567
X2.116 Y27.621
X2.253 Y27.682
X2.386 Y27.75
X2.516 Y27.825
X2.643 Y27.906
X2.764 Y27.994
X2.882 Y28.087
X2.994 Y28.186
X3.102 Y28.291
X3.204 Y28.401
X3.3 Y28.516
X3.391 Y28.635
X3.476 Y28.759
X3.555 Y28.886
X3.628 Y29.017
X3.694 Y29.152
X3.753 Y29.29
X3.806 Y29.43
X3.851 Y29.573
X3.89 Y29.718
X3.922 Y29.865
X3.946 Y30.013
X3.963 Y30.162
X3.973 Y30.311
X3.975 Y30.461
X3.97 Y30.611
X3.957 Y30.761
X3.937 Y30.909
X3.909 Y31.057
X3.874 Y31.203
X3.832 Y31.346
X3.782 Y31.488
X3.725 Y31.627
X3.661 Y31.763
X3.591 Y31.895
X3.514 Y32.024
X3.43 Y32.148
X3.34 Y32.268
X3.245 Y32.384
X3.143 Y32.494
X3.036 Y32.599
X2.924 Y32.699
X2.807 Y32.793
X2.685 Y32.88
X2.559 Y32.962
X2.429 Y33.037
X2.296 Y33.106
X2.159 Y33.167
X2.02 Y33.222
X1.878 Y33.271
X1.733 Y33.312
X1.587 Y33.345
X1.44 Y33.372
X1.291 Y33.391
X1.141 Y33.403
X0.991 Y33.408
X0.841 Y33.405
X0.692 Y33.394
X0.543 Y33.377
X0.395 Y33.352
X0.248 Y33.32
X0.104 Y33.281
X-0.039 Y33.235
X-0.18 Y33.182
X-0.317 Y33.122
X-0.452 Y33.056
X-0.583 Y32.983
X-0.711 Y32.904
X-0.834 Y32.819
X-0.954 Y32.728
X-1.068 Y32.632
X-1.178 Y32.53
X-1.283 Y32.423
X-1.383 Y32.31
X-1.477 Y32.193
X-1.565 Y32.072
X-1.647 Y31.947
X-1.723 Y31.818
X-1.793 Y31.685
X-1.857 Y31.549
X-1.914 Y31.41
X-1.964 Y31.269
X-2.008 Y31.125
X-2.044 Y30.98
X-2.073 Y30.833
X-2.095 Y30.684
X-2.11 Y30.535
X-2.118 Y30.385
Y30.235
X-2.111 Y30.085
X-2.098 Y29.936
X-2.077 Y29.788
X-2.048 Y29.64
X-2.013 Y29.494
X-1.971 Y29.35
X-1.922 Y29.209
X-1.867 Y29.069
X-1.804 Y28.933
X-1.735 Y28.8
X-1.66 Y28.67
X-1.579 Y28.544
X-1.491 Y28.422
X-1.398 Y28.305
X-1.299 Y28.192
X-1.195 Y28.084
X-1.086 Y27.981
X-0.972 Y27.883
X-0.854 Y27.791
X-0.731 Y27.705
X-0.605 Y27.624
X-0.474 Y27.55
X-0.34 Y27.482
X-0.204 Y27.421
X-0.064 Y27.366
X0.078 Y27.319
X0.223 Y27.278
X0.369 Y27.244
X0.517 Y27.218
X0.665 Y27.198
X0.815 Y27.185
X0.965 Y27.18
X1.115 Y27.182
X1.264 Y27.191
X1.414 Y27.207
X1.562 Y27.23
X1.709 Y27.261
X1.854 Y27.298
X1.997 Y27.343
X2.138 Y27.394
X2.276 Y27.452
X2.412 Y27.516
X2.544 Y27.587
X2.673 Y27.664
X2.798 Y27.747
X2.919 Y27.836
X3.036 Y27.93
X3.148 Y28.029
X3.256 Y28.134
X3.358 Y28.243
X3.456 Y28.357
X3.548 Y28.475
X3.635 Y28.598
X3.716 Y28.724
X3.791 Y28.854
X3.86 Y28.987
X3.923 Y29.123
X3.98 Y29.262
X4.03 Y29.403
X4.074 Y29.547
X4.111 Y29.692
X4.142 Y29.839
X4.166 Y29.987
X4.183 Y30.136
X4.193 Y30.285
X4.196 Y30.435
X4.192 Y30.585
X4.182 Y30.735
X4.164 Y30.884
X4.139 Y31.032
X4.107 Y31.178
X4.069 Y31.323
X4.023 Y31.466
X3.971 Y31.607
X3.913 Y31.745
X3.848 Y31.88
X3.776 Y32.012
X3.699 Y32.141
X3.616 Y32.266
X3.527 Y32.386
X3.432 Y32.503
X3.332 Y32.614
X3.227 Y32.721
X3.116 Y32.823
X3.002 Y32.919
X2.882 Y33.01
X2.759 Y33.096
X2.632 Y33.175
X2.501 Y33.248
X2.367 Y33.316
X2.23 Y33.377
X2.09 Y33.431
X1.948 Y33.479
X1.804 Y33.521
X1.658 Y33.556
X1.511 Y33.584
X1.362 Y33.605
X1.213 Y33.62
X1.063 Y33.627
X0.913 Y33.628
X0.763 Y33.622
X0.614 Y33.608
X0.465 Y33.588
X0.317 Y33.562
X0.171 Y33.528
X0.027 Y33.489
X-0.116 Y33.442
X-0.257 Y33.389
X-0.394 Y33.33
X-0.53 Y33.265
X-0.662 Y33.194
X-0.79 Y33.117
X-0.915 Y33.034
X-1.036 Y32.945
X-1.153 Y32.852
X-1.266 Y32.752
X-1.374 Y32.648
X-1.477 Y32.539
X-1.575 Y32.426
X-1.668 Y32.308
X-1.756 Y32.186
X-1.838 Y32.061
X-1.914 Y31.932
X-1.984 Y31.799
X-2.049 Y31.664
X-2.107 Y31.526
X-2.16 Y31.385
X-2.205 Y31.242
X-2.245 Y31.097
X-2.277 Y30.951
X-2.303 Y30.803
X-2.322 Y30.654
X-2.335 Y30.505
X-2.34 Y30.355
Y30.205
X-2.332 Y30.055
X-2.318 Y29.906
X-2.297 Y29.757
X-2.269 Y29.61
X-2.235 Y29.464
X-2.195 Y29.32
X-2.147 Y29.177
X-2.094 Y29.037
X-2.034 Y28.899
X-1.968 Y28.765
X-1.897 Y28.633
X-1.819 Y28.505
X-1.735 Y28.38
X-1.646 Y28.259
X-1.552 Y28.143
X-1.453 Y28.03
X-1.348 Y27.923
X-1.239 Y27.82
X-1.126 Y27.721
X-1.008 Y27.629
X-0.886 Y27.541
X-0.761 Y27.459
X-0.631 Y27.383
X-0.499 Y27.312
X-0.363 Y27.248
X-0.225 Y27.19
X-0.084 Y27.138
X0.059 Y27.093
X0.204 Y27.054
X0.35 Y27.022
X0.498 Y26.996
X0.647 Y26.977
X0.796 Y26.964
X0.946 Y26.958
X1.096 Y26.959
X1.246 Y26.966
X1.395 Y26.981
X1.544 Y27.002
X1.691 Y27.029
X1.837 Y27.063
X1.981 Y27.104
X2.124 Y27.151
X2.264 Y27.205
X2.402 Y27.264
X2.536 Y27.33
X2.668 Y27.402
X2.797 Y27.479
X2.922 Y27.562
X3.043 Y27.65
X3.161 Y27.743
X3.274 Y27.841
X3.383 Y27.944
X3.488 Y28.052
X3.587 Y28.164
X3.682 Y28.28
X3.772 Y28.401
X3.856 Y28.525
X3.935 Y28.652
X4.008 Y28.783
X4.045 Y28.856
X4.073 Y28.92
X4.157 Y29.124
X4.176 Y29.168
X4.188 Y29.199
X4.239 Y29.34
X4.255 Y29.392
X4.277 Y29.47
X4.295 Y29.549
X4.308 Y29.629
G3 X3.685 Y29.746 I-0.317 J0.03
G1 X3.593 Y29.416
G3 X4.188 Y29.199 I0.306 J-0.086
G1 X4.237 Y29.315
X4.276 Y29.416
X4.299 Y29.561
X4.376 Y30.145
X4.383 Y30.197
X4.392 Y30.291
X4.383 Y30.403
X4.301 Y31.02
X4.281 Y31.166
X4.237 Y31.285
X3.984 Y31.896
X3.945 Y31.985
X3.908 Y32.042
X3.46 Y32.625
X3.417 Y32.679
X3.389 Y32.708
X3.361 Y32.732
X2.74 Y33.209
X2.686 Y33.244
X2.632 Y33.269
X2.048 Y33.511
X1.902 Y33.57
X1.865 Y33.58
X1.829 Y33.587
X1.172 Y33.674
X1.026 Y33.692
X0.99 Y33.693
X0.953 Y33.69
X0.151 Y33.584
X0.114 Y33.576
X0.078 Y33.562
X-0.652 Y33.26
X-0.688 Y33.243
X-0.725 Y33.22
X-0.74 Y33.209
X-1.311 Y32.771
X-1.383 Y32.715
X-1.422 Y32.674
X-1.46 Y32.625
X-1.908 Y32.042
X-1.933 Y32.005
X-1.953 Y31.969
X-2.225 Y31.312
X-2.281 Y31.166
X-2.301 Y31.02
X-2.378 Y30.437
X-2.392 Y30.291
X-2.376 Y30.145
X-2.299 Y29.561
X-2.276 Y29.416
X-2.218 Y29.27
X-1.976 Y28.686
X-1.944 Y28.613
X-1.892 Y28.538
X-1.446 Y27.956
X-1.416 Y27.919
X-1.377 Y27.881
X-1.287 Y27.811
X-0.725 Y27.38
X-0.715 Y27.373
X-0.681 Y27.353
X-0.647 Y27.337
X0.078 Y27.038
X0.114 Y27.024
X0.151 Y27.016
X0.953 Y26.91
X0.99 Y26.907
X1.026 Y26.908
X1.239 Y26.935
X1.829 Y27.013
X1.865 Y27.02
X1.902 Y27.03
X2.194 Y27.15
X2.632 Y27.331
X2.673 Y27.349
X2.714 Y27.373
X2.777 Y27.42
X3.361 Y27.868
X3.41 Y27.912
X3.446 Y27.956
X3.894 Y28.54
X3.945 Y28.616
X3.976 Y28.686
X4.073 Y28.92
G3 X3.916 Y29.316 I-0.298 J0.111
G1 X3.867 Y29.328 Z-1.246
X3.82 Y29.339 Z-1.234
X3.775 Y29.349 Z-1.215
X3.724 Y29.336 Z-1.18
X3.681 Y29.325 Z-1.135
X3.647 Y29.317 Z-1.083
X3.623 Y29.311 Z-1.025
X3.614 Y29.305 Z-0.979
X3.611 Y29.304 Z-0.932
G0 Z5
X0.402 Y28.913
Z1.25
G3 X1.598 Y31.687 Z1.084 I0.598 J1.387 F283.3
X0.402 Y28.913 Z0.919 I-0.598 J-1.387
X1.598 Y31.687 Z0.753 I0.598 J1.387
X0.402 Y28.913 Z0.587 I-0.598 J-1.387
X1.598 Y31.687 Z0.421 I0.598 J1.387
X0.402 Y28.913 Z0.256 I-0.598 J-1.387
X1.598 Y31.687 Z0.09 I0.598 J1.387
X0.402 Y28.913 Z-0.076 I-0.598 J-1.387
X1.598 Y31.687 Z-0.241 I0.598 J1.387
X0.402 Y28.913 Z-0.407 I-0.598 J-1.387
X1.598 Y31.687 Z-0.573 I0.598 J1.387
X0.402 Y28.913 Z-0.739 I-0.598 J-1.387
X1.598 Y31.687 Z-0.904 I0.598 J1.387
X0.402 Y28.913 Z-1.07 I-0.598 J-1.387
X1.598 Y31.687 Z-1.236 I0.598 J1.387
X0.402 Y28.913 Z-1.401 I-0.598 J-1.387
X1.598 Y31.687 Z-1.567 I0.598 J1.387
X0.402 Y28.913 Z-1.733 I-0.598 J-1.387
X1.598 Y31.687 Z-1.899 I0.598 J1.387
X0.402 Y28.913 Z-2.064 I-0.598 J-1.387
X1.598 Y31.687 Z-2.23 I0.598 J1.387
X0.402 Y28.913 Z-2.396 I-0.598 J-1.387
X2.51 Y30.3 Z-2.5 I0.598 J1.387
X-0.511 I-1.51
X2.51 I1.51
G1 X2.52 Y30.683 F850
Y30.833
X2.488 Y30.98
X2.434 Y31.12
X2.364 Y31.252
X2.279 Y31.376
X2.182 Y31.49
X2.073 Y31.594
X1.956 Y31.687
X1.83 Y31.768
X1.697 Y31.838
X1.558 Y31.894
X1.414 Y31.938
X1.267 Y31.969
X1.119 Y31.987
X0.969 Y31.991
X0.819 Y31.982
X0.671 Y31.959
X0.525 Y31.924
X0.383 Y31.875
X0.246 Y31.815
X0.115 Y31.742
X-0.01 Y31.658
X-0.126 Y31.563
X-0.233 Y31.458
X-0.331 Y31.345
X-0.419 Y31.223
X-0.495 Y31.093
X-0.559 Y30.958
X-0.611 Y30.817
X-0.651 Y30.673
X-0.677 Y30.525
X-0.691 Y30.376
Y30.226
X-0.677 Y30.076
X-0.651 Y29.929
X-0.612 Y29.784
X-0.559 Y29.643
X-0.495 Y29.508
X-0.419 Y29.378
X-0.332 Y29.256
X-0.234 Y29.142
X-0.127 Y29.038
X-0.011 Y28.943
X0.114 Y28.859
X0.245 Y28.786
X0.382 Y28.725
X0.524 Y28.676
X0.669 Y28.641
X0.818 Y28.618
X0.967 Y28.608
X1.117 Y28.612
X1.266 Y28.629
X1.413 Y28.659
X1.557 Y28.702
X1.696 Y28.758
X1.83 Y28.826
X1.957 Y28.905
X2.077 Y28.995
X2.188 Y29.096
X2.29 Y29.206
X2.382 Y29.324
X2.463 Y29.451
X2.533 Y29.584
X2.59 Y29.722
X2.635 Y29.865
X2.67 Y30.011
X2.698 Y30.159
X2.719 Y30.307
X2.732 Y30.456
X2.733 Y30.606
X2.719 Y30.756
X2.692 Y30.903
X2.65 Y31.047
X2.595 Y31.187
X2.526 Y31.32
X2.445 Y31.447
X2.353 Y31.565
X2.251 Y31.674
X2.139 Y31.774
X2.018 Y31.864
X1.891 Y31.943
X1.757 Y32.011
X1.618 Y32.068
X1.475 Y32.113
X1.329 Y32.146
X1.181 Y32.167
X1.031 Y32.177
X0.881 Y32.174
X0.732 Y32.159
X0.584 Y32.132
X0.439 Y32.093
X0.298 Y32.043
X0.161 Y31.981
X0.03 Y31.909
X-0.096 Y31.827
X-0.214 Y31.734
X-0.325 Y31.633
X-0.427 Y31.524
X-0.52 Y31.406
X-0.604 Y31.281
X-0.677 Y31.15
X-0.739 Y31.014
X-0.79 Y30.873
X-0.83 Y30.728
X-0.858 Y30.581
X-0.875 Y30.432
X-0.88 Y30.282
X-0.872 Y30.132
X-0.853 Y29.983
X-0.822 Y29.837
X-0.779 Y29.693
X-0.725 Y29.553
X-0.66 Y29.418
X-0.584 Y29.289
X-0.498 Y29.165
X-0.403 Y29.049
X-0.299 Y28.941
X-0.187 Y28.842
X-0.067 Y28.752
X0.06 Y28.672
X0.193 Y28.602
X0.331 Y28.543
X0.473 Y28.496
X0.619 Y28.46
X0.767 Y28.435
X0.916 Y28.423
X1.066 Y28.422
X1.216 Y28.433
X1.364 Y28.456
X1.51 Y28.491
X1.653 Y28.537
X1.791 Y28.595
X1.924 Y28.664
X2.052 Y28.743
X2.173 Y28.832
X2.286 Y28.93
X2.391 Y29.037
X2.488 Y29.152
X2.575 Y29.274
X2.652 Y29.403
X2.719 Y29.537
X2.776 Y29.675
X2.825 Y29.817
X2.866 Y29.962
X2.898 Y30.108
X2.919 Y30.257
X2.93 Y30.406
X2.931 Y30.556
X2.92 Y30.706
X2.897 Y30.854
X2.862 Y31
X2.815 Y31.142
X2.756 Y31.28
X2.686 Y31.413
X2.606 Y31.54
X2.516 Y31.659
X2.416 Y31.772
X2.308 Y31.875
X2.192 Y31.971
X2.069 Y32.056
X1.939 Y32.132
X1.804 Y32.198
X1.665 Y32.253
X1.522 Y32.298
X1.376 Y32.332
X1.227 Y32.355
X1.078 Y32.367
X0.928 Y32.368
X0.778 Y32.358
X0.63 Y32.338
X0.483 Y32.306
X0.339 Y32.264
X0.199 Y32.211
X0.063 Y32.148
X-0.069 Y32.076
X-0.194 Y31.994
X-0.314 Y31.903
X-0.426 Y31.804
X-0.532 Y31.697
X-0.629 Y31.583
X-0.717 Y31.462
X-0.797 Y31.334
X-0.867 Y31.202
X-0.927 Y31.065
X-0.977 Y30.923
X-1.017 Y30.778
X-1.046 Y30.631
X-1.065 Y30.483
X-1.073 Y30.333
X-1.07 Y30.183
X-1.056 Y30.033
X-1.032 Y29.885
X-0.997 Y29.74
X-0.951 Y29.597
X-0.895 Y29.458
X-0.829 Y29.323
X-0.753 Y29.193
X-0.668 Y29.07
X-0.575 Y28.952
X-0.473 Y28.842
X-0.364 Y28.739
X-0.248 Y28.644
X-0.125 Y28.558
X0.004 Y28.481
X0.138 Y28.414
X0.277 Y28.357
X0.419 Y28.31
X0.564 Y28.273
X0.712 Y28.247
X0.861 Y28.232
X1.011 Y28.227
X1.161 Y28.233
X1.31 Y28.25
X1.458 Y28.278
X1.603 Y28.316
X1.745 Y28.365
X1.882 Y28.424
X2.016 Y28.493
X2.144 Y28.571
X2.265 Y28.658
X2.381 Y28.754
X2.489 Y28.858
X2.59 Y28.969
X2.682 Y29.088
X2.766 Y29.212
X2.842 Y29.341
X2.909 Y29.475
X2.969 Y29.613
X3.019 Y29.754
X3.061 Y29.898
X3.093 Y30.045
X3.116 Y30.193
X3.129 Y30.343
X3.132 Y30.493
X3.125 Y30.642
X3.108 Y30.791
X3.079 Y30.939
X3.04 Y31.084
X2.991 Y31.225
X2.931 Y31.363
X2.862 Y31.496
X2.783 Y31.623
X2.695 Y31.745
X2.598 Y31.859
X2.494 Y31.967
X2.382 Y32.067
X2.264 Y32.159
X2.139 Y32.242
X2.008 Y32.317
X1.873 Y32.382
X1.734 Y32.437
X1.591 Y32.483
X1.445 Y32.519
X1.298 Y32.545
X1.148 Y32.561
X0.999 Y32.567
X0.849 Y32.563
X0.699 Y32.549
X0.551 Y32.525
X0.405 Y32.491
X0.262 Y32.448
X0.121 Y32.394
X-0.015 Y32.332
X-0.147 Y32.261
X-0.274 Y32.181
X-0.395 Y32.092
X-0.511 Y31.997
X-0.62 Y31.893
X-0.721 Y31.783
X-0.816 Y31.667
X-0.902 Y31.544
X-0.98 Y31.416
X-1.049 Y31.283
X-1.11 Y31.146
X-1.161 Y31.004
X-1.202 Y30.86
X-1.234 Y30.714
X-1.257 Y30.566
X-1.269 Y30.416
X-1.272 Y30.266
X-1.265 Y30.116
X-1.249 Y29.967
X-1.222 Y29.82
X-1.185 Y29.674
X-1.139 Y29.531
X-1.084 Y29.392
X-1.019 Y29.257
X-0.946 Y29.126
X-0.864 Y29
X-0.774 Y28.88
X-0.677 Y28.766
X-0.572 Y28.659
X-0.46 Y28.558
X-0.342 Y28.466
X-0.218 Y28.381
X-0.089 Y28.305
X0.045 Y28.238
X0.183 Y28.179
X0.325 Y28.13
X0.469 Y28.091
X0.616 Y28.06
X0.765 Y28.04
X0.915 Y28.029
X1.065 Y28.028
X1.214 Y28.037
X1.363 Y28.056
X1.51 Y28.085
X1.655 Y28.124
X1.797 Y28.172
X1.936 Y28.229
X2.07 Y28.296
X2.2 Y28.371
X2.325 Y28.454
X2.444 Y28.546
X2.557 Y28.644
X2.663 Y28.75
X2.762 Y28.863
X2.854 Y28.981
X2.939 Y29.105
X3.016 Y29.234
X3.085 Y29.367
X3.147 Y29.504
X3.2 Y29.644
X3.244 Y29.787
X3.28 Y29.933
X3.308 Y30.08
X3.326 Y30.229
X3.336 Y30.379
Y30.529
X3.326 Y30.678
X3.307 Y30.827
X3.278 Y30.974
X3.239 Y31.119
X3.191 Y31.261
X3.134 Y31.4
X3.068 Y31.535
X2.993 Y31.665
X2.91 Y31.79
X2.819 Y31.909
X2.721 Y32.022
X2.615 Y32.129
X2.503 Y32.228
X2.384 Y32.32
X2.26 Y32.404
X2.13 Y32.479
X1.996 Y32.547
X1.858 Y32.606
X1.717 Y32.656
X1.573 Y32.697
X1.426 Y32.729
X1.278 Y32.752
X1.129 Y32.766
X0.979 Y32.77
X0.829 Y32.766
X0.679 Y32.752
X0.531 Y32.729
X0.385 Y32.696
X0.24 Y32.655
X0.099 Y32.605
X-0.039 Y32.546
X-0.173 Y32.479
X-0.303 Y32.405
X-0.428 Y32.322
X-0.549 Y32.232
X-0.663 Y32.135
X-0.771 Y32.031
X-0.873 Y31.921
X-0.968 Y31.805
X-1.055 Y31.683
X-1.135 Y31.556
X-1.207 Y31.425
X-1.271 Y31.289
X-1.327 Y31.15
X-1.374 Y31.007
X-1.412 Y30.862
X-1.442 Y30.715
X-1.463 Y30.567
X-1.475 Y30.417
X-1.478 Y30.267
X-1.471 Y30.117
X-1.456 Y29.968
X-1.431 Y29.82
X-1.397 Y29.674
X-1.355 Y29.53
X-1.304 Y29.389
X-1.244 Y29.251
X-1.177 Y29.117
X-1.101 Y28.988
X-1.018 Y28.863
X-0.927 Y28.743
X-0.83 Y28.629
X-0.726 Y28.522
X-0.615 Y28.421
X-0.498 Y28.326
X-0.376 Y28.239
X-0.248 Y28.16
X-0.117 Y28.089
X0.019 Y28.025
X0.159 Y27.97
X0.301 Y27.923
X0.447 Y27.885
X0.594 Y27.856
X0.742 Y27.836
X0.892 Y27.825
X1.042 Y27.823
X1.192 Y27.83
X1.341 Y27.846
X1.489 Y27.871
X1.635 Y27.906
X1.778 Y27.948
X1.919 Y28
X2.057 Y28.06
X2.191 Y28.128
X2.32 Y28.204
X2.445 Y28.287
X2.564 Y28.378
X2.678 Y28.476
X2.786 Y28.58
X2.887 Y28.69
X2.982 Y28.806
X3.071 Y28.928
X3.152 Y29.053
X3.227 Y29.184
X3.294 Y29.318
X3.353 Y29.456
X3.405 Y29.596
X3.449 Y29.74
X3.485 Y29.885
X3.513 Y30.033
X3.533 Y30.181
X3.543 Y30.331
X3.545 Y30.481
X3.538 Y30.631
X3.523 Y30.78
X3.499 Y30.928
X3.466 Y31.074
X3.424 Y31.218
X3.374 Y31.36
X3.316 Y31.498
X3.249 Y31.633
X3.175 Y31.763
X3.093 Y31.888
X3.003 Y32.009
X2.907 Y32.123
X2.803 Y32.232
X2.694 Y32.335
X2.578 Y32.431
X2.458 Y32.519
X2.332 Y32.601
X2.201 Y32.675
X2.067 Y32.742
X1.929 Y32.8
X1.788 Y32.851
X1.644 Y32.893
X1.498 Y32.927
X1.35 Y32.952
X1.201 Y32.969
X1.051 Y32.978
X0.901 Y32.977
X0.751 Y32.969
X0.602 Y32.951
X0.454 Y32.926
X0.308 Y32.892
X0.164 Y32.85
X0.023 Y32.799
X-0.115 Y32.741
X-0.25 Y32.676
X-0.381 Y32.603
X-0.508 Y32.522
X-0.63 Y32.435
X-0.746 Y32.34
X-0.858 Y32.24
X-0.963 Y32.133
X-1.063 Y32.021
X-1.156 Y31.903
X-1.242 Y31.78
X-1.321 Y31.653
X-1.393 Y31.522
X-1.458 Y31.386
X-1.514 Y31.247
X-1.563 Y31.106
X-1.604 Y30.961
X-1.637 Y30.815
X-1.662 Y30.667
X-1.678 Y30.518
X-1.686 Y30.368
Y30.218
X-1.677 Y30.068
X-1.66 Y29.919
X-1.635 Y29.771
X-1.601 Y29.625
X-1.559 Y29.481
X-1.51 Y29.34
X-1.452 Y29.201
X-1.387 Y29.066
X-1.314 Y28.935
X-1.235 Y28.808
X-1.148 Y28.685
X-1.054 Y28.568
X-0.955 Y28.456
X-0.849 Y28.35
X-0.737 Y28.25
X-0.62 Y28.156
X-0.498 Y28.069
X-0.371 Y27.989
X-0.24 Y27.916
X-0.105 Y27.851
X0.034 Y27.793
X0.175 Y27.743
X0.319 Y27.701
X0.465 Y27.667
X0.613 Y27.641
X0.762 Y27.624
X0.912 Y27.614
X1.062
X1.211 Y27.621
X1.361 Y27.637
X1.509 Y27.661
X1.655 Y27.694
X1.799 Y27.735
X1.941 Y27.783
X2.08 Y27.84
X2.216 Y27.904
X2.348 Y27.975
X2.475 Y28.054
X2.599 Y28.14
X2.717 Y28.232
X2.83 Y28.33
X2.938 Y28.434
X3.041 Y28.544
X3.137 Y28.659
X3.227 Y28.779
X3.31 Y28.904
X3.387 Y29.032
X3.457 Y29.165
X3.521 Y29.301
X3.577 Y29.44
X3.626 Y29.582
X3.667 Y29.726
X3.701 Y29.872
X3.727 Y30.02
X3.745 Y30.169
X3.756 Y30.318
X3.758 Y30.468
X3.752 Y30.618
X3.738 Y30.768
X3.716 Y30.916
X3.686 Y31.063
X3.648 Y31.208
X3.602 Y31.351
X3.549 Y31.491
X3.488 Y31.628
X3.419 Y31.761
X3.343 Y31.891
X3.26 Y32.016
X3.171 Y32.136
X3.075 Y32.251
X2.973 Y32.361
X2.864 Y32.465
X2.751 Y32.563
X2.632 Y32.655
X2.508 Y32.74
X2.38 Y32.818
X2.248 Y32.889
X2.113 Y32.953
X1.974 Y33.01
X1.832 Y33.059
X1.688 Y33.101
X1.542 Y33.134
X1.394 Y33.161
X1.245 Y33.179
X1.096 Y33.189
X0.946 Y33.191
X0.796 Y33.186
X0.646 Y33.172
X0.498 Y33.151
X0.351 Y33.121
X0.205 Y33.085
X0.062 Y33.04
X-0.079 Y32.989
X-0.217 Y32.93
X-0.351 Y32.864
X-0.483 Y32.791
X-0.61 Y32.711
X-0.732 Y32.625
X-0.85 Y32.533
X-0.964 Y32.434
X-1.071 Y32.33
X-1.174 Y32.22
X-1.27 Y32.105
X-1.36 Y31.985
X-1.444 Y31.861
X-1.522 Y31.733
X-1.593 Y31.6
X-1.657 Y31.465
X-1.713 Y31.326
X-1.763 Y31.184
X-1.805 Y31.04
X-1.84 Y30.894
X-1.867 Y30.747
X-1.886 Y30.598
X-1.897 Y30.449
X-1.901 Y30.299
X-1.897 Y30.149
X-1.885 Y29.999
X-1.866 Y29.85
X-1.839 Y29.703
X-1.804 Y29.557
X-1.762 Y29.413
X-1.713 Y29.271
X-1.656 Y29.132
X-1.592 Y28.997
X-1.522 Y28.864
X-1.444 Y28.736
X-1.36 Y28.612
X-1.269 Y28.492
X-1.173 Y28.377
X-1.07 Y28.268
X-0.963 Y28.163
X-0.85 Y28.065
X-0.732 Y27.972
X-0.609 Y27.886
X-0.482 Y27.806
X-0.351 Y27.732
X-0.217 Y27.666
X-0.079 Y27.607
X0.062 Y27.554
