%
(1001)
(origin stock top)
(T1  D=2 CR=0 - ZMIN=-6.6 - flat end mill)
G90 G94
G17
G21

(backlash_nut_roughing)
M9
T1 M6
S7500 M3
G54
M8
G0 X-7.052 Y40.356
Z15
Z5
Z2.5
G3 X-8.948 Y40.244 Z2.396 I-0.948 J-0.056 F283.3
X-7.052 Y40.356 Z2.292 I0.948 J0.056
X-8.948 Y40.244 Z2.187 I-0.948 J-0.056
X-7.052 Y40.356 Z2.083 I0.948 J0.056
X-8.948 Y40.244 Z1.979 I-0.948 J-0.056
X-7.052 Y40.356 Z1.875 I0.948 J0.056
X-8.948 Y40.244 Z1.77 I-0.948 J-0.056
X-7.052 Y40.356 Z1.666 I0.948 J0.056
X-8.948 Y40.244 Z1.562 I-0.948 J-0.056
X-7.052 Y40.356 Z1.458 I0.948 J0.056
X-8.948 Y40.244 Z1.354 I-0.948 J-0.056
X-7.052 Y40.356 Z1.249 I0.948 J0.056
X-8.948 Y40.244 Z1.145 I-0.948 J-0.056
X-7.052 Y40.356 Z1.041 I0.948 J0.056
X-8.948 Y40.244 Z0.937 I-0.948 J-0.056
X-7.052 Y40.356 Z0.832 I0.948 J0.056
X-8.948 Y40.244 Z0.728 I-0.948 J-0.056
X-7.052 Y40.356 Z0.624 I0.948 J0.056
X-8.948 Y40.244 Z0.52 I-0.948 J-0.056
X-7.052 Y40.356 Z0.416 I0.948 J0.056
X-8.948 Y40.244 Z0.311 I-0.948 J-0.056
X-7.052 Y40.356 Z0.207 I0.948 J0.056
X-8.948 Y40.244 Z0.103 I-0.948 J-0.056
X-7.052 Y40.356 Z-0.001 I0.948 J0.056
X-8.948 Y40.244 Z-0.106 I-0.948 J-0.056
X-7.052 Y40.356 Z-0.21 I0.948 J0.056
X-8.948 Y40.244 Z-0.314 I-0.948 J-0.056
X-7.052 Y40.356 Z-0.418 I0.948 J0.056
X-8.948 Y40.244 Z-0.522 I-0.948 J-0.056
X-7.052 Y40.356 Z-0.627 I0.948 J0.056
X-8.948 Y40.244 Z-0.731 I-0.948 J-0.056
X-7.052 Y40.356 Z-0.835 I0.948 J0.056
X-8.948 Y40.244 Z-0.939 I-0.948 J-0.056
X-7.052 Y40.356 Z-1.044 I0.948 J0.056
X-8.948 Y40.244 Z-1.148 I-0.948 J-0.056
X-7.05 Y40.3 Z-1.25 I0.948 J0.056
X-8.95 I-0.95
X-7.05 I0.95
G1 X-7.035 Y40.596 F850
X-7.044 Y40.702
X-7.075 Y40.803
X-7.125 Y40.897
X-7.206 Y41.019
X-7.228 Y41.048
X-7.261 Y41.08
X-7.523 Y41.256
X-7.549 Y41.273
X-7.578 Y41.289
X-7.607 Y41.301
X-7.631 Y41.307
X-7.952 Y41.371
X-7.981 Y41.374
X-8.01 Y41.375
X-8.068 Y41.367
X-8.369 Y41.307
X-8.391 Y41.302
X-8.413 Y41.293
X-8.529 Y41.221
X-8.644 Y41.144
X-8.742 Y41.077
X-8.759 Y41.06
X-8.782 Y41.036
X-8.832 Y40.962
X-8.951 Y40.783
X-8.985 Y40.731
X-8.99 Y40.721
X-9 Y40.695
X-9.007 Y40.669
X-9.074 Y40.328
X-9.076 Y40.299
X-9.074 Y40.271
X-9.029 Y40.04
X-9.006 Y39.925
X-8.999 Y39.902
X-8.99 Y39.878
X-8.947 Y39.81
X-8.793 Y39.58
X-8.778 Y39.559
X-8.759 Y39.538
X-8.644 Y39.456
X-8.449 Y39.326
X-8.431 Y39.315
X-8.413 Y39.307
X-8.385 Y39.297
X-8.356 Y39.29
X-8.068 Y39.233
X-8.01 Y39.224
X-7.981 Y39.225
X-7.952 Y39.229
X-7.722 Y39.275
X-7.607 Y39.299
X-7.584 Y39.308
X-7.561 Y39.32
X-7.491 Y39.365
X-7.298 Y39.496
X-7.261 Y39.521
X-7.245 Y39.534
X-7.229 Y39.55
X-7.207 Y39.58
X-7.03 Y39.844
X-7.007 Y39.885
X-7 Y39.905
X-6.994 Y39.925
X-6.926 Y40.271
X-6.924 Y40.299
X-6.926 Y40.328
X-6.937 Y40.386
X-6.994 Y40.674
X-7.002 Y40.702
X-7.015 Y40.731
X-7.03 Y40.756
X-7.125 Y40.897
G3 X-7.487 Y40.781 I-0.162 J-0.117
G1 Y40.78
X-7.483 Y40.74
X-7.47 Y40.701
X-7.441 Y40.668 Z-1.245
X-7.414 Y40.636 Z-1.23
X-7.389 Y40.608 Z-1.206
X-7.36 Y40.598 Z-1.175
X-7.337 Y40.59 Z-1.137
X-7.324 Y40.585 Z-1.095
X-7.319 Y40.583 Z-1.05
G0 Z5
X12.948 Y40.357
Z2.5
G3 X11.052 Y40.244 Z2.396 I-0.948 J-0.056 F283.3
X12.948 Y40.357 Z2.292 I0.948 J0.056
X11.052 Y40.244 Z2.187 I-0.948 J-0.056
X12.948 Y40.357 Z2.083 I0.948 J0.056
X11.052 Y40.244 Z1.979 I-0.948 J-0.056
X12.948 Y40.357 Z1.875 I0.948 J0.056
X11.052 Y40.244 Z1.77 I-0.948 J-0.056
X12.948 Y40.357 Z1.666 I0.948 J0.056
X11.052 Y40.244 Z1.562 I-0.948 J-0.056
X12.948 Y40.357 Z1.458 I0.948 J0.056
X11.052 Y40.244 Z1.354 I-0.948 J-0.056
X12.948 Y40.357 Z1.249 I0.948 J0.056
X11.052 Y40.244 Z1.145 I-0.948 J-0.056
X12.948 Y40.357 Z1.041 I0.948 J0.056
X11.052 Y40.244 Z0.937 I-0.948 J-0.056
X12.948 Y40.357 Z0.832 I0.948 J0.056
X11.052 Y40.244 Z0.728 I-0.948 J-0.056
X12.948 Y40.357 Z0.624 I0.948 J0.056
X11.052 Y40.244 Z0.52 I-0.948 J-0.056
X12.948 Y40.357 Z0.416 I0.948 J0.056
X11.052 Y40.244 Z0.311 I-0.948 J-0.056
X12.948 Y40.357 Z0.207 I0.948 J0.056
X11.052 Y40.244 Z0.103 I-0.948 J-0.056
X12.948 Y40.357 Z-0.001 I0.948 J0.056
X11.052 Y40.244 Z-0.106 I-0.948 J-0.056
X12.948 Y40.357 Z-0.21 I0.948 J0.056
X11.052 Y40.244 Z-0.314 I-0.948 J-0.056
X12.948 Y40.357 Z-0.418 I0.948 J0.056
X11.052 Y40.244 Z-0.522 I-0.948 J-0.056
X12.948 Y40.357 Z-0.627 I0.948 J0.056
X11.052 Y40.244 Z-0.731 I-0.948 J-0.056
X12.948 Y40.357 Z-0.835 I0.948 J0.056
X11.052 Y40.244 Z-0.939 I-0.948 J-0.056
X12.948 Y40.357 Z-1.044 I0.948 J0.056
X11.052 Y40.244 Z-1.148 I-0.948 J-0.056
X12.95 Y40.3 Z-1.25 I0.948 J0.056
X11.05 I-0.95
X12.95 I0.95
G1 X12.965 Y40.596 F850
X12.956 Y40.702
X12.926 Y40.803
X12.876 Y40.896
X12.793 Y41.02
X12.772 Y41.049
X12.741 Y41.077
X12.678 Y41.121
X12.471 Y41.26
X12.447 Y41.275
X12.408 Y41.295
X12.388 Y41.302
X12.369 Y41.307
X12.044 Y41.372
X12.015 Y41.375
X11.986
X11.871 Y41.355
X11.631 Y41.307
X11.605 Y41.3
X11.578 Y41.288
X11.525 Y41.257
X11.295 Y41.103
X11.258 Y41.077
X11.232 Y41.052
X11.212 Y41.028
X11.064 Y40.807
X11.015 Y40.731
X11.002 Y40.702
X10.994 Y40.674
X10.931 Y40.354
X10.926 Y40.328
X10.924 Y40.299
X10.926 Y40.271
X10.994 Y39.925
X11.003 Y39.896
X11.015 Y39.868
X11.064 Y39.793
X11.207 Y39.58
X11.225 Y39.555
X11.251 Y39.529
X11.295 Y39.497
X11.554 Y39.324
X11.583 Y39.309
X11.612 Y39.298
X11.641 Y39.291
X11.926 Y39.234
X11.986 Y39.225
X12.03 Y39.226
X12.217 Y39.263
X12.332 Y39.286
X12.39 Y39.298
X12.418 Y39.31
X12.447 Y39.325
X12.735 Y39.517
X12.752 Y39.531
X12.769 Y39.548
X12.793 Y39.58
X12.947 Y39.81
X12.983 Y39.868
X12.997 Y39.896
X13.006 Y39.925
X13.074 Y40.271
X13.076 Y40.299
X13.074 Y40.328
X13.063 Y40.386
X13.006 Y40.674
X12.998 Y40.702
X12.985 Y40.731
X12.876 Y40.896
G3 X12.514 Y40.78 I-0.162 J-0.117
G1 X12.518 Y40.739
X12.53 Y40.7
X12.559 Y40.667 Z-1.245
X12.587 Y40.636 Z-1.23
X12.611 Y40.608 Z-1.206
X12.641 Y40.597 Z-1.175
X12.663 Y40.589 Z-1.137
X12.677 Y40.584 Z-1.095
X12.681 Y40.582 Z-1.05
G0 Z5
X-7.052 Y40.356
Z1.25
G3 X-8.948 Y40.244 Z1.146 I-0.948 J-0.056 F283.3
X-7.052 Y40.356 Z1.042 I0.948 J0.056
X-8.948 Y40.244 Z0.937 I-0.948 J-0.056
X-7.052 Y40.356 Z0.833 I0.948 J0.056
X-8.948 Y40.244 Z0.729 I-0.948 J-0.056
X-7.052 Y40.356 Z0.625 I0.948 J0.056
X-8.948 Y40.244 Z0.52 I-0.948 J-0.056
X-7.052 Y40.356 Z0.416 I0.948 J0.056
X-8.948 Y40.244 Z0.312 I-0.948 J-0.056
X-7.052 Y40.356 Z0.208 I0.948 J0.056
X-8.948 Y40.244 Z0.104 I-0.948 J-0.056
X-7.052 Y40.356 Z-0.001 I0.948 J0.056
X-8.948 Y40.244 Z-0.105 I-0.948 J-0.056
X-7.052 Y40.356 Z-0.209 I0.948 J0.056
X-8.948 Y40.244 Z-0.313 I-0.948 J-0.056
X-7.052 Y40.356 Z-0.418 I0.948 J0.056
X-8.948 Y40.244 Z-0.522 I-0.948 J-0.056
X-7.052 Y40.356 Z-0.626 I0.948 J0.056
X-8.948 Y40.244 Z-0.73 I-0.948 J-0.056
X-7.052 Y40.356 Z-0.834 I0.948 J0.056
X-8.948 Y40.244 Z-0.939 I-0.948 J-0.056
X-7.052 Y40.356 Z-1.043 I0.948 J0.056
X-8.948 Y40.244 Z-1.147 I-0.948 J-0.056
X-7.052 Y40.356 Z-1.251 I0.948 J0.056
X-8.948 Y40.244 Z-1.356 I-0.948 J-0.056
X-7.052 Y40.356 Z-1.46 I0.948 J0.056
X-8.948 Y40.244 Z-1.564 I-0.948 J-0.056
X-7.052 Y40.356 Z-1.668 I0.948 J0.056
X-8.948 Y40.244 Z-1.772 I-0.948 J-0.056
X-7.052 Y40.356 Z-1.877 I0.948 J0.056
X-8.948 Y40.244 Z-1.981 I-0.948 J-0.056
X-7.052 Y40.356 Z-2.085 I0.948 J0.056
X-8.948 Y40.244 Z-2.189 I-0.948 J-0.056
X-7.052 Y40.356 Z-2.294 I0.948 J0.056
X-8.948 Y40.244 Z-2.398 I-0.948 J-0.056
X-7.05 Y40.3 Z-2.5 I0.948 J0.056
X-8.95 I-0.95
X-7.05 I0.95
G1 X-7.035 Y40.596 F850
X-7.044 Y40.702
X-7.075 Y40.803
X-7.125 Y40.897
X-7.206 Y41.019
X-7.228 Y41.048
X-7.261 Y41.08
X-7.523 Y41.256
X-7.549 Y41.273
X-7.578 Y41.289
X-7.607 Y41.301
X-7.631 Y41.307
X-7.952 Y41.371
X-7.981 Y41.374
X-8.01 Y41.375
X-8.068 Y41.367
X-8.369 Y41.307
X-8.391 Y41.302
X-8.413 Y41.293
X-8.529 Y41.221
X-8.644 Y41.144
X-8.742 Y41.077
X-8.759 Y41.06
X-8.782 Y41.036
X-8.832 Y40.962
X-8.951 Y40.783
X-8.985 Y40.731
X-8.99 Y40.721
X-9 Y40.695
X-9.007 Y40.669
X-9.074 Y40.328
X-9.076 Y40.299
X-9.074 Y40.271
X-9.029 Y40.04
X-9.006 Y39.925
X-8.999 Y39.902
X-8.99 Y39.878
X-8.947 Y39.81
X-8.793 Y39.58
X-8.778 Y39.559
X-8.759 Y39.538
X-8.644 Y39.456
X-8.449 Y39.326
X-8.431 Y39.315
X-8.413 Y39.307
X-8.385 Y39.297
X-8.356 Y39.29
X-8.068 Y39.233
X-8.01 Y39.224
X-7.981 Y39.225
X-7.952 Y39.229
X-7.722 Y39.275
X-7.607 Y39.299
X-7.584 Y39.308
X-7.561 Y39.32
X-7.491 Y39.365
X-7.298 Y39.496
X-7.261 Y39.521
X-7.245 Y39.534
X-7.229 Y39.55
X-7.207 Y39.58
X-7.03 Y39.844
X-7.007 Y39.885
X-7 Y39.905
X-6.994 Y39.925
X-6.926 Y40.271
X-6.924 Y40.299
X-6.926 Y40.328
X-6.937 Y40.386
X-6.994 Y40.674
X-7.002 Y40.702
X-7.015 Y40.731
X-7.03 Y40.756
X-7.125 Y40.897
G3 X-7.487 Y40.781 I-0.162 J-0.117
G1 Y40.78
X-7.483 Y40.74
X-7.47 Y40.701
X-7.441 Y40.668 Z-2.495
X-7.414 Y40.636 Z-2.48
X-7.389 Y40.608 Z-2.456
X-7.36 Y40.598 Z-2.425
X-7.337 Y40.59 Z-2.387
X-7.324 Y40.585 Z-2.345
X-7.319 Y40.583 Z-2.3
G0 Z5
X12.948 Y40.357
Z1.25
G3 X11.052 Y40.244 Z1.146 I-0.948 J-0.056 F283.3
X12.948 Y40.357 Z1.042 I0.948 J0.056
X11.052 Y40.244 Z0.937 I-0.948 J-0.056
X12.948 Y40.357 Z0.833 I0.948 J0.056
X11.052 Y40.244 Z0.729 I-0.948 J-0.056
X12.948 Y40.357 Z0.625 I0.948 J0.056
X11.052 Y40.244 Z0.52 I-0.948 J-0.056
X12.948 Y40.357 Z0.416 I0.948 J0.056
X11.052 Y40.244 Z0.312 I-0.948 J-0.056
X12.948 Y40.357 Z0.208 I0.948 J0.056
X11.052 Y40.244 Z0.104 I-0.948 J-0.056
X12.948 Y40.357 Z-0.001 I0.948 J0.056
X11.052 Y40.244 Z-0.105 I-0.948 J-0.056
X12.948 Y40.357 Z-0.209 I0.948 J0.056
X11.052 Y40.244 Z-0.313 I-0.948 J-0.056
X12.948 Y40.357 Z-0.418 I0.948 J0.056
X11.052 Y40.244 Z-0.522 I-0.948 J-0.056
X12.948 Y40.357 Z-0.626 I0.948 J0.056
X11.052 Y40.244 Z-0.73 I-0.948 J-0.056
X12.948 Y40.357 Z-0.834 I0.948 J0.056
X11.052 Y40.244 Z-0.939 I-0.948 J-0.056
X12.948 Y40.357 Z-1.043 I0.948 J0.056
X11.052 Y40.244 Z-1.147 I-0.948 J-0.056
X12.948 Y40.357 Z-1.251 I0.948 J0.056
X11.052 Y40.244 Z-1.356 I-0.948 J-0.056
X12.948 Y40.357 Z-1.46 I0.948 J0.056
X11.052 Y40.244 Z-1.564 I-0.948 J-0.056
X12.948 Y40.357 Z-1.668 I0.948 J0.056
X11.052 Y40.244 Z-1.772 I-0.948 J-0.056
X12.948 Y40.357 Z-1.877 I0.948 J0.056
X11.052 Y40.244 Z-1.981 I-0.948 J-0.056
X12.948 Y40.357 Z-2.085 I0.948 J0.056
X11.052 Y40.244 Z-2.189 I-0.948 J-0.056
X12.948 Y40.357 Z-2.294 I0.948 J0.056
X11.052 Y40.244 Z-2.398 I-0.948 J-0.056
X12.95 Y40.3 Z-2.5 I0.948 J0.056
X11.05 I-0.95
X12.95 I0.95
G1 X12.965 Y40.596 F850
X12.956 Y40.702
X12.926 Y40.803
X12.876 Y40.896
X12.793 Y41.02
X12.772 Y41.049
X12.741 Y41.077
X12.678 Y41.121
X12.471 Y41.26
X12.447 Y41.275
X12.408 Y41.295
X12.388 Y41.302
X12.369 Y41.307
X12.044 Y41.372
X12.015 Y41.375
X11.986
X11.871 Y41.355
X11.631 Y41.307
X11.605 Y41.3
X11.578 Y41.288
X11.525 Y41.257
X11.295 Y41.103
X11.258 Y41.077
X11.232 Y41.052
X11.212 Y41.028
X11.064 Y40.807
X11.015 Y40.731
X11.002 Y40.702
X10.994 Y40.674
X10.931 Y40.354
X10.926 Y40.328
X10.924 Y40.299
X10.926 Y40.271
X10.994 Y39.925
X11.003 Y39.896
X11.015 Y39.868
X11.064 Y39.793
X11.207 Y39.58
X11.225 Y39.555
X11.251 Y39.529
X11.295 Y39.497
X11.554 Y39.324
X11.583 Y39.309
X11.612 Y39.298
X11.641 Y39.291
X11.926 Y39.234
X11.986 Y39.225
X12.03 Y39.226
X12.217 Y39.263
X12.332 Y39.286
X12.39 Y39.298
X12.418 Y39.31
X12.447 Y39.325
X12.735 Y39.517
X12.752 Y39.531
X12.769 Y39.548
X12.793 Y39.58
X12.947 Y39.81
X12.983 Y39.868
X12.997 Y39.896
X13.006 Y39.925
X13.074 Y40.271
X13.076 Y40.299
X13.074 Y40.328
X13.063 Y40.386
X13.006 Y40.674
X12.998 Y40.702
X12.985 Y40.731
X12.876 Y40.896
G3 X12.514 Y40.78 I-0.162 J-0.117
G1 X12.518 Y40.739
X12.53 Y40.7
X12.559 Y40.667 Z-2.495
X12.587 Y40.636 Z-2.48
X12.611 Y40.608 Z-2.456
X12.641 Y40.597 Z-2.425
X12.663 Y40.589 Z-2.387
X12.677 Y40.584 Z-2.345
X12.681 Y40.582 Z-2.3
G0 Z5
X-7.052 Y40.356
Z0
G3 X-8.948 Y40.244 Z-0.104 I-0.948 J-0.056 F283.3
X-7.052 Y40.356 Z-0.208 I0.948 J0.056
X-8.948 Y40.244 Z-0.313 I-0.948 J-0.056
X-7.052 Y40.356 Z-0.417 I0.948 J0.056
X-8.948 Y40.244 Z-0.521 I-0.948 J-0.056
X-7.052 Y40.356 Z-0.625 I0.948 J0.056
X-8.948 Y40.244 Z-0.73 I-0.948 J-0.056
X-7.052 Y40.356 Z-0.834 I0.948 J0.056
X-8.948 Y40.244 Z-0.938 I-0.948 J-0.056
X-7.052 Y40.356 Z-1.042 I0.948 J0.056
X-8.948 Y40.244 Z-1.146 I-0.948 J-0.056
X-7.052 Y40.356 Z-1.251 I0.948 J0.056
X-8.948 Y40.244 Z-1.355 I-0.948 J-0.056
X-7.052 Y40.356 Z-1.459 I0.948 J0.056
X-8.948 Y40.244 Z-1.563 I-0.948 J-0.056
X-7.052 Y40.356 Z-1.668 I0.948 J0.056
X-8.948 Y40.244 Z-1.772 I-0.948 J-0.056
X-7.052 Y40.356 Z-1.876 I0.948 J0.056
X-8.948 Y40.244 Z-1.98 I-0.948 J-0.056
X-7.052 Y40.356 Z-2.084 I0.948 J0.056
X-8.948 Y40.244 Z-2.189 I-0.948 J-0.056
X-7.052 Y40.356 Z-2.293 I0.948 J0.056
X-8.948 Y40.244 Z-2.397 I-0.948 J-0.056
X-7.052 Y40.356 Z-2.501 I0.948 J0.056
X-8.948 Y40.244 Z-2.606 I-0.948 J-0.056
X-7.052 Y40.356 Z-2.71 I0.948 J0.056
X-8.948 Y40.244 Z-2.814 I-0.948 J-0.056
X-7.052 Y40.356 Z-2.918 I0.948 J0.056
X-8.948 Y40.244 Z-3.022 I-0.948 J-0.056
X-7.052 Y40.356 Z-3.127 I0.948 J0.056
X-8.948 Y40.244 Z-3.231 I-0.948 J-0.056
X-7.052 Y40.356 Z-3.335 I0.948 J0.056
X-8.948 Y40.244 Z-3.439 I-0.948 J-0.056
X-7.052 Y40.356 Z-3.544 I0.948 J0.056
X-8.948 Y40.244 Z-3.648 I-0.948 J-0.056
X-7.05 Y40.3 Z-3.75 I0.948 J0.056
X-8.95 I-0.95
X-7.05 I0.95
G1 X-7.035 Y40.596 F850
X-7.044 Y40.702
X-7.075 Y40.803
X-7.125 Y40.897
X-7.206 Y41.019
X-7.228 Y41.048
X-7.261 Y41.08
X-7.523 Y41.256
X-7.549 Y41.273
X-7.578 Y41.289
X-7.607 Y41.301
X-7.631 Y41.307
X-7.952 Y41.371
X-7.981 Y41.374
X-8.01 Y41.375
X-8.068 Y41.367
X-8.369 Y41.307
X-8.391 Y41.302
X-8.413 Y41.293
X-8.529 Y41.221
X-8.644 Y41.144
X-8.742 Y41.077
X-8.759 Y41.06
X-8.782 Y41.036
X-8.832 Y40.962
X-8.951 Y40.783
X-8.985 Y40.731
X-8.99 Y40.721
X-9 Y40.695
X-9.007 Y40.669
X-9.074 Y40.328
X-9.076 Y40.299
X-9.074 Y40.271
X-9.029 Y40.04
X-9.006 Y39.925
X-8.999 Y39.902
X-8.99 Y39.878
X-8.947 Y39.81
X-8.793 Y39.58
X-8.778 Y39.559
X-8.759 Y39.538
X-8.644 Y39.456
X-8.449 Y39.326
X-8.431 Y39.315
X-8.413 Y39.307
X-8.385 Y39.297
X-8.356 Y39.29
X-8.068 Y39.233
X-8.01 Y39.224
X-7.981 Y39.225
X-7.952 Y39.229
X-7.722 Y39.275
X-7.607 Y39.299
X-7.584 Y39.308
X-7.561 Y39.32
X-7.491 Y39.365
X-7.298 Y39.496
X-7.261 Y39.521
X-7.245 Y39.534
X-7.229 Y39.55
X-7.207 Y39.58
X-7.03 Y39.844
X-7.007 Y39.885
X-7 Y39.905
X-6.994 Y39.925
X-6.926 Y40.271
X-6.924 Y40.299
X-6.926 Y40.328
X-6.937 Y40.386
X-6.994 Y40.674
X-7.002 Y40.702
X-7.015 Y40.731
X-7.03 Y40.756
X-7.125 Y40.897
G3 X-7.487 Y40.781 I-0.162 J-0.117
G1 Y40.78
X-7.483 Y40.74
X-7.47 Y40.701
X-7.441 Y40.668 Z-3.745
X-7.414 Y40.636 Z-3.73
X-7.389 Y40.608 Z-3.706
X-7.36 Y40.598 Z-3.675
X-7.337 Y40.59 Z-3.637
X-7.324 Y40.585 Z-3.595
X-7.319 Y40.583 Z-3.55
G0 Z5
X12.948 Y40.357
Z0
G3 X11.052 Y40.244 Z-0.104 I-0.948 J-0.056 F283.3
X12.948 Y40.357 Z-0.208 I0.948 J0.056
X11.052 Y40.244 Z-0.313 I-0.948 J-0.056
X12.948 Y40.357 Z-0.417 I0.948 J0.056
X11.052 Y40.244 Z-0.521 I-0.948 J-0.056
X12.948 Y40.357 Z-0.625 I0.948 J0.056
X11.052 Y40.244 Z-0.73 I-0.948 J-0.056
X12.948 Y40.357 Z-0.834 I0.948 J0.056
X11.052 Y40.244 Z-0.938 I-0.948 J-0.056
X12.948 Y40.357 Z-1.042 I0.948 J0.056
X11.052 Y40.244 Z-1.146 I-0.948 J-0.056
X12.948 Y40.357 Z-1.251 I0.948 J0.056
X11.052 Y40.244 Z-1.355 I-0.948 J-0.056
X12.948 Y40.357 Z-1.459 I0.948 J0.056
X11.052 Y40.244 Z-1.563 I-0.948 J-0.056
X12.948 Y40.357 Z-1.668 I0.948 J0.056
X11.052 Y40.244 Z-1.772 I-0.948 J-0.056
X12.948 Y40.357 Z-1.876 I0.948 J0.056
X11.052 Y40.244 Z-1.98 I-0.948 J-0.056
X12.948 Y40.357 Z-2.084 I0.948 J0.056
X11.052 Y40.244 Z-2.189 I-0.948 J-0.056
X12.948 Y40.357 Z-2.293 I0.948 J0.056
X11.052 Y40.244 Z-2.397 I-0.948 J-0.056
X12.948 Y40.357 Z-2.501 I0.948 J0.056
X11.052 Y40.244 Z-2.606 I-0.948 J-0.056
X12.948 Y40.357 Z-2.71 I0.948 J0.056
X11.052 Y40.244 Z-2.814 I-0.948 J-0.056
X12.948 Y40.357 Z-2.918 I0.948 J0.056
X11.052 Y40.244 Z-3.022 I-0.948 J-0.056
X12.948 Y40.357 Z-3.127 I0.948 J0.056
X11.052 Y40.244 Z-3.231 I-0.948 J-0.056
X12.948 Y40.357 Z-3.335 I0.948 J0.056
X11.052 Y40.244 Z-3.439 I-0.948 J-0.056
X12.948 Y40.357 Z-3.544 I0.948 J0.056
X11.052 Y40.244 Z-3.648 I-0.948 J-0.056
X12.95 Y40.3 Z-3.75 I0.948 J0.056
X11.05 I-0.95
X12.95 I0.95
G1 X12.965 Y40.596 F850
X12.956 Y40.702
X12.926 Y40.803
X12.876 Y40.896
X12.793 Y41.02
X12.772 Y41.049
X12.741 Y41.077
X12.678 Y41.121
X12.471 Y41.26
X12.447 Y41.275
X12.408 Y41.295
X12.388 Y41.302
X12.369 Y41.307
X12.044 Y41.372
X12.015 Y41.375
X11.986
X11.871 Y41.355
X11.631 Y41.307
X11.605 Y41.3
X11.578 Y41.288
X11.525 Y41.257
X11.295 Y41.103
X11.258 Y41.077
X11.232 Y41.052
X11.212 Y41.028
X11.064 Y40.807
X11.015 Y40.731
X11.002 Y40.702
X10.994 Y40.674
X10.931 Y40.354
X10.926 Y40.328
X10.924 Y40.299
X10.926 Y40.271
X10.994 Y39.925
X11.003 Y39.896
X11.015 Y39.868
X11.064 Y39.793
X11.207 Y39.58
X11.225 Y39.555
X11.251 Y39.529
X11.295 Y39.497
X11.554 Y39.324
X11.583 Y39.309
X11.612 Y39.298
X11.641 Y39.291
X11.926 Y39.234
X11.986 Y39.225
X12.03 Y39.226
X12.217 Y39.263
X12.332 Y39.286
X12.39 Y39.298
X12.418 Y39.31
X12.447 Y39.325
X12.735 Y39.517
X12.752 Y39.531
X12.769 Y39.548
X12.793 Y39.58
X12.947 Y39.81
X12.983 Y39.868
X12.997 Y39.896
X13.006 Y39.925
X13.074 Y40.271
X13.076 Y40.299
X13.074 Y40.328
X13.063 Y40.386
X13.006 Y40.674
X12.998 Y40.702
X12.985 Y40.731
X12.876 Y40.896
G3 X12.514 Y40.78 I-0.162 J-0.117
G1 X12.518 Y40.739
X12.53 Y40.7
X12.559 Y40.667 Z-3.745
X12.587 Y40.636 Z-3.73
X12.611 Y40.608 Z-3.706
X12.641 Y40.597 Z-3.675
X12.663 Y40.589 Z-3.637
X12.677 Y40.584 Z-3.595
X12.681 Y40.582 Z-3.55
G0 Z5
X-7.052 Y40.356
Z-1.25
G3 X-8.948 Y40.244 Z-1.354 I-0.948 J-0.056 F283.3
X-7.052 Y40.356 Z-1.458 I0.948 J0.056
X-8.948 Y40.244 Z-1.563 I-0.948 J-0.056
X-7.052 Y40.356 Z-1.667 I0.948 J0.056
X-8.948 Y40.244 Z-1.771 I-0.948 J-0.056
X-7.052 Y40.356 Z-1.875 I0.948 J0.056
X-8.948 Y40.244 Z-1.98 I-0.948 J-0.056
X-7.052 Y40.356 Z-2.084 I0.948 J0.056
X-8.948 Y40.244 Z-2.188 I-0.948 J-0.056
X-7.052 Y40.356 Z-2.292 I0.948 J0.056
X-8.948 Y40.244 Z-2.396 I-0.948 J-0.056
X-7.052 Y40.356 Z-2.501 I0.948 J0.056
X-8.948 Y40.244 Z-2.605 I-0.948 J-0.056
X-7.052 Y40.356 Z-2.709 I0.948 J0.056
X-8.948 Y40.244 Z-2.813 I-0.948 J-0.056
X-7.052 Y40.356 Z-2.918 I0.948 J0.056
X-8.948 Y40.244 Z-3.022 I-0.948 J-0.056
X-7.052 Y40.356 Z-3.126 I0.948 J0.056
X-8.948 Y40.244 Z-3.23 I-0.948 J-0.056
X-7.052 Y40.356 Z-3.334 I0.948 J0.056
X-8.948 Y40.244 Z-3.439 I-0.948 J-0.056
X-7.052 Y40.356 Z-3.543 I0.948 J0.056
X-8.948 Y40.244 Z-3.647 I-0.948 J-0.056
X-7.052 Y40.356 Z-3.751 I0.948 J0.056
X-8.948 Y40.244 Z-3.856 I-0.948 J-0.056
X-7.052 Y40.356 Z-3.96 I0.948 J0.056
X-8.948 Y40.244 Z-4.064 I-0.948 J-0.056
X-7.052 Y40.356 Z-4.168 I0.948 J0.056
X-8.948 Y40.244 Z-4.272 I-0.948 J-0.056
X-7.052 Y40.356 Z-4.377 I0.948 J0.056
X-8.948 Y40.244 Z-4.481 I-0.948 J-0.056
X-7.052 Y40.356 Z-4.585 I0.948 J0.056
X-8.948 Y40.244 Z-4.689 I-0.948 J-0.056
X-7.052 Y40.356 Z-4.794 I0.948 J0.056
X-8.948 Y40.244 Z-4.898 I-0.948 J-0.056
X-7.05 Y40.3 Z-5 I0.948 J0.056
X-8.95 I-0.95
X-7.05 I0.95
G1 X-7.035 Y40.596 F850
X-7.044 Y40.702
X-7.075 Y40.803
X-7.125 Y40.897
X-7.206 Y41.019
X-7.228 Y41.048
X-7.261 Y41.08
X-7.523 Y41.256
X-7.549 Y41.273
X-7.578 Y41.289
X-7.607 Y41.301
X-7.631 Y41.307
X-7.952 Y41.371
X-7.981 Y41.374
X-8.01 Y41.375
X-8.068 Y41.367
X-8.369 Y41.307
X-8.391 Y41.302
X-8.413 Y41.293
X-8.529 Y41.221
X-8.644 Y41.144
X-8.742 Y41.077
X-8.759 Y41.06
X-8.782 Y41.036
X-8.832 Y40.962
X-8.951 Y40.783
X-8.985 Y40.731
X-8.99 Y40.721
X-9 Y40.695
X-9.007 Y40.669
X-9.074 Y40.328
X-9.076 Y40.299
X-9.074 Y40.271
X-9.029 Y40.04
X-9.006 Y39.925
X-8.999 Y39.902
X-8.99 Y39.878
X-8.947 Y39.81
X-8.793 Y39.58
X-8.778 Y39.559
X-8.759 Y39.538
X-8.644 Y39.456
X-8.449 Y39.326
X-8.431 Y39.315
X-8.413 Y39.307
X-8.385 Y39.297
X-8.356 Y39.29
X-8.068 Y39.233
X-8.01 Y39.224
X-7.981 Y39.225
X-7.952 Y39.229
X-7.722 Y39.275
X-7.607 Y39.299
X-7.584 Y39.308
X-7.561 Y39.32
X-7.491 Y39.365
X-7.298 Y39.496
X-7.261 Y39.521
X-7.245 Y39.534
X-7.229 Y39.55
X-7.207 Y39.58
X-7.03 Y39.844
X-7.007 Y39.885
X-7 Y39.905
X-6.994 Y39.925
X-6.926 Y40.271
X-6.924 Y40.299
X-6.926 Y40.328
X-6.937 Y40.386
X-6.994 Y40.674
X-7.002 Y40.702
X-7.015 Y40.731
X-7.03 Y40.756
X-7.125 Y40.897
G3 X-7.487 Y40.781 I-0.162 J-0.117
G1 Y40.78
X-7.483 Y40.74
X-7.47 Y40.701
X-7.441 Y40.668 Z-4.995
X-7.414 Y40.636 Z-4.98
X-7.389 Y40.608 Z-4.956
X-7.36 Y40.598 Z-4.925
X-7.337 Y40.59 Z-4.887
X-7.324 Y40.585 Z-4.845
X-7.319 Y40.583 Z-4.8
G0 Z5
X12.948 Y40.357
Z-1.25
G3 X11.052 Y40.244 Z-1.354 I-0.948 J-0.056 F283.3
X12.948 Y40.357 Z-1.458 I0.948 J0.056
X11.052 Y40.244 Z-1.563 I-0.948 J-0.056
X12.948 Y40.357 Z-1.667 I0.948 J0.056
X11.052 Y40.244 Z-1.771 I-0.948 J-0.056
X12.948 Y40.357 Z-1.875 I0.948 J0.056
X11.052 Y40.244 Z-1.98 I-0.948 J-0.056
X12.948 Y40.357 Z-2.084 I0.948 J0.056
X11.052 Y40.244 Z-2.188 I-0.948 J-0.056
X12.948 Y40.357 Z-2.292 I0.948 J0.056
X11.052 Y40.244 Z-2.396 I-0.948 J-0.056
X12.948 Y40.357 Z-2.501 I0.948 J0.056
X11.052 Y40.244 Z-2.605 I-0.948 J-0.056
X12.948 Y40.357 Z-2.709 I0.948 J0.056
X11.052 Y40.244 Z-2.813 I-0.948 J-0.056
X12.948 Y40.357 Z-2.918 I0.948 J0.056
X11.052 Y40.244 Z-3.022 I-0.948 J-0.056
X12.948 Y40.357 Z-3.126 I0.948 J0.056
X11.052 Y40.244 Z-3.23 I-0.948 J-0.056
X12.948 Y40.357 Z-3.334 I0.948 J0.056
X11.052 Y40.244 Z-3.439 I-0.948 J-0.056
X12.948 Y40.357 Z-3.543 I0.948 J0.056
X11.052 Y40.244 Z-3.647 I-0.948 J-0.056
X12.948 Y40.357 Z-3.751 I0.948 J0.056
X11.052 Y40.244 Z-3.856 I-0.948 J-0.056
X12.948 Y40.357 Z-3.96 I0.948 J0.056
X11.052 Y40.244 Z-4.064 I-0.948 J-0.056
X12.948 Y40.357 Z-4.168 I0.948 J0.056
X11.052 Y40.244 Z-4.272 I-0.948 J-0.056
X12.948 Y40.357 Z-4.377 I0.948 J0.056
X11.052 Y40.244 Z-4.481 I-0.948 J-0.056
X12.948 Y40.357 Z-4.585 I0.948 J0.056
X11.052 Y40.244 Z-4.689 I-0.948 J-0.056
X12.948 Y40.357 Z-4.794 I0.948 J0.056
X11.052 Y40.244 Z-4.898 I-0.948 J-0.056
X12.95 Y40.3 Z-5 I0.948 J0.056
X11.05 I-0.95
X12.95 I0.95
G1 X12.965 Y40.596 F850
X12.956 Y40.702
X12.926 Y40.803
X12.876 Y40.896
X12.793 Y41.02
X12.772 Y41.049
X12.741 Y41.077
X12.678 Y41.121
X12.471 Y41.26
X12.447 Y41.275
X12.408 Y41.295
X12.388 Y41.302
X12.369 Y41.307
X12.044 Y41.372
X12.015 Y41.375
X11.986
X11.871 Y41.355
X11.631 Y41.307
X11.605 Y41.3
X11.578 Y41.288
X11.525 Y41.257
X11.295 Y41.103
X11.258 Y41.077
X11.232 Y41.052
X11.212 Y41.028
X11.064 Y40.807
X11.015 Y40.731
X11.002 Y40.702
X10.994 Y40.674
X10.931 Y40.354
X10.926 Y40.328
X10.924 Y40.299
X10.926 Y40.271
X10.994 Y39.925
X11.003 Y39.896
X11.015 Y39.868
X11.064 Y39.793
X11.207 Y39.58
X11.225 Y39.555
X11.251 Y39.529
X11.295 Y39.497
X11.554 Y39.324
X11.583 Y39.309
X11.612 Y39.298
X11.641 Y39.291
X11.926 Y39.234
X11.986 Y39.225
X12.03 Y39.226
X12.217 Y39.263
X12.332 Y39.286
X12.39 Y39.298
X12.418 Y39.31
X12.447 Y39.325
X12.735 Y39.517
X12.752 Y39.531
X12.769 Y39.548
X12.793 Y39.58
X12.947 Y39.81
X12.983 Y39.868
X12.997 Y39.896
X13.006 Y39.925
X13.074 Y40.271
X13.076 Y40.299
X13.074 Y40.328
X13.063 Y40.386
X13.006 Y40.674
X12.998 Y40.702
X12.985 Y40.731
X12.876 Y40.896
G3 X12.514 Y40.78 I-0.162 J-0.117
G1 X12.518 Y40.739
X12.53 Y40.7
X12.559 Y40.667 Z-4.995
X12.587 Y40.636 Z-4.98
X12.611 Y40.608 Z-4.956
X12.641 Y40.597 Z-4.925
X12.663 Y40.589 Z-4.887
X12.677 Y40.584 Z-4.845
X12.681 Y40.582 Z-4.8
G0 Z5
X-7.052 Y40.356
Z-2.5
G3 X-8.948 Y40.244 Z-2.604 I-0.948 J-0.056 F283.3
X-7.052 Y40.356 Z-2.708 I0.948 J0.056
X-8.948 Y40.244 Z-2.813 I-0.948 J-0.056
X-7.052 Y40.356 Z-2.917 I0.948 J0.056
X-8.948 Y40.244 Z-3.021 I-0.948 J-0.056
X-7.052 Y40.356 Z-3.125 I0.948 J0.056
X-8.948 Y40.244 Z-3.23 I-0.948 J-0.056
X-7.052 Y40.356 Z-3.334 I0.948 J0.056
X-8.948 Y40.244 Z-3.438 I-0.948 J-0.056
X-7.052 Y40.356 Z-3.542 I0.948 J0.056
X-8.948 Y40.244 Z-3.646 I-0.948 J-0.056
X-7.052 Y40.356 Z-3.751 I0.948 J0.056
X-8.948 Y40.244 Z-3.855 I-0.948 J-0.056
X-7.052 Y40.356 Z-3.959 I0.948 J0.056
X-8.948 Y40.244 Z-4.063 I-0.948 J-0.056
X-7.052 Y40.356 Z-4.168 I0.948 J0.056
X-8.948 Y40.244 Z-4.272 I-0.948 J-0.056
X-7.052 Y40.356 Z-4.376 I0.948 J0.056
X-8.948 Y40.244 Z-4.48 I-0.948 J-0.056
X-7.052 Y40.356 Z-4.584 I0.948 J0.056
X-8.948 Y40.244 Z-4.689 I-0.948 J-0.056
X-7.052 Y40.356 Z-4.793 I0.948 J0.056
X-8.948 Y40.244 Z-4.897 I-0.948 J-0.056
X-7.052 Y40.356 Z-5.001 I0.948 J0.056
X-8.948 Y40.244 Z-5.106 I-0.948 J-0.056
X-7.052 Y40.356 Z-5.21 I0.948 J0.056
X-8.948 Y40.244 Z-5.314 I-0.948 J-0.056
X-7.052 Y40.356 Z-5.418 I0.948 J0.056
X-8.948 Y40.244 Z-5.522 I-0.948 J-0.056
X-7.052 Y40.356 Z-5.627 I0.948 J0.056
X-8.948 Y40.244 Z-5.731 I-0.948 J-0.056
X-7.052 Y40.356 Z-5.835 I0.948 J0.056
X-8.948 Y40.244 Z-5.939 I-0.948 J-0.056
X-7.052 Y40.356 Z-6.044 I0.948 J0.056
X-8.948 Y40.244 Z-6.148 I-0.948 J-0.056
X-7.05 Y40.3 Z-6.25 I0.948 J0.056
X-8.95 I-0.95
X-7.05 I0.95
G1 X-7.035 Y40.596 F850
X-7.044 Y40.702
X-7.075 Y40.803
X-7.125 Y40.897
X-7.206 Y41.019
X-7.228 Y41.048
X-7.261 Y41.08
X-7.523 Y41.256
X-7.549 Y41.273
X-7.578 Y41.289
X-7.607 Y41.301
X-7.631 Y41.307
X-7.952 Y41.371
X-7.981 Y41.374
X-8.01 Y41.375
X-8.068 Y41.367
X-8.369 Y41.307
X-8.391 Y41.302
X-8.413 Y41.293
X-8.529 Y41.221
X-8.644 Y41.144
X-8.742 Y41.077
X-8.759 Y41.06
X-8.782 Y41.036
X-8.832 Y40.962
X-8.951 Y40.783
X-8.985 Y40.731
X-8.99 Y40.721
X-9 Y40.695
X-9.007 Y40.669
X-9.074 Y40.328
X-9.076 Y40.299
X-9.074 Y40.271
X-9.029 Y40.04
X-9.006 Y39.925
X-8.999 Y39.902
X-8.99 Y39.878
X-8.947 Y39.81
X-8.793 Y39.58
X-8.778 Y39.559
X-8.759 Y39.538
X-8.644 Y39.456
X-8.449 Y39.326
X-8.431 Y39.315
X-8.413 Y39.307
X-8.385 Y39.297
X-8.356 Y39.29
X-8.068 Y39.233
X-8.01 Y39.224
X-7.981 Y39.225
X-7.952 Y39.229
X-7.722 Y39.275
X-7.607 Y39.299
X-7.584 Y39.308
X-7.561 Y39.32
X-7.491 Y39.365
X-7.298 Y39.496
X-7.261 Y39.521
X-7.245 Y39.534
X-7.229 Y39.55
X-7.207 Y39.58
X-7.03 Y39.844
X-7.007 Y39.885
X-7 Y39.905
X-6.994 Y39.925
X-6.926 Y40.271
X-6.924 Y40.299
X-6.926 Y40.328
X-6.937 Y40.386
X-6.994 Y40.674
X-7.002 Y40.702
X-7.015 Y40.731
X-7.03 Y40.756
X-7.125 Y40.897
G3 X-7.487 Y40.781 I-0.162 J-0.117
G1 Y40.78
X-7.483 Y40.74
X-7.47 Y40.701
X-7.441 Y40.668 Z-6.245
X-7.414 Y40.636 Z-6.23
X-7.389 Y40.608 Z-6.206
X-7.36 Y40.598 Z-6.175
X-7.337 Y40.59 Z-6.137
X-7.324 Y40.585 Z-6.095
X-7.319 Y40.583 Z-6.05
G0 Z5
X12.948 Y40.357
Z-2.5
G3 X11.052 Y40.244 Z-2.604 I-0.948 J-0.056 F283.3
X12.948 Y40.357 Z-2.708 I0.948 J0.056
X11.052 Y40.244 Z-2.813 I-0.948 J-0.056
X12.948 Y40.357 Z-2.917 I0.948 J0.056
X11.052 Y40.244 Z-3.021 I-0.948 J-0.056
X12.948 Y40.357 Z-3.125 I0.948 J0.056
X11.052 Y40.244 Z-3.23 I-0.948 J-0.056
X12.948 Y40.357 Z-3.334 I0.948 J0.056
X11.052 Y40.244 Z-3.438 I-0.948 J-0.056
X12.948 Y40.357 Z-3.542 I0.948 J0.056
X11.052 Y40.244 Z-3.646 I-0.948 J-0.056
X12.948 Y40.357 Z-3.751 I0.948 J0.056
X11.052 Y40.244 Z-3.855 I-0.948 J-0.056
X12.948 Y40.357 Z-3.959 I0.948 J0.056
X11.052 Y40.244 Z-4.063 I-0.948 J-0.056
X12.948 Y40.357 Z-4.168 I0.948 J0.056
X11.052 Y40.244 Z-4.272 I-0.948 J-0.056
X12.948 Y40.357 Z-4.376 I0.948 J0.056
X11.052 Y40.244 Z-4.48 I-0.948 J-0.056
X12.948 Y40.357 Z-4.584 I0.948 J0.056
X11.052 Y40.244 Z-4.689 I-0.948 J-0.056
X12.948 Y40.357 Z-4.793 I0.948 J0.056
X11.052 Y40.244 Z-4.897 I-0.948 J-0.056
X12.948 Y40.357 Z-5.001 I0.948 J0.056
X11.052 Y40.244 Z-5.106 I-0.948 J-0.056
X12.948 Y40.357 Z-5.21 I0.948 J0.056
X11.052 Y40.244 Z-5.314 I-0.948 J-0.056
X12.948 Y40.357 Z-5.418 I0.948 J0.056
X11.052 Y40.244 Z-5.522 I-0.948 J-0.056
X12.948 Y40.357 Z-5.627 I0.948 J0.056
X11.052 Y40.244 Z-5.731 I-0.948 J-0.056
X12.948 Y40.357 Z-5.835 I0.948 J0.056
X11.052 Y40.244 Z-5.939 I-0.948 J-0.056
X12.948 Y40.357 Z-6.044 I0.948 J0.056
X11.052 Y40.244 Z-6.148 I-0.948 J-0.056
X12.95 Y40.3 Z-6.25 I0.948 J0.056
X11.05 I-0.95
X12.95 I0.95
G1 X12.965 Y40.596 F850
X12.956 Y40.702
X12.926 Y40.803
X12.876 Y40.896
X12.793 Y41.02
X12.772 Y41.049
X12.741 Y41.077
X12.678 Y41.121
X12.471 Y41.26
X12.447 Y41.275
X12.408 Y41.295
X12.388 Y41.302
X12.369 Y41.307
X12.044 Y41.372
X12.015 Y41.375
X11.986
X11.871 Y41.355
X11.631 Y41.307
X11.605 Y41.3
X11.578 Y41.288
X11.525 Y41.257
X11.295 Y41.103
X11.258 Y41.077
X11.232 Y41.052
X11.212 Y41.028
X11.064 Y40.807
X11.015 Y40.731
X11.002 Y40.702
X10.994 Y40.674
X10.931 Y40.354
X10.926 Y40.328
X10.924 Y40.299
X10.926 Y40.271
X10.994 Y39.925
X11.003 Y39.896
X11.015 Y39.868
X11.064 Y39.793
X11.207 Y39.58
X11.225 Y39.555
X11.251 Y39.529
X11.295 Y39.497
X11.554 Y39.324
X11.583 Y39.309
X11.612 Y39.298
X11.641 Y39.291
X11.926 Y39.234
X11.986 Y39.225
X12.03 Y39.226
X12.217 Y39.263
X12.332 Y39.286
X12.39 Y39.298
X12.418 Y39.31
X12.447 Y39.325
X12.735 Y39.517
X12.752 Y39.531
X12.769 Y39.548
X12.793 Y39.58
X12.947 Y39.81
X12.983 Y39.868
X12.997 Y39.896
X13.006 Y39.925
X13.074 Y40.271
X13.076 Y40.299
X13.074 Y40.328
X13.063 Y40.386
X13.006 Y40.674
X12.998 Y40.702
X12.985 Y40.731
X12.876 Y40.896
G3 X12.514 Y40.78 I-0.162 J-0.117
G1 X12.518 Y40.739
X12.53 Y40.7
X12.559 Y40.667 Z-6.245
X12.587 Y40.636 Z-6.23
X12.611 Y40.608 Z-6.206
X12.641 Y40.597 Z-6.175
X12.663 Y40.589 Z-6.137
X12.677 Y40.584 Z-6.095
X12.681 Y40.582 Z-6.05
G0 Z5
X-8.443 Y41.14
Z-3.75
G3 X-7.557 Y39.46 Z-3.854 I0.443 J-0.84 F283.3
X-8.443 Y41.14 Z-3.958 I-0.443 J0.84
X-7.557 Y39.46 Z-4.063 I0.443 J-0.84
X-8.443 Y41.14 Z-4.167 I-0.443 J0.84
X-7.557 Y39.46 Z-4.271 I0.443 J-0.84
X-8.443 Y41.14 Z-4.375 I-0.443 J0.84
X-7.557 Y39.46 Z-4.48 I0.443 J-0.84
X-8.443 Y41.14 Z-4.584 I-0.443 J0.84
X-7.557 Y39.46 Z-4.688 I0.443 J-0.84
X-8.443 Y41.14 Z-4.792 I-0.443 J0.84
X-7.557 Y39.46 Z-4.896 I0.443 J-0.84
X-8.443 Y41.14 Z-5.001 I-0.443 J0.84
X-7.557 Y39.46 Z-5.105 I0.443 J-0.84
X-8.443 Y41.14 Z-5.209 I-0.443 J0.84
X-7.557 Y39.46 Z-5.313 I0.443 J-0.84
X-8.443 Y41.14 Z-5.418 I-0.443 J0.84
X-7.557 Y39.46 Z-5.522 I0.443 J-0.84
X-8.443 Y41.14 Z-5.626 I-0.443 J0.84
X-7.557 Y39.46 Z-5.73 I0.443 J-0.84
X-8.443 Y41.14 Z-5.834 I-0.443 J0.84
X-7.557 Y39.46 Z-5.939 I0.443 J-0.84
X-8.443 Y41.14 Z-6.043 I-0.443 J0.84
X-7.557 Y39.46 Z-6.147 I0.443 J-0.84
X-8.443 Y41.14 Z-6.251 I-0.443 J0.84
X-7.557 Y39.46 Z-6.356 I0.443 J-0.84
X-8.443 Y41.14 Z-6.46 I-0.443 J0.84
X-7.557 Y39.46 Z-6.564 I0.443 J-0.84
X-7.05 Y40.3 Z-6.6 I-0.443 J0.84
X-8.95 I-0.95
X-7.05 I0.95
G1 X-7.035 Y40.596 F850
X-7.044 Y40.702
X-7.075 Y40.803
X-7.125 Y40.897
X-7.206 Y41.019
X-7.228 Y41.048
X-7.261 Y41.08
X-7.523 Y41.256
X-7.549 Y41.273
X-7.578 Y41.289
X-7.607 Y41.301
X-7.631 Y41.307
X-7.952 Y41.371
X-7.981 Y41.374
X-8.01 Y41.375
X-8.068 Y41.367
X-8.369 Y41.307
X-8.391 Y41.302
X-8.413 Y41.293
X-8.529 Y41.221
X-8.644 Y41.144
X-8.742 Y41.077
X-8.759 Y41.06
X-8.782 Y41.036
X-8.832 Y40.962
X-8.951 Y40.783
X-8.985 Y40.731
X-8.99 Y40.721
X-9 Y40.695
X-9.007 Y40.669
X-9.074 Y40.328
X-9.076 Y40.299
X-9.074 Y40.271
X-9.029 Y40.04
X-9.006 Y39.925
X-8.999 Y39.902
X-8.99 Y39.878
X-8.947 Y39.81
X-8.793 Y39.58
X-8.778 Y39.559
X-8.759 Y39.538
X-8.644 Y39.456
X-8.449 Y39.326
X-8.431 Y39.315
X-8.413 Y39.307
X-8.385 Y39.297
X-8.356 Y39.29
X-8.068 Y39.233
X-8.01 Y39.224
X-7.981 Y39.225
X-7.952 Y39.229
X-7.722 Y39.275
X-7.607 Y39.299
X-7.584 Y39.308
X-7.561 Y39.32
X-7.491 Y39.365
X-7.298 Y39.496
X-7.261 Y39.521
X-7.245 Y39.534
X-7.229 Y39.55
X-7.207 Y39.58
X-7.03 Y39.844
X-7.007 Y39.885
X-7 Y39.905
X-6.994 Y39.925
X-6.926 Y40.271
X-6.924 Y40.299
X-6.926 Y40.328
X-6.937 Y40.386
X-6.994 Y40.674
X-7.002 Y40.702
X-7.015 Y40.731
X-7.03 Y40.756
X-7.125 Y40.897
G3 X-7.487 Y40.781 I-0.162 J-0.117
G1 Y40.78
X-7.483 Y40.74
X-7.47 Y40.701
X-7.441 Y40.668 Z-6.595
X-7.414 Y40.636 Z-6.58
X-7.389 Y40.608 Z-6.556
X-7.36 Y40.598 Z-6.525
X-7.337 Y40.59 Z-6.487
X-7.324 Y40.585 Z-6.445
X-7.319 Y40.583 Z-6.4
G0 Z5
X11.557 Y41.141
Z-3.75
G3 X12.443 Y39.46 Z-3.854 I0.443 J-0.84 F283.3
X11.557 Y41.141 Z-3.958 I-0.443 J0.84
X12.443 Y39.46 Z-4.063 I0.443 J-0.84
X11.557 Y41.141 Z-4.167 I-0.443 J0.84
X12.443 Y39.46 Z-4.271 I0.443 J-0.84
X11.557 Y41.141 Z-4.375 I-0.443 J0.84
X12.443 Y39.46 Z-4.48 I0.443 J-0.84
X11.557 Y41.141 Z-4.584 I-0.443 J0.84
X12.443 Y39.46 Z-4.688 I0.443 J-0.84
X11.557 Y41.141 Z-4.792 I-0.443 J0.84
X12.443 Y39.46 Z-4.896 I0.443 J-0.84
X11.557 Y41.141 Z-5.001 I-0.443 J0.84
X12.443 Y39.46 Z-5.105 I0.443 J-0.84
X11.557 Y41.141 Z-5.209 I-0.443 J0.84
X12.443 Y39.46 Z-5.313 I0.443 J-0.84
X11.557 Y41.141 Z-5.418 I-0.443 J0.84
X12.443 Y39.46 Z-5.522 I0.443 J-0.84
X11.557 Y41.141 Z-5.626 I-0.443 J0.84
X12.443 Y39.46 Z-5.73 I0.443 J-0.84
X11.557 Y41.141 Z-5.834 I-0.443 J0.84
X12.443 Y39.46 Z-5.939 I0.443 J-0.84
X11.557 Y41.141 Z-6.043 I-0.443 J0.84
X12.443 Y39.46 Z-6.147 I0.443 J-0.84
X11.557 Y41.141 Z-6.251 I-0.443 J0.84
X12.443 Y39.46 Z-6.356 I0.443 J-0.84
X11.557 Y41.141 Z-6.46 I-0.443 J0.84
X12.443 Y39.46 Z-6.564 I0.443 J-0.84
X12.95 Y40.3 Z-6.6 I-0.443 J0.84
X11.05 I-0.95
X12.95 I0.95
G1 X12.965 Y40.596 F850
X12.956 Y40.702
X12.926 Y40.803
X12.876 Y40.896
X12.793 Y41.02
X12.772 Y41.049
X12.741 Y41.077
X12.678 Y41.121
X12.471 Y41.26
X12.447 Y41.275
X12.408 Y41.295
X12.388 Y41.302
X12.369 Y41.307
X12.044 Y41.372
X12.015 Y41.375
X11.986
X11.871 Y41.355
X11.631 Y41.307
X11.605 Y41.3
X11.578 Y41.288
X11.525 Y41.257
X11.295 Y41.103
X11.258 Y41.077
X11.232 Y41.052
X11.212 Y41.028
X11.064 Y40.807
X11.015 Y40.731
X11.002 Y40.702
X10.994 Y40.674
X10.931 Y40.354
X10.926 Y40.328
X10.924 Y40.299
X10.926 Y40.271
X10.994 Y39.925
X11.003 Y39.896
X11.015 Y39.868
X11.064 Y39.793
X11.207 Y39.58
X11.225 Y39.555
X11.251 Y39.529
X11.295 Y39.497
X11.554 Y39.324
X11.583 Y39.309
X11.612 Y39.298
X11.641 Y39.291
X11.926 Y39.234
X11.986 Y39.225
X12.03 Y39.226
X12.217 Y39.263
X12.332 Y39.286
X12.39 Y39.298
X12.418 Y39.31
X12.447 Y39.325
X12.735 Y39.517
X12.752 Y39.531
X12.769 Y39.548
X12.793 Y39.58
X12.947 Y39.81
X12.983 Y39.868
X12.997 Y39.896
X13.006 Y39.925
X13.074 Y40.271
X13.076 Y40.299
X13.074 Y40.328
X13.063 Y40.386
X13.006 Y40.674
X12.998 Y40.702
X12.985 Y40.731
X12.876 Y40.896
G3 X12.514 Y40.78 I-0.162 J-0.117
X12.681 Y40.582 I0.2
G1 X12.732 Y40.574 Z-6.593
X12.78 Y40.566 Z-6.573
X12.821 Y40.559 Z-6.541
X12.852 Y40.554 Z-6.5
X12.872 Y40.551 Z-6.452
X12.879 Y40.55 Z-6.4
G0 Z15

(backlash_nut_bottom_cleaning)
X-8 Y40.3
Z15
Z5
Z2.55
G1 Z-6.6 F283.3
X-8.007 Y40.337 F850
X-8.029 Y40.306
X-8.008 Y40.275
X-7.975 Y40.293
X-7.97 Y40.33
X-7.991 Y40.361
X-8.028 Y40.354
X-8.054 Y40.327
X-8.056 Y40.29
X-8.038 Y40.257
X-8.001 Y40.248
X-7.965 Y40.258
X-7.941 Y40.287
X-7.934 Y40.324
X-7.943 Y40.36
X-7.969 Y40.387
X-8.006 Y40.396
X-8.043 Y40.388
X-8.073 Y40.367
X-8.092 Y40.335
X-8.097 Y40.297
X-8.089 Y40.261
X-8.066 Y40.231
X-8.033 Y40.213
X-7.996 Y40.207
X-7.96 Y40.215
X-7.928 Y40.235
X-7.904 Y40.264
X-7.891 Y40.299
X-7.889 Y40.336
X-7.899 Y40.373
X-7.92 Y40.403
X-7.95 Y40.426
X-7.985 Y40.44
X-8.023 Y40.441
X-8.059 Y40.433
X-8.092 Y40.415
X-8.118 Y40.388
X-8.137 Y40.356
X-8.147 Y40.32
Y40.282
X-8.137 Y40.246
X-8.118 Y40.213
X-8.092 Y40.187
X-8.06 Y40.167
X-8.024 Y40.156
X-7.949 Y40.153
X-7.882 Y40.185
X-7.835 Y40.244
X-7.816 Y40.317
X-7.827 Y40.391
X-7.867 Y40.454
X-7.927 Y40.499
X-8 Y40.518
X-8.074 Y40.509
X-8.141 Y40.476
X-8.193 Y40.421
X-8.222 Y40.352
X-8.227 Y40.277
X-8.207 Y40.205
X-8.165 Y40.143
X-8.105 Y40.098
X-8.035 Y40.071
X-7.96 Y40.066
X-7.888 Y40.086
X-7.823 Y40.124
X-7.773 Y40.18
X-7.741 Y40.248
X-7.728 Y40.322
X-7.736 Y40.396
X-7.765 Y40.466
X-7.811 Y40.525
X-7.87 Y40.571
X-7.939 Y40.6
X-8.013 Y40.61
X-8.088 Y40.602
X-8.158 Y40.575
X-8.281 Y40.489
X-8.344 Y40.353
X-8.337 Y40.203
X-8.268 Y40.07
X-8.151 Y39.976
X-8.006 Y39.938
X-7.857 Y39.957
X-7.728 Y40.033
X-7.637 Y40.153
X-7.596 Y40.297
X-7.613 Y40.446
X-7.68 Y40.58
X-7.791 Y40.682
X-7.93 Y40.737
X-8.08 Y40.743
X-8.225 Y40.703
X-8.347 Y40.616
X-8.438 Y40.497
X-8.484 Y40.354
X-8.479 Y40.204
X-8.429 Y40.062
X-8.342 Y39.94
X-8.221 Y39.852
X-8.079 Y39.804
X-7.929 Y39.796
X-7.783 Y39.83
X-7.654 Y39.906
X-7.552 Y40.015
X-7.48 Y40.148
X-7.448 Y40.294
X-7.459 Y40.444
X-7.51 Y40.585
X-7.594 Y40.709
X-7.708 Y40.807
X-7.844 Y40.87
X-7.991 Y40.897
X-8.141 Y40.889
X-8.284 Y40.845
X-8.412 Y40.766
X-8.516 Y40.658
X-8.593 Y40.529
X-8.635 Y40.385
X-8.64 Y40.235
X-8.61 Y40.088
X-8.548 Y39.951
X-8.457 Y39.832
X-8.34 Y39.738
X-8.205 Y39.673
X-8.059 Y39.639
X-7.909 Y39.636
X-7.762 Y39.666
X-7.626 Y39.73
X-7.507 Y39.821
X-7.409 Y39.935
X-7.337 Y40.066
X-7.295 Y40.21
X-7.286 Y40.36
X-7.308 Y40.508
X-7.358 Y40.65
X-7.436 Y40.778
X-7.539 Y40.886
X-7.663 Y40.971
X-7.801 Y41.03
X-7.948 Y41.062
X-8.098 Y41.065
X-8.245 Y41.038
X-8.384 Y40.982
X-8.511 Y40.902
X-8.621 Y40.799
X-8.708 Y40.677
X-8.769 Y40.54
X-8.803 Y40.394
X-8.811 Y40.244
X-8.791 Y40.096
X-8.743 Y39.953
X-8.67 Y39.823
X-8.574 Y39.707
X-8.459 Y39.61
X-8.329 Y39.536
X-8.188 Y39.485
X-8.04 Y39.461
X-7.89 Y39.463
X-7.743 Y39.491
X-7.602 Y39.544
X-7.473 Y39.62
X-7.36 Y39.718
X-7.264 Y39.834
X-7.189 Y39.964
X-7.138 Y40.105
X-7.112 Y40.253
X-7.111 Y40.403
X-7.135 Y40.551
X-7.182 Y40.693
X-7.252 Y40.826
X-7.343 Y40.945
X-7.454 Y41.046
X-7.579 Y41.129
X-7.715 Y41.191
X-7.86 Y41.232
X-8.009 Y41.249
X-8.158 Y41.24
X-8.305 Y41.209
X-8.445 Y41.155
X-8.575 Y41.081
X-8.693 Y40.987
X-8.793 Y40.876
X-8.875 Y40.75
X-8.936 Y40.613
X-8.976 Y40.468
X-8.995 Y40.32
X-8.99 Y40.17
X-8.962 Y40.022
X-8.912 Y39.881
X-8.841 Y39.749
X-8.752 Y39.628
X-8.647 Y39.521
X-8.527 Y39.431
X-8.394 Y39.361
X-8.253 Y39.311
X-8.106 Y39.281
X-7.956 Y39.272
X-7.807 Y39.285
X-7.661 Y39.319
X-7.522 Y39.375
X-7.392 Y39.45
X-7.273 Y39.542
X-7.168 Y39.649
X-7.078 Y39.773
X-7.071 Y39.783
X-7.053 Y39.81
X-7.03 Y39.844
X-7.007 Y39.885
X-6.995 Y39.923
G3 X-7.285 Y39.99 I-0.145 J0.033
X-7.057 Y39.833 I0.145 J-0.033
G1 X-7.029 Y39.856
X-7.007 Y39.885
X-7 Y39.905
X-6.994 Y39.925
X-6.959 Y40.104
X-6.953 Y40.132
X-6.948 Y40.156
X-6.927 Y40.304
X-6.928 Y40.325
X-6.93 Y40.347
X-6.933 Y40.368
G3 X-7.327 Y40.348 I-0.195 J-0.043
G1 X-7.342 Y40.225
G3 X-6.948 Y40.156 I0.199 J-0.023
G1 X-6.926 Y40.271
X-6.924 Y40.299
X-6.926 Y40.328
X-6.937 Y40.386
X-6.972 Y40.564
X-6.978 Y40.593
X-6.982 Y40.616
X-7.007 Y40.713
G3 X-7.383 Y40.594 I-0.179 J-0.09
G1 X-7.378 Y40.555
G3 X-7.149 Y40.386 I0.198 J0.029
X-6.982 Y40.616 I-0.03 J0.198
G1 X-6.994 Y40.674
X-7.002 Y40.702
X-7.015 Y40.731
X-7.03 Y40.756
X-7.168 Y40.962
X-7.189 Y40.993
X-7.206 Y41.019
X-7.244 Y41.063
G3 X-7.532 Y41.045 I-0.136 J-0.147
X-7.501 Y40.758 I0.153 J-0.129
G1 X-7.498 Y40.755
G3 X-7.206 Y41.019 I0.122 J0.159
G1 X-7.228 Y41.048
X-7.261 Y41.08
X-7.523 Y41.256
X-7.549 Y41.273
X-7.578 Y41.289
X-7.607 Y41.301
X-7.631 Y41.307
X-7.952 Y41.371
X-7.981 Y41.374
X-8.01 Y41.375
X-8.068 Y41.367
X-8.369 Y41.307
X-8.391 Y41.302
X-8.413 Y41.293
X-8.529 Y41.221
X-8.644 Y41.144
X-8.742 Y41.077
X-8.759 Y41.06
X-8.782 Y41.036
X-8.832 Y40.962
X-8.909 Y40.846
X-8.985 Y40.731
X-8.99 Y40.721
X-9 Y40.695
X-9.007 Y40.669
X-9.074 Y40.328
X-9.076 Y40.299
X-9.074 Y40.271
X-9.029 Y40.04
X-9.006 Y39.925
X-8.999 Y39.902
X-8.99 Y39.878
X-8.947 Y39.81
X-8.793 Y39.58
X-8.778 Y39.559
X-8.759 Y39.538
X-8.644 Y39.456
X-8.449 Y39.326
X-8.431 Y39.315
X-8.413 Y39.307
X-8.385 Y39.297
X-8.356 Y39.29
X-8.068 Y39.233
X-8.01 Y39.224
X-7.981 Y39.225
X-7.952 Y39.229
X-7.722 Y39.275
X-7.607 Y39.299
X-7.584 Y39.308
X-7.561 Y39.32
X-7.491 Y39.365
X-7.343 Y39.465
X-7.261 Y39.521
X-7.245 Y39.534
X-7.229 Y39.55
X-7.207 Y39.58
X-7.071 Y39.783
X-7.049 Y39.833
X-7.041 Y39.887
Y39.888
G3 X-7.385 Y40.027 I-0.2
G1 X-7.404 Y39.988 Z-6.595
X-7.423 Y39.95 Z-6.58
X-7.439 Y39.917 Z-6.556
X-7.441 Y39.894 Z-6.535
Y39.888 Z-6.528
X-7.438 Y39.863 Z-6.489
X-7.437 Y39.847 Z-6.446
X-7.436 Y39.842 Z-6.4
G0 Z5
X12 Y40.3
Z2.55
G1 Z-6.6 F283.3
X12.007 Y40.263 F850
X12.028 Y40.294
X12.008 Y40.325
X11.975 Y40.307
X11.97 Y40.27
X11.991 Y40.239
X12.028 Y40.246
X12.054 Y40.273
X12.056 Y40.31
X12.037 Y40.343
X12.001 Y40.352
X11.965 Y40.342
X11.941 Y40.313
X11.934 Y40.276
X11.943 Y40.24
X11.969 Y40.213
X12.006 Y40.204
X12.042 Y40.211
X12.073 Y40.233
X12.092 Y40.265
X12.097 Y40.302
X12.089 Y40.339
X12.066 Y40.368
X12.033 Y40.387
X11.996 Y40.393
X11.96 Y40.385
X11.928 Y40.365
X11.904 Y40.336
X11.891 Y40.301
X11.889 Y40.263
X11.899 Y40.227
X11.92 Y40.197
X11.95 Y40.173
X11.985 Y40.16
X12.022 Y40.159
X12.059 Y40.167
X12.092 Y40.185
X12.118 Y40.212
X12.137 Y40.244
X12.147 Y40.28
Y40.318
X12.137 Y40.354
X12.118 Y40.386
X12.092 Y40.413
X12.06 Y40.432
X12.024 Y40.443
X11.949 Y40.447
X11.882 Y40.414
X11.835 Y40.356
X11.816 Y40.283
X11.827 Y40.209
X11.867 Y40.145
X11.927 Y40.101
X12 Y40.082
X12.074 Y40.09
X12.141 Y40.124
X12.192 Y40.179
X12.222 Y40.248
X12.227 Y40.323
X12.207 Y40.395
X12.165 Y40.457
X12.105 Y40.502
X12.035 Y40.529
X11.96 Y40.533
X11.888 Y40.514
X11.823 Y40.475
X11.773 Y40.42
X11.741 Y40.352
X11.728 Y40.278
X11.736 Y40.204
X11.765 Y40.134
X11.811 Y40.075
X11.87 Y40.029
X11.939 Y40
X12.013 Y39.99
X12.088 Y39.998
X12.158 Y40.024
X12.281 Y40.111
X12.344 Y40.247
X12.337 Y40.397
X12.268 Y40.53
X12.151 Y40.624
X12.006 Y40.662
X11.857 Y40.642
X11.728 Y40.566
X11.637 Y40.447
X11.596 Y40.303
X11.613 Y40.154
X11.68 Y40.02
X11.791 Y39.918
X11.93 Y39.863
X12.08 Y39.857
X12.225 Y39.897
X12.347 Y39.984
X12.438 Y40.103
X12.483 Y40.246
X12.479 Y40.396
X12.429 Y40.538
X12.342 Y40.659
X12.221 Y40.748
X12.079 Y40.796
X11.929 Y40.804
X11.783 Y40.77
X11.654 Y40.694
X11.551 Y40.584
X11.48 Y40.452
X11.448 Y40.306
X11.459 Y40.156
X11.51 Y40.015
X11.594 Y39.891
X11.708 Y39.793
X11.844 Y39.73
X11.991 Y39.703
X12.141 Y39.711
X12.284 Y39.755
X12.412 Y39.834
X12.516 Y39.942
X12.592 Y40.071
X12.635 Y40.215
X12.64 Y40.365
X12.61 Y40.512
X12.548 Y40.648
X12.457 Y40.768
X12.34 Y40.862
X12.205 Y40.927
X12.059 Y40.961
X11.909 Y40.964
X11.762 Y40.934
X11.626 Y40.87
X11.507 Y40.778
X11.409 Y40.665
X11.337 Y40.534
X11.295 Y40.39
X11.286 Y40.24
X11.308 Y40.092
X11.358 Y39.95
X11.436 Y39.822
X11.539 Y39.714
X11.663 Y39.629
X11.801 Y39.57
X11.948 Y39.538
X12.098 Y39.535
X12.245 Y39.562
X12.384 Y39.618
X12.511 Y39.698
X12.621 Y39.801
X12.708 Y39.923
X12.769 Y40.06
X12.803 Y40.206
X12.811 Y40.356
X12.791 Y40.504
X12.743 Y40.647
X12.67 Y40.777
X12.574 Y40.893
X12.459 Y40.989
X12.329 Y41.064
X12.188 Y41.115
X12.04 Y41.139
X11.89 Y41.137
X11.742 Y41.109
X11.602 Y41.056
X11.473 Y40.979
X11.36 Y40.881
X11.264 Y40.766
X11.189 Y40.636
X11.138 Y40.495
X11.111 Y40.347
Y40.197
X11.135 Y40.049
X11.182 Y39.907
X11.252 Y39.774
X11.343 Y39.655
X11.454 Y39.554
X11.579 Y39.471
X11.715 Y39.409
X11.86 Y39.368
X12.009 Y39.351
X12.158 Y39.359
X12.305 Y39.391
X12.445 Y39.445
X12.575 Y39.519
X12.693 Y39.613
X12.793 Y39.724
X12.875 Y39.85
X12.936 Y39.987
X12.976 Y40.131
X12.995 Y40.28
X12.99 Y40.43
X12.962 Y40.578
X12.912 Y40.719
X12.841 Y40.851
X12.752 Y40.972
X12.647 Y41.079
X12.527 Y41.169
X12.394 Y41.239
X12.253 Y41.289
X12.106 Y41.319
X11.956 Y41.328
X11.807 Y41.315
X11.661 Y41.281
X11.521 Y41.225
X11.392 Y41.15
X11.273 Y41.058
X11.168 Y40.951
X11.078 Y40.827
X11.072 Y40.818
X11.064 Y40.807
X11.037 Y40.765
X11.015 Y40.731
X10.998 Y40.688
G3 X11.269 Y40.621 I0.136 J-0.033
X11.074 Y40.781 I-0.136 J0.033
G1 X11.041 Y40.76
X11.015 Y40.731
X11.002 Y40.702
X10.994 Y40.674
X10.96 Y40.501
X10.954 Y40.472
X10.949 Y40.448
X10.927 Y40.299
X10.928 Y40.274
X10.931 Y40.248
X10.935 Y40.223
G3 X11.329 Y40.248 I0.195 J0.045
G1 X11.343 Y40.381
G3 X10.949 Y40.448 I-0.199 J0.02
G1 X10.926 Y40.328
X10.924 Y40.299
X10.926 Y40.271
X10.971 Y40.04
X10.978 Y40.006
X10.987 Y39.961
X11.005 Y39.891
G3 X11.314 Y39.748 I0.242 J0.118
X11.183 Y40.262 I-0.065 J0.257
X10.987 Y39.961 I0.065 J-0.257
G1 X10.994 Y39.925
X11.003 Y39.896
X11.015 Y39.868
X11.064 Y39.793
X11.157 Y39.654
X11.18 Y39.621
X11.207 Y39.58
X11.235 Y39.545
X11.275 Y39.518
X11.32 Y39.503
X11.368 Y39.501
X11.414 Y39.513
X11.455 Y39.538
G3 X11.244 Y39.799 I-0.106 J0.131
X11.207 Y39.58 I0.106 J-0.131
G1 X11.225 Y39.555
X11.251 Y39.529
X11.295 Y39.497
X11.515 Y39.35
X11.554 Y39.324
X11.583 Y39.309
X11.612 Y39.298
X11.641 Y39.291
X11.926 Y39.234
X11.986 Y39.225
X12.03 Y39.226
X12.217 Y39.263
X12.332 Y39.286
X12.39 Y39.298
X12.418 Y39.31
X12.447 Y39.325
X12.735 Y39.517
X12.752 Y39.531
X12.769 Y39.548
X12.793 Y39.58
X12.947 Y39.81
X12.983 Y39.868
X12.997 Y39.896
X13.006 Y39.925
X13.074 Y40.271
X13.076 Y40.299
X13.074 Y40.328
X13.063 Y40.386
X13.006 Y40.674
X12.998 Y40.702
X12.985 Y40.731
X12.908 Y40.848
X12.793 Y41.02
X12.772 Y41.049
X12.741 Y41.077
X12.678 Y41.121
X12.447 Y41.275
X12.408 Y41.295
X12.388 Y41.302
X12.369 Y41.307
X12.044 Y41.372
X12.015 Y41.375
X11.986
X11.871 Y41.355
X11.631 Y41.307
X11.605 Y41.3
X11.578 Y41.288
X11.525 Y41.257
X11.295 Y41.103
X11.258 Y41.077
X11.232 Y41.052
X11.212 Y41.028
X11.072 Y40.818
X11.049 Y40.768
X11.042 Y40.713
G3 X11.265 Y40.514 I0.2
X11.436 Y40.758 I-0.023 J0.199
G1 X11.424 Y40.809 Z-6.593
X11.413 Y40.856 Z-6.573
X11.404 Y40.896 Z-6.541
X11.397 Y40.927 Z-6.5
X11.392 Y40.946 Z-6.452
X11.39 Y40.953 Z-6.4
G0 Z15

(backlash_nut_finishing)
X12.5 Y40.1
Z15
Z5
G1 Z1 F283.3
Z-6.4
G18 G2 X12.7 Z-6.6 I0.2
G1 X12.9 F850
G17 G3 X13.1 Y40.3 J0.2
X10.9 I-1.1
X13.1 I1.1
X10.9 I-1.1
X13.1 I1.1
X12.9 Y40.5 I-0.2
G1 X12.7
G18 G3 X12.5 Z-6.4 K0.2
G0 Z5
X-7.5 Y40.1
G1 Z1 F283.3
Z-6.4
G2 X-7.3 Z-6.6 I0.2
G1 X-7.1 F850
G17 G3 X-6.9 Y40.3 J0.2
X-9.1 I-1.1
X-6.9 I1.1
X-9.1 I-1.1
X-6.9 I1.1
X-7.1 Y40.5 I-0.2
G1 X-7.3
G18 G3 X-7.5 Z-6.4 K0.2
G0 Z15
G17

(linear_guide_holes)
G0 X-8 Y50.3
Z15
Z2
G1 Z0 F850
X-7.8 Y51.1
G3 X-8 Y51.3 I-0.2
Y49.3 Z-0.375 J-1
Y51.3 Z-0.75 J1
Y49.3 Z-1.125 J-1
Y51.3 Z-1.5 J1
Y49.3 Z-1.875 J-1
Y51.3 Z-2.25 J1
Y49.3 Z-2.625 J-1
Y51.3 Z-3 J1
Y49.3 Z-3.375 J-1
Y51.3 Z-3.75 J1
X-8.407 Y51.214 Z-3.8 J-1
X-7.593 Y49.386 I0.407 J-0.914
X-8.407 Y51.214 I-0.407 J0.914
X-8.508 Y50.949 I0.081 J-0.183
G1 X-8 Y50.3
G0 Z5
Z2
G1 Z0 F850
X-7.8 Y51.1
G3 X-8 Y51.3 I-0.2
Y49.3 Z-0.375 J-1
Y51.3 Z-0.75 J1
Y49.3 Z-1.125 J-1
Y51.3 Z-1.5 J1
Y49.3 Z-1.875 J-1
Y51.3 Z-2.25 J1
Y49.3 Z-2.625 J-1
Y51.3 Z-3 J1
Y49.3 Z-3.375 J-1
Y51.3 Z-3.75 J1
X-8.407 Y51.214 Z-3.8 J-1
X-7.593 Y49.386 I0.407 J-0.914
X-8.407 Y51.214 I-0.407 J0.914
X-8.508 Y50.949 I0.081 J-0.183
G1 X-8 Y50.3
G0 Z5
X12
Z2
G1 Z0 F850
X12.2 Y51.1
G3 X12 Y51.3 I-0.2
Y49.3 Z-0.375 J-1
Y51.3 Z-0.75 J1
Y49.3 Z-1.125 J-1
Y51.3 Z-1.5 J1
Y49.3 Z-1.875 J-1
Y51.3 Z-2.25 J1
Y49.3 Z-2.625 J-1
Y51.3 Z-3 J1
Y49.3 Z-3.375 J-1
Y51.3 Z-3.75 J1
X11.593 Y51.214 Z-3.8 J-1
X12.407 Y49.386 I0.407 J-0.914
X11.593 Y51.214 I-0.407 J0.914
X11.492 Y50.949 I0.081 J-0.183
G1 X12 Y50.3
G0 Z5
Z2
G1 Z0 F850
X12.2 Y51.1
G3 X12 Y51.3 I-0.2
Y49.3 Z-0.375 J-1
Y51.3 Z-0.75 J1
Y49.3 Z-1.125 J-1
Y51.3 Z-1.5 J1
Y49.3 Z-1.875 J-1
Y51.3 Z-2.25 J1
Y49.3 Z-2.625 J-1
Y51.3 Z-3 J1
Y49.3 Z-3.375 J-1
Y51.3 Z-3.75 J1
X11.593 Y51.214 Z-3.8 J-1
X12.407 Y49.386 I0.407 J-0.914
X11.593 Y51.214 I-0.407 J0.914
X11.492 Y50.949 I0.081 J-0.183
G1 X12 Y50.3
G0 Z5
Y30.3
Z2
G1 Z0 F850
X12.2 Y31.1
G3 X12 Y31.3 I-0.2
Y29.3 Z-0.375 J-1
Y31.3 Z-0.75 J1
Y29.3 Z-1.125 J-1
Y31.3 Z-1.5 J1
Y29.3 Z-1.875 J-1
Y31.3 Z-2.25 J1
Y29.3 Z-2.625 J-1
Y31.3 Z-3 J1
Y29.3 Z-3.375 J-1
Y31.3 Z-3.75 J1
X11.593 Y31.214 Z-3.8 J-1
X12.407 Y29.386 I0.407 J-0.914
X11.593 Y31.214 I-0.407 J0.914
X11.492 Y30.949 I0.081 J-0.183
G1 X12 Y30.3
G0 Z5
Z2
G1 Z0 F850
X12.2 Y31.1
G3 X12 Y31.3 I-0.2
Y29.3 Z-0.375 J-1
Y31.3 Z-0.75 J1
Y29.3 Z-1.125 J-1
Y31.3 Z-1.5 J1
Y29.3 Z-1.875 J-1
Y31.3 Z-2.25 J1
Y29.3 Z-2.625 J-1
Y31.3 Z-3 J1
Y29.3 Z-3.375 J-1
Y31.3 Z-3.75 J1
X11.593 Y31.214 Z-3.8 J-1
X12.407 Y29.386 I0.407 J-0.914
X11.593 Y31.214 I-0.407 J0.914
X11.492 Y30.949 I0.081 J-0.183
G1 X12 Y30.3
G0 Z5
X-8
Z2
G1 Z0 F850
X-7.8 Y31.1
G3 X-8 Y31.3 I-0.2
Y29.3 Z-0.375 J-1
Y31.3 Z-0.75 J1
Y29.3 Z-1.125 J-1
Y31.3 Z-1.5 J1
Y29.3 Z-1.875 J-1
Y31.3 Z-2.25 J1
Y29.3 Z-2.625 J-1
Y31.3 Z-3 J1
Y29.3 Z-3.375 J-1
Y31.3 Z-3.75 J1
X-8.407 Y31.214 Z-3.8 J-1
X-7.593 Y29.386 I0.407 J-0.914
X-8.407 Y31.214 I-0.407 J0.914
X-8.508 Y30.949 I0.081 J-0.183
G1 X-8 Y30.3
G0 Z5
Z2
G1 Z0 F850
X-7.8 Y31.1
G3 X-8 Y31.3 I-0.2
Y29.3 Z-0.375 J-1
Y31.3 Z-0.75 J1
Y29.3 Z-1.125 J-1
Y31.3 Z-1.5 J1
Y29.3 Z-1.875 J-1
Y31.3 Z-2.25 J1
Y29.3 Z-2.625 J-1
Y31.3 Z-3 J1
Y29.3 Z-3.375 J-1
Y31.3 Z-3.75 J1
X-8.407 Y31.214 Z-3.8 J-1
X-7.593 Y29.386 I0.407 J-0.914
X-8.407 Y31.214 I-0.407 J0.914
X-8.508 Y30.949 I0.081 J-0.183
G1 X-8 Y30.3
G0 Z15

(backlash_nut_finishing 2)
X12.4 Y50.1
Z15
Z5
G1 Z1 F283.3
Z-3.4
G18 G2 X12.6 Z-3.6 I0.2
G1 X12.8 F850
G17 G3 X13 Y50.3 J0.2
X11 I-1
X13 I1
X11 I-1
X13 I1
X12.8 Y50.5 I-0.2
G1 X12.6
G18 G3 X12.4 Z-3.4 K0.2
G0 Z5
Y30.1
G1 Z1 F283.3
Z-3.4
G2 X12.6 Z-3.6 I0.2
G1 X12.8 F850
G17 G3 X13 Y30.3 J0.2
X11 I-1
X13 I1
X11 I-1
X13 I1
X12.8 Y30.5 I-0.2
G1 X12.6
G18 G3 X12.4 Z-3.4 K0.2
G0 Z5
X-7.595 Y30.11
G1 Z1 F283.3
Z-3.4
X-7.588 Z-3.452
X-7.568 Y30.111 Z-3.5
X-7.537 Z-3.541
X-7.495 Y30.112 Z-3.573
X-7.447 Y30.114 Z-3.593
X-7.395 Y30.115 Z-3.6
X-7.195 Y30.12 F850
G17 G3 X-7 Y30.325 I-0.005 J0.2
X-9 Y30.275 I-1 J-0.025
X-7 Y30.325 I1 J0.025
X-9 Y30.275 I-1 J-0.025
X-7 Y30.325 I1 J0.025
X-7.205 Y30.52 I-0.2 J-0.005
G1 X-7.405 Y30.515
X-7.457 Y30.513 Z-3.593
X-7.505 Y30.512 Z-3.573
X-7.546 Y30.511 Z-3.541
X-7.578 Y30.51 Z-3.5
X-7.598 Z-3.452
X-7.605 Z-3.4
G0 Z5
X-7.595 Y50.11
G1 Z1 F283.3
Z-3.4
X-7.588 Z-3.452
X-7.568 Y50.111 Z-3.5
X-7.537 Z-3.541
X-7.495 Y50.112 Z-3.573
X-7.447 Y50.114 Z-3.593
X-7.395 Y50.115 Z-3.6
X-7.195 Y50.12 F850
G3 X-7 Y50.325 I-0.005 J0.2
X-9 Y50.275 I-1 J-0.025
X-7 Y50.325 I1 J0.025
X-9 Y50.275 I-1 J-0.025
X-7 Y50.325 I1 J0.025
X-7.205 Y50.52 I-0.2 J-0.005
G1 X-7.405 Y50.515
X-7.457 Y50.513 Z-3.593
X-7.505 Y50.512 Z-3.573
X-7.546 Y50.511 Z-3.541
X-7.578 Y50.51 Z-3.5
X-7.598 Z-3.452
X-7.605 Z-3.4
G0 Z15
M9
M30
%
