%
(1001)
(origin stock top outer edge centre)
(T1  D=3.18 CR=0 - ZMIN=-4 - flat end mill)
G90 G94
G17
G21

(adaptive_roughing 2)
M9
T1 M6
S6000 M3
G54
M8
G0 X-8.598 Y28.913
Z53.7
Z5
Z2.5
G3 X-7.402 Y31.687 Z2.334 I0.598 J1.387 F283.3
X-8.598 Y28.913 Z2.169 I-0.598 J-1.387
X-7.402 Y31.687 Z2.003 I0.598 J1.387
X-8.598 Y28.913 Z1.837 I-0.598 J-1.387
X-7.402 Y31.687 Z1.671 I0.598 J1.387
X-8.598 Y28.913 Z1.506 I-0.598 J-1.387
X-7.402 Y31.687 Z1.34 I0.598 J1.387
X-8.598 Y28.913 Z1.174 I-0.598 J-1.387
X-7.402 Y31.687 Z1.009 I0.598 J1.387
X-8.598 Y28.913 Z0.843 I-0.598 J-1.387
X-7.402 Y31.687 Z0.677 I0.598 J1.387
X-8.598 Y28.913 Z0.511 I-0.598 J-1.387
X-7.402 Y31.687 Z0.346 I0.598 J1.387
X-8.598 Y28.913 Z0.18 I-0.598 J-1.387
X-7.402 Y31.687 Z0.014 I0.598 J1.387
X-8.598 Y28.913 Z-0.151 I-0.598 J-1.387
X-7.402 Y31.687 Z-0.317 I0.598 J1.387
X-8.598 Y28.913 Z-0.483 I-0.598 J-1.387
X-7.402 Y31.687 Z-0.649 I0.598 J1.387
X-8.598 Y28.913 Z-0.814 I-0.598 J-1.387
X-7.402 Y31.687 Z-0.98 I0.598 J1.387
X-8.598 Y28.913 Z-1.146 I-0.598 J-1.387
X-6.49 Y30.3 Z-1.25 I0.598 J1.387
X-9.511 I-1.51
X-6.49 I1.51
G1 X-6.48 Y30.683 F850
Y30.833
X-6.512 Y30.98
X-6.566 Y31.12
X-6.636 Y31.253
X-6.721 Y31.376
X-6.818 Y31.49
X-6.927 Y31.594
X-7.045 Y31.687
X-7.171 Y31.768
X-7.304 Y31.838
X-7.442 Y31.894
X-7.586 Y31.938
X-7.733 Y31.969
X-7.882 Y31.987
X-8.032 Y31.991
X-8.181 Y31.982
X-8.33 Y31.959
X-8.475 Y31.924
X-8.617 Y31.875
X-8.754 Y31.815
X-8.886 Y31.742
X-9.01 Y31.658
X-9.126 Y31.563
X-9.234 Y31.458
X-9.331 Y31.345
X-9.419 Y31.223
X-9.495 Y31.093
X-9.559 Y30.958
X-9.611 Y30.817
X-9.651 Y30.673
X-9.677 Y30.525
X-9.691 Y30.376
Y30.226
X-9.677 Y30.076
X-9.651 Y29.929
X-9.612 Y29.784
X-9.56 Y29.643
X-9.495 Y29.508
X-9.419 Y29.378
X-9.332 Y29.256
X-9.234 Y29.142
X-9.127 Y29.038
X-9.011 Y28.943
X-8.887 Y28.859
X-8.755 Y28.786
X-8.618 Y28.725
X-8.476 Y28.676
X-8.331 Y28.641
X-8.183 Y28.618
X-8.033 Y28.608
X-7.883 Y28.612
X-7.734 Y28.629
X-7.587 Y28.659
X-7.443 Y28.702
X-7.304 Y28.758
X-7.17 Y28.826
X-7.043 Y28.905
X-6.923 Y28.995
X-6.812 Y29.096
X-6.71 Y29.206
X-6.618 Y29.324
X-6.537 Y29.451
X-6.467 Y29.584
X-6.41 Y29.722
X-6.365 Y29.865
X-6.33 Y30.011
X-6.302 Y30.159
X-6.281 Y30.307
X-6.268 Y30.456
X-6.267 Y30.606
X-6.281 Y30.756
X-6.308 Y30.903
X-6.35 Y31.047
X-6.405 Y31.187
X-6.474 Y31.32
X-6.555 Y31.447
X-6.647 Y31.565
X-6.75 Y31.674
X-6.862 Y31.774
X-6.982 Y31.864
X-7.109 Y31.943
X-7.243 Y32.011
X-7.382 Y32.068
X-7.525 Y32.113
X-7.671 Y32.146
X-7.82 Y32.167
X-7.969 Y32.177
X-8.119 Y32.174
X-8.268 Y32.159
X-8.416 Y32.132
X-8.561 Y32.093
X-8.702 Y32.043
X-8.839 Y31.981
X-8.97 Y31.909
X-9.096 Y31.827
X-9.214 Y31.734
X-9.325 Y31.633
X-9.427 Y31.524
X-9.52 Y31.406
X-9.604 Y31.281
X-9.677 Y31.15
X-9.739 Y31.014
X-9.79 Y30.873
X-9.83 Y30.728
X-9.858 Y30.581
X-9.875 Y30.432
X-9.88 Y30.282
X-9.872 Y30.132
X-9.853 Y29.983
X-9.822 Y29.837
X-9.779 Y29.693
X-9.725 Y29.553
X-9.66 Y29.418
X-9.584 Y29.289
X-9.498 Y29.165
X-9.403 Y29.05
X-9.299 Y28.941
X-9.187 Y28.842
X-9.067 Y28.752
X-8.94 Y28.672
X-8.807 Y28.602
X-8.669 Y28.543
X-8.527 Y28.496
X-8.381 Y28.46
X-8.233 Y28.435
X-8.084 Y28.423
X-7.934 Y28.422
X-7.784 Y28.433
X-7.636 Y28.456
X-7.49 Y28.491
X-7.347 Y28.537
X-7.209 Y28.595
X-7.076 Y28.664
X-6.948 Y28.743
X-6.827 Y28.832
X-6.714 Y28.93
X-6.609 Y29.037
X-6.512 Y29.152
X-6.425 Y29.274
X-6.348 Y29.403
X-6.282 Y29.537
X-6.224 Y29.676
X-6.175 Y29.817
X-6.134 Y29.962
X-6.103 Y30.108
X-6.081 Y30.257
X-6.07 Y30.406
X-6.069 Y30.556
X-6.08 Y30.706
X-6.103 Y30.854
X-6.138 Y31
X-6.185 Y31.142
X-6.244 Y31.28
X-6.314 Y31.413
X-6.394 Y31.54
X-6.485 Y31.659
X-6.584 Y31.772
X-6.692 Y31.875
X-6.809 Y31.971
X-6.932 Y32.056
X-7.061 Y32.132
X-7.196 Y32.198
X-7.335 Y32.253
X-7.478 Y32.298
X-7.624 Y32.332
X-7.773 Y32.355
X-7.922 Y32.367
X-8.072 Y32.368
X-8.222 Y32.358
X-8.37 Y32.338
X-8.517 Y32.306
X-8.661 Y32.264
X-8.801 Y32.211
X-8.938 Y32.148
X-9.069 Y32.076
X-9.195 Y31.994
X-9.314 Y31.903
X-9.427 Y31.804
X-9.532 Y31.697
X-9.629 Y31.583
X-9.718 Y31.462
X-9.797 Y31.335
X-9.867 Y31.202
X-9.928 Y31.065
X-9.978 Y30.923
X-10.017 Y30.779
X-10.047 Y30.631
X-10.065 Y30.483
X-10.073 Y30.333
X-10.07 Y30.183
X-10.056 Y30.033
X-10.032 Y29.885
X-9.997 Y29.74
X-9.951 Y29.597
X-9.895 Y29.458
X-9.829 Y29.323
X-9.753 Y29.193
X-9.668 Y29.07
X-9.575 Y28.952
X-9.474 Y28.842
X-9.364 Y28.739
X-9.248 Y28.644
X-9.125 Y28.558
X-8.996 Y28.481
X-8.862 Y28.414
X-8.724 Y28.357
X-8.581 Y28.31
X-8.436 Y28.273
X-8.288 Y28.247
X-8.139 Y28.232
X-7.989 Y28.227
X-7.839 Y28.233
X-7.69 Y28.25
X-7.542 Y28.278
X-7.397 Y28.316
X-7.256 Y28.365
X-7.118 Y28.424
X-6.985 Y28.493
X-6.857 Y28.571
X-6.735 Y28.659
X-6.619 Y28.754
X-6.511 Y28.858
X-6.41 Y28.969
X-6.318 Y29.088
X-6.234 Y29.212
X-6.158 Y29.341
X-6.091 Y29.475
X-6.032 Y29.613
X-5.981 Y29.754
X-5.939 Y29.898
X-5.907 Y30.045
X-5.884 Y30.193
X-5.871 Y30.343
X-5.868 Y30.493
X-5.875 Y30.642
X-5.893 Y30.791
X-5.921 Y30.939
X-5.96 Y31.084
X-6.009 Y31.225
X-6.069 Y31.363
X-6.138 Y31.496
X-6.218 Y31.623
X-6.306 Y31.745
X-6.402 Y31.859
X-6.506 Y31.967
X-6.618 Y32.067
X-6.737 Y32.159
X-6.861 Y32.242
X-6.992 Y32.317
X-7.127 Y32.382
X-7.266 Y32.437
X-7.409 Y32.483
X-7.555 Y32.519
X-7.702 Y32.545
X-7.852 Y32.561
X-8.002 Y32.567
X-8.151 Y32.563
X-8.301 Y32.549
X-8.449 Y32.525
X-8.595 Y32.491
X-8.739 Y32.448
X-8.879 Y32.394
X-9.015 Y32.332
X-9.147 Y32.261
X-9.274 Y32.181
X-9.395 Y32.092
X-9.511 Y31.997
X-9.62 Y31.893
X-9.722 Y31.783
X-9.816 Y31.667
X-9.902 Y31.544
X-9.98 Y31.416
X-10.05 Y31.283
X-10.11 Y31.146
X-10.161 Y31.005
X-10.202 Y30.86
X-10.234 Y30.714
X-10.257 Y30.566
X-10.27 Y30.416
X-10.272 Y30.266
X-10.266 Y30.116
X-10.249 Y29.967
X-10.222 Y29.82
X-10.186 Y29.674
X-10.139 Y29.531
X-10.084 Y29.392
X-10.019 Y29.257
X-9.946 Y29.126
X-9.864 Y29
X-9.774 Y28.88
X-9.677 Y28.766
X-9.572 Y28.659
X-9.46 Y28.558
X-9.343 Y28.466
X-9.219 Y28.381
X-9.089 Y28.305
X-8.955 Y28.238
X-8.817 Y28.179
X-8.675 Y28.13
X-8.531 Y28.091
X-8.384 Y28.06
X-8.235 Y28.04
X-8.086 Y28.029
X-7.936 Y28.028
X-7.786 Y28.037
X-7.637 Y28.056
X-7.49 Y28.085
X-7.345 Y28.124
X-7.203 Y28.172
X-7.064 Y28.229
X-6.93 Y28.296
X-6.8 Y28.371
X-6.675 Y28.454
X-6.556 Y28.546
X-6.443 Y28.644
X-6.337 Y28.75
X-6.238 Y28.863
X-6.146 Y28.981
X-6.061 Y29.105
X-5.984 Y29.234
X-5.915 Y29.367
X-5.854 Y29.504
X-5.8 Y29.644
X-5.756 Y29.787
X-5.72 Y29.933
X-5.692 Y30.08
X-5.674 Y30.229
X-5.664 Y30.379
Y30.529
X-5.674 Y30.678
X-5.693 Y30.827
X-5.722 Y30.974
X-5.761 Y31.119
X-5.809 Y31.261
X-5.866 Y31.4
X-5.932 Y31.535
X-6.007 Y31.665
X-6.09 Y31.79
X-6.181 Y31.909
X-6.279 Y32.022
X-6.385 Y32.129
X-6.497 Y32.228
X-6.616 Y32.32
X-6.74 Y32.404
X-6.87 Y32.479
X-7.004 Y32.547
X-7.142 Y32.606
X-7.283 Y32.656
X-7.428 Y32.697
X-7.574 Y32.729
X-7.722 Y32.752
X-7.872 Y32.766
X-8.022 Y32.77
X-8.171 Y32.766
X-8.321 Y32.752
X-8.469 Y32.729
X-8.615 Y32.696
X-8.76 Y32.655
X-8.901 Y32.605
X-9.039 Y32.546
X-9.173 Y32.479
X-9.303 Y32.405
X-9.429 Y32.322
X-9.549 Y32.232
X-9.663 Y32.135
X-9.771 Y32.031
X-9.873 Y31.921
X-9.968 Y31.805
X-10.056 Y31.683
X-10.135 Y31.556
X-10.207 Y31.425
X-10.271 Y31.289
X-10.327 Y31.15
X-10.374 Y31.007
X-10.412 Y30.862
X-10.442 Y30.715
X-10.463 Y30.567
X-10.475 Y30.417
X-10.478 Y30.267
X-10.471 Y30.117
X-10.456 Y29.968
X-10.431 Y29.82
X-10.397 Y29.674
X-10.355 Y29.53
X-10.304 Y29.389
X-10.244 Y29.251
X-10.177 Y29.117
X-10.101 Y28.988
X-10.018 Y28.863
X-9.928 Y28.743
X-9.83 Y28.629
X-9.726 Y28.522
X-9.615 Y28.421
X-9.498 Y28.326
X-9.376 Y28.239
X-9.249 Y28.16
X-9.117 Y28.089
X-8.981 Y28.025
X-8.841 Y27.97
X-8.699 Y27.923
X-8.554 Y27.885
X-8.406 Y27.856
X-8.258 Y27.836
X-8.108 Y27.825
X-7.958 Y27.823
X-7.808 Y27.83
X-7.659 Y27.846
X-7.511 Y27.871
X-7.365 Y27.906
X-7.222 Y27.949
X-7.081 Y28
X-6.943 Y28.06
X-6.81 Y28.128
X-6.68 Y28.204
X-6.556 Y28.287
X-6.436 Y28.378
X-6.322 Y28.476
X-6.215 Y28.58
X-6.113 Y28.69
X-6.018 Y28.806
X-5.929 Y28.928
X-5.848 Y29.053
X-5.774 Y29.184
X-5.706 Y29.318
X-5.647 Y29.456
X-5.595 Y29.596
X-5.551 Y29.74
X-5.515 Y29.885
X-5.487 Y30.033
X-5.468 Y30.181
X-5.457 Y30.331
X-5.455 Y30.481
X-5.462 Y30.631
X-5.477 Y30.78
X-5.502 Y30.928
X-5.535 Y31.074
X-5.576 Y31.219
X-5.626 Y31.36
X-5.684 Y31.498
X-5.751 Y31.633
X-5.825 Y31.763
X-5.907 Y31.888
X-5.997 Y32.009
X-6.094 Y32.123
X-6.197 Y32.232
X-6.306 Y32.335
X-6.422 Y32.431
X-6.543 Y32.519
X-6.668 Y32.601
X-6.799 Y32.675
X-6.933 Y32.742
X-7.071 Y32.8
X-7.213 Y32.851
X-7.356 Y32.893
X-7.503 Y32.927
X-7.65 Y32.952
X-7.799 Y32.969
X-7.949 Y32.978
X-8.099 Y32.977
X-8.249 Y32.969
X-8.398 Y32.951
X-8.546 Y32.926
X-8.692 Y32.892
X-8.836 Y32.85
X-8.977 Y32.799
X-9.116 Y32.741
X-9.25 Y32.676
X-9.381 Y32.603
X-9.508 Y32.522
X-9.63 Y32.435
X-9.747 Y32.34
X-9.858 Y32.24
X-9.963 Y32.133
X-10.063 Y32.021
X-10.156 Y31.903
X-10.242 Y31.78
X-10.321 Y31.653
X-10.393 Y31.522
X-10.458 Y31.386
X-10.515 Y31.247
X-10.564 Y31.106
X-10.605 Y30.961
X-10.637 Y30.815
X-10.662 Y30.667
X-10.678 Y30.518
X-10.686 Y30.368
Y30.218
X-10.677 Y30.068
X-10.66 Y29.919
X-10.635 Y29.771
X-10.601 Y29.625
X-10.56 Y29.481
X-10.51 Y29.34
X-10.452 Y29.201
X-10.387 Y29.066
X-10.315 Y28.935
X-10.235 Y28.808
X-10.148 Y28.685
X-10.055 Y28.568
X-9.955 Y28.456
X-9.849 Y28.35
X-9.737 Y28.25
X-9.62 Y28.156
X-9.498 Y28.069
X-9.371 Y27.989
X-9.24 Y27.916
X-9.105 Y27.851
X-8.967 Y27.793
X-8.825 Y27.743
X-8.681 Y27.701
X-8.535 Y27.667
X-8.387 Y27.641
X-8.238 Y27.624
X-8.088 Y27.614
X-7.938
X-7.789 Y27.621
X-7.64 Y27.637
X-7.492 Y27.661
X-7.345 Y27.694
X-7.201 Y27.735
X-7.059 Y27.783
X-6.92 Y27.84
X-6.784 Y27.904
X-6.652 Y27.976
X-6.525 Y28.054
X-6.401 Y28.14
X-6.283 Y28.232
X-6.17 Y28.33
X-6.062 Y28.434
X-5.96 Y28.544
X-5.863 Y28.659
X-5.773 Y28.779
X-5.69 Y28.904
X-5.613 Y29.032
X-5.543 Y29.165
X-5.479 Y29.301
X-5.423 Y29.44
X-5.374 Y29.582
X-5.333 Y29.726
X-5.299 Y29.872
X-5.273 Y30.02
X-5.255 Y30.169
X-5.244 Y30.318
X-5.242 Y30.468
X-5.248 Y30.618
X-5.262 Y30.768
X-5.284 Y30.916
X-5.314 Y31.063
X-5.352 Y31.208
X-5.398 Y31.351
X-5.451 Y31.491
X-5.513 Y31.628
X-5.581 Y31.761
X-5.657 Y31.891
X-5.74 Y32.016
X-5.829 Y32.136
X-5.925 Y32.251
X-6.028 Y32.361
X-6.136 Y32.465
X-6.249 Y32.563
X-6.368 Y32.655
X-6.492 Y32.74
X-6.62 Y32.818
X-6.752 Y32.889
X-6.887 Y32.953
X-7.026 Y33.01
X-7.168 Y33.059
X-7.312 Y33.101
X-7.458 Y33.134
X-7.606 Y33.161
X-7.755 Y33.179
X-7.904 Y33.189
X-8.054 Y33.191
X-8.204 Y33.186
X-8.354 Y33.172
X-8.502 Y33.151
X-8.649 Y33.121
X-8.795 Y33.085
X-8.938 Y33.04
X-9.079 Y32.989
X-9.217 Y32.93
X-9.352 Y32.864
X-9.483 Y32.791
X-9.61 Y32.711
X-9.733 Y32.625
X-9.851 Y32.533
X-9.964 Y32.434
X-10.072 Y32.33
X-10.174 Y32.22
X-10.27 Y32.105
X-10.36 Y31.985
X-10.445 Y31.861
X-10.522 Y31.733
X-10.593 Y31.6
X-10.657 Y31.465
X-10.714 Y31.326
X-10.763 Y31.184
X-10.805 Y31.04
X-10.84 Y30.894
X-10.867 Y30.747
X-10.886 Y30.598
X-10.898 Y30.449
X-10.901 Y30.299
X-10.897 Y30.149
X-10.886 Y29.999
X-10.866 Y29.85
X-10.839 Y29.703
X-10.804 Y29.557
X-10.762 Y29.413
X-10.713 Y29.271
X-10.656 Y29.132
X-10.592 Y28.997
X-10.522 Y28.864
X-10.444 Y28.736
X-10.36 Y28.612
X-10.269 Y28.492
X-10.173 Y28.377
X-10.071 Y28.268
X-9.963 Y28.163
X-9.85 Y28.065
X-9.732 Y27.972
X-9.609 Y27.886
X-9.482 Y27.806
X-9.351 Y27.732
X-9.217 Y27.666
X-9.079 Y27.607
X-8.938 Y27.554
X-8.795 Y27.51
X-8.65 Y27.472
X-8.503 Y27.443
X-8.355 Y27.421
X-8.205 Y27.406
X-8.055 Y27.4
X-7.905 Y27.401
X-7.756 Y27.409
X-7.607 Y27.426
X-7.459 Y27.45
X-7.312 Y27.481
X-7.167 Y27.521
X-7.025 Y27.568
X-6.885 Y27.622
X-6.748 Y27.683
X-6.614 Y27.751
X-6.484 Y27.826
X-6.358 Y27.907
X-6.236 Y27.995
X-6.119 Y28.088
X-6.007 Y28.187
X-5.899 Y28.292
X-5.797 Y28.402
X-5.7 Y28.516
X-5.609 Y28.636
X-5.524 Y28.759
X-5.445 Y28.887
X-5.373 Y29.018
X-5.307 Y29.153
X-5.248 Y29.291
X-5.195 Y29.431
X-5.149 Y29.574
X-5.11 Y29.719
X-5.079 Y29.866
X-5.054 Y30.014
X-5.037 Y30.163
X-5.028 Y30.312
X-5.025 Y30.462
X-5.03 Y30.612
X-5.043 Y30.762
X-5.063 Y30.91
X-5.091 Y31.058
X-5.126 Y31.203
X-5.169 Y31.347
X-5.219 Y31.489
X-5.276 Y31.628
X-5.339 Y31.763
X-5.41 Y31.896
X-5.487 Y32.024
X-5.571 Y32.149
X-5.66 Y32.269
X-5.756 Y32.385
X-5.858 Y32.495
X-5.965 Y32.6
X-6.077 Y32.7
X-6.194 Y32.794
X-6.315 Y32.881
X-6.441 Y32.963
X-6.571 Y33.038
X-6.705 Y33.106
X-6.841 Y33.168
X-6.981 Y33.223
X-7.123 Y33.271
X-7.267 Y33.312
X-7.413 Y33.346
X-7.561 Y33.373
X-7.71 Y33.392
X-7.859 Y33.404
X-8.009 Y33.408
X-8.159 Y33.406
X-8.309 Y33.395
X-8.458 Y33.378
X-8.606 Y33.353
X-8.752 Y33.321
X-8.897 Y33.281
X-9.04 Y33.235
X-9.18 Y33.182
X-9.318 Y33.123
X-9.452 Y33.057
X-9.584 Y32.984
X-9.711 Y32.905
X-9.835 Y32.82
X-9.954 Y32.729
X-10.069 Y32.633
X-10.179 Y32.531
X-10.284 Y32.423
X-10.383 Y32.311
X-10.477 Y32.194
X-10.565 Y32.073
X-10.648 Y31.948
X-10.724 Y31.818
X-10.794 Y31.686
X-10.858 Y31.55
X-10.915 Y31.411
X-10.965 Y31.27
X-11.008 Y31.126
X-11.045 Y30.981
X-11.074 Y30.834
X-11.096 Y30.685
X-11.111 Y30.536
X-11.118 Y30.386
X-11.119 Y30.236
X-11.112 Y30.086
X-11.098 Y29.937
X-11.077 Y29.788
X-11.049 Y29.641
X-11.014 Y29.495
X-10.972 Y29.351
X-10.923 Y29.209
X-10.867 Y29.07
X-10.805 Y28.934
X-10.736 Y28.8
X-10.661 Y28.671
X-10.579 Y28.545
X-10.492 Y28.423
X-10.399 Y28.305
X-10.3 Y28.192
X-10.196 Y28.084
X-10.087 Y27.981
X-9.973 Y27.884
X-9.855 Y27.792
X-9.732 Y27.705
X-9.605 Y27.625
X-9.475 Y27.551
X-9.341 Y27.483
X-9.204 Y27.422
X-9.064 Y27.367
X-8.922 Y27.32
X-8.778 Y27.279
X-8.632 Y27.245
X-8.484 Y27.218
X-8.335 Y27.199
X-8.186 Y27.186
X-8.036 Y27.181
X-7.886 Y27.183
X-7.736 Y27.192
X-7.587 Y27.208
X-7.439 Y27.231
X-7.292 Y27.262
X-7.147 Y27.299
X-7.004 Y27.344
X-6.863 Y27.395
X-6.724 Y27.453
X-6.589 Y27.517
X-6.457 Y27.588
X-6.328 Y27.665
X-6.203 Y27.748
X-6.082 Y27.837
X-5.965 Y27.931
X-5.853 Y28.03
X-5.745 Y28.135
X-5.642 Y28.244
X-5.545 Y28.358
X-5.453 Y28.476
X-5.366 Y28.598
X-5.285 Y28.725
X-5.21 Y28.854
X-5.14 Y28.988
X-5.077 Y29.124
X-5.021 Y29.263
X-4.97 Y29.404
X-4.927 Y29.547
X-4.889 Y29.693
X-4.859 Y29.84
X-4.835 Y29.988
X-4.818 Y30.137
X-4.808 Y30.286
X-4.804 Y30.436
X-4.808 Y30.586
X-4.819 Y30.736
X-4.837 Y30.885
X-4.862 Y31.033
X-4.893 Y31.179
X-4.932 Y31.324
X-4.977 Y31.467
X-5.029 Y31.608
X-5.088 Y31.746
X-5.153 Y31.881
X-5.224 Y32.013
X-5.302 Y32.142
X-5.385 Y32.266
X-5.474 Y32.387
X-5.569 Y32.503
X-5.669 Y32.615
X-5.774 Y32.722
X-5.884 Y32.824
X-5.999 Y32.92
X-6.118 Y33.011
X-6.242 Y33.096
X-6.369 Y33.176
X-6.5 Y33.249
X-6.634 Y33.316
X-6.771 Y33.377
X-6.911 Y33.432
X-7.053 Y33.48
X-7.197 Y33.522
X-7.343 Y33.557
X-7.49 Y33.585
X-7.639 Y33.606
X-7.788 Y33.621
X-7.938 Y33.628
X-8.088 Y33.629
X-8.238 Y33.622
X-8.387 Y33.609
X-8.536 Y33.589
X-8.683 Y33.563
X-8.83 Y33.529
X-8.974 Y33.489
X-9.117 Y33.443
X-9.257 Y33.39
X-9.395 Y33.331
X-9.53 Y33.266
X-9.662 Y33.195
X-9.791 Y33.118
X-9.916 Y33.035
X-10.037 Y32.946
X-10.154 Y32.852
X-10.266 Y32.753
X-10.374 Y32.649
X-10.477 Y32.54
X-10.576 Y32.427
X-10.669 Y32.309
X-10.756 Y32.187
X-10.838 Y32.062
X-10.915 Y31.932
X-10.985 Y31.8
X-11.05 Y31.665
X-11.108 Y31.527
X-11.16 Y31.386
X-11.206 Y31.243
X-11.245 Y31.098
X-11.278 Y30.952
X-11.304 Y30.804
X-11.323 Y30.655
X-11.335 Y30.506
X-11.341 Y30.356
X-11.34 Y30.206
X-11.333 Y30.056
X-11.318 Y29.907
X-11.297 Y29.758
X-11.27 Y29.611
X-11.236 Y29.465
X-11.195 Y29.32
X-11.148 Y29.178
X-11.095 Y29.038
X-11.035 Y28.9
X-10.969 Y28.765
X-10.897 Y28.634
X-10.819 Y28.506
X-10.736 Y28.381
X-10.647 Y28.26
X-10.553 Y28.144
X-10.453 Y28.031
X-10.349 Y27.923
X-10.24 Y27.82
X-10.126 Y27.722
X-10.009 Y27.629
X-9.887 Y27.542
X-9.761 Y27.46
X-9.632 Y27.383
X-9.5 Y27.313
X-9.364 Y27.249
X-9.226 Y27.191
X-9.085 Y27.139
X-8.942 Y27.094
X-8.797 Y27.055
X-8.651 Y27.022
X-8.503 Y26.997
X-8.354 Y26.978
X-8.205 Y26.965
X-8.055 Y26.959
X-7.905 Y26.96
X-7.755 Y26.967
X-7.606 Y26.981
X-7.457 Y27.002
X-7.31 Y27.03
X-7.164 Y27.064
X-7.019 Y27.105
X-6.877 Y27.152
X-6.737 Y27.206
X-6.599 Y27.265
X-6.464 Y27.331
X-6.332 Y27.403
X-6.204 Y27.48
X-6.079 Y27.563
X-5.957 Y27.651
X-5.84 Y27.744
X-5.727 Y27.842
X-5.618 Y27.945
X-5.513 Y28.053
X-5.413 Y28.165
X-5.319 Y28.281
X-5.229 Y28.402
X-5.145 Y28.526
X-5.066 Y28.653
X-4.992 Y28.784
X-4.951 Y28.868
X-4.922 Y28.932
X-4.843 Y29.124
X-4.824 Y29.168
X-4.812 Y29.199
X-4.761 Y29.34
X-4.744 Y29.394
X-4.722 Y29.471
X-4.705 Y29.55
X-4.692 Y29.63
G3 X-5.315 Y29.746 I-0.317 J0.03
G1 X-5.407 Y29.416
G3 X-4.812 Y29.199 I0.306 J-0.086
G1 X-4.756 Y29.333
X-4.724 Y29.416
X-4.701 Y29.561
X-4.624 Y30.145
X-4.61 Y30.252
X-4.608 Y30.291
X-4.61 Y30.348
X-4.699 Y31.02
X-4.719 Y31.166
X-4.756 Y31.267
X-5.048 Y31.971
X-5.067 Y32.006
X-5.092 Y32.042
X-5.54 Y32.625
X-5.58 Y32.676
X-5.632 Y32.727
X-6.26 Y33.209
X-6.311 Y33.242
X-6.361 Y33.266
X-7.091 Y33.568
X-7.127 Y33.579
X-7.164 Y33.586
X-7.966 Y33.692
X-8.003 Y33.693
X-8.039 Y33.691
X-8.842 Y33.585
X-8.879 Y33.577
X-8.915 Y33.566
X-9.645 Y33.263
X-9.681 Y33.247
X-9.718 Y33.225
X-9.74 Y33.209
X-10.311 Y32.771
X-10.379 Y32.718
X-10.417 Y32.68
X-10.46 Y32.625
X-10.908 Y32.042
X-10.934 Y32.005
X-10.953 Y31.969
X-11.225 Y31.312
X-11.281 Y31.166
X-11.301 Y31.02
X-11.378 Y30.437
X-11.392 Y30.291
X-11.376 Y30.145
X-11.299 Y29.561
X-11.276 Y29.416
X-11.218 Y29.27
X-10.976 Y28.686
X-10.944 Y28.613
X-10.921 Y28.577
X-10.446 Y27.956
X-10.414 Y27.917
X-10.374 Y27.878
X-10.287 Y27.811
X-9.716 Y27.373
X-9.68 Y27.352
X-9.644 Y27.336
X-8.915 Y27.034
X-8.879 Y27.023
X-8.842 Y27.015
X-8.039 Y26.909
X-8.003 Y26.907
X-7.966 Y26.908
X-7.164 Y27.014
X-7.127 Y27.021
X-7.091 Y27.032
X-6.361 Y27.334
X-6.286 Y27.373
X-6.215 Y27.425
X-5.632 Y27.873
X-5.587 Y27.915
X-5.554 Y27.956
X-5.106 Y28.54
X-5.073 Y28.585
X-5.048 Y28.629
X-4.922 Y28.932
G3 X-5.079 Y29.328 I-0.298 J0.111
G1 X-5.128 Y29.339 Z-1.246
X-5.175 Y29.35 Z-1.234
X-5.22 Y29.361 Z-1.215
X-5.271 Y29.348 Z-1.18
X-5.314 Y29.337 Z-1.135
X-5.348 Y29.328 Z-1.083
X-5.372 Y29.322 Z-1.025
X-5.381 Y29.317 Z-0.979
X-5.384 Y29.315 Z-0.932
G0 Z5
X-8.598 Y28.912
Z1.25
G3 X-7.402 Y31.686 Z1.084 I0.598 J1.387 F283.3
X-8.598 Y28.912 Z0.919 I-0.598 J-1.387
X-7.402 Y31.686 Z0.753 I0.598 J1.387
X-8.598 Y28.912 Z0.587 I-0.598 J-1.387
X-7.402 Y31.686 Z0.421 I0.598 J1.387
X-8.598 Y28.912 Z0.256 I-0.598 J-1.387
X-7.402 Y31.686 Z0.09 I0.598 J1.387
X-8.598 Y28.912 Z-0.076 I-0.598 J-1.387
X-7.402 Y31.686 Z-0.241 I0.598 J1.387
X-8.598 Y28.912 Z-0.407 I-0.598 J-1.387
X-7.402 Y31.686 Z-0.573 I0.598 J1.387
X-8.598 Y28.912 Z-0.739 I-0.598 J-1.387
X-7.402 Y31.686 Z-0.904 I0.598 J1.387
X-8.598 Y28.912 Z-1.07 I-0.598 J-1.387
X-7.402 Y31.686 Z-1.236 I0.598 J1.387
X-8.598 Y28.912 Z-1.401 I-0.598 J-1.387
X-7.402 Y31.686 Z-1.567 I0.598 J1.387
X-8.598 Y28.912 Z-1.733 I-0.598 J-1.387
X-7.402 Y31.686 Z-1.899 I0.598 J1.387
X-8.598 Y28.912 Z-2.064 I-0.598 J-1.387
X-7.402 Y31.686 Z-2.23 I0.598 J1.387
X-8.598 Y28.912 Z-2.396 I-0.598 J-1.387
X-6.49 Y30.299 Z-2.5 I0.598 J1.387
X-9.511 I-1.51
X-6.49 I1.51
G1 X-6.48 Y30.683 F850
Y30.833
X-6.512 Y30.979
X-6.566 Y31.119
X-6.636 Y31.252
X-6.721 Y31.376
X-6.818 Y31.49
X-6.927 Y31.593
X-7.044 Y31.686
X-7.17 Y31.768
X-7.303 Y31.837
X-7.442 Y31.894
X-7.586 Y31.938
X-7.732 Y31.969
X-7.881 Y31.986
X-8.031 Y31.99
X-8.181 Y31.981
X-8.329 Y31.959
X-8.475 Y31.923
X-8.617 Y31.875
X-8.754 Y31.814
X-8.885 Y31.741
X-9.01 Y31.657
X-9.126 Y31.562
X-9.233 Y31.458
X-9.331 Y31.344
X-9.418 Y31.222
X-9.495 Y31.093
X-9.559 Y30.957
X-9.611 Y30.817
X-9.651 Y30.672
X-9.677 Y30.524
X-9.69 Y30.375
X-9.691 Y30.225
X-9.677 Y30.076
X-9.651 Y29.928
X-9.611 Y29.783
X-9.559 Y29.642
X-9.495 Y29.507
X-9.419 Y29.378
X-9.332 Y29.256
X-9.234 Y29.142
X-9.127 Y29.037
X-9.011 Y28.942
X-8.886 Y28.858
X-8.755 Y28.785
X-8.618 Y28.724
X-8.476 Y28.676
X-8.331 Y28.64
X-8.182 Y28.617
X-8.033 Y28.608
X-7.883 Y28.611
X-7.734 Y28.628
X-7.587 Y28.659
X-7.443 Y28.702
X-7.304 Y28.757
X-7.17 Y28.825
X-7.043 Y28.904
X-6.923 Y28.995
X-6.811 Y29.095
X-6.709 Y29.205
X-6.618 Y29.324
X-6.537 Y29.45
X-6.467 Y29.583
X-6.41 Y29.722
X-6.365 Y29.865
X-6.33 Y30.011
X-6.302 Y30.158
X-6.28 Y30.306
X-6.268 Y30.456
X-6.267 Y30.606
X-6.28 Y30.755
X-6.308 Y30.903
X-6.35 Y31.047
X-6.405 Y31.186
X-6.474 Y31.32
X-6.554 Y31.446
X-6.647 Y31.564
X-6.749 Y31.674
X-6.861 Y31.773
X-6.982 Y31.863
X-7.109 Y31.942
X-7.243 Y32.01
X-7.382 Y32.067
X-7.525 Y32.112
X-7.671 Y32.145
X-7.819 Y32.167
X-7.969 Y32.176
X-8.119 Y32.174
X-8.268 Y32.159
X-8.416 Y32.132
X-8.561 Y32.093
X-8.702 Y32.042
X-8.839 Y31.981
X-8.97 Y31.908
X-9.095 Y31.826
X-9.214 Y31.734
X-9.325 Y31.633
X-9.427 Y31.523
X-9.52 Y31.405
X-9.603 Y31.281
X-9.676 Y31.15
X-9.739 Y31.013
X-9.79 Y30.872
X-9.83 Y30.728
X-9.858 Y30.58
X-9.875 Y30.431
X-9.879 Y30.281
X-9.872 Y30.131
X-9.853 Y29.983
X-9.822 Y29.836
X-9.779 Y29.692
X-9.725 Y29.552
X-9.66 Y29.417
X-9.584 Y29.288
X-9.498 Y29.165
X-9.403 Y29.049
X-9.299 Y28.941
X-9.186 Y28.841
X-9.067 Y28.751
X-8.94 Y28.671
X-8.807 Y28.602
X-8.669 Y28.543
X-8.527 Y28.495
X-8.381 Y28.459
X-8.233 Y28.435
X-8.083 Y28.422
X-7.933 Y28.421
X-7.784 Y28.432
X-7.636 Y28.455
X-7.49 Y28.49
X-7.347 Y28.537
X-7.209 Y28.595
X-7.075 Y28.663
X-6.948 Y28.742
X-6.827 Y28.831
X-6.714 Y28.929
X-6.608 Y29.036
X-6.512 Y29.151
X-6.425 Y29.273
X-6.348 Y29.402
X-6.281 Y29.536
X-6.224 Y29.675
X-6.175 Y29.817
X-6.134 Y29.961
X-6.102 Y30.108
X-6.081 Y30.256
X-6.069 Y30.406
Y30.556
X-6.08 Y30.705
X-6.103 Y30.853
X-6.138 Y30.999
X-6.185 Y31.142
X-6.244 Y31.28
X-6.314 Y31.412
X-6.394 Y31.539
X-6.484 Y31.659
X-6.584 Y31.771
X-6.692 Y31.875
X-6.808 Y31.97
X-6.931 Y32.056
X-7.061 Y32.132
X-7.196 Y32.197
X-7.335 Y32.253
X-7.478 Y32.297
X-7.624 Y32.331
X-7.772 Y32.354
X-7.922 Y32.367
X-8.072 Y32.368
X-8.222 Y32.358
X-8.37 Y32.337
X-8.517 Y32.306
X-8.661 Y32.263
X-8.801 Y32.211
X-8.937 Y32.148
X-9.069 Y32.075
X-9.194 Y31.993
X-9.314 Y31.902
X-9.426 Y31.803
X-9.531 Y31.696
X-9.629 Y31.582
X-9.717 Y31.461
X-9.797 Y31.334
X-9.867 Y31.201
X-9.927 Y31.064
X-9.977 Y30.923
X-10.017 Y30.778
X-10.046 Y30.631
X-10.065 Y30.482
X-10.073 Y30.332
X-10.07 Y30.182
X-10.056 Y30.033
X-10.032 Y29.885
X-9.996 Y29.739
X-9.951 Y29.596
X-9.895 Y29.457
X-9.829 Y29.322
X-9.753 Y29.193
X-9.668 Y29.069
X-9.575 Y28.952
X-9.473 Y28.841
X-9.364 Y28.738
X-9.248 Y28.644
X-9.125 Y28.558
X-8.996 Y28.481
X-8.862 Y28.414
X-8.723 Y28.356
X-8.581 Y28.309
X-8.435 Y28.273
X-8.288 Y28.247
X-8.139 Y28.231
X-7.989 Y28.226
X-7.839 Y28.233
X-7.69 Y28.249
X-7.542 Y28.277
X-7.397 Y28.315
X-7.255 Y28.364
X-7.118 Y28.423
X-6.984 Y28.492
X-6.856 Y28.571
X-6.734 Y28.658
X-6.619 Y28.754
X-6.511 Y28.857
X-6.41 Y28.969
X-6.318 Y29.087
X-6.234 Y29.211
X-6.158 Y29.341
X-6.09 Y29.475
X-6.031 Y29.612
X-5.981 Y29.754
X-5.939 Y29.898
X-5.907 Y30.044
X-5.884 Y30.193
X-5.871 Y30.342
X-5.868 Y30.492
X-5.875 Y30.642
X-5.892 Y30.791
X-5.921 Y30.938
X-5.959 Y31.083
X-6.009 Y31.225
X-6.069 Y31.362
X-6.138 Y31.495
X-6.217 Y31.622
X-6.305 Y31.744
X-6.402 Y31.859
X-6.506 Y31.967
X-6.618 Y32.067
X-6.736 Y32.159
X-6.861 Y32.242
X-6.991 Y32.316
X-7.127 Y32.381
X-7.266 Y32.437
X-7.409 Y32.482
X-7.555 Y32.518
X-7.702 Y32.544
X-7.851 Y32.56
X-8.001 Y32.566
X-8.151 Y32.562
X-8.301 Y32.548
X-8.449 Y32.524
X-8.595 Y32.49
X-8.738 Y32.447
X-8.879 Y32.394
X-9.015 Y32.331
X-9.147 Y32.26
X-9.274 Y32.18
X-9.395 Y32.092
X-9.511 Y31.996
X-9.619 Y31.893
X-9.721 Y31.783
X-9.816 Y31.666
X-9.902 Y31.543
X-9.98 Y31.415
X-10.049 Y31.282
X-10.11 Y31.145
X-10.161 Y31.004
X-10.202 Y30.86
X-10.234 Y30.713
X-10.257 Y30.565
X-10.269 Y30.415
X-10.272 Y30.265
X-10.265 Y30.116
X-10.249 Y29.967
X-10.222 Y29.819
X-10.185 Y29.673
X-10.139 Y29.531
X-10.084 Y29.391
X-10.019 Y29.256
X-9.946 Y29.125
X-9.864 Y29
X-9.774 Y28.879
X-9.676 Y28.765
X-9.572 Y28.658
X-9.46 Y28.558
X-9.342 Y28.465
X-9.218 Y28.38
X-9.089 Y28.304
X-8.955 Y28.237
X-8.817 Y28.179
X-8.675 Y28.13
X-8.53 Y28.09
X-8.384 Y28.06
X-8.235 Y28.039
X-8.085 Y28.029
X-7.935 Y28.028
X-7.786 Y28.037
X-7.637 Y28.055
X-7.49 Y28.084
X-7.345 Y28.123
X-7.203 Y28.171
X-7.064 Y28.229
X-6.93 Y28.295
X-6.8 Y28.37
X-6.675 Y28.454
X-6.556 Y28.545
X-6.443 Y28.644
X-6.337 Y28.75
X-6.238 Y28.862
X-6.146 Y28.981
X-6.061 Y29.104
X-5.984 Y29.233
X-5.915 Y29.366
X-5.853 Y29.503
X-5.8 Y29.643
X-5.756 Y29.786
X-5.719 Y29.932
X-5.692 Y30.08
X-5.674 Y30.228
X-5.664 Y30.378
Y30.528
X-5.674 Y30.678
X-5.693 Y30.827
X-5.722 Y30.974
X-5.761 Y31.119
X-5.809 Y31.261
X-5.866 Y31.399
X-5.932 Y31.534
X-6.007 Y31.664
X-6.09 Y31.789
X-6.181 Y31.908
X-6.279 Y32.021
X-6.385 Y32.128
X-6.497 Y32.227
X-6.616 Y32.319
X-6.74 Y32.403
X-6.87 Y32.479
X-7.004 Y32.546
X-7.142 Y32.605
X-7.283 Y32.655
X-7.427 Y32.696
X-7.574 Y32.728
X-7.722 Y32.751
X-7.871 Y32.765
X-8.021 Y32.77
X-8.171 Y32.765
X-8.321 Y32.751
X-8.469 Y32.728
X-8.615 Y32.696
X-8.759 Y32.654
X-8.901 Y32.604
X-9.039 Y32.546
X-9.173 Y32.479
X-9.303 Y32.404
X-9.428 Y32.321
X-9.549 Y32.232
X-9.663 Y32.135
X-9.771 Y32.031
X-9.873 Y31.921
X-9.968 Y31.804
X-10.055 Y31.683
X-10.135 Y31.556
X-10.207 Y31.424
X-10.271 Y31.288
X-10.327 Y31.149
X-10.374 Y31.006
X-10.412 Y30.862
X-10.442 Y30.715
X-10.463 Y30.566
X-10.475 Y30.416
X-10.478 Y30.266
X-10.471 Y30.117
X-10.455 Y29.967
X-10.431 Y29.819
X-10.397 Y29.673
X-10.355 Y29.529
X-10.304 Y29.388
X-10.244 Y29.251
X-10.176 Y29.117
X-10.101 Y28.987
X-10.018 Y28.862
X-9.927 Y28.743
X-9.83 Y28.629
X-9.725 Y28.521
X-9.615 Y28.42
X-9.498 Y28.326
X-9.376 Y28.239
X-9.248 Y28.16
X-9.116 Y28.088
X-8.98 Y28.025
X-8.841 Y27.97
X-8.698 Y27.923
X-8.553 Y27.885
X-8.406 Y27.855
X-8.258 Y27.835
X-8.108 Y27.824
X-7.958 Y27.822
X-7.808 Y27.829
X-7.659 Y27.845
X-7.511 Y27.871
X-7.365 Y27.905
X-7.221 Y27.948
X-7.081 Y27.999
X-6.943 Y28.059
X-6.809 Y28.127
X-6.68 Y28.203
X-6.555 Y28.287
X-6.436 Y28.377
X-6.322 Y28.475
X-6.214 Y28.579
X-6.113 Y28.69
X-6.018 Y28.806
X-5.929 Y28.927
X-5.848 Y29.053
X-5.773 Y29.183
X-5.706 Y29.317
X-5.647 Y29.455
X-5.595 Y29.596
X-5.551 Y29.739
X-5.515 Y29.885
X-5.487 Y30.032
X-5.467 Y30.181
X-5.457 Y30.33
X-5.455 Y30.48
X-5.461 Y30.63
X-5.477 Y30.779
X-5.501 Y30.927
X-5.534 Y31.074
X-5.576 Y31.218
X-5.626 Y31.359
X-5.684 Y31.497
X-5.751 Y31.632
X-5.825 Y31.762
X-5.907 Y31.888
X-5.997 Y32.008
X-6.093 Y32.123
X-6.197 Y32.232
X-6.306 Y32.334
X-6.421 Y32.43
X-6.542 Y32.519
X-6.668 Y32.6
X-6.799 Y32.675
X-6.933 Y32.741
X-7.071 Y32.8
X-7.212 Y32.85
X-7.356 Y32.892
X-7.502 Y32.926
X-7.65 Y32.952
X-7.799 Y32.969
X-7.949 Y32.977
X-8.099
X-8.249 Y32.968
X-8.398 Y32.951
X-8.546 Y32.925
X-8.692 Y32.891
X-8.836 Y32.849
X-8.977 Y32.799
X-9.115 Y32.741
X-9.25 Y32.675
X-9.381 Y32.602
X-9.508 Y32.521
X-9.63 Y32.434
X-9.746 Y32.34
X-9.858 Y32.239
X-9.963 Y32.133
X-10.063 Y32.02
X-10.155 Y31.903
X-10.242 Y31.78
X-10.321 Y31.652
X-10.393 Y31.521
X-10.457 Y31.385
X-10.514 Y31.247
X-10.563 Y31.105
X-10.604 Y30.961
X-10.637 Y30.814
X-10.662 Y30.666
X-10.678 Y30.517
X-10.686 Y30.367
Y30.217
X-10.677 Y30.068
X-10.66 Y29.919
X-10.635 Y29.771
X-10.601 Y29.625
X-10.559 Y29.48
X-10.51 Y29.339
X-10.452 Y29.2
X-10.387 Y29.065
X-10.314 Y28.934
X-10.235 Y28.807
X-10.148 Y28.685
X-10.054 Y28.567
X-9.954 Y28.455
X-9.849 Y28.349
X-9.737 Y28.249
X-9.62 Y28.155
X-9.498 Y28.068
X-9.371 Y27.988
X-9.24 Y27.915
X-9.105 Y27.85
X-8.966 Y27.792
X-8.825 Y27.742
X-8.681 Y27.7
X-8.535 Y27.666
X-8.387 Y27.64
X-8.238 Y27.623
X-8.088 Y27.614
X-7.938 Y27.613
X-7.788 Y27.621
X-7.639 Y27.636
X-7.491 Y27.661
X-7.345 Y27.693
X-7.201 Y27.734
X-7.059 Y27.783
X-6.92 Y27.839
X-6.784 Y27.903
X-6.652 Y27.975
X-6.524 Y28.054
X-6.401 Y28.139
X-6.283 Y28.231
X-6.169 Y28.329
X-6.062 Y28.434
X-5.959 Y28.543
X-5.863 Y28.658
X-5.773 Y28.778
X-5.69 Y28.903
X-5.613 Y29.032
X-5.542 Y29.164
X-5.479 Y29.3
X-5.423 Y29.439
X-5.374 Y29.581
X-5.333 Y29.725
X-5.299 Y29.872
X-5.273 Y30.019
X-5.255 Y30.168
X-5.244 Y30.318
X-5.242 Y30.468
X-5.248 Y30.618
X-5.261 Y30.767
X-5.284 Y30.915
X-5.314 Y31.062
X-5.352 Y31.207
X-5.398 Y31.35
X-5.451 Y31.49
X-5.512 Y31.627
X-5.581 Y31.761
X-5.657 Y31.89
X-5.74 Y32.015
X-5.829 Y32.136
X-5.925 Y32.251
X-6.027 Y32.361
X-6.135 Y32.465
X-6.249 Y32.562
X-6.368 Y32.654
X-6.492 Y32.739
X-6.62 Y32.817
X-6.752 Y32.888
X-6.887 Y32.952
X-7.026 Y33.009
X-7.168 Y33.058
X-7.312 Y33.1
X-7.458 Y33.134
X-7.606 Y33.16
X-7.755 Y33.178
X-7.904 Y33.188
X-8.054 Y33.191
X-8.204 Y33.185
X-8.354 Y33.171
X-8.502 Y33.15
X-8.649 Y33.121
X-8.795 Y33.084
X-8.938 Y33.04
X-9.079 Y32.988
X-9.217 Y32.929
X-9.351 Y32.863
X-9.482 Y32.79
X-9.61 Y32.711
X-9.732 Y32.624
X-9.85 Y32.532
X-9.964 Y32.433
X-10.071 Y32.329
X-10.174 Y32.219
X-10.27 Y32.104
X-10.36 Y31.985
X-10.444 Y31.86
X-10.522 Y31.732
X-10.593 Y31.6
X-10.657 Y31.464
X-10.713 Y31.325
X-10.763 Y31.184
X-10.805 Y31.04
X-10.84 Y30.894
X-10.867 Y30.746
X-10.886 Y30.597
X-10.897 Y30.448
X-10.901 Y30.298
X-10.897 Y30.148
X-10.885 Y29.998
X-10.866 Y29.85
X-10.839 Y29.702
X-10.804 Y29.556
X-10.762 Y29.412
X-10.713 Y29.271
X-10.656 Y29.132
X-10.592 Y28.996
X-10.521 Y28.864
X-10.444 Y28.735
X-10.36 Y28.611
X-10.269 Y28.492
X-10.173 Y28.377
X-10.07 Y28.267
X-9.962 Y28.163
X-9.849 Y28.064
X-9.731 Y27.972
X-9.609 Y27.885
X-9.482 Y27.805
X-9.351 Y27.732
X-9.217 Y27.665
X-9.079 Y27.606
X-8.938 Y27.554
X-8.795 Y27.509
X-8.65 Y27.472
X-8.503 Y27.442
X-8.354 Y27.42
X-8.205 Y27.406
X-8.055 Y27.399
X-7.905 Y27.4
X-7.756 Y27.409
X-7.606 Y27.425
X-7.458 Y27.449
X-7.312 Y27.481
X-7.167 Y27.52
X-7.024 Y27.567
X-6.885 Y27.621
X-6.748 Y27.682
X-6.614 Y27.75
X-6.484 Y27.825
X-6.358 Y27.906
X-6.236 Y27.994
X-6.119 Y28.087
X-6.006 Y28.187
X-5.899 Y28.291
X-5.797 Y28.401
X-5.7 Y28.516
X-5.609 Y28.635
X-5.524 Y28.759
X-5.445 Y28.886
X-5.373 Y29.018
X-5.307 Y29.152
X-5.247 Y29.29
X-5.195 Y29.431
X-5.149 Y29.573
X-5.11 Y29.718
X-5.079 Y29.865
X-5.054 Y30.013
X-5.037 Y30.162
X-5.027 Y30.312
X-5.025 Y30.462
X-5.03 Y30.612
X-5.043 Y30.761
X-5.063 Y30.91
X-5.091 Y31.057
X-5.126 Y31.203
X-5.169 Y31.347
X-5.218 Y31.488
X-5.275 Y31.627
X-5.339 Y31.763
X-5.41 Y31.895
X-5.487 Y32.024
X-5.57 Y32.148
X-5.66 Y32.269
X-5.756 Y32.384
X-5.857 Y32.494
X-5.964 Y32.6
X-6.076 Y32.699
X-6.194 Y32.793
X-6.315 Y32.881
X-6.441 Y32.962
X-6.571 Y33.037
X-6.704 Y33.106
X-6.841 Y33.168
X-6.981 Y33.223
X-7.123 Y33.271
X-7.267 Y33.312
X-7.413 Y33.346
X-7.561 Y33.372
X-7.71 Y33.391
X-7.859 Y33.403
X-8.009 Y33.408
X-8.159 Y33.405
X-8.309 Y33.395
X-8.458 Y33.377
X-8.605 Y33.352
X-8.752 Y33.32
X-8.897 Y33.281
X-9.04 Y33.235
X-9.18 Y33.182
X-9.318 Y33.122
X-9.452 Y33.056
X-9.583 Y32.983
X-9.711 Y32.905
X-9.835 Y32.82
X-9.954 Y32.729
X-10.069 Y32.632
X-10.179 Y32.53
X-10.283 Y32.423
X-10.383 Y32.31
X-10.477 Y32.194
X-10.565 Y32.072
X-10.648 Y31.947
X-10.724 Y31.818
X-10.794 Y31.685
X-10.857 Y31.549
X-10.914 Y31.41
X-10.965 Y31.269
X-11.008 Y31.126
X-11.044 Y30.98
X-11.074 Y30.833
X-11.096 Y30.685
X-11.111 Y30.535
X-11.118 Y30.385
X-11.119 Y30.235
X-11.112 Y30.086
X-11.098 Y29.936
X-11.077 Y29.788
X-11.049 Y29.64
X-11.014 Y29.495
X-10.972 Y29.351
X-10.923 Y29.209
X-10.867 Y29.07
X-10.805 Y28.933
X-10.736 Y28.8
X-10.661 Y28.67
X-10.579 Y28.544
X-10.492 Y28.422
X-10.399 Y28.305
X-10.3 Y28.192
X-10.196 Y28.084
X-10.087 Y27.981
X-9.973 Y27.883
X-9.854 Y27.791
X-9.732 Y27.705
X-9.605 Y27.624
X-9.475 Y27.55
X-9.341 Y27.482
X-9.204 Y27.421
X-9.064 Y27.367
X-8.922 Y27.319
X-8.778 Y27.278
X-8.631 Y27.244
X-8.484 Y27.218
X-8.335 Y27.198
X-8.186 Y27.186
X-8.036 Y27.18
X-7.886 Y27.182
X-7.736 Y27.191
X-7.587 Y27.207
X-7.439 Y27.231
X-7.292 Y27.261
X-7.147 Y27.298
X-7.003 Y27.343
X-6.862 Y27.394
X-6.724 Y27.452
X-6.589 Y27.517
X-6.456 Y27.587
X-6.328 Y27.664
X-6.203 Y27.747
X-6.082 Y27.836
X-5.965 Y27.93
X-5.853 Y28.03
X-5.745 Y28.134
X-5.642 Y28.243
X-5.545 Y28.357
X-5.452 Y28.475
X-5.366 Y28.598
X-5.284 Y28.724
X-5.209 Y28.854
X-5.14 Y28.987
X-5.077 Y29.123
X-5.021 Y29.262
X-4.97 Y29.403
X-4.926 Y29.547
X-4.889 Y29.692
X-4.859 Y29.839
X-4.835 Y29.987
X-4.818 Y30.136
X-4.808 Y30.286
X-4.804 Y30.436
X-4.808 Y30.586
X-4.819 Y30.735
X-4.837 Y30.884
X-4.861 Y31.032
X-4.893 Y31.179
X-4.932 Y31.324
X-4.977 Y31.467
X-5.029 Y31.607
X-5.088 Y31.745
X-5.153 Y31.881
X-5.224 Y32.013
X-5.301 Y32.141
X-5.385 Y32.266
X-5.474 Y32.386
X-5.568 Y32.503
X-5.669 Y32.615
X-5.774 Y32.721
X-5.884 Y32.823
X-5.999 Y32.92
X-6.118 Y33.011
X-6.242 Y33.096
X-6.369 Y33.175
X-6.5 Y33.249
X-6.634 Y33.316
X-6.771 Y33.377
X-6.911 Y33.431
X-7.053 Y33.48
X-7.197 Y33.521
X-7.343 Y33.556
X-7.49 Y33.584
X-7.638 Y33.606
X-7.788 Y33.62
X-7.937 Y33.628
X-8.087
X-8.237 Y33.622
X-8.387 Y33.609
X-8.535 Y33.589
X-8.683 Y33.562
X-8.829 Y33.529
X-8.974 Y33.489
X-9.117 Y33.442
X-9.257 Y33.39
X-9.395 Y33.331
X-9.53 Y33.265
X-9.662 Y33.194
X-9.791 Y33.117
X-9.916 Y33.034
X-10.037 Y32.946
X-10.154 Y32.852
X-10.266 Y32.753
X-10.374 Y32.648
X-10.477 Y32.539
X-10.575 Y32.426
X-10.668 Y32.308
X-10.756 Y32.187
X-10.838 Y32.061
X-10.914 Y31.932
X-10.985 Y31.799
X-11.049 Y31.664
X-11.108 Y31.526
X-11.16 Y31.385
X-11.206 Y31.242
X-11.245 Y31.098
X-11.278 Y30.951
X-11.303 Y30.803
X-11.323 Y30.655
X-11.335 Y30.505
X-11.341 Y30.355
X-11.34 Y30.205
X-11.332 Y30.056
X-11.318 Y29.906
X-11.297 Y29.758
X-11.27 Y29.61
X-11.235 Y29.464
X-11.195 Y29.32
X-11.148 Y29.177
X-11.095 Y29.037
X-11.035 Y28.9
X-10.969 Y28.765
X-10.897 Y28.633
X-10.819 Y28.505
X-10.736 Y28.38
X-10.647 Y28.26
X-10.552 Y28.143
X-10.453 Y28.031
X-10.349 Y27.923
X-10.24 Y27.82
X-10.126 Y27.722
X-10.008 Y27.629
X-9.887 Y27.541
X-9.761 Y27.459
X-9.632 Y27.383
X-9.499 Y27.312
X-9.364 Y27.248
X-9.226 Y27.19
X-9.085 Y27.138
X-8.942 Y27.093
X-8.797 Y27.054
X-8.65 Y27.022
X-8.503 Y26.996
X-8.354 Y26.977
X-8.204 Y26.964
X-8.055 Y26.958
X-7.905 Y26.959
X-7.755 Y26.967
X-7.605 Y26.981
X-7.457 Y27.002
X-7.309 Y27.029
X-7.163 Y27.064
X-7.019 Y27.104
X-6.877 Y27.151
X-6.737 Y27.205
X-6.599 Y27.265
X-6.464 Y27.33
X-6.332 Y27.402
X-6.204 Y27.479
X-6.079 Y27.562
X-5.957 Y27.65
X-5.84 Y27.743
X-5.726 Y27.842
X-5.617 Y27.945
X-5.513 Y28.052
X-5.413 Y28.164
X-5.318 Y28.281
X-5.229 Y28.401
X-5.144 Y28.525
X-5.066 Y28.652
X-4.992 Y28.783
X-4.953 Y28.862
X-4.925 Y28.926
X-4.843 Y29.124
X-4.824 Y29.168
X-4.812 Y29.199
X-4.761 Y29.34
X-4.744 Y29.393
X-4.722 Y29.471
X-4.705 Y29.55
X-4.692 Y29.629
G3 X-5.315 Y29.746 I-0.317 J0.03
G1 X-5.407 Y29.416
G3 X-4.812 Y29.199 I0.306 J-0.086
G1 X-4.756 Y29.333
X-4.724 Y29.416
X-4.701 Y29.561
X-4.624 Y30.145
X-4.61 Y30.252
X-4.608 Y30.291
X-4.61 Y30.348
X-4.699 Y31.02
X-4.719 Y31.166
X-4.756 Y31.267
X-5.048 Y31.971
X-5.067 Y32.006
X-5.092 Y32.042
X-5.54 Y32.625
X-5.58 Y32.676
X-5.632 Y32.727
X-6.26 Y33.209
X-6.311 Y33.242
X-6.361 Y33.266
X-7.091 Y33.568
X-7.127 Y33.579
X-7.164 Y33.586
X-7.966 Y33.692
X-8.003 Y33.693
X-8.039 Y33.691
X-8.842 Y33.585
X-8.879 Y33.577
X-8.915 Y33.566
X-9.645 Y33.263
X-9.681 Y33.247
X-9.718 Y33.225
X-9.74 Y33.209
X-10.311 Y32.771
X-10.379 Y32.718
X-10.417 Y32.68
X-10.46 Y32.625
X-10.908 Y32.042
X-10.934 Y32.005
X-10.953 Y31.969
X-11.225 Y31.312
X-11.281 Y31.166
X-11.301 Y31.02
X-11.378 Y30.437
X-11.392 Y30.291
X-11.376 Y30.145
X-11.299 Y29.561
X-11.276 Y29.416
X-11.218 Y29.27
X-10.976 Y28.686
X-10.944 Y28.613
X-10.921 Y28.577
X-10.446 Y27.956
X-10.414 Y27.917
X-10.374 Y27.878
X-10.287 Y27.811
X-9.716 Y27.373
X-9.68 Y27.352
X-9.644 Y27.336
X-8.915 Y27.034
X-8.879 Y27.023
X-8.842 Y27.015
X-8.039 Y26.909
X-8.003 Y26.907
X-7.966 Y26.908
X-7.164 Y27.014
X-7.127 Y27.021
X-7.091 Y27.032
X-6.361 Y27.334
X-6.286 Y27.373
X-6.215 Y27.425
X-5.632 Y27.873
X-5.587 Y27.915
X-5.554 Y27.956
X-5.106 Y28.54
X-5.073 Y28.585
X-5.048 Y28.629
X-4.925 Y28.926
G3 X-5.082 Y29.322 I-0.298 J0.111
G1 X-5.13 Y29.334 Z-2.496
X-5.178 Y29.345 Z-2.484
X-5.222 Y29.355 Z-2.465
X-5.273 Y29.342 Z-2.43
X-5.317 Y29.331 Z-2.385
X-5.351 Y29.322 Z-2.333
X-5.374 Y29.317 Z-2.275
X-5.383 Y29.311 Z-2.229
X-5.386 Y29.31 Z-2.182
G0 Z5
X-8.597 Y28.912
Z0
G3 X-7.4 Y31.686 Z-0.166 I0.598 J1.387 F283.3
X-8.597 Y28.912 Z-0.331 I-0.598 J-1.387
X-7.4 Y31.686 Z-0.497 I0.598 J1.387
X-8.597 Y28.912 Z-0.663 I-0.598 J-1.387
X-7.4 Y31.686 Z-0.829 I0.598 J1.387
X-8.597 Y28.912 Z-0.994 I-0.598 J-1.387
X-7.4 Y31.686 Z-1.16 I0.598 J1.387
X-8.597 Y28.912 Z-1.326 I-0.598 J-1.387
X-7.4 Y31.686 Z-1.491 I0.598 J1.387
X-8.597 Y28.912 Z-1.657 I-0.598 J-1.387
X-7.4 Y31.686 Z-1.823 I0.598 J1.387
X-8.597 Y28.912 Z-1.989 I-0.598 J-1.387
X-7.4 Y31.686 Z-2.154 I0.598 J1.387
X-8.597 Y28.912 Z-2.32 I-0.598 J-1.387
X-7.4 Y31.686 Z-2.486 I0.598 J1.387
X-8.597 Y28.912 Z-2.651 I-0.598 J-1.387
X-7.4 Y31.686 Z-2.817 I0.598 J1.387
X-8.597 Y28.912 Z-2.983 I-0.598 J-1.387
X-7.4 Y31.686 Z-3.149 I0.598 J1.387
X-8.597 Y28.912 Z-3.314 I-0.598 J-1.387
X-7.4 Y31.686 Z-3.48 I0.598 J1.387
X-8.597 Y28.912 Z-3.646 I-0.598 J-1.387
X-6.488 Y30.299 Z-3.75 I0.598 J1.387
X-9.509 I-1.51
X-6.488 I1.51
G1 X-6.478 Y30.682 F850
X-6.479 Y30.832
X-6.511 Y30.979
X-6.564 Y31.119
X-6.635 Y31.252
X-6.719 Y31.375
X-6.817 Y31.489
X-6.925 Y31.593
X-7.043 Y31.686
X-7.169 Y31.767
X-7.302 Y31.837
X-7.441 Y31.894
X-7.584 Y31.938
X-7.731 Y31.968
X-7.88 Y31.986
X-8.03 Y31.99
X-8.18 Y31.981
X-8.328 Y31.959
X-8.474 Y31.923
X-8.616 Y31.875
X-8.753 Y31.814
X-8.884 Y31.741
X-9.008 Y31.657
X-9.125 Y31.562
X-9.232 Y31.458
X-9.33 Y31.344
X-9.417 Y31.222
X-9.493 Y31.093
X-9.558 Y30.957
X-9.61 Y30.817
X-9.649 Y30.672
X-9.676 Y30.524
X-9.689 Y30.375
Y30.225
X-9.676 Y30.075
X-9.649 Y29.928
X-9.61 Y29.783
X-9.558 Y29.642
X-9.494 Y29.507
X-9.418 Y29.377
X-9.33 Y29.255
X-9.233 Y29.142
X-9.125 Y29.037
X-9.009 Y28.942
X-8.885 Y28.858
X-8.754 Y28.785
X-8.617 Y28.724
X-8.475 Y28.676
X-8.329 Y28.64
X-8.181 Y28.617
X-8.031 Y28.607
X-7.881 Y28.611
X-7.732 Y28.628
X-7.585 Y28.658
X-7.442 Y28.701
X-7.302 Y28.757
X-7.168 Y28.825
X-7.041 Y28.904
X-6.921 Y28.994
X-6.81 Y29.095
X-6.708 Y29.205
X-6.616 Y29.324
X-6.535 Y29.45
X-6.466 Y29.583
X-6.408 Y29.721
X-6.363 Y29.864
X-6.329 Y30.01
X-6.301 Y30.158
X-6.279 Y30.306
X-6.266 Y30.456
Y30.606
X-6.279 Y30.755
X-6.307 Y30.902
X-6.348 Y31.047
X-6.404 Y31.186
X-6.472 Y31.319
X-6.553 Y31.446
X-6.645 Y31.564
X-6.748 Y31.673
X-6.86 Y31.773
X-6.98 Y31.863
X-7.108 Y31.942
X-7.241 Y32.01
X-7.38 Y32.067
X-7.523 Y32.112
X-7.669 Y32.145
X-7.818 Y32.167
X-7.968 Y32.176
X-8.118 Y32.173
X-8.267 Y32.158
X-8.414 Y32.131
X-8.559 Y32.093
X-8.701 Y32.042
X-8.837 Y31.98
X-8.969 Y31.908
X-9.094 Y31.826
X-9.212 Y31.734
X-9.323 Y31.632
X-9.425 Y31.523
X-9.519 Y31.405
X-9.602 Y31.281
X-9.675 Y31.149
X-9.737 Y31.013
X-9.788 Y30.872
X-9.828 Y30.727
X-9.857 Y30.58
X-9.873 Y30.431
X-9.878 Y30.281
X-9.871 Y30.131
X-9.852 Y29.983
X-9.82 Y29.836
X-9.778 Y29.692
X-9.723 Y29.552
X-9.658 Y29.417
X-9.582 Y29.288
X-9.497 Y29.165
X-9.401 Y29.049
X-9.297 Y28.941
X-9.185 Y28.841
X-9.065 Y28.751
X-8.938 Y28.671
X-8.805 Y28.601
X-8.667 Y28.543
X-8.525 Y28.495
X-8.379 Y28.459
X-8.232 Y28.435
X-8.082 Y28.422
X-7.932 Y28.421
X-7.782 Y28.432
X-7.634 Y28.455
X-7.488 Y28.49
X-7.346 Y28.536
X-7.207 Y28.594
X-7.074 Y28.663
X-6.947 Y28.742
X-6.826 Y28.831
X-6.712 Y28.929
X-6.607 Y29.036
X-6.511 Y29.151
X-6.424 Y29.273
X-6.347 Y29.402
X-6.28 Y29.536
X-6.222 Y29.675
X-6.173 Y29.816
X-6.132 Y29.961
X-6.101 Y30.107
X-6.079 Y30.256
X-6.068 Y30.405
Y30.555
X-6.079 Y30.705
X-6.102 Y30.853
X-6.137 Y30.999
X-6.184 Y31.142
X-6.242 Y31.28
X-6.312 Y31.412
X-6.393 Y31.539
X-6.483 Y31.659
X-6.583 Y31.771
X-6.691 Y31.875
X-6.807 Y31.97
X-6.93 Y32.055
X-7.059 Y32.131
X-7.194 Y32.197
X-7.334 Y32.252
X-7.477 Y32.297
X-7.623 Y32.331
X-7.771 Y32.354
X-7.921 Y32.366
X-8.071 Y32.367
X-8.22 Y32.358
X-8.369 Y32.337
X-8.515 Y32.305
X-8.659 Y32.263
X-8.8 Y32.21
X-8.936 Y32.147
X-9.067 Y32.075
X-9.193 Y31.993
X-9.312 Y31.902
X-9.425 Y31.803
X-9.53 Y31.696
X-9.627 Y31.582
X-9.716 Y31.461
X-9.795 Y31.334
X-9.866 Y31.201
X-9.926 Y31.064
X-9.976 Y30.922
X-10.016 Y30.778
X-10.045 Y30.631
X-10.063 Y30.482
X-10.071 Y30.332
X-10.068 Y30.182
X-10.055 Y30.033
X-10.03 Y29.885
X-9.995 Y29.739
X-9.949 Y29.596
X-9.893 Y29.457
X-9.827 Y29.322
X-9.752 Y29.193
X-9.667 Y29.069
X-9.573 Y28.951
X-9.472 Y28.841
X-9.363 Y28.738
X-9.246 Y28.643
X-9.124 Y28.557
X-8.995 Y28.481
X-8.861 Y28.413
X-8.722 Y28.356
X-8.579 Y28.309
X-8.434 Y28.273
X-8.286 Y28.246
X-8.137 Y28.231
X-7.987 Y28.226
X-7.837 Y28.232
X-7.688 Y28.249
X-7.541 Y28.277
X-7.396 Y28.315
X-7.254 Y28.364
X-7.116 Y28.423
X-6.983 Y28.492
X-6.855 Y28.57
X-6.733 Y28.658
X-6.618 Y28.753
X-6.509 Y28.857
X-6.409 Y28.969
X-6.316 Y29.087
X-6.232 Y29.211
X-6.157 Y29.34
X-6.089 Y29.474
X-6.03 Y29.612
X-5.979 Y29.754
X-5.938 Y29.898
X-5.905 Y30.044
X-5.883 Y30.192
X-5.869 Y30.342
X-5.866 Y30.492
X-5.873 Y30.642
X-5.891 Y30.791
X-5.919 Y30.938
X-5.958 Y31.083
X-6.007 Y31.224
X-6.067 Y31.362
X-6.137 Y31.495
X-6.216 Y31.622
X-6.304 Y31.744
X-6.4 Y31.859
X-6.505 Y31.966
X-6.616 Y32.066
X-6.735 Y32.158
X-6.86 Y32.242
X-6.99 Y32.316
X-7.125 Y32.381
X-7.265 Y32.436
X-7.407 Y32.482
X-7.553 Y32.518
X-7.701 Y32.544
X-7.85 Y32.56
X-8 Y32.566
X-8.15 Y32.562
X-8.299 Y32.548
X-8.447 Y32.524
X-8.593 Y32.49
X-8.737 Y32.447
X-8.877 Y32.394
X-9.014 Y32.331
X-9.145 Y32.26
X-9.272 Y32.18
X-9.394 Y32.092
X-9.509 Y31.996
X-9.618 Y31.893
X-9.72 Y31.782
X-9.814 Y31.666
X-9.901 Y31.543
X-9.979 Y31.415
X-10.048 Y31.282
X-10.108 Y31.145
X-10.159 Y31.004
X-10.201 Y30.86
X-10.233 Y30.713
X-10.255 Y30.565
X-10.268 Y30.415
X-10.271 Y30.265
X-10.264 Y30.115
X-10.247 Y29.966
X-10.22 Y29.819
X-10.184 Y29.673
X-10.138 Y29.531
X-10.082 Y29.391
X-10.017 Y29.256
X-9.944 Y29.125
X-9.862 Y28.999
X-9.772 Y28.879
X-9.675 Y28.765
X-9.57 Y28.658
X-9.459 Y28.557
X-9.341 Y28.465
X-9.217 Y28.38
X-9.088 Y28.304
X-8.954 Y28.237
X-8.815 Y28.178
X-8.674 Y28.129
X-8.529 Y28.09
X-8.382 Y28.06
X-8.233 Y28.039
X-8.084 Y28.028
X-7.934 Y28.027
X-7.784 Y28.036
X-7.635 Y28.055
X-7.488 Y28.084
X-7.343 Y28.123
X-7.201 Y28.171
X-7.063 Y28.228
X-6.928 Y28.295
X-6.798 Y28.37
X-6.674 Y28.453
X-6.555 Y28.545
X-6.442 Y28.644
X-6.336 Y28.75
X-6.236 Y28.862
X-6.144 Y28.98
X-6.06 Y29.104
X-5.982 Y29.233
X-5.913 Y29.366
X-5.852 Y29.503
X-5.799 Y29.643
X-5.754 Y29.786
X-5.718 Y29.932
X-5.691 Y30.079
X-5.672 Y30.228
X-5.663 Y30.378
Y30.528
X-5.672 Y30.678
X-5.692 Y30.826
X-5.721 Y30.974
X-5.759 Y31.118
X-5.807 Y31.261
X-5.864 Y31.399
X-5.931 Y31.534
X-6.005 Y31.664
X-6.088 Y31.789
X-6.179 Y31.908
X-6.278 Y32.021
X-6.383 Y32.128
X-6.496 Y32.227
X-6.614 Y32.319
X-6.739 Y32.403
X-6.868 Y32.479
X-7.002 Y32.546
X-7.14 Y32.605
X-7.282 Y32.655
X-7.426 Y32.696
X-7.572 Y32.728
X-7.721 Y32.751
X-7.87 Y32.765
X-8.02 Y32.77
X-8.17 Y32.765
X-8.319 Y32.751
X-8.467 Y32.728
X-8.614 Y32.695
X-8.758 Y32.654
X-8.899 Y32.604
X-9.037 Y32.545
X-9.172 Y32.479
X-9.302 Y32.404
X-9.427 Y32.321
X-9.547 Y32.231
X-9.661 Y32.134
X-9.77 Y32.031
X-9.872 Y31.92
X-9.966 Y31.804
X-10.054 Y31.682
X-10.134 Y31.555
X-10.206 Y31.424
X-10.27 Y31.288
X-10.325 Y31.149
X-10.372 Y31.006
X-10.411 Y30.861
X-10.441 Y30.714
X-10.462 Y30.566
X-10.473 Y30.416
X-10.476 Y30.266
X-10.47 Y30.116
X-10.454 Y29.967
X-10.429 Y29.819
X-10.396 Y29.673
X-10.353 Y29.529
X-10.302 Y29.388
X-10.243 Y29.251
X-10.175 Y29.117
X-10.1 Y28.987
X-10.016 Y28.862
X-9.926 Y28.742
X-9.828 Y28.629
X-9.724 Y28.521
X-9.613 Y28.42
X-9.496 Y28.326
X-9.374 Y28.239
X-9.247 Y28.159
X-9.115 Y28.088
X-8.979 Y28.024
X-8.84 Y27.969
X-8.697 Y27.923
X-8.552 Y27.885
X-8.405 Y27.855
X-8.256 Y27.835
X-8.107 Y27.824
X-7.957 Y27.822
X-7.807 Y27.829
X-7.658 Y27.845
X-7.51 Y27.871
X-7.364 Y27.905
X-7.22 Y27.948
X-7.079 Y27.999
X-6.942 Y28.059
X-6.808 Y28.127
X-6.679 Y28.203
X-6.554 Y28.286
X-6.435 Y28.377
X-6.321 Y28.475
X-6.213 Y28.579
X-6.111 Y28.69
X-6.016 Y28.806
X-5.928 Y28.927
X-5.846 Y29.053
X-5.772 Y29.183
X-5.705 Y29.317
X-5.645 Y29.455
X-5.593 Y29.595
X-5.549 Y29.739
X-5.513 Y29.884
X-5.485 Y30.032
X-5.466 Y30.181
X-5.455 Y30.33
X-5.453 Y30.48
X-5.46 Y30.63
X-5.476 Y30.779
X-5.5 Y30.927
X-5.533 Y31.074
X-5.574 Y31.218
X-5.624 Y31.359
X-5.683 Y31.497
X-5.749 Y31.632
X-5.824 Y31.762
X-5.906 Y31.888
X-5.995 Y32.008
X-6.092 Y32.123
X-6.195 Y32.231
X-6.305 Y32.334
X-6.42 Y32.43
X-6.541 Y32.519
X-6.667 Y32.6
X-6.797 Y32.674
X-6.932 Y32.741
X-7.07 Y32.8
X-7.211 Y32.85
X-7.355 Y32.892
X-7.501 Y32.926
X-7.649 Y32.952
X-7.798 Y32.968
X-7.948 Y32.977
X-8.098 Y32.976
X-8.247 Y32.968
X-8.396 Y32.95
X-8.544 Y32.925
X-8.69 Y32.891
X-8.834 Y32.849
X-8.976 Y32.799
X-9.114 Y32.741
X-9.249 Y32.675
X-9.38 Y32.602
X-9.506 Y32.521
X-9.628 Y32.434
X-9.745 Y32.34
X-9.856 Y32.239
X-9.962 Y32.132
X-10.061 Y32.02
X-10.154 Y31.902
X-10.24 Y31.78
X-10.32 Y31.652
X-10.392 Y31.521
X-10.456 Y31.385
X-10.513 Y31.246
X-10.562 Y31.105
X-10.603 Y30.96
X-10.636 Y30.814
X-10.66 Y30.666
X-10.677 Y30.517
X-10.685 Y30.367
X-10.684 Y30.217
X-10.676 Y30.067
X-10.659 Y29.918
X-10.633 Y29.771
X-10.6 Y29.624
X-10.558 Y29.48
X-10.508 Y29.339
X-10.451 Y29.2
X-10.386 Y29.065
X-10.313 Y28.934
X-10.233 Y28.807
X-10.146 Y28.685
X-10.053 Y28.567
X-9.953 Y28.455
X-9.847 Y28.349
X-9.735 Y28.249
X-9.618 Y28.155
X-9.496 Y28.068
X-9.369 Y27.988
X-9.238 Y27.915
X-9.103 Y27.85
X-8.965 Y27.792
X-8.823 Y27.742
X-8.679 Y27.7
X-8.533 Y27.666
X-8.386 Y27.64
X-8.237 Y27.623
X-8.087 Y27.614
X-7.937 Y27.613
X-7.787 Y27.62
X-7.638 Y27.636
X-7.49 Y27.661
X-7.343 Y27.693
X-7.199 Y27.734
X-7.057 Y27.783
X-6.918 Y27.839
X-6.783 Y27.903
X-6.651 Y27.975
X-6.523 Y28.053
X-6.4 Y28.139
X-6.281 Y28.231
X-6.168 Y28.329
X-6.06 Y28.433
X-5.958 Y28.543
X-5.862 Y28.658
X-5.772 Y28.778
X-5.688 Y28.903
X-5.611 Y29.032
X-5.541 Y29.164
X-5.478 Y29.3
X-5.422 Y29.439
X-5.373 Y29.581
X-5.331 Y29.725
X-5.298 Y29.871
X-5.271 Y30.019
X-5.253 Y30.168
X-5.243 Y30.318
X-5.24 Y30.468
X-5.246 Y30.617
X-5.26 Y30.767
X-5.282 Y30.915
X-5.312 Y31.062
X-5.35 Y31.207
X-5.396 Y31.35
X-5.45 Y31.49
X-5.511 Y31.627
X-5.58 Y31.76
X-5.655 Y31.89
X-5.738 Y32.015
X-5.828 Y32.135
X-5.924 Y32.251
X-6.026 Y32.36
X-6.134 Y32.464
X-6.248 Y32.562
X-6.367 Y32.654
X-6.49 Y32.739
X-6.618 Y32.817
X-6.75 Y32.888
X-6.886 Y32.952
X-7.025 Y33.009
X-7.166 Y33.058
X-7.31 Y33.1
X-7.457 Y33.134
X-7.604 Y33.16
X-7.753 Y33.178
X-7.903 Y33.188
X-8.053 Y33.19
X-8.203 Y33.185
X-8.352 Y33.171
X-8.501 Y33.15
X-8.648 Y33.121
X-8.793 Y33.084
X-8.936 Y33.039
X-9.077 Y32.988
X-9.215 Y32.929
X-9.35 Y32.863
X-9.481 Y32.79
X-9.608 Y32.71
X-9.731 Y32.624
X-9.849 Y32.532
X-9.962 Y32.433
X-10.07 Y32.329
X-10.172 Y32.219
X-10.269 Y32.104
X-10.359 Y31.984
X-10.443 Y31.86
X-10.52 Y31.732
X-10.591 Y31.6
X-10.655 Y31.464
X-10.712 Y31.325
X-10.762 Y31.183
X-10.804 Y31.04
X-10.838 Y30.894
X-10.865 Y30.746
X-10.884 Y30.597
X-10.896 Y30.448
X-10.9 Y30.298
X-10.896 Y30.148
X-10.884 Y29.998
X-10.864 Y29.85
X-10.837 Y29.702
X-10.803 Y29.556
X-10.761 Y29.412
X-10.711 Y29.27
X-10.655 Y29.132
X-10.591 Y28.996
X-10.52 Y28.864
X-10.442 Y28.735
X-10.358 Y28.611
X-10.268 Y28.491
X-10.171 Y28.377
X-10.069 Y28.267
X-9.961 Y28.163
X-9.848 Y28.064
X-9.73 Y27.971
X-9.607 Y27.885
X-9.481 Y27.805
X-9.35 Y27.732
X-9.215 Y27.665
X-9.077 Y27.606
X-8.937 Y27.554
X-8.794 Y27.509
X-8.648 Y27.472
X-8.501 Y27.442
X-8.353 Y27.42
X-8.204 Y27.405
X-8.054 Y27.399
X-7.904 Y27.4
X-7.754 Y27.408
X-7.605 Y27.425
X-7.457 Y27.449
X-7.31 Y27.481
X-7.166 Y27.52
X-7.023 Y27.567
X-6.883 Y27.621
X-6.746 Y27.682
X-6.613 Y27.75
X-6.483 Y27.825
X-6.356 Y27.906
X-6.235 Y27.994
X-6.117 Y28.087
X-6.005 Y28.186
X-5.897 Y28.291
X-5.795 Y28.401
X-5.699 Y28.516
X-5.608 Y28.635
X-5.523 Y28.759
X-5.444 Y28.886
X-5.371 Y29.017
X-5.305 Y29.152
X-5.246 Y29.29
X-5.193 Y29.43
X-5.148 Y29.573
X-5.109 Y29.718
X-5.077 Y29.865
X-5.053 Y30.013
X-5.036 Y30.162
X-5.026 Y30.311
X-5.024 Y30.461
X-5.029 Y30.611
X-5.042 Y30.761
X-5.062 Y30.909
X-5.09 Y31.057
X-5.125 Y31.203
X-5.167 Y31.346
X-5.217 Y31.488
X-5.274 Y31.627
X-5.338 Y31.763
X-5.408 Y31.895
X-5.485 Y32.024
X-5.569 Y32.148
X-5.659 Y32.268
X-5.754 Y32.384
X-5.856 Y32.494
X-5.963 Y32.599
X-6.075 Y32.699
X-6.192 Y32.793
X-6.314 Y32.88
X-6.44 Y32.962
X-6.57 Y33.037
X-6.703 Y33.106
X-6.84 Y33.167
X-6.979 Y33.222
X-7.121 Y33.271
X-7.266 Y33.312
X-7.412 Y33.345
X-7.559 Y33.372
X-7.708 Y33.391
X-7.858 Y33.403
X-8.008 Y33.408
X-8.158 Y33.405
X-8.307 Y33.394
X-8.456 Y33.377
X-8.604 Y33.352
X-8.751 Y33.32
X-8.895 Y33.281
X-9.038 Y33.235
X-9.179 Y33.182
X-9.316 Y33.122
X-9.451 Y33.056
X-9.582 Y32.983
X-9.71 Y32.904
X-9.833 Y32.819
X-9.953 Y32.729
X-10.067 Y32.632
X-10.177 Y32.53
X-10.282 Y32.423
X-10.382 Y32.31
X-10.476 Y32.193
X-10.564 Y32.072
X-10.646 Y31.947
X-10.722 Y31.818
X-10.792 Y31.685
X-10.856 Y31.549
X-10.913 Y31.41
X-10.963 Y31.269
X-11.007 Y31.125
X-11.043 Y30.98
X-11.072 Y30.833
X-11.094 Y30.684
X-11.109 Y30.535
X-11.117 Y30.385
Y30.235
X-11.11 Y30.085
X-11.097 Y29.936
X-11.076 Y29.788
X-11.047 Y29.64
X-11.012 Y29.494
X-10.97 Y29.35
X-10.921 Y29.209
X-10.866 Y29.069
X-10.803 Y28.933
X-10.734 Y28.8
X-10.659 Y28.67
X-10.578 Y28.544
X-10.49 Y28.422
X-10.397 Y28.305
X-10.298 Y28.192
X-10.194 Y28.084
X-10.085 Y27.981
X-9.971 Y27.883
X-9.853 Y27.791
X-9.73 Y27.705
X-9.604 Y27.624
X-9.473 Y27.55
X-9.339 Y27.482
X-9.202 Y27.421
X-9.063 Y27.366
X-8.921 Y27.319
X-8.776 Y27.278
X-8.63 Y27.244
X-8.482 Y27.218
X-8.334 Y27.198
X-8.184 Y27.185
X-8.034 Y27.18
X-7.884 Y27.182
X-7.735 Y27.191
X-7.585 Y27.207
X-7.437 Y27.23
X-7.29 Y27.261
X-7.145 Y27.298
X-7.002 Y27.343
X-6.861 Y27.394
X-6.723 Y27.452
X-6.587 Y27.516
X-6.455 Y27.587
X-6.326 Y27.664
X-6.201 Y27.747
X-6.08 Y27.836
X-5.963 Y27.93
X-5.851 Y28.029
X-5.743 Y28.134
X-5.641 Y28.243
X-5.543 Y28.357
X-5.451 Y28.475
X-5.364 Y28.598
X-5.283 Y28.724
X-5.208 Y28.854
X-5.139 Y28.987
X-5.076 Y29.123
X-5.019 Y29.262
X-4.969 Y29.403
X-4.925 Y29.547
X-4.888 Y29.692
X-4.857 Y29.839
X-4.833 Y29.987
X-4.816 Y30.136
X-4.806 Y30.286
X-4.803 Y30.435
X-4.807 Y30.585
X-4.817 Y30.735
X-4.835 Y30.884
X-4.86 Y31.032
X-4.892 Y31.179
X-4.93 Y31.323
X-4.976 Y31.466
X-5.028 Y31.607
X-5.086 Y31.745
X-5.151 Y31.88
X-5.223 Y32.012
X-5.3 Y32.141
X-5.383 Y32.266
X-5.472 Y32.386
X-5.567 Y32.503
X-5.667 Y32.614
X-5.772 Y32.721
X-5.883 Y32.823
X-5.997 Y32.919
X-6.117 Y33.01
X-6.24 Y33.096
X-6.367 Y33.175
X-6.498 Y33.248
X-6.632 Y33.316
X-6.769 Y33.377
X-6.909 Y33.431
X-7.051 Y33.479
X-7.195 Y33.521
X-7.341 Y33.556
X-7.488 Y33.584
X-7.637 Y33.605
X-7.786 Y33.62
X-7.936 Y33.627
X-8.086 Y33.628
X-8.236 Y33.622
X-8.385 Y33.608
X-8.534 Y33.589
X-8.682 Y33.562
X-8.828 Y33.528
X-8.972 Y33.489
X-9.115 Y33.442
X-9.256 Y33.389
X-9.393 Y33.33
X-9.529 Y33.265
X-9.661 Y33.194
X-9.789 Y33.117
X-9.914 Y33.034
X-10.035 Y32.945
X-10.152 Y32.852
X-10.265 Y32.752
X-10.373 Y32.648
X-10.476 Y32.539
X-10.574 Y32.426
X-10.667 Y32.308
X-10.754 Y32.186
X-10.837 Y32.061
X-10.913 Y31.932
X-10.983 Y31.799
X-11.048 Y31.664
X-11.106 Y31.526
X-11.159 Y31.385
X-11.204 Y31.242
X-11.244 Y31.097
X-11.276 Y30.951
X-11.302 Y30.803
X-11.321 Y30.655
X-11.334 Y30.505
X-11.339 Y30.355
Y30.205
X-11.331 Y30.055
X-11.317 Y29.906
X-11.296 Y29.757
X-11.268 Y29.61
X-11.234 Y29.464
X-11.193 Y29.32
X-11.146 Y29.177
X-11.093 Y29.037
X-11.033 Y28.899
X-10.967 Y28.765
X-10.896 Y28.633
X-10.818 Y28.505
X-10.734 Y28.38
X-10.645 Y28.259
X-10.551 Y28.143
X-10.452 Y28.03
X-10.347 Y27.923
X-10.238 Y27.82
X-10.125 Y27.721
X-10.007 Y27.629
X-9.885 Y27.541
X-9.76 Y27.459
X-9.63 Y27.383
X-9.498 Y27.312
X-9.362 Y27.248
X-9.224 Y27.19
X-9.083 Y27.138
X-8.94 Y27.093
X-8.795 Y27.054
X-8.649 Y27.022
X-8.501 Y26.996
X-8.352 Y26.977
X-8.203 Y26.964
X-8.053 Y26.958
X-7.903 Y26.959
X-7.753 Y26.966
X-7.604 Y26.981
X-7.455 Y27.002
X-7.308 Y27.029
X-7.162 Y27.063
X-7.018 Y27.104
X-6.875 Y27.151
X-6.735 Y27.205
X-6.597 Y27.264
X-6.463 Y27.33
X-6.331 Y27.402
X-6.202 Y27.479
X-6.077 Y27.562
X-5.956 Y27.65
X-5.838 Y27.743
X-5.725 Y27.841
X-5.616 Y27.944
X-5.511 Y28.052
X-5.412 Y28.164
X-5.317 Y28.28
X-5.227 Y28.401
X-5.143 Y28.525
X-5.064 Y28.652
X-4.991 Y28.783
X-4.96 Y28.845
X-4.932 Y28.909
X-4.843 Y29.124
X-4.824 Y29.168
X-4.812 Y29.199
X-4.761 Y29.34
X-4.745 Y29.389
X-4.723 Y29.468
X-4.705 Y29.548
X-4.692 Y29.629
G3 X-5.315 Y29.745 I-0.317 J0.03
G1 X-5.407 Y29.416
G3 X-4.812 Y29.199 I0.306 J-0.086
G1 X-4.756 Y29.333
X-4.724 Y29.416
X-4.701 Y29.561
X-4.624 Y30.145
X-4.61 Y30.252
X-4.608 Y30.291
X-4.61 Y30.348
X-4.699 Y31.02
X-4.719 Y31.166
X-4.756 Y31.267
X-5.048 Y31.971
X-5.067 Y32.006
X-5.092 Y32.042
X-5.54 Y32.625
X-5.58 Y32.676
X-5.632 Y32.727
X-6.26 Y33.209
X-6.311 Y33.242
X-6.361 Y33.266
X-7.091 Y33.568
X-7.127 Y33.579
X-7.164 Y33.586
X-7.966 Y33.692
X-8.003 Y33.693
X-8.039 Y33.691
X-8.842 Y33.585
X-8.879 Y33.577
X-8.915 Y33.566
X-9.645 Y33.263
X-9.681 Y33.247
X-9.718 Y33.225
X-9.74 Y33.209
X-10.311 Y32.771
X-10.379 Y32.718
X-10.417 Y32.68
X-10.46 Y32.625
X-10.908 Y32.042
X-10.934 Y32.005
X-10.953 Y31.969
X-11.225 Y31.312
X-11.281 Y31.166
X-11.301 Y31.02
X-11.378 Y30.437
X-11.392 Y30.291
X-11.376 Y30.145
X-11.299 Y29.561
X-11.276 Y29.416
X-11.218 Y29.27
X-10.976 Y28.686
X-10.944 Y28.613
X-10.921 Y28.577
X-10.446 Y27.956
X-10.414 Y27.917
X-10.374 Y27.878
X-10.287 Y27.811
X-9.716 Y27.373
X-9.68 Y27.352
X-9.644 Y27.336
X-8.915 Y27.034
X-8.879 Y27.023
X-8.842 Y27.015
X-8.039 Y26.909
X-8.003 Y26.907
X-7.966 Y26.908
X-7.164 Y27.014
X-7.127 Y27.021
X-7.091 Y27.032
X-6.361 Y27.334
X-6.286 Y27.373
X-6.215 Y27.425
X-5.632 Y27.873
X-5.587 Y27.915
X-5.554 Y27.956
X-5.106 Y28.54
X-5.073 Y28.585
X-5.048 Y28.629
X-4.932 Y28.909
G3 X-5.089 Y29.305 I-0.298 J0.111
G1 X-5.137 Y29.317 Z-3.746
X-5.184 Y29.328 Z-3.734
X-5.229 Y29.338 Z-3.715
X-5.28 Y29.325 Z-3.68
X-5.324 Y29.314 Z-3.635
X-5.358 Y29.306 Z-3.583
X-5.381 Y29.3 Z-3.525
X-5.39 Y29.295 Z-3.479
X-5.393 Y29.293 Z-3.432
G0 Z5
X-8.444 Y28.856
Z-1.25
G3 X-7.556 Y31.744 Z-1.416 I0.444 J1.444 F283.3
X-8.444 Y28.856 Z-1.581 I-0.444 J-1.444
X-7.556 Y31.744 Z-1.747 I0.444 J1.444
X-8.444 Y28.856 Z-1.913 I-0.444 J-1.444
X-7.556 Y31.744 Z-2.079 I0.444 J1.444
X-8.444 Y28.856 Z-2.244 I-0.444 J-1.444
X-7.556 Y31.744 Z-2.41 I0.444 J1.444
X-8.444 Y28.856 Z-2.576 I-0.444 J-1.444
X-7.556 Y31.744 Z-2.741 I0.444 J1.444
X-8.444 Y28.856 Z-2.907 I-0.444 J-1.444
X-7.556 Y31.744 Z-3.073 I0.444 J1.444
X-8.444 Y28.856 Z-3.239 I-0.444 J-1.444
X-7.556 Y31.744 Z-3.404 I0.444 J1.444
X-8.444 Y28.856 Z-3.57 I-0.444 J-1.444
X-7.556 Y31.744 Z-3.736 I0.444 J1.444
X-8.444 Y28.856 Z-3.901 I-0.444 J-1.444
X-6.49 Y30.3 Z-4 I0.444 J1.444
X-9.511 I-1.51
X-6.49 I1.51
G1 X-6.48 Y30.683 F850
Y30.833
X-6.512 Y30.98
X-6.566 Y31.12
X-6.636 Y31.252
X-6.721 Y31.376
X-6.818 Y31.49
X-6.927 Y31.594
X-7.044 Y31.687
X-7.17 Y31.768
X-7.303 Y31.838
X-7.442 Y31.894
X-7.586 Y31.938
X-7.733 Y31.969
X-7.881 Y31.987
X-8.031 Y31.991
X-8.181 Y31.982
X-8.329 Y31.959
X-8.475 Y31.924
X-8.617 Y31.875
X-8.754 Y31.815
X-8.885 Y31.742
X-9.01 Y31.658
X-9.126 Y31.563
X-9.233 Y31.458
X-9.331 Y31.345
X-9.419 Y31.223
X-9.495 Y31.093
X-9.559 Y30.958
X-9.611 Y30.817
X-9.651 Y30.673
X-9.677 Y30.525
X-9.691 Y30.376
Y30.226
X-9.677 Y30.076
X-9.651 Y29.929
X-9.612 Y29.784
X-9.559 Y29.643
X-9.495 Y29.508
X-9.419 Y29.378
X-9.332 Y29.256
X-9.234 Y29.142
X-9.127 Y29.038
X-9.011 Y28.943
X-8.886 Y28.859
X-8.755 Y28.786
X-8.618 Y28.725
X-8.476 Y28.676
X-8.331 Y28.641
X-8.182 Y28.618
X-8.033 Y28.608
X-7.883 Y28.612
X-7.734 Y28.629
X-7.587 Y28.659
X-7.443 Y28.702
X-7.304 Y28.758
X-7.17 Y28.826
X-7.043 Y28.905
X-6.923 Y28.995
X-6.812 Y29.096
X-6.71 Y29.206
X-6.618 Y29.324
X-6.537 Y29.451
X-6.467 Y29.584
X-6.41 Y29.722
X-6.365 Y29.865
X-6.33 Y30.011
X-6.302 Y30.159
X-6.281 Y30.307
X-6.268 Y30.456
X-6.267 Y30.606
X-6.281 Y30.756
X-6.308 Y30.903
X-6.35 Y31.047
X-6.405 Y31.187
X-6.474 Y31.32
X-6.555 Y31.447
X-6.647 Y31.565
X-6.749 Y31.674
X-6.861 Y31.774
X-6.982 Y31.864
X-7.109 Y31.943
X-7.243 Y32.011
X-7.382 Y32.068
X-7.525 Y32.113
X-7.671 Y32.146
X-7.819 Y32.167
X-7.969 Y32.177
X-8.119 Y32.174
X-8.268 Y32.159
X-8.416 Y32.132
X-8.561 Y32.093
X-8.702 Y32.043
X-8.839 Y31.981
X-8.97 Y31.909
X-9.096 Y31.827
X-9.214 Y31.734
X-9.325 Y31.633
X-9.427 Y31.524
X-9.52 Y31.406
X-9.604 Y31.281
X-9.677 Y31.15
X-9.739 Y31.014
X-9.79 Y30.873
X-9.83 Y30.728
X-9.858 Y30.581
X-9.875 Y30.432
X-9.88 Y30.282
X-9.872 Y30.132
X-9.853 Y29.983
X-9.822 Y29.837
X-9.779 Y29.693
X-9.725 Y29.553
X-9.66 Y29.418
X-9.584 Y29.289
X-9.498 Y29.165
X-9.403 Y29.049
X-9.299 Y28.941
X-9.187 Y28.842
X-9.067 Y28.752
X-8.94 Y28.672
X-8.807 Y28.602
X-8.669 Y28.543
X-8.527 Y28.496
X-8.381 Y28.46
X-8.233 Y28.435
X-8.084 Y28.423
X-7.934 Y28.422
X-7.784 Y28.433
X-7.636 Y28.456
X-7.49 Y28.491
X-7.347 Y28.537
X-7.209 Y28.595
X-7.076 Y28.664
X-6.948 Y28.743
X-6.827 Y28.832
X-6.714 Y28.93
X-6.609 Y29.037
X-6.512 Y29.152
X-6.425 Y29.274
X-6.348 Y29.403
X-6.281 Y29.537
X-6.224 Y29.675
X-6.175 Y29.817
X-6.134 Y29.962
X-6.102 Y30.108
X-6.081 Y30.257
X-6.07 Y30.406
X-6.069 Y30.556
X-6.08 Y30.706
X-6.103 Y30.854
X-6.138 Y31
X-6.185 Y31.142
X-6.244 Y31.28
X-6.314 Y31.413
X-6.394 Y31.54
X-6.484 Y31.659
X-6.584 Y31.772
X-6.692 Y31.875
X-6.808 Y31.971
X-6.931 Y32.056
X-7.061 Y32.132
X-7.196 Y32.198
X-7.335 Y32.253
X-7.478 Y32.298
X-7.624 Y32.332
X-7.773 Y32.355
X-7.922 Y32.367
X-8.072 Y32.368
X-8.222 Y32.358
X-8.37 Y32.338
X-8.517 Y32.306
X-8.661 Y32.264
X-8.801 Y32.211
X-8.937 Y32.148
X-9.069 Y32.076
X-9.194 Y31.994
X-9.314 Y31.903
X-9.426 Y31.804
X-9.532 Y31.697
X-9.629 Y31.583
X-9.717 Y31.462
X-9.797 Y31.334
X-9.867 Y31.202
X-9.927 Y31.065
X-9.977 Y30.923
X-10.017 Y30.778
X-10.046 Y30.631
X-10.065 Y30.483
X-10.073 Y30.333
X-10.07 Y30.183
X-10.056 Y30.033
X-10.032 Y29.885
X-9.997 Y29.74
X-9.951 Y29.597
X-9.895 Y29.458
X-9.829 Y29.323
X-9.753 Y29.193
X-9.668 Y29.07
X-9.575 Y28.952
X-9.473 Y28.842
X-9.364 Y28.739
X-9.248 Y28.644
X-9.125 Y28.558
X-8.996 Y28.481
X-8.862 Y28.414
X-8.723 Y28.357
X-8.581 Y28.31
X-8.436 Y28.273
X-8.288 Y28.247
X-8.139 Y28.232
X-7.989 Y28.227
X-7.839 Y28.233
X-7.69 Y28.25
X-7.542 Y28.278
X-7.397 Y28.316
X-7.255 Y28.365
X-7.118 Y28.424
X-6.984 Y28.493
X-6.856 Y28.571
X-6.734 Y28.658
X-6.619 Y28.754
X-6.511 Y28.858
X-6.41 Y28.969
X-6.318 Y29.088
X-6.234 Y29.212
X-6.158 Y29.341
X-6.091 Y29.475
X-6.031 Y29.613
X-5.981 Y29.754
X-5.939 Y29.898
X-5.907 Y30.045
X-5.884 Y30.193
X-5.871 Y30.343
X-5.868 Y30.493
X-5.875 Y30.642
X-5.892 Y30.791
X-5.921 Y30.939
X-5.96 Y31.084
X-6.009 Y31.225
X-6.069 Y31.363
X-6.138 Y31.496
X-6.217 Y31.623
X-6.305 Y31.745
X-6.402 Y31.859
X-6.506 Y31.967
X-6.618 Y32.067
X-6.736 Y32.159
X-6.861 Y32.242
X-6.992 Y32.317
X-7.127 Y32.382
X-7.266 Y32.437
X-7.409 Y32.483
X-7.555 Y32.519
X-7.702 Y32.545
X-7.851 Y32.561
X-8.001 Y32.567
X-8.151 Y32.563
X-8.301 Y32.549
X-8.449 Y32.525
X-8.595 Y32.491
X-8.738 Y32.448
X-8.879 Y32.394
X-9.015 Y32.332
X-9.147 Y32.261
X-9.274 Y32.181
X-9.395 Y32.092
X-9.511 Y31.997
X-9.62 Y31.893
X-9.721 Y31.783
X-9.816 Y31.667
X-9.902 Y31.544
X-9.98 Y31.416
X-10.049 Y31.283
X-10.11 Y31.146
X-10.161 Y31.004
X-10.202 Y30.86
X-10.234 Y30.714
X-10.257 Y30.566
X-10.269 Y30.416
X-10.272 Y30.266
X-10.265 Y30.116
X-10.249 Y29.967
X-10.222 Y29.82
X-10.185 Y29.674
X-10.139 Y29.531
X-10.084 Y29.392
X-10.019 Y29.257
X-9.946 Y29.126
X-9.864 Y29
X-9.774 Y28.88
X-9.677 Y28.766
X-9.572 Y28.659
X-9.46 Y28.558
X-9.342 Y28.466
X-9.218 Y28.381
X-9.089 Y28.305
X-8.955 Y28.238
X-8.817 Y28.179
X-8.675 Y28.13
X-8.531 Y28.091
X-8.384 Y28.06
X-8.235 Y28.04
X-8.085 Y28.029
X-7.935 Y28.028
X-7.786 Y28.037
X-7.637 Y28.056
X-7.49 Y28.085
X-7.345 Y28.124
X-7.203 Y28.172
X-7.064 Y28.229
X-6.93 Y28.296
X-6.8 Y28.371
X-6.675 Y28.454
X-6.556 Y28.546
X-6.443 Y28.644
X-6.337 Y28.75
X-6.238 Y28.863
X-6.146 Y28.981
X-6.061 Y29.105
X-5.984 Y29.234
X-5.915 Y29.367
X-5.853 Y29.504
X-5.8 Y29.644
X-5.756 Y29.787
X-5.72 Y29.933
X-5.692 Y30.08
X-5.674 Y30.229
X-5.664 Y30.379
Y30.529
X-5.674 Y30.678
X-5.693 Y30.827
X-5.722 Y30.974
X-5.761 Y31.119
X-5.809 Y31.261
X-5.866 Y31.4
X-5.932 Y31.535
X-6.007 Y31.665
X-6.09 Y31.79
X-6.181 Y31.909
X-6.279 Y32.022
X-6.385 Y32.129
X-6.497 Y32.228
X-6.616 Y32.32
X-6.74 Y32.404
X-6.87 Y32.479
X-7.004 Y32.547
X-7.142 Y32.606
X-7.283 Y32.656
X-7.427 Y32.697
X-7.574 Y32.729
X-7.722 Y32.752
X-7.871 Y32.766
X-8.021 Y32.77
X-8.171 Y32.766
X-8.321 Y32.752
X-8.469 Y32.729
X-8.615 Y32.696
X-8.76 Y32.655
X-8.901 Y32.605
X-9.039 Y32.546
X-9.173 Y32.479
X-9.303 Y32.405
X-9.428 Y32.322
X-9.549 Y32.232
X-9.663 Y32.135
X-9.771 Y32.031
X-9.873 Y31.921
X-9.968 Y31.805
X-10.055 Y31.683
X-10.135 Y31.556
X-10.207 Y31.425
X-10.271 Y31.289
X-10.327 Y31.15
X-10.374 Y31.007
X-10.412 Y30.862
X-10.442 Y30.715
X-10.463 Y30.567
X-10.475 Y30.417
X-10.478 Y30.267
X-10.471 Y30.117
X-10.456 Y29.968
X-10.431 Y29.82
X-10.397 Y29.674
X-10.355 Y29.53
X-10.304 Y29.389
X-10.244 Y29.251
X-10.177 Y29.117
X-10.101 Y28.988
X-10.018 Y28.863
X-9.927 Y28.743
X-9.83 Y28.629
X-9.726 Y28.522
X-9.615 Y28.421
X-9.498 Y28.326
X-9.376 Y28.239
X-9.248 Y28.16
X-9.116 Y28.089
X-8.981 Y28.025
X-8.841 Y27.97
X-8.699 Y27.923
X-8.553 Y27.885
X-8.406 Y27.856
X-8.258 Y27.836
X-8.108 Y27.825
X-7.958 Y27.823
X-7.808 Y27.83
X-7.659 Y27.846
X-7.511 Y27.871
X-7.365 Y27.906
X-7.222 Y27.948
X-7.081 Y28
X-6.943 Y28.06
X-6.809 Y28.128
X-6.68 Y28.204
X-6.555 Y28.287
X-6.436 Y28.378
X-6.322 Y28.476
X-6.214 Y28.58
X-6.113 Y28.69
X-6.018 Y28.806
X-5.929 Y28.928
X-5.848 Y29.053
X-5.773 Y29.184
X-5.706 Y29.318
X-5.647 Y29.456
X-5.595 Y29.596
X-5.551 Y29.74
X-5.515 Y29.885
X-5.487 Y30.033
X-5.467 Y30.181
X-5.457 Y30.331
X-5.455 Y30.481
X-5.461 Y30.631
X-5.477 Y30.78
X-5.501 Y30.928
X-5.534 Y31.074
X-5.576 Y31.218
X-5.626 Y31.36
X-5.684 Y31.498
X-5.751 Y31.633
X-5.825 Y31.763
X-5.907 Y31.888
X-5.997 Y32.009
X-6.093 Y32.123
X-6.197 Y32.232
X-6.306 Y32.335
X-6.422 Y32.431
X-6.542 Y32.519
X-6.668 Y32.601
X-6.799 Y32.675
X-6.933 Y32.742
X-7.071 Y32.8
X-7.212 Y32.851
X-7.356 Y32.893
X-7.502 Y32.927
X-7.65 Y32.952
X-7.799 Y32.969
X-7.949 Y32.978
X-8.099 Y32.977
X-8.249 Y32.969
X-8.398 Y32.951
X-8.546 Y32.926
X-8.692 Y32.892
X-8.836 Y32.85
X-8.977 Y32.799
X-9.115 Y32.741
X-9.25 Y32.676
X-9.381 Y32.603
X-9.508 Y32.522
X-9.63 Y32.435
X-9.746 Y32.34
X-9.858 Y32.24
X-9.963 Y32.133
X-10.063 Y32.021
X-10.156 Y31.903
X-10.242 Y31.78
X-10.321 Y31.653
X-10.393 Y31.522
X-10.458 Y31.386
X-10.514 Y31.247
X-10.563 Y31.106
X-10.604 Y30.961
X-10.637 Y30.815
X-10.662 Y30.667
X-10.678 Y30.518
X-10.686 Y30.368
Y30.218
X-10.677 Y30.068
X-10.66 Y29.919
X-10.635 Y29.771
X-10.601 Y29.625
X-10.559 Y29.481
X-10.51 Y29.34
X-10.452 Y29.201
X-10.387 Y29.066
X-10.314 Y28.935
X-10.235 Y28.808
X-10.148 Y28.685
X-10.054 Y28.568
X-9.955 Y28.456
X-9.849 Y28.35
X-9.737 Y28.25
X-9.62 Y28.156
X-9.498 Y28.069
X-9.371 Y27.989
X-9.24 Y27.916
X-9.105 Y27.851
X-8.966 Y27.793
X-8.825 Y27.743
X-8.681 Y27.701
X-8.535 Y27.667
X-8.387 Y27.641
X-8.238 Y27.624
X-8.088 Y27.614
X-7.938
X-7.789 Y27.621
X-7.639 Y27.637
X-7.491 Y27.661
X-7.345 Y27.694
X-7.201 Y27.735
X-7.059 Y27.783
X-6.92 Y27.84
X-6.784 Y27.904
X-6.652 Y27.975
X-6.525 Y28.054
X-6.401 Y28.14
X-6.283 Y28.232
X-6.17 Y28.33
X-6.062 Y28.434
X-5.959 Y28.544
X-5.863 Y28.659
X-5.773 Y28.779
X-5.69 Y28.904
X-5.613 Y29.032
X-5.543 Y29.165
X-5.479 Y29.301
X-5.423 Y29.44
X-5.374 Y29.582
X-5.333 Y29.726
X-5.299 Y29.872
X-5.273 Y30.02
X-5.255 Y30.169
X-5.244 Y30.318
X-5.242 Y30.468
X-5.248 Y30.618
X-5.262 Y30.768
X-5.284 Y30.916
X-5.314 Y31.063
X-5.352 Y31.208
X-5.398 Y31.351
X-5.451 Y31.491
X-5.512 Y31.628
X-5.581 Y31.761
X-5.657 Y31.891
X-5.74 Y32.016
X-5.829 Y32.136
X-5.925 Y32.251
X-6.027 Y32.361
X-6.136 Y32.465
X-6.249 Y32.563
X-6.368 Y32.655
X-6.492 Y32.74
X-6.62 Y32.818
X-6.752 Y32.889
X-6.887 Y32.953
X-7.026 Y33.01
X-7.168 Y33.059
X-7.312 Y33.101
X-7.458 Y33.134
X-7.606 Y33.161
X-7.755 Y33.179
X-7.904 Y33.189
X-8.054 Y33.191
X-8.204 Y33.186
X-8.354 Y33.172
X-8.502 Y33.151
X-8.649 Y33.121
X-8.795 Y33.085
X-8.938 Y33.04
X-9.079 Y32.989
X-9.217 Y32.93
X-9.351 Y32.864
X-9.483 Y32.791
X-9.61 Y32.711
X-9.732 Y32.625
X-9.85 Y32.533
X-9.964 Y32.434
X-10.071 Y32.33
X-10.174 Y32.22
X-10.27 Y32.105
X-10.36 Y31.985
X-10.444 Y31.861
X-10.522 Y31.733
X-10.593 Y31.6
X-10.657 Y31.465
X-10.713 Y31.326
X-10.763 Y31.184
X-10.805 Y31.04
X-10.84 Y30.894
X-10.867 Y30.747
X-10.886 Y30.598
X-10.897 Y30.449
X-10.901 Y30.299
X-10.897 Y30.149
X-10.885 Y29.999
X-10.866 Y29.85
X-10.839 Y29.703
X-10.804 Y29.557
X-10.762 Y29.413
X-10.713 Y29.271
X-10.656 Y29.132
X-10.592 Y28.997
X-10.522 Y28.864
X-10.444 Y28.736
X-10.36 Y28.612
X-10.269 Y28.492
X-10.173 Y28.377
X-10.07 Y28.268
X-9.963 Y28.163
X-9.85 Y28.065
X-9.732 Y27.972
X-9.609 Y27.886
X-9.482 Y27.806
X-9.351 Y27.732
X-9.217 Y27.666
X-9.079 Y27.607
X-8.938 Y27.554
X-8.795 Y27.51
X-8.65 Y27.472
X-8.503 Y27.443
X-8.354 Y27.421
X-8.205 Y27.406
X-8.055 Y27.4
X-7.905 Y27.401
X-7.756 Y27.409
X-7.606 Y27.426
X-7.458 Y27.45
X-7.312 Y27.481
X-7.167 Y27.521
X-7.025 Y27.567
X-6.885 Y27.622
X-6.748 Y27.683
X-6.614 Y27.751
X-6.484 Y27.826
X-6.358 Y27.907
X-6.236 Y27.995
X-6.119 Y28.088
X-6.006 Y28.187
X-5.899 Y28.292
X-5.797 Y28.402
X-5.7 Y28.516
X-5.609 Y28.636
X-5.524 Y28.759
X-5.445 Y28.887
X-5.373 Y29.018
X-5.307 Y29.153
X-5.247 Y29.291
X-5.195 Y29.431
X-5.149 Y29.574
X-5.11 Y29.719
X-5.079 Y29.866
X-5.054 Y30.014
X-5.037 Y30.163
X-5.027 Y30.312
X-5.025 Y30.462
X-5.03 Y30.612
X-5.043 Y30.762
X-5.063 Y30.91
X-5.091 Y31.058
X-5.126 Y31.203
X-5.169 Y31.347
X-5.219 Y31.489
X-5.275 Y31.628
X-5.339 Y31.763
X-5.41 Y31.896
X-5.487 Y32.024
X-5.57 Y32.149
X-5.66 Y32.269
X-5.756 Y32.385
X-5.857 Y32.495
X-5.964 Y32.6
X-6.077 Y32.7
X-6.194 Y32.794
X-6.315 Y32.881
X-6.441 Y32.963
X-6.571 Y33.038
X-6.705 Y33.106
X-6.841 Y33.168
X-6.981 Y33.223
X-7.123 Y33.271
X-7.267 Y33.312
X-7.413 Y33.346
X-7.561 Y33.373
X-7.71 Y33.392
X-7.859 Y33.404
X-8.009 Y33.408
X-8.159 Y33.405
X-8.309 Y33.395
X-8.458 Y33.378
X-8.606 Y33.353
X-8.752 Y33.321
X-8.897 Y33.281
X-9.04 Y33.235
X-9.18 Y33.182
X-9.318 Y33.123
X-9.452 Y33.057
X-9.584 Y32.984
X-9.711 Y32.905
X-9.835 Y32.82
X-9.954 Y32.729
X-10.069 Y32.633
X-10.179 Y32.531
X-10.284 Y32.423
X-10.383 Y32.311
X-10.477 Y32.194
X-10.565 Y32.073
X-10.648 Y31.948
X-10.724 Y31.818
X-10.794 Y31.686
X-10.857 Y31.55
X-10.914 Y31.411
X-10.965 Y31.27
X-11.008 Y31.126
X-11.044 Y30.981
X-11.074 Y30.834
X-11.096 Y30.685
X-11.111 Y30.536
X-11.118 Y30.386
X-11.119 Y30.236
X-11.112 Y30.086
X-11.098 Y29.937
X-11.077 Y29.788
X-11.049 Y29.641
X-11.014 Y29.495
X-10.972 Y29.351
X-10.923 Y29.209
X-10.867 Y29.07
X-10.805 Y28.934
X-10.736 Y28.8
X-10.661 Y28.671
X-10.579 Y28.545
X-10.492 Y28.423
X-10.399 Y28.305
X-10.3 Y28.192
X-10.196 Y28.084
X-10.087 Y27.981
X-9.973 Y27.884
X-9.854 Y27.792
X-9.732 Y27.705
X-9.605 Y27.625
X-9.475 Y27.551
X-9.341 Y27.483
X-9.204 Y27.422
X-9.064 Y27.367
X-8.922 Y27.32
X-8.778 Y27.279
X-8.632 Y27.245
X-8.484 Y27.218
X-8.335 Y27.199
X-8.186 Y27.186
X-8.036 Y27.181
X-7.886 Y27.183
X-7.736 Y27.192
X-7.587 Y27.208
X-7.439 Y27.231
X-7.292 Y27.262
X-7.147 Y27.299
X-7.003 Y27.343
X-6.862 Y27.395
X-6.724 Y27.453
X-6.589 Y27.517
X-6.456 Y27.588
X-6.328 Y27.665
X-6.203 Y27.748
X-6.082 Y27.837
X-5.965 Y27.931
X-5.853 Y28.03
X-5.745 Y28.135
X-5.642 Y28.244
X-5.545 Y28.358
X-5.452 Y28.476
X-5.366 Y28.598
X-5.285 Y28.725
X-5.209 Y28.854
X-5.14 Y28.988
X-5.077 Y29.124
X-5.021 Y29.263
X-4.97 Y29.404
X-4.926 Y29.547
X-4.889 Y29.693
X-4.859 Y29.84
X-4.835 Y29.988
X-4.818 Y30.137
X-4.808 Y30.286
X-4.804 Y30.436
X-4.808 Y30.586
X-4.819 Y30.736
X-4.837 Y30.885
X-4.861 Y31.033
X-4.893 Y31.179
X-4.932 Y31.324
X-4.977 Y31.467
X-5.029 Y31.608
X-5.088 Y31.746
X-5.153 Y31.881
X-5.224 Y32.013
X-5.301 Y32.142
X-5.385 Y32.266
X-5.474 Y32.387
X-5.569 Y32.503
X-5.669 Y32.615
X-5.774 Y32.722
X-5.884 Y32.824
X-5.999 Y32.92
X-6.118 Y33.011
X-6.242 Y33.096
X-6.369 Y33.176
X-6.5 Y33.249
X-6.634 Y33.316
X-6.771 Y33.377
X-6.911 Y33.432
X-7.053 Y33.48
X-7.197 Y33.522
X-7.343 Y33.557
X-7.49 Y33.585
X-7.638 Y33.606
X-7.788 Y33.621
X-7.938 Y33.628
X-8.088 Y33.629
X-8.237 Y33.622
X-8.387 Y33.609
X-8.536 Y33.589
X-8.683 Y33.563
X-8.829 Y33.529
X-8.974 Y33.489
X-9.117 Y33.443
X-9.257 Y33.39
X-9.395 Y33.331
X-9.53 Y33.266
X-9.662 Y33.195
X-9.791 Y33.118
X-9.916 Y33.035
X-10.037 Y32.946
X-10.154 Y32.852
X-10.266 Y32.753
X-10.374 Y32.649
X-10.477 Y32.54
X-10.575 Y32.427
X-10.668 Y32.309
X-10.756 Y32.187
X-10.838 Y32.062
X-10.914 Y31.932
X-10.985 Y31.8
X-11.05 Y31.665
X-11.108 Y31.527
X-11.16 Y31.386
X-11.206 Y31.243
X-11.245 Y31.098
X-11.278 Y30.952
X-11.304 Y30.804
X-11.323 Y30.655
X-11.335 Y30.506
X-11.341 Y30.356
X-11.34 Y30.206
X-11.332 Y30.056
X-11.318 Y29.907
X-11.297 Y29.758
X-11.27 Y29.611
X-11.236 Y29.465
X-11.195 Y29.32
X-11.148 Y29.178
X-11.095 Y29.038
X-11.035 Y28.9
X-10.969 Y28.765
X-10.897 Y28.634
X-10.819 Y28.506
X-10.736 Y28.381
X-10.647 Y28.26
X-10.552 Y28.143
X-10.453 Y28.031
X-10.349 Y27.923
X-10.24 Y27.82
X-10.126 Y27.722
X-10.009 Y27.629
X-9.887 Y27.542
X-9.761 Y27.46
X-9.632 Y27.383
X-9.499 Y27.313
X-9.364 Y27.249
X-9.226 Y27.191
X-9.085 Y27.139
X-8.942 Y27.094
X-8.797 Y27.055
X-8.651 Y27.022
X-8.503 Y26.997
X-8.354 Y26.977
X-8.205 Y26.965
X-8.055 Y26.959
X-7.905 Y26.96
X-7.755 Y26.967
X-7.605 Y26.981
X-7.457 Y27.002
X-7.31 Y27.03
X-7.163 Y27.064
X-7.019 Y27.105
X-6.877 Y27.152
X-6.737 Y27.206
X-6.599 Y27.265
X-6.464 Y27.331
X-6.332 Y27.403
X-6.204 Y27.48
X-6.079 Y27.563
X-5.957 Y27.651
X-5.84 Y27.744
X-5.726 Y27.842
X-5.617 Y27.945
X-5.513 Y28.053
X-5.413 Y28.165
X-5.318 Y28.281
X-5.229 Y28.401
X-5.145 Y28.526
X-5.066 Y28.653
X-4.992 Y28.784
X-4.951 Y28.866
X-4.923 Y28.93
X-4.843 Y29.124
X-4.824 Y29.168
X-4.812 Y29.199
X-4.761 Y29.34
X-4.744 Y29.393
X-4.722 Y29.471
X-4.705 Y29.55
X-4.692 Y29.629
G3 X-5.315 Y29.746 I-0.317 J0.03
G1 X-5.407 Y29.416
G3 X-4.812 Y29.199 I0.306 J-0.086
G1 X-4.756 Y29.333
X-4.724 Y29.416
X-4.701 Y29.561
X-4.624 Y30.145
X-4.61 Y30.252
X-4.608 Y30.291
X-4.61 Y30.348
X-4.699 Y31.02
X-4.719 Y31.166
X-4.756 Y31.267
X-5.048 Y31.971
X-5.067 Y32.006
X-5.092 Y32.042
X-5.54 Y32.625
X-5.58 Y32.676
X-5.632 Y32.727
X-6.26 Y33.209
X-6.311 Y33.242
X-6.361 Y33.266
X-7.091 Y33.568
X-7.127 Y33.579
X-7.164 Y33.586
X-7.966 Y33.692
X-8.003 Y33.693
X-8.039 Y33.691
X-8.842 Y33.585
X-8.879 Y33.577
X-8.915 Y33.566
X-9.645 Y33.263
X-9.681 Y33.247
X-9.718 Y33.225
X-9.74 Y33.209
X-10.311 Y32.771
X-10.379 Y32.718
X-10.417 Y32.68
X-10.46 Y32.625
X-10.908 Y32.042
X-10.934 Y32.005
X-10.953 Y31.969
X-11.225 Y31.312
X-11.281 Y31.166
X-11.301 Y31.02
X-11.378 Y30.437
X-11.392 Y30.291
X-11.376 Y30.145
X-11.299 Y29.561
X-11.276 Y29.416
X-11.218 Y29.27
X-10.976 Y28.686
X-10.944 Y28.613
X-10.921 Y28.577
X-10.446 Y27.956
X-10.414 Y27.917
X-10.374 Y27.878
X-10.287 Y27.811
X-9.716 Y27.373
X-9.68 Y27.352
X-9.644 Y27.336
X-8.915 Y27.034
X-8.879 Y27.023
X-8.842 Y27.015
X-8.039 Y26.909
X-8.003 Y26.907
X-7.966 Y26.908
X-7.164 Y27.014
X-7.127 Y27.021
X-7.091 Y27.032
X-6.361 Y27.334
X-6.286 Y27.373
X-6.215 Y27.425
X-5.632 Y27.873
X-5.587 Y27.915
X-5.554 Y27.956
X-5.106 Y28.54
X-5.073 Y28.585
X-5.048 Y28.629
X-4.923 Y28.93
G3 X-5.08 Y29.326 I-0.298 J0.111
G1 X-5.128 Y29.338 Z-3.996
X-5.176 Y29.349 Z-3.984
X-5.221 Y29.359 Z-3.965
X-5.272 Y29.346 Z-3.93
X-5.315 Y29.335 Z-3.885
X-5.349 Y29.327 Z-3.833
X-5.372 Y29.321 Z-3.775
X-5.381 Y29.316 Z-3.729
X-5.385 Y29.314 Z-3.682
G0 Z5
X11.402 Y28.912
Z2.5
G3 X12.599 Y31.686 Z2.334 I0.598 J1.387 F283.3
X11.402 Y28.912 Z2.169 I-0.598 J-1.387
X12.599 Y31.686 Z2.003 I0.598 J1.387
X11.402 Y28.912 Z1.837 I-0.598 J-1.387
X12.599 Y31.686 Z1.671 I0.598 J1.387
X11.402 Y28.912 Z1.506 I-0.598 J-1.387
X12.599 Y31.686 Z1.34 I0.598 J1.387
X11.402 Y28.912 Z1.174 I-0.598 J-1.387
X12.599 Y31.686 Z1.009 I0.598 J1.387
X11.402 Y28.912 Z0.843 I-0.598 J-1.387
X12.599 Y31.686 Z0.677 I0.598 J1.387
X11.402 Y28.912 Z0.511 I-0.598 J-1.387
X12.599 Y31.686 Z0.346 I0.598 J1.387
X11.402 Y28.912 Z0.18 I-0.598 J-1.387
X12.599 Y31.686 Z0.014 I0.598 J1.387
X11.402 Y28.912 Z-0.151 I-0.598 J-1.387
X12.599 Y31.686 Z-0.317 I0.598 J1.387
X11.402 Y28.912 Z-0.483 I-0.598 J-1.387
X12.599 Y31.686 Z-0.649 I0.598 J1.387
X11.402 Y28.912 Z-0.814 I-0.598 J-1.387
X12.599 Y31.686 Z-0.98 I0.598 J1.387
X11.402 Y28.912 Z-1.146 I-0.598 J-1.387
X13.511 Y30.299 Z-1.25 I0.598 J1.387
X10.49 I-1.51
X13.511 I1.51
G1 X13.521 Y30.682 F850
X13.52 Y30.832
X13.488 Y30.979
X13.435 Y31.119
X13.364 Y31.252
X13.28 Y31.375
X13.182 Y31.489
X13.074 Y31.593
X12.956 Y31.686
X12.83 Y31.767
X12.697 Y31.837
X12.558 Y31.894
X12.415 Y31.937
X12.268 Y31.968
X12.119 Y31.986
X11.969 Y31.99
X11.819 Y31.981
X11.671 Y31.958
X11.525 Y31.923
X11.383 Y31.875
X11.246 Y31.814
X11.115 Y31.741
X10.991 Y31.657
X10.874 Y31.562
X10.767 Y31.458
X10.669 Y31.344
X10.582 Y31.222
X10.506 Y31.093
X10.441 Y30.957
X10.389 Y30.816
X10.35 Y30.672
X10.323 Y30.524
X10.31 Y30.375
Y30.225
X10.323 Y30.075
X10.35 Y29.928
X10.389 Y29.783
X10.441 Y29.642
X10.505 Y29.507
X10.581 Y29.377
X10.669 Y29.255
X10.766 Y29.142
X10.874 Y29.037
X10.99 Y28.942
X11.114 Y28.858
X11.245 Y28.785
X11.382 Y28.724
X11.524 Y28.676
X11.67 Y28.64
X11.818 Y28.617
X11.968 Y28.607
X12.118 Y28.611
X12.267 Y28.628
X12.414 Y28.658
X12.557 Y28.701
X12.697 Y28.757
X12.831 Y28.825
X12.958 Y28.904
X13.078 Y28.994
X13.189 Y29.095
X13.291 Y29.205
X13.383 Y29.324
X13.464 Y29.45
X13.533 Y29.583
X13.591 Y29.721
X13.636 Y29.864
X13.67 Y30.01
X13.698 Y30.158
X13.72 Y30.306
X13.733 Y30.456
Y30.606
X13.72 Y30.755
X13.692 Y30.902
X13.651 Y31.047
X13.595 Y31.186
X13.527 Y31.319
X13.446 Y31.446
X13.354 Y31.564
X13.251 Y31.673
X13.139 Y31.773
X13.019 Y31.863
X12.891 Y31.942
X12.758 Y32.01
X12.619 Y32.067
X12.476 Y32.112
X12.33 Y32.145
X12.181 Y32.167
X12.031 Y32.176
X11.881 Y32.173
X11.732 Y32.158
X11.585 Y32.131
X11.44 Y32.093
X11.298 Y32.042
X11.162 Y31.98
X11.03 Y31.908
X10.905 Y31.826
X10.787 Y31.734
X10.676 Y31.632
X10.574 Y31.523
X10.48 Y31.405
X10.397 Y31.28
X10.324 Y31.149
X10.262 Y31.013
X10.21 Y30.872
X10.171 Y30.727
X10.142 Y30.58
X10.126 Y30.431
X10.121 Y30.281
X10.128 Y30.131
X10.147 Y29.982
X10.178 Y29.836
X10.221 Y29.692
X10.276 Y29.552
X10.341 Y29.417
X10.417 Y29.288
X10.502 Y29.165
X10.598 Y29.049
X10.702 Y28.941
X10.814 Y28.841
X10.934 Y28.751
X11.061 Y28.671
X11.194 Y28.601
X11.332 Y28.543
X11.474 Y28.495
X11.619 Y28.459
X11.767 Y28.435
X11.917 Y28.422
X12.067 Y28.421
X12.217 Y28.432
X12.365 Y28.455
X12.511 Y28.49
X12.653 Y28.536
X12.792 Y28.594
X12.925 Y28.663
X13.052 Y28.742
X13.173 Y28.831
X13.287 Y28.929
X13.392 Y29.036
X13.488 Y29.151
X13.575 Y29.273
X13.652 Y29.402
X13.719 Y29.536
X13.777 Y29.675
X13.826 Y29.816
X13.867 Y29.961
X13.898 Y30.107
X13.92 Y30.256
X13.931 Y30.405
Y30.555
X13.92 Y30.705
X13.897 Y30.853
X13.862 Y30.999
X13.815 Y31.142
X13.757 Y31.28
X13.687 Y31.412
X13.606 Y31.539
X13.516 Y31.659
X13.416 Y31.771
X13.308 Y31.875
X13.192 Y31.97
X13.069 Y32.055
X12.94 Y32.131
X12.805 Y32.197
X12.665 Y32.252
X12.522 Y32.297
X12.376 Y32.331
X12.228 Y32.354
X12.078 Y32.366
X11.928 Y32.367
X11.779 Y32.358
X11.63 Y32.337
X11.484 Y32.305
X11.34 Y32.263
X11.199 Y32.21
X11.063 Y32.147
X10.932 Y32.075
X10.806 Y31.993
X10.687 Y31.902
X10.574 Y31.803
X10.469 Y31.696
X10.372 Y31.582
X10.283 Y31.461
X10.203 Y31.334
X10.133 Y31.201
X10.073 Y31.064
X10.023 Y30.922
X9.983 Y30.778
X9.954 Y30.631
X9.936 Y30.482
X9.928 Y30.332
X9.931 Y30.182
X9.944 Y30.033
X9.969 Y29.885
X10.004 Y29.739
X10.05 Y29.596
X10.106 Y29.457
X10.172 Y29.322
X10.247 Y29.193
X10.332 Y29.069
X10.426 Y28.951
X10.527 Y28.841
X10.636 Y28.738
X10.753 Y28.643
X10.875 Y28.557
X11.004 Y28.481
X11.138 Y28.413
X11.277 Y28.356
X11.42 Y28.309
X11.565 Y28.272
X11.713 Y28.246
X11.862 Y28.231
X12.012 Y28.226
X12.162 Y28.232
X12.311 Y28.249
X12.458 Y28.277
X12.603 Y28.315
X12.745 Y28.364
X12.883 Y28.423
X13.016 Y28.492
X13.144 Y28.57
X13.266 Y28.658
X13.381 Y28.753
X13.49 Y28.857
X13.59 Y28.969
X13.683 Y29.087
X13.767 Y29.211
X13.842 Y29.34
X13.91 Y29.474
X13.969 Y29.612
X14.02 Y29.753
X14.061 Y29.898
X14.094 Y30.044
X14.116 Y30.192
X14.13 Y30.342
X14.133 Y30.492
X14.126 Y30.642
X14.108 Y30.791
X14.08 Y30.938
X14.041 Y31.083
X13.991 Y31.224
X13.932 Y31.362
X13.862 Y31.495
X13.783 Y31.622
X13.695 Y31.744
X13.599 Y31.859
X13.494 Y31.966
X13.383 Y32.066
X13.264 Y32.158
X13.139 Y32.242
X13.009 Y32.316
X12.874 Y32.381
X12.734 Y32.436
X12.592 Y32.482
X12.446 Y32.518
X12.298 Y32.544
X12.149 Y32.56
X11.999 Y32.566
X11.849 Y32.562
X11.7 Y32.548
X11.552 Y32.524
X11.406 Y32.49
X11.262 Y32.447
X11.122 Y32.394
X10.985 Y32.331
X10.854 Y32.26
X10.727 Y32.18
X10.605 Y32.092
X10.49 Y31.996
X10.381 Y31.893
X10.279 Y31.782
X10.185 Y31.666
X10.098 Y31.543
X10.02 Y31.415
X9.951 Y31.282
X9.891 Y31.145
X9.84 Y31.004
X9.798 Y30.86
X9.766 Y30.713
X9.744 Y30.565
X9.731 Y30.415
X9.728 Y30.265
X9.735 Y30.115
X9.752 Y29.966
X9.779 Y29.819
X9.815 Y29.673
X9.861 Y29.531
X9.917 Y29.391
X9.982 Y29.256
X10.055 Y29.125
X10.137 Y28.999
X10.227 Y28.879
X10.324 Y28.765
X10.429 Y28.658
X10.54 Y28.557
X10.658 Y28.465
X10.782 Y28.38
X10.911 Y28.304
X11.045 Y28.237
X11.184 Y28.178
X11.325 Y28.129
X11.47 Y28.09
X11.617 Y28.06
X11.765 Y28.039
X11.915 Y28.028
X12.065 Y28.027
X12.215 Y28.036
X12.364 Y28.055
X12.511 Y28.084
X12.656 Y28.123
X12.798 Y28.171
X12.936 Y28.228
X13.071 Y28.295
X13.201 Y28.37
X13.325 Y28.453
X13.444 Y28.545
X13.557 Y28.644
X13.663 Y28.749
X13.763 Y28.862
X13.855 Y28.98
X13.939 Y29.104
X14.017 Y29.233
X14.086 Y29.366
X14.147 Y29.503
X14.2 Y29.643
X14.245 Y29.786
X14.281 Y29.932
X14.308 Y30.079
X14.327 Y30.228
X14.336 Y30.378
Y30.528
X14.327 Y30.678
X14.307 Y30.826
X14.278 Y30.974
X14.24 Y31.118
X14.192 Y31.261
X14.135 Y31.399
X14.068 Y31.534
X13.994 Y31.664
X13.911 Y31.789
X13.82 Y31.908
X13.721 Y32.021
X13.616 Y32.128
X13.503 Y32.227
X13.385 Y32.319
X13.26 Y32.403
X13.131 Y32.479
X12.997 Y32.546
X12.859 Y32.605
X12.717 Y32.655
X12.573 Y32.696
X12.427 Y32.728
X12.278 Y32.751
X12.129 Y32.765
X11.979 Y32.77
X11.829 Y32.765
X11.68 Y32.751
X11.532 Y32.728
X11.385 Y32.695
X11.241 Y32.654
X11.1 Y32.604
X10.962 Y32.545
X10.827 Y32.479
X10.697 Y32.404
X10.572 Y32.321
X10.452 Y32.231
X10.337 Y32.134
X10.229 Y32.031
X10.127 Y31.92
X10.033 Y31.804
X9.945 Y31.682
X9.865 Y31.555
X9.793 Y31.424
X9.729 Y31.288
X9.674 Y31.149
X9.627 Y31.006
X9.588 Y30.861
X9.558 Y30.714
X9.537 Y30.566
X9.526 Y30.416
X9.523 Y30.266
X9.529 Y30.116
X9.545 Y29.967
X9.57 Y29.819
X9.603 Y29.673
X9.646 Y29.529
X9.697 Y29.388
X9.756 Y29.25
X9.824 Y29.117
X9.899 Y28.987
X9.983 Y28.862
X10.073 Y28.742
X10.171 Y28.629
X10.275 Y28.521
X10.386 Y28.42
X10.503 Y28.326
X10.625 Y28.239
X10.752 Y28.159
X10.884 Y28.088
X11.02 Y28.024
X11.159 Y27.969
X11.302 Y27.923
X11.447 Y27.885
X11.594 Y27.855
X11.743 Y27.835
X11.892 Y27.824
X12.042 Y27.822
X12.192 Y27.829
X12.341 Y27.845
X12.489 Y27.871
X12.635 Y27.905
X12.779 Y27.948
X12.92 Y27.999
X13.057 Y28.059
X13.191 Y28.127
X13.32 Y28.203
X13.445 Y28.286
X13.564 Y28.377
X13.678 Y28.475
X13.786 Y28.579
X13.888 Y28.69
X13.983 Y28.806
X14.071 Y28.927
X14.153 Y29.053
X14.227 Y29.183
X14.294 Y29.317
X14.354 Y29.455
X14.406 Y29.595
X14.45 Y29.739
X14.486 Y29.884
X14.514 Y30.032
X14.533 Y30.181
X14.544 Y30.33
X14.546 Y30.48
X14.539 Y30.63
X14.523 Y30.779
X14.499 Y30.927
X14.466 Y31.074
X14.425 Y31.218
X14.375 Y31.359
X14.316 Y31.497
X14.25 Y31.632
X14.175 Y31.762
X14.093 Y31.887
X14.004 Y32.008
X13.907 Y32.123
X13.804 Y32.231
X13.694 Y32.334
X13.579 Y32.43
X13.458 Y32.519
X13.332 Y32.6
X13.202 Y32.674
X13.067 Y32.741
X12.929 Y32.8
X12.788 Y32.85
X12.644 Y32.892
X12.498 Y32.926
X12.35 Y32.952
X12.201 Y32.968
X12.051 Y32.977
X11.901 Y32.976
X11.752 Y32.968
X11.603 Y32.95
X11.455 Y32.925
X11.309 Y32.891
X11.165 Y32.849
X11.023 Y32.799
X10.885 Y32.741
X10.75 Y32.675
X10.619 Y32.602
X10.493 Y32.521
X10.371 Y32.434
X10.254 Y32.34
X10.143 Y32.239
X10.037 Y32.132
X9.938 Y32.02
X9.845 Y31.902
X9.759 Y31.78
X9.679 Y31.652
X9.607 Y31.521
X9.543 Y31.385
X9.486 Y31.246
X9.437 Y31.105
X9.396 Y30.96
X9.363 Y30.814
X9.339 Y30.666
X9.322 Y30.517
X9.314 Y30.367
X9.315 Y30.217
X9.323 Y30.067
X9.34 Y29.918
X9.366 Y29.771
X9.399 Y29.624
X9.441 Y29.48
X9.491 Y29.339
X9.548 Y29.2
X9.613 Y29.065
X9.686 Y28.934
X9.766 Y28.807
X9.853 Y28.684
X9.946 Y28.567
X10.046 Y28.455
X10.152 Y28.349
X10.264 Y28.249
X10.381 Y28.155
X10.503 Y28.068
X10.63 Y27.988
X10.761 Y27.915
X10.896 Y27.85
X11.034 Y27.792
X11.176 Y27.742
X11.32 Y27.7
X11.466 Y27.666
X11.613 Y27.64
X11.762 Y27.623
X11.912 Y27.614
X12.062 Y27.613
X12.212 Y27.62
X12.361 Y27.636
X12.509 Y27.661
X12.656 Y27.693
X12.8 Y27.734
X12.942 Y27.783
X13.081 Y27.839
X13.216 Y27.903
X13.348 Y27.975
X13.476 Y28.053
X13.599 Y28.139
X13.718 Y28.231
X13.831 Y28.329
X13.939 Y28.433
X14.041 Y28.543
X14.137 Y28.658
X14.227 Y28.778
X14.311 Y28.903
X14.388 Y29.032
X14.458 Y29.164
X14.521 Y29.3
X14.577 Y29.439
X14.626 Y29.581
X14.668 Y29.725
X14.701 Y29.871
X14.728 Y30.019
X14.746 Y30.168
X14.756 Y30.318
X14.759 Y30.468
X14.753 Y30.617
X14.739 Y30.767
X14.717 Y30.915
X14.687 Y31.062
X14.649 Y31.207
X14.603 Y31.35
X14.549 Y31.49
X14.488 Y31.627
X14.419 Y31.76
X14.344 Y31.89
X14.261 Y32.015
X14.171 Y32.135
X14.075 Y32.251
X13.973 Y32.36
X13.865 Y32.464
X13.751 Y32.562
X13.632 Y32.654
X13.509 Y32.739
X13.381 Y32.817
X13.249 Y32.888
X13.113 Y32.952
X12.974 Y33.009
X12.833 Y33.058
X12.689 Y33.1
X12.542 Y33.134
X12.395 Y33.16
X12.246 Y33.178
X12.096 Y33.188
X11.946 Y33.19
X11.796 Y33.185
X11.647 Y33.171
X11.498 Y33.15
X11.351 Y33.121
X11.206 Y33.084
X11.063 Y33.039
X10.922 Y32.988
X10.784 Y32.929
X10.649 Y32.863
X10.518 Y32.79
X10.391 Y32.71
X10.268 Y32.624
X10.15 Y32.532
X10.037 Y32.433
X9.929 Y32.329
X9.827 Y32.219
X9.73 Y32.104
X9.64 Y31.984
X9.556 Y31.86
X9.479 Y31.732
X9.408 Y31.6
X9.344 Y31.464
X9.287 Y31.325
X9.237 Y31.183
X9.195 Y31.04
X9.161 Y30.894
X9.134 Y30.746
X9.115 Y30.597
X9.103 Y30.448
X9.099 Y30.298
X9.103 Y30.148
X9.115 Y29.998
X9.135 Y29.85
X9.162 Y29.702
X9.196 Y29.556
X9.238 Y29.412
X9.288 Y29.27
X9.344 Y29.132
X9.408 Y28.996
X9.479 Y28.864
X9.557 Y28.735
X9.641 Y28.611
X9.731 Y28.491
X9.828 Y28.377
X9.93 Y28.267
X10.038 Y28.163
X10.151 Y28.064
X10.269 Y27.971
X10.392 Y27.885
X10.518 Y27.805
X10.649 Y27.732
X10.784 Y27.665
X10.922 Y27.606
X11.062 Y27.554
X11.205 Y27.509
X11.351 Y27.472
X11.498 Y27.442
X11.646 Y27.42
X11.795 Y27.405
X11.945 Y27.399
X12.095 Y27.4
X12.245 Y27.408
X12.394 Y27.425
X12.542 Y27.449
X12.689 Y27.481
X12.833 Y27.52
X12.976 Y27.567
X13.116 Y27.621
X13.253 Y27.682
X13.386 Y27.75
X13.516 Y27.825
X13.643 Y27.906
X13.764 Y27.994
X13.882 Y28.087
X13.994 Y28.186
X14.102 Y28.291
X14.204 Y28.401
X14.3 Y28.516
X14.391 Y28.635
X14.476 Y28.759
X14.555 Y28.886
X14.628 Y29.017
X14.694 Y29.152
X14.753 Y29.29
X14.806 Y29.43
X14.851 Y29.573
X14.89 Y29.718
X14.922 Y29.865
X14.946 Y30.013
X14.963 Y30.162
X14.973 Y30.311
X14.975 Y30.461
X14.97 Y30.611
X14.957 Y30.761
X14.937 Y30.909
X14.909 Y31.057
X14.874 Y31.203
X14.832 Y31.346
X14.782 Y31.488
X14.725 Y31.627
X14.661 Y31.763
X14.591 Y31.895
X14.514 Y32.024
X14.43 Y32.148
X14.34 Y32.268
X14.245 Y32.384
X14.143 Y32.494
X14.036 Y32.599
X13.924 Y32.699
X13.807 Y32.793
X13.685 Y32.88
X13.559 Y32.962
X13.429 Y33.037
X13.296 Y33.106
X13.159 Y33.167
X13.02 Y33.222
X12.878 Y33.271
X12.733 Y33.312
X12.587 Y33.345
X12.44 Y33.372
X12.291 Y33.391
X12.141 Y33.403
X11.991 Y33.408
X11.841 Y33.405
X11.692 Y33.394
X11.543 Y33.377
X11.395 Y33.352
X11.248 Y33.32
X11.104 Y33.281
X10.961 Y33.235
X10.82 Y33.182
X10.683 Y33.122
X10.548 Y33.056
X10.417 Y32.983
X10.289 Y32.904
X10.166 Y32.819
X10.046 Y32.728
X9.932 Y32.632
X9.822 Y32.53
X9.717 Y32.423
X9.617 Y32.31
X9.523 Y32.193
X9.435 Y32.072
X9.353 Y31.947
X9.277 Y31.818
X9.207 Y31.685
X9.143 Y31.549
X9.086 Y31.41
X9.036 Y31.269
X8.992 Y31.125
X8.956 Y30.98
X8.927 Y30.833
X8.905 Y30.684
X8.89 Y30.535
X8.882 Y30.385
Y30.235
X8.889 Y30.085
X8.902 Y29.936
X8.923 Y29.788
X8.952 Y29.64
X8.987 Y29.494
X9.029 Y29.35
X9.078 Y29.209
X9.133 Y29.069
X9.196 Y28.933
X9.265 Y28.8
X9.34 Y28.67
X9.421 Y28.544
X9.509 Y28.422
X9.602 Y28.305
X9.701 Y28.192
X9.805 Y28.084
X9.914 Y27.981
X10.028 Y27.883
X10.146 Y27.791
X10.269 Y27.705
X10.395 Y27.624
X10.526 Y27.55
X10.66 Y27.482
X10.796 Y27.421
X10.936 Y27.366
X11.078 Y27.319
X11.223 Y27.278
X11.369 Y27.244
X11.517 Y27.218
X11.665 Y27.198
X11.815 Y27.185
X11.965 Y27.18
X12.115 Y27.182
X12.264 Y27.191
X12.414 Y27.207
X12.562 Y27.23
X12.709 Y27.261
X12.854 Y27.298
X12.997 Y27.343
X13.138 Y27.394
X13.276 Y27.452
X13.412 Y27.516
X13.544 Y27.587
X13.673 Y27.664
X13.798 Y27.747
X13.919 Y27.836
X14.036 Y27.93
X14.148 Y28.029
X14.256 Y28.134
X14.358 Y28.243
X14.456 Y28.357
X14.548 Y28.475
X14.635 Y28.598
X14.716 Y28.724
X14.791 Y28.854
X14.86 Y28.987
X14.923 Y29.123
X14.98 Y29.262
X15.03 Y29.403
X15.074 Y29.547
X15.111 Y29.692
X15.142 Y29.839
X15.166 Y29.987
X15.183 Y30.136
X15.193 Y30.285
X15.196 Y30.435
X15.192 Y30.585
X15.182 Y30.735
X15.164 Y30.884
X15.139 Y31.032
X15.107 Y31.178
X15.069 Y31.323
X15.023 Y31.466
X14.971 Y31.607
X14.913 Y31.745
X14.848 Y31.88
X14.776 Y32.012
X14.699 Y32.141
X14.616 Y32.266
X14.527 Y32.386
X14.432 Y32.503
X14.332 Y32.614
X14.227 Y32.721
X14.116 Y32.823
X14.002 Y32.919
X13.882 Y33.01
X13.759 Y33.096
X13.632 Y33.175
X13.501 Y33.248
X13.367 Y33.316
X13.23 Y33.377
X13.09 Y33.431
X12.948 Y33.479
X12.804 Y33.521
X12.658 Y33.556
X12.511 Y33.584
X12.362 Y33.605
X12.213 Y33.62
X12.063 Y33.627
X11.913 Y33.628
X11.763 Y33.622
X11.614 Y33.608
X11.465 Y33.588
X11.317 Y33.562
X11.171 Y33.528
X11.027 Y33.489
X10.884 Y33.442
X10.743 Y33.389
X10.606 Y33.33
X10.47 Y33.265
X10.338 Y33.194
X10.21 Y33.117
X10.085 Y33.034
X9.964 Y32.945
X9.847 Y32.852
X9.734 Y32.752
X9.626 Y32.648
X9.523 Y32.539
X9.425 Y32.426
X9.332 Y32.308
X9.244 Y32.186
X9.162 Y32.061
X9.086 Y31.932
X9.016 Y31.799
X8.951 Y31.664
X8.893 Y31.526
X8.84 Y31.385
X8.795 Y31.242
X8.755 Y31.097
X8.723 Y30.951
X8.697 Y30.803
X8.678 Y30.654
X8.665 Y30.505
X8.66 Y30.355
Y30.205
X8.668 Y30.055
X8.682 Y29.906
X8.703 Y29.757
X8.731 Y29.61
X8.765 Y29.464
X8.805 Y29.32
X8.853 Y29.177
X8.906 Y29.037
X8.966 Y28.899
X9.032 Y28.765
X9.103 Y28.633
X9.181 Y28.505
X9.265 Y28.38
X9.354 Y28.259
X9.448 Y28.143
X9.547 Y28.03
X9.652 Y27.923
X9.761 Y27.82
X9.874 Y27.721
X9.992 Y27.629
X10.114 Y27.541
X10.239 Y27.459
X10.369 Y27.383
X10.501 Y27.312
X10.637 Y27.248
X10.775 Y27.19
X10.916 Y27.138
X11.059 Y27.093
X11.204 Y27.054
X11.35 Y27.022
X11.498 Y26.996
X11.647 Y26.977
X11.796 Y26.964
X11.946 Y26.958
X12.096 Y26.959
X12.246 Y26.966
X12.395 Y26.981
X12.544 Y27.002
X12.691 Y27.029
X12.837 Y27.063
X12.981 Y27.104
X13.124 Y27.151
X13.264 Y27.205
X13.402 Y27.264
X13.536 Y27.33
X13.668 Y27.402
X13.797 Y27.479
X13.922 Y27.562
X14.043 Y27.65
X14.161 Y27.743
X14.274 Y27.841
X14.383 Y27.944
X14.488 Y28.052
X14.587 Y28.164
X14.682 Y28.28
X14.772 Y28.401
X14.856 Y28.525
X14.935 Y28.652
X15.008 Y28.783
X15.044 Y28.856
X15.073 Y28.92
X15.157 Y29.124
X15.176 Y29.168
X15.188 Y29.199
X15.239 Y29.34
X15.255 Y29.392
X15.277 Y29.47
X15.295 Y29.549
X15.308 Y29.629
G3 X14.685 Y29.746 I-0.317 J0.03
G1 X14.593 Y29.416
G3 X15.188 Y29.199 I0.306 J-0.086
G1 X15.237 Y29.315
X15.276 Y29.416
X15.299 Y29.561
X15.376 Y30.145
X15.383 Y30.197
X15.392 Y30.291
X15.383 Y30.403
X15.301 Y31.02
X15.281 Y31.166
X15.237 Y31.285
X14.984 Y31.896
X14.945 Y31.985
X14.908 Y32.042
X14.46 Y32.625
X14.417 Y32.679
X14.389 Y32.708
X14.361 Y32.732
X13.74 Y33.209
X13.686 Y33.244
X13.632 Y33.269
X13.048 Y33.511
X12.902 Y33.57
X12.865 Y33.58
X12.829 Y33.587
X12.172 Y33.674
X12.026 Y33.692
X11.99 Y33.693
X11.953 Y33.69
X11.151 Y33.584
X11.114 Y33.576
X11.078 Y33.562
X10.348 Y33.26
X10.312 Y33.243
X10.275 Y33.22
X10.26 Y33.209
X9.689 Y32.771
X9.617 Y32.715
X9.578 Y32.674
X9.54 Y32.625
X9.092 Y32.042
X9.067 Y32.005
X9.047 Y31.969
X8.775 Y31.312
X8.719 Y31.166
X8.699 Y31.02
X8.622 Y30.437
X8.608 Y30.291
X8.624 Y30.145
X8.701 Y29.561
X8.724 Y29.416
X8.782 Y29.27
X9.024 Y28.686
X9.056 Y28.613
X9.108 Y28.538
X9.554 Y27.956
X9.584 Y27.919
X9.623 Y27.881
X9.713 Y27.811
X10.275 Y27.38
X10.285 Y27.373
X10.319 Y27.353
X10.353 Y27.337
X11.078 Y27.038
X11.114 Y27.024
X11.151 Y27.016
X11.953 Y26.91
X11.99 Y26.907
X12.026 Y26.908
X12.239 Y26.935
X12.829 Y27.013
X12.865 Y27.02
X12.902 Y27.03
X13.194 Y27.15
X13.632 Y27.331
X13.673 Y27.349
X13.714 Y27.373
X13.777 Y27.42
X14.361 Y27.868
X14.41 Y27.912
X14.446 Y27.956
X14.894 Y28.54
X14.945 Y28.616
X14.976 Y28.686
X15.073 Y28.92
G3 X14.916 Y29.316 I-0.298 J0.111
G1 X14.867 Y29.327 Z-1.246
X14.82 Y29.338 Z-1.234
X14.775 Y29.349 Z-1.215
X14.724 Y29.336 Z-1.18
X14.681 Y29.325 Z-1.135
X14.647 Y29.316 Z-1.083
X14.623 Y29.31 Z-1.025
X14.614 Y29.305 Z-0.979
X14.611 Y29.303 Z-0.932
G0 Z5
X11.402 Y28.913
Z1.25
G3 X12.598 Y31.687 Z1.084 I0.598 J1.387 F283.3
X11.402 Y28.913 Z0.919 I-0.598 J-1.387
X12.598 Y31.687 Z0.753 I0.598 J1.387
X11.402 Y28.913 Z0.587 I-0.598 J-1.387
X12.598 Y31.687 Z0.421 I0.598 J1.387
X11.402 Y28.913 Z0.256 I-0.598 J-1.387
X12.598 Y31.687 Z0.09 I0.598 J1.387
X11.402 Y28.913 Z-0.076 I-0.598 J-1.387
X12.598 Y31.687 Z-0.241 I0.598 J1.387
X11.402 Y28.913 Z-0.407 I-0.598 J-1.387
X12.598 Y31.687 Z-0.573 I0.598 J1.387
X11.402 Y28.913 Z-0.739 I-0.598 J-1.387
X12.598 Y31.687 Z-0.904 I0.598 J1.387
X11.402 Y28.913 Z-1.07 I-0.598 J-1.387
X12.598 Y31.687 Z-1.236 I0.598 J1.387
X11.402 Y28.913 Z-1.401 I-0.598 J-1.387
X12.598 Y31.687 Z-1.567 I0.598 J1.387
X11.402 Y28.913 Z-1.733 I-0.598 J-1.387
X12.598 Y31.687 Z-1.899 I0.598 J1.387
X11.402 Y28.913 Z-2.064 I-0.598 J-1.387
X12.598 Y31.687 Z-2.23 I0.598 J1.387
X11.402 Y28.913 Z-2.396 I-0.598 J-1.387
X13.51 Y30.3 Z-2.5 I0.598 J1.387
X10.489 I-1.51
X13.51 I1.51
G1 X13.52 Y30.683 F850
Y30.833
X13.488 Y30.98
X13.434 Y31.12
X13.364 Y31.252
X13.279 Y31.376
X13.182 Y31.49
X13.073 Y31.594
X12.956 Y31.687
X12.83 Y31.768
X12.697 Y31.838
X12.558 Y31.894
X12.414 Y31.938
X12.267 Y31.969
X12.119 Y31.987
X11.969 Y31.991
X11.819 Y31.982
X11.671 Y31.959
X11.525 Y31.924
X11.383 Y31.875
X11.246 Y31.815
X11.115 Y31.742
X10.99 Y31.658
X10.874 Y31.563
X10.767 Y31.458
X10.669 Y31.345
X10.581 Y31.223
X10.505 Y31.093
X10.441 Y30.958
X10.389 Y30.817
X10.349 Y30.673
X10.323 Y30.525
X10.309 Y30.376
Y30.226
X10.323 Y30.076
X10.349 Y29.929
X10.388 Y29.784
X10.441 Y29.643
X10.505 Y29.508
X10.581 Y29.378
X10.668 Y29.256
X10.766 Y29.142
X10.873 Y29.038
X10.989 Y28.943
X11.114 Y28.859
X11.245 Y28.786
X11.382 Y28.725
X11.524 Y28.676
X11.669 Y28.641
X11.818 Y28.618
X11.967 Y28.608
X12.117 Y28.612
X12.266 Y28.629
X12.413 Y28.659
X12.557 Y28.702
X12.696 Y28.758
X12.83 Y28.826
X12.957 Y28.905
X13.077 Y28.995
X13.188 Y29.096
X13.29 Y29.206
X13.382 Y29.324
X13.463 Y29.451
X13.533 Y29.584
X13.59 Y29.722
X13.635 Y29.865
X13.67 Y30.011
X13.698 Y30.159
X13.719 Y30.307
X13.732 Y30.456
X13.733 Y30.606
X13.719 Y30.756
X13.692 Y30.903
X13.65 Y31.047
X13.595 Y31.187
X13.526 Y31.32
X13.445 Y31.447
X13.353 Y31.565
X13.251 Y31.674
X13.139 Y31.774
X13.018 Y31.864
X12.891 Y31.943
X12.757 Y32.011
X12.618 Y32.068
X12.475 Y32.113
X12.329 Y32.146
X12.181 Y32.167
X12.031 Y32.177
X11.881 Y32.174
X11.732 Y32.159
X11.584 Y32.132
X11.439 Y32.093
X11.298 Y32.043
X11.161 Y31.981
X11.03 Y31.909
X10.904 Y31.827
X10.786 Y31.734
X10.675 Y31.633
X10.573 Y31.524
X10.48 Y31.406
X10.396 Y31.281
X10.323 Y31.15
X10.261 Y31.014
X10.21 Y30.873
X10.17 Y30.728
X10.142 Y30.581
X10.125 Y30.432
X10.12 Y30.282
X10.128 Y30.132
X10.147 Y29.983
X10.178 Y29.837
X10.221 Y29.693
X10.275 Y29.553
X10.34 Y29.418
X10.416 Y29.289
X10.502 Y29.165
X10.597 Y29.049
X10.701 Y28.941
X10.813 Y28.842
X10.933 Y28.752
X11.06 Y28.672
X11.193 Y28.602
X11.331 Y28.543
X11.473 Y28.496
X11.619 Y28.46
X11.767 Y28.435
X11.916 Y28.423
X12.066 Y28.422
X12.216 Y28.433
X12.364 Y28.456
X12.51 Y28.491
X12.653 Y28.537
X12.791 Y28.595
X12.924 Y28.664
X13.052 Y28.743
X13.173 Y28.832
X13.286 Y28.93
X13.391 Y29.037
X13.488 Y29.152
X13.575 Y29.274
X13.652 Y29.403
X13.719 Y29.537
X13.776 Y29.675
X13.825 Y29.817
X13.866 Y29.962
X13.898 Y30.108
X13.919 Y30.257
X13.93 Y30.406
X13.931 Y30.556
X13.92 Y30.706
X13.897 Y30.854
X13.862 Y31
X13.815 Y31.142
X13.756 Y31.28
X13.686 Y31.413
X13.606 Y31.54
X13.515 Y31.659
X13.416 Y31.772
X13.308 Y31.875
X13.192 Y31.971
X13.069 Y32.056
X12.939 Y32.132
X12.804 Y32.198
X12.665 Y32.253
X12.522 Y32.298
X12.376 Y32.332
X12.227 Y32.355
X12.078 Y32.367
X11.928 Y32.368
X11.778 Y32.358
X11.63 Y32.338
X11.483 Y32.306
X11.339 Y32.264
X11.199 Y32.211
X11.063 Y32.148
X10.931 Y32.076
X10.806 Y31.994
X10.686 Y31.903
X10.574 Y31.804
X10.468 Y31.697
X10.371 Y31.583
X10.283 Y31.462
X10.203 Y31.334
X10.133 Y31.202
X10.073 Y31.065
X10.023 Y30.923
X9.983 Y30.778
X9.954 Y30.631
X9.935 Y30.483
X9.927 Y30.333
X9.93 Y30.183
X9.944 Y30.033
X9.968 Y29.885
X10.003 Y29.74
X10.049 Y29.597
X10.105 Y29.458
X10.171 Y29.323
X10.247 Y29.193
X10.332 Y29.07
X10.425 Y28.952
X10.527 Y28.842
X10.636 Y28.739
X10.752 Y28.644
X10.875 Y28.558
X11.004 Y28.481
X11.138 Y28.414
X11.277 Y28.357
X11.419 Y28.31
X11.564 Y28.273
X11.712 Y28.247
X11.861 Y28.232
X12.011 Y28.227
X12.161 Y28.233
X12.31 Y28.25
X12.458 Y28.278
X12.603 Y28.316
X12.744 Y28.365
X12.882 Y28.424
X13.016 Y28.493
X13.144 Y28.571
X13.265 Y28.658
X13.381 Y28.754
X13.489 Y28.858
X13.59 Y28.969
X13.682 Y29.088
X13.766 Y29.212
X13.842 Y29.341
X13.909 Y29.475
X13.969 Y29.613
X14.019 Y29.754
X14.061 Y29.898
X14.093 Y30.045
X14.116 Y30.193
X14.129 Y30.343
X14.132 Y30.493
X14.125 Y30.642
X14.108 Y30.791
X14.079 Y30.939
X14.04 Y31.084
X13.991 Y31.225
X13.931 Y31.363
X13.862 Y31.496
X13.783 Y31.623
X13.695 Y31.745
X13.598 Y31.859
X13.494 Y31.967
X13.382 Y32.067
X13.264 Y32.159
X13.139 Y32.242
X13.008 Y32.317
X12.873 Y32.382
X12.734 Y32.437
X12.591 Y32.483
X12.445 Y32.519
X12.298 Y32.545
X12.148 Y32.561
X11.999 Y32.567
X11.849 Y32.563
X11.699 Y32.549
X11.551 Y32.525
X11.405 Y32.491
X11.262 Y32.448
X11.121 Y32.394
X10.985 Y32.332
X10.853 Y32.261
X10.726 Y32.181
X10.605 Y32.092
X10.489 Y31.997
X10.38 Y31.893
X10.279 Y31.783
X10.184 Y31.667
X10.098 Y31.544
X10.02 Y31.416
X9.951 Y31.283
X9.89 Y31.146
X9.839 Y31.004
X9.798 Y30.86
X9.766 Y30.714
X9.743 Y30.566
X9.731 Y30.416
X9.728 Y30.266
X9.735 Y30.116
X9.751 Y29.967
X9.778 Y29.82
X9.815 Y29.674
X9.861 Y29.531
X9.916 Y29.392
X9.981 Y29.257
X10.054 Y29.126
X10.136 Y29
X10.226 Y28.88
X10.323 Y28.766
X10.428 Y28.659
X10.54 Y28.558
X10.658 Y28.466
X10.781 Y28.381
X10.911 Y28.305
X11.045 Y28.238
X11.183 Y28.179
X11.325 Y28.13
X11.469 Y28.091
X11.616 Y28.06
X11.765 Y28.04
X11.915 Y28.029
X12.065 Y28.028
X12.214 Y28.037
X12.363 Y28.056
X12.51 Y28.085
X12.655 Y28.124
X12.797 Y28.172
X12.936 Y28.229
X13.07 Y28.296
X13.2 Y28.371
X13.325 Y28.454
X13.444 Y28.546
X13.557 Y28.644
X13.663 Y28.75
X13.762 Y28.863
X13.854 Y28.981
X13.939 Y29.105
X14.016 Y29.234
X14.085 Y29.367
X14.147 Y29.504
X14.2 Y29.644
X14.244 Y29.787
X14.28 Y29.933
X14.308 Y30.08
X14.326 Y30.229
X14.336 Y30.379
Y30.529
X14.326 Y30.678
X14.307 Y30.827
X14.278 Y30.974
X14.239 Y31.119
X14.191 Y31.261
X14.134 Y31.4
X14.068 Y31.535
X13.993 Y31.665
X13.91 Y31.79
X13.819 Y31.909
X13.721 Y32.022
X13.615 Y32.129
X13.503 Y32.228
X13.384 Y32.32
X13.26 Y32.404
X13.13 Y32.479
X12.996 Y32.547
X12.858 Y32.606
X12.717 Y32.656
X12.573 Y32.697
X12.426 Y32.729
X12.278 Y32.752
X12.129 Y32.766
X11.979 Y32.77
X11.829 Y32.766
X11.679 Y32.752
X11.531 Y32.729
X11.385 Y32.696
X11.24 Y32.655
X11.099 Y32.605
X10.961 Y32.546
X10.827 Y32.479
X10.697 Y32.405
X10.572 Y32.322
X10.451 Y32.232
X10.337 Y32.135
X10.229 Y32.031
X10.127 Y31.921
X10.032 Y31.805
X9.945 Y31.683
X9.865 Y31.556
X9.793 Y31.425
X9.729 Y31.289
X9.673 Y31.15
X9.626 Y31.007
X9.588 Y30.862
X9.558 Y30.715
X9.537 Y30.567
X9.525 Y30.417
X9.522 Y30.267
X9.529 Y30.117
X9.544 Y29.968
X9.569 Y29.82
X9.603 Y29.674
X9.645 Y29.53
X9.696 Y29.389
X9.756 Y29.251
X9.823 Y29.117
X9.899 Y28.988
X9.982 Y28.863
X10.073 Y28.743
X10.17 Y28.629
X10.274 Y28.522
X10.385 Y28.421
X10.502 Y28.326
X10.624 Y28.239
X10.752 Y28.16
X10.883 Y28.089
X11.019 Y28.025
X11.159 Y27.97
X11.301 Y27.923
X11.447 Y27.885
X11.594 Y27.856
X11.742 Y27.836
X11.892 Y27.825
X12.042 Y27.823
X12.192 Y27.83
X12.341 Y27.846
X12.489 Y27.871
X12.635 Y27.906
X12.778 Y27.948
X12.919 Y28
X13.057 Y28.06
X13.191 Y28.128
X13.32 Y28.204
X13.445 Y28.287
X13.564 Y28.378
X13.678 Y28.476
X13.786 Y28.58
X13.887 Y28.69
X13.982 Y28.806
X14.071 Y28.928
X14.152 Y29.053
X14.227 Y29.184
X14.294 Y29.318
X14.353 Y29.456
X14.405 Y29.596
X14.449 Y29.74
X14.485 Y29.885
X14.513 Y30.033
X14.533 Y30.181
X14.543 Y30.331
X14.545 Y30.481
X14.538 Y30.631
X14.523 Y30.78
X14.499 Y30.928
X14.466 Y31.074
X14.424 Y31.218
X14.374 Y31.36
X14.316 Y31.498
X14.249 Y31.633
X14.175 Y31.763
X14.093 Y31.888
X14.003 Y32.009
X13.907 Y32.123
X13.803 Y32.232
X13.694 Y32.335
X13.578 Y32.431
X13.458 Y32.519
X13.332 Y32.601
X13.201 Y32.675
X13.067 Y32.742
X12.929 Y32.8
X12.788 Y32.851
X12.644 Y32.893
X12.498 Y32.927
X12.35 Y32.952
X12.201 Y32.969
X12.051 Y32.978
X11.901 Y32.977
X11.751 Y32.969
X11.602 Y32.951
X11.454 Y32.926
X11.308 Y32.892
X11.164 Y32.85
X11.023 Y32.799
X10.885 Y32.741
X10.75 Y32.676
X10.619 Y32.603
X10.492 Y32.522
X10.37 Y32.435
X10.254 Y32.34
X10.142 Y32.24
X10.037 Y32.133
X9.937 Y32.021
X9.844 Y31.903
X9.758 Y31.78
X9.679 Y31.653
X9.607 Y31.522
X9.542 Y31.386
X9.486 Y31.247
X9.437 Y31.106
X9.396 Y30.961
X9.363 Y30.815
X9.338 Y30.667
X9.322 Y30.518
X9.314 Y30.368
Y30.218
X9.323 Y30.068
X9.34 Y29.919
X9.365 Y29.771
X9.399 Y29.625
X9.441 Y29.481
X9.49 Y29.34
X9.548 Y29.201
X9.613 Y29.066
X9.686 Y28.935
X9.765 Y28.808
X9.852 Y28.685
X9.946 Y28.568
X10.045 Y28.456
X10.151 Y28.35
X10.263 Y28.25
X10.38 Y28.156
X10.502 Y28.069
X10.629 Y27.989
X10.76 Y27.916
X10.895 Y27.851
X11.034 Y27.793
X11.175 Y27.743
X11.319 Y27.701
X11.465 Y27.667
X11.613 Y27.641
X11.762 Y27.624
X11.912 Y27.614
X12.062
X12.211 Y27.621
X12.361 Y27.637
X12.509 Y27.661
X12.655 Y27.694
X12.799 Y27.735
X12.941 Y27.783
X13.08 Y27.84
X13.216 Y27.904
X13.348 Y27.975
X13.475 Y28.054
X13.599 Y28.14
X13.717 Y28.232
X13.83 Y28.33
X13.938 Y28.434
X14.041 Y28.544
X14.137 Y28.659
X14.227 Y28.779
X14.31 Y28.904
X14.387 Y29.032
X14.457 Y29.165
X14.521 Y29.301
X14.577 Y29.44
X14.626 Y29.582
X14.667 Y29.726
X14.701 Y29.872
X14.727 Y30.02
X14.745 Y30.169
X14.756 Y30.318
X14.758 Y30.468
X14.752 Y30.618
X14.738 Y30.768
X14.716 Y30.916
X14.686 Y31.063
X14.648 Y31.208
X14.602 Y31.351
X14.549 Y31.491
X14.488 Y31.628
X14.419 Y31.761
X14.343 Y31.891
X14.26 Y32.016
X14.171 Y32.136
X14.075 Y32.251
X13.973 Y32.361
X13.864 Y32.465
X13.751 Y32.563
X13.632 Y32.655
X13.508 Y32.74
X13.38 Y32.818
X13.248 Y32.889
X13.113 Y32.953
X12.974 Y33.01
X12.832 Y33.059
X12.688 Y33.101
X12.542 Y33.134
X12.394 Y33.161
X12.245 Y33.179
X12.096 Y33.189
X11.946 Y33.191
X11.796 Y33.186
X11.646 Y33.172
X11.498 Y33.151
X11.351 Y33.121
X11.205 Y33.085
X11.062 Y33.04
X10.921 Y32.989
X10.783 Y32.93
X10.649 Y32.864
X10.517 Y32.791
X10.39 Y32.711
X10.268 Y32.625
X10.15 Y32.533
X10.036 Y32.434
X9.929 Y32.33
X9.826 Y32.22
X9.73 Y32.105
X9.64 Y31.985
X9.556 Y31.861
X9.478 Y31.733
X9.407 Y31.6
X9.343 Y31.465
X9.286 Y31.326
X9.237 Y31.184
X9.195 Y31.04
X9.16 Y30.894
X9.133 Y30.747
X9.114 Y30.598
X9.103 Y30.449
X9.099 Y30.299
X9.103 Y30.149
X9.115 Y29.999
X9.134 Y29.85
X9.161 Y29.703
X9.196 Y29.557
X9.238 Y29.413
X9.287 Y29.271
X9.344 Y29.132
X9.408 Y28.997
X9.478 Y28.864
X9.556 Y28.736
X9.64 Y28.612
X9.731 Y28.492
X9.827 Y28.377
X9.93 Y28.268
X10.037 Y28.163
X10.15 Y28.065
X10.268 Y27.972
X10.391 Y27.886
X10.518 Y27.806
X10.649 Y27.732
X10.783 Y27.666
X10.921 Y27.607
X11.062 Y27.554
X11.205 Y27.51
X11.35 Y27.472
X11.497 Y27.443
X11.646 Y27.421
X11.795 Y27.406
X11.945 Y27.4
X12.095 Y27.401
X12.244 Y27.409
X12.394 Y27.426
X12.542 Y27.45
X12.688 Y27.481
X12.833 Y27.521
X12.975 Y27.567
X13.115 Y27.622
X13.252 Y27.683
X13.386 Y27.751
X13.516 Y27.826
X13.642 Y27.907
X13.764 Y27.995
X13.881 Y28.088
X13.994 Y28.187
X14.101 Y28.292
X14.203 Y28.402
X14.3 Y28.516
X14.391 Y28.636
X14.476 Y28.759
X14.555 Y28.887
X14.627 Y29.018
X14.693 Y29.153
X14.753 Y29.291
X14.805 Y29.431
X14.851 Y29.574
X14.89 Y29.719
X14.921 Y29.866
X14.946 Y30.014
X14.963 Y30.163
X14.973 Y30.312
X14.975 Y30.462
X14.97 Y30.612
X14.957 Y30.762
X14.937 Y30.91
X14.909 Y31.058
X14.874 Y31.203
X14.831 Y31.347
X14.781 Y31.489
X14.725 Y31.628
X14.661 Y31.763
X14.59 Y31.896
X14.513 Y32.024
X14.43 Y32.149
X14.34 Y32.269
X14.244 Y32.385
X14.143 Y32.495
X14.036 Y32.6
X13.923 Y32.7
X13.806 Y32.794
X13.685 Y32.881
X13.559 Y32.963
X13.429 Y33.038
X13.295 Y33.106
X13.159 Y33.168
X13.019 Y33.223
X12.877 Y33.271
X12.733 Y33.312
X12.587 Y33.346
X12.439 Y33.373
X12.29 Y33.392
X12.141 Y33.404
X11.991 Y33.408
X11.841 Y33.405
X11.691 Y33.395
X11.542 Y33.378
X11.394 Y33.353
X11.248 Y33.321
X11.103 Y33.281
X10.96 Y33.235
X10.82 Y33.182
X10.682 Y33.123
X10.548 Y33.057
X10.416 Y32.984
X10.289 Y32.905
X10.165 Y32.82
X10.046 Y32.729
X9.931 Y32.633
X9.821 Y32.531
X9.716 Y32.423
X9.617 Y32.311
X9.523 Y32.194
X9.435 Y32.073
X9.352 Y31.948
X9.276 Y31.818
X9.206 Y31.686
X9.142 Y31.55
X9.086 Y31.411
X9.035 Y31.27
X8.992 Y31.126
X8.956 Y30.981
X8.926 Y30.834
X8.904 Y30.685
X8.889 Y30.536
X8.882 Y30.386
X8.881 Y30.236
X8.888 Y30.086
X8.902 Y29.937
X8.923 Y29.788
X8.951 Y29.641
X8.986 Y29.495
X9.028 Y29.351
X9.077 Y29.209
X9.133 Y29.07
X9.195 Y28.934
X9.264 Y28.8
X9.339 Y28.671
X9.421 Y28.545
X9.508 Y28.423
X9.601 Y28.305
X9.7 Y28.192
X9.804 Y28.084
X9.913 Y27.981
X10.027 Y27.884
X10.146 Y27.792
X10.268 Y27.705
X10.395 Y27.625
X10.525 Y27.551
X10.659 Y27.483
X10.796 Y27.422
X10.936 Y27.367
X11.078 Y27.32
X11.222 Y27.279
X11.368 Y27.245
X11.516 Y27.218
X11.665 Y27.199
X11.814 Y27.186
X11.964 Y27.181
X12.114 Y27.183
X12.264 Y27.192
X12.413 Y27.208
X12.561 Y27.231
X12.708 Y27.262
X12.853 Y27.299
X12.997 Y27.343
X13.138 Y27.395
X13.276 Y27.453
X13.411 Y27.517
X13.544 Y27.588
X13.672 Y27.665
X13.797 Y27.748
X13.918 Y27.837
X14.035 Y27.931
X14.147 Y28.03
X14.255 Y28.135
X14.358 Y28.244
X14.455 Y28.358
X14.548 Y28.476
X14.634 Y28.598
X14.715 Y28.725
X14.791 Y28.854
X14.86 Y28.988
X14.923 Y29.124
X14.979 Y29.263
X15.03 Y29.404
X15.074 Y29.547
X15.111 Y29.693
X15.141 Y29.84
X15.165 Y29.988
X15.182 Y30.137
