%
(1001)
(origin stock top outer edge centre)
(T1  D=3.18 CR=0 - ZMIN=-6.6 - flat end mill)
G90 G94
G17
G21

(backlash_nut_roughing)
M9
T1 M6
S6000 M3
G54
M8
G0 X-7.554 Y40.356
Z15
Z5
Z2.5
G3 X-8.447 Y40.244 Z2.451 I-0.446 J-0.056 F283.3
X-7.554 Y40.356 Z2.401 I0.446 J0.056
X-8.447 Y40.244 Z2.352 I-0.446 J-0.056
X-7.554 Y40.356 Z2.303 I0.446 J0.056
X-8.447 Y40.244 Z2.253 I-0.446 J-0.056
X-7.554 Y40.356 Z2.204 I0.446 J0.056
X-8.447 Y40.244 Z2.154 I-0.446 J-0.056
X-7.554 Y40.356 Z2.105 I0.446 J0.056
X-8.447 Y40.244 Z2.056 I-0.446 J-0.056
X-7.554 Y40.356 Z2.006 I0.446 J0.056
X-8.447 Y40.244 Z1.957 I-0.446 J-0.056
X-7.554 Y40.356 Z1.908 I0.446 J0.056
X-8.447 Y40.244 Z1.858 I-0.446 J-0.056
X-7.554 Y40.356 Z1.809 I0.446 J0.056
X-8.447 Y40.244 Z1.759 I-0.446 J-0.056
X-7.554 Y40.356 Z1.71 I0.446 J0.056
X-8.447 Y40.244 Z1.661 I-0.446 J-0.056
X-7.554 Y40.356 Z1.611 I0.446 J0.056
X-8.447 Y40.244 Z1.562 I-0.446 J-0.056
X-7.554 Y40.356 Z1.513 I0.446 J0.056
X-8.447 Y40.244 Z1.463 I-0.446 J-0.056
X-7.554 Y40.356 Z1.414 I0.446 J0.056
X-8.447 Y40.244 Z1.365 I-0.446 J-0.056
X-7.554 Y40.356 Z1.315 I0.446 J0.056
X-8.447 Y40.244 Z1.266 I-0.446 J-0.056
X-7.554 Y40.356 Z1.216 I0.446 J0.056
X-8.447 Y40.244 Z1.167 I-0.446 J-0.056
X-7.554 Y40.356 Z1.118 I0.446 J0.056
X-8.447 Y40.244 Z1.068 I-0.446 J-0.056
X-7.554 Y40.356 Z1.019 I0.446 J0.056
X-8.447 Y40.244 Z0.97 I-0.446 J-0.056
X-7.554 Y40.356 Z0.92 I0.446 J0.056
X-8.447 Y40.244 Z0.871 I-0.446 J-0.056
X-7.554 Y40.356 Z0.821 I0.446 J0.056
X-8.447 Y40.244 Z0.772 I-0.446 J-0.056
X-7.554 Y40.356 Z0.723 I0.446 J0.056
X-8.447 Y40.244 Z0.673 I-0.446 J-0.056
X-7.554 Y40.356 Z0.624 I0.446 J0.056
X-8.447 Y40.244 Z0.575 I-0.446 J-0.056
X-7.554 Y40.356 Z0.525 I0.446 J0.056
X-8.447 Y40.244 Z0.476 I-0.446 J-0.056
X-7.554 Y40.356 Z0.427 I0.446 J0.056
X-8.447 Y40.244 Z0.377 I-0.446 J-0.056
X-7.554 Y40.356 Z0.328 I0.446 J0.056
X-8.447 Y40.244 Z0.278 I-0.446 J-0.056
X-7.554 Y40.356 Z0.229 I0.446 J0.056
X-8.447 Y40.244 Z0.18 I-0.446 J-0.056
X-7.554 Y40.356 Z0.13 I0.446 J0.056
X-8.447 Y40.244 Z0.081 I-0.446 J-0.056
X-7.554 Y40.356 Z0.032 I0.446 J0.056
X-8.447 Y40.244 Z-0.018 I-0.446 J-0.056
X-7.554 Y40.356 Z-0.067 I0.446 J0.056
X-8.447 Y40.244 Z-0.117 I-0.446 J-0.056
X-7.554 Y40.356 Z-0.166 I0.446 J0.056
X-8.447 Y40.244 Z-0.215 I-0.446 J-0.056
X-7.554 Y40.356 Z-0.265 I0.446 J0.056
X-8.447 Y40.244 Z-0.314 I-0.446 J-0.056
X-7.554 Y40.356 Z-0.363 I0.446 J0.056
X-8.447 Y40.244 Z-0.413 I-0.446 J-0.056
X-7.554 Y40.356 Z-0.462 I0.446 J0.056
X-8.447 Y40.244 Z-0.511 I-0.446 J-0.056
X-7.554 Y40.356 Z-0.561 I0.446 J0.056
X-8.447 Y40.244 Z-0.61 I-0.446 J-0.056
X-7.554 Y40.356 Z-0.66 I0.446 J0.056
X-8.447 Y40.244 Z-0.709 I-0.446 J-0.056
X-7.554 Y40.356 Z-0.758 I0.446 J0.056
X-8.447 Y40.244 Z-0.808 I-0.446 J-0.056
X-7.554 Y40.356 Z-0.857 I0.446 J0.056
X-8.447 Y40.244 Z-0.906 I-0.446 J-0.056
X-7.554 Y40.356 Z-0.956 I0.446 J0.056
X-8.447 Y40.244 Z-1.005 I-0.446 J-0.056
X-7.554 Y40.356 Z-1.055 I0.446 J0.056
X-8.447 Y40.244 Z-1.104 I-0.446 J-0.056
X-7.554 Y40.356 Z-1.153 I0.446 J0.056
X-8.447 Y40.244 Z-1.203 I-0.446 J-0.056
X-7.551 Y40.3 Z-1.25 I0.446 J0.056
X-8.451 I-0.45
X-7.551 I0.45
G1 X-7.553 Y40.397 F850
X-7.577 Y40.491
X-7.621 Y40.577
X-7.629 Y40.589
X-7.653 Y40.62
X-7.684 Y40.65
X-7.734 Y40.687
X-7.807 Y40.73
X-7.844 Y40.745
X-7.88 Y40.755
X-7.953 Y40.769
X-7.99 Y40.772
X-8.026
X-8.099 Y40.759
X-8.136 Y40.751
X-8.172 Y40.739
X-8.208 Y40.722
X-8.244 Y40.702
X-8.318 Y40.648
X-8.353 Y40.612
X-8.38 Y40.576
X-8.425 Y40.504
X-8.44 Y40.472
X-8.451 Y40.439
X-8.467 Y40.358
X-8.472 Y40.292
X-8.47 Y40.259
X-8.461 Y40.212
X-8.443 Y40.139
X-8.429 Y40.103
X-8.409 Y40.067
X-8.371 Y40.01
X-8.347 Y39.982
X-8.318 Y39.953
X-8.278 Y39.921
X-8.225 Y39.887
X-8.172 Y39.861
X-8.136 Y39.849
X-8.099 Y39.841
X-8.026 Y39.828
X-7.99
X-7.953 Y39.831
X-7.88 Y39.845
X-7.844 Y39.855
X-7.807 Y39.87
X-7.734 Y39.913
X-7.722 Y39.921
X-7.682 Y39.953
X-7.642 Y39.994
X-7.589 Y40.071
X-7.57 Y40.106
X-7.556 Y40.142
X-7.539 Y40.212
X-7.528 Y40.285
X-7.529 Y40.322
X-7.533 Y40.358
X-7.547 Y40.431
X-7.558 Y40.468
X-7.575 Y40.504
X-7.589 Y40.528
X-7.621 Y40.577
G3 X-7.878 Y40.709 I-0.258 J-0.186
G1 X-7.879
X-7.934 Y40.704
X-7.988 Y40.69
X-8.038 Y40.667
X-8.077 Y40.629 Z-1.245
X-8.115 Y40.592 Z-1.231
X-8.15 Y40.557 Z-1.208
X-8.165 Y40.511 Z-1.173
X-8.177 Y40.471 Z-1.129
X-8.187 Y40.44 Z-1.078
X-8.193 Y40.419 Z-1.022
X-8.197 Y40.408 Z-0.963
Y40.406 Z-0.932
G0 Z5
X-7.554 Y40.356
Z1.25
G3 X-8.447 Y40.244 Z1.201 I-0.446 J-0.056 F283.3
X-7.554 Y40.356 Z1.151 I0.446 J0.056
X-8.447 Y40.244 Z1.102 I-0.446 J-0.056
X-7.554 Y40.356 Z1.053 I0.446 J0.056
X-8.447 Y40.244 Z1.003 I-0.446 J-0.056
X-7.554 Y40.356 Z0.954 I0.446 J0.056
X-8.447 Y40.244 Z0.904 I-0.446 J-0.056
X-7.554 Y40.356 Z0.855 I0.446 J0.056
X-8.447 Y40.244 Z0.806 I-0.446 J-0.056
X-7.554 Y40.356 Z0.756 I0.446 J0.056
X-8.447 Y40.244 Z0.707 I-0.446 J-0.056
X-7.554 Y40.356 Z0.658 I0.446 J0.056
X-8.447 Y40.244 Z0.608 I-0.446 J-0.056
X-7.554 Y40.356 Z0.559 I0.446 J0.056
X-8.447 Y40.244 Z0.509 I-0.446 J-0.056
X-7.554 Y40.356 Z0.46 I0.446 J0.056
X-8.447 Y40.244 Z0.411 I-0.446 J-0.056
X-7.554 Y40.356 Z0.361 I0.446 J0.056
X-8.447 Y40.244 Z0.312 I-0.446 J-0.056
X-7.554 Y40.356 Z0.263 I0.446 J0.056
X-8.447 Y40.244 Z0.213 I-0.446 J-0.056
X-7.554 Y40.356 Z0.164 I0.446 J0.056
X-8.447 Y40.244 Z0.115 I-0.446 J-0.056
X-7.554 Y40.356 Z0.065 I0.446 J0.056
X-8.447 Y40.244 Z0.016 I-0.446 J-0.056
X-7.554 Y40.356 Z-0.034 I0.446 J0.056
X-8.447 Y40.244 Z-0.083 I-0.446 J-0.056
X-7.554 Y40.356 Z-0.132 I0.446 J0.056
X-8.447 Y40.244 Z-0.182 I-0.446 J-0.056
X-7.554 Y40.356 Z-0.231 I0.446 J0.056
X-8.447 Y40.244 Z-0.28 I-0.446 J-0.056
X-7.554 Y40.356 Z-0.33 I0.446 J0.056
X-8.447 Y40.244 Z-0.379 I-0.446 J-0.056
X-7.554 Y40.356 Z-0.429 I0.446 J0.056
X-8.447 Y40.244 Z-0.478 I-0.446 J-0.056
X-7.554 Y40.356 Z-0.527 I0.446 J0.056
X-8.447 Y40.244 Z-0.577 I-0.446 J-0.056
X-7.554 Y40.356 Z-0.626 I0.446 J0.056
X-8.447 Y40.244 Z-0.675 I-0.446 J-0.056
X-7.554 Y40.356 Z-0.725 I0.446 J0.056
X-8.447 Y40.244 Z-0.774 I-0.446 J-0.056
X-7.554 Y40.356 Z-0.823 I0.446 J0.056
X-8.447 Y40.244 Z-0.873 I-0.446 J-0.056
X-7.554 Y40.356 Z-0.922 I0.446 J0.056
X-8.447 Y40.244 Z-0.972 I-0.446 J-0.056
X-7.554 Y40.356 Z-1.021 I0.446 J0.056
X-8.447 Y40.244 Z-1.07 I-0.446 J-0.056
X-7.554 Y40.356 Z-1.12 I0.446 J0.056
X-8.447 Y40.244 Z-1.169 I-0.446 J-0.056
X-7.554 Y40.356 Z-1.218 I0.446 J0.056
X-8.447 Y40.244 Z-1.268 I-0.446 J-0.056
X-7.554 Y40.356 Z-1.317 I0.446 J0.056
X-8.447 Y40.244 Z-1.367 I-0.446 J-0.056
X-7.554 Y40.356 Z-1.416 I0.446 J0.056
X-8.447 Y40.244 Z-1.465 I-0.446 J-0.056
X-7.554 Y40.356 Z-1.515 I0.446 J0.056
X-8.447 Y40.244 Z-1.564 I-0.446 J-0.056
X-7.554 Y40.356 Z-1.613 I0.446 J0.056
X-8.447 Y40.244 Z-1.663 I-0.446 J-0.056
X-7.554 Y40.356 Z-1.712 I0.446 J0.056
X-8.447 Y40.244 Z-1.761 I-0.446 J-0.056
X-7.554 Y40.356 Z-1.811 I0.446 J0.056
X-8.447 Y40.244 Z-1.86 I-0.446 J-0.056
X-7.554 Y40.356 Z-1.91 I0.446 J0.056
X-8.447 Y40.244 Z-1.959 I-0.446 J-0.056
X-7.554 Y40.356 Z-2.008 I0.446 J0.056
X-8.447 Y40.244 Z-2.058 I-0.446 J-0.056
X-7.554 Y40.356 Z-2.107 I0.446 J0.056
X-8.447 Y40.244 Z-2.156 I-0.446 J-0.056
X-7.554 Y40.356 Z-2.206 I0.446 J0.056
X-8.447 Y40.244 Z-2.255 I-0.446 J-0.056
X-7.554 Y40.356 Z-2.305 I0.446 J0.056
X-8.447 Y40.244 Z-2.354 I-0.446 J-0.056
X-7.554 Y40.356 Z-2.403 I0.446 J0.056
X-8.447 Y40.244 Z-2.453 I-0.446 J-0.056
X-7.551 Y40.3 Z-2.5 I0.446 J0.056
X-8.451 I-0.45
X-7.551 I0.45
G1 X-7.553 Y40.397 F850
X-7.577 Y40.491
X-7.621 Y40.577
X-7.629 Y40.589
X-7.653 Y40.62
X-7.684 Y40.65
X-7.734 Y40.687
X-7.807 Y40.73
X-7.844 Y40.745
X-7.88 Y40.755
X-7.953 Y40.769
X-7.99 Y40.772
X-8.026
X-8.099 Y40.759
X-8.136 Y40.751
X-8.172 Y40.739
X-8.208 Y40.722
X-8.244 Y40.702
X-8.318 Y40.648
X-8.353 Y40.612
X-8.38 Y40.576
X-8.425 Y40.504
X-8.44 Y40.472
X-8.451 Y40.439
X-8.467 Y40.358
X-8.472 Y40.292
X-8.47 Y40.259
X-8.461 Y40.212
X-8.443 Y40.139
X-8.429 Y40.103
X-8.409 Y40.067
X-8.371 Y40.01
X-8.347 Y39.982
X-8.318 Y39.953
X-8.278 Y39.921
X-8.225 Y39.887
X-8.172 Y39.861
X-8.136 Y39.849
X-8.099 Y39.841
X-8.026 Y39.828
X-7.99
X-7.953 Y39.831
X-7.88 Y39.845
X-7.844 Y39.855
X-7.807 Y39.87
X-7.734 Y39.913
X-7.722 Y39.921
X-7.682 Y39.953
X-7.642 Y39.994
X-7.589 Y40.071
X-7.57 Y40.106
X-7.556 Y40.142
X-7.539 Y40.212
X-7.528 Y40.285
X-7.529 Y40.322
X-7.533 Y40.358
X-7.547 Y40.431
X-7.558 Y40.468
X-7.575 Y40.504
X-7.589 Y40.528
X-7.621 Y40.577
G3 X-7.878 Y40.709 I-0.258 J-0.186
G1 X-7.879
X-7.934 Y40.704
X-7.988 Y40.69
X-8.038 Y40.667
X-8.077 Y40.629 Z-2.495
X-8.115 Y40.592 Z-2.481
X-8.15 Y40.557 Z-2.458
X-8.165 Y40.511 Z-2.423
X-8.177 Y40.471 Z-2.379
X-8.187 Y40.44 Z-2.328
X-8.193 Y40.419 Z-2.272
X-8.197 Y40.408 Z-2.213
Y40.406 Z-2.182
G0 Z5
X-7.554 Y40.356
Z0
G3 X-8.447 Y40.244 Z-0.049 I-0.446 J-0.056 F283.3
X-7.554 Y40.356 Z-0.099 I0.446 J0.056
X-8.447 Y40.244 Z-0.148 I-0.446 J-0.056
X-7.554 Y40.356 Z-0.197 I0.446 J0.056
X-8.447 Y40.244 Z-0.247 I-0.446 J-0.056
X-7.554 Y40.356 Z-0.296 I0.446 J0.056
X-8.447 Y40.244 Z-0.346 I-0.446 J-0.056
X-7.554 Y40.356 Z-0.395 I0.446 J0.056
X-8.447 Y40.244 Z-0.444 I-0.446 J-0.056
X-7.554 Y40.356 Z-0.494 I0.446 J0.056
X-8.447 Y40.244 Z-0.543 I-0.446 J-0.056
X-7.554 Y40.356 Z-0.592 I0.446 J0.056
X-8.447 Y40.244 Z-0.642 I-0.446 J-0.056
X-7.554 Y40.356 Z-0.691 I0.446 J0.056
X-8.447 Y40.244 Z-0.741 I-0.446 J-0.056
X-7.554 Y40.356 Z-0.79 I0.446 J0.056
X-8.447 Y40.244 Z-0.839 I-0.446 J-0.056
X-7.554 Y40.356 Z-0.889 I0.446 J0.056
X-8.447 Y40.244 Z-0.938 I-0.446 J-0.056
X-7.554 Y40.356 Z-0.987 I0.446 J0.056
X-8.447 Y40.244 Z-1.037 I-0.446 J-0.056
X-7.554 Y40.356 Z-1.086 I0.446 J0.056
X-8.447 Y40.244 Z-1.135 I-0.446 J-0.056
X-7.554 Y40.356 Z-1.185 I0.446 J0.056
X-8.447 Y40.244 Z-1.234 I-0.446 J-0.056
X-7.554 Y40.356 Z-1.284 I0.446 J0.056
X-8.447 Y40.244 Z-1.333 I-0.446 J-0.056
X-7.554 Y40.356 Z-1.382 I0.446 J0.056
X-8.447 Y40.244 Z-1.432 I-0.446 J-0.056
X-7.554 Y40.356 Z-1.481 I0.446 J0.056
X-8.447 Y40.244 Z-1.53 I-0.446 J-0.056
X-7.554 Y40.356 Z-1.58 I0.446 J0.056
X-8.447 Y40.244 Z-1.629 I-0.446 J-0.056
X-7.554 Y40.356 Z-1.679 I0.446 J0.056
X-8.447 Y40.244 Z-1.728 I-0.446 J-0.056
X-7.554 Y40.356 Z-1.777 I0.446 J0.056
X-8.447 Y40.244 Z-1.827 I-0.446 J-0.056
X-7.554 Y40.356 Z-1.876 I0.446 J0.056
X-8.447 Y40.244 Z-1.925 I-0.446 J-0.056
X-7.554 Y40.356 Z-1.975 I0.446 J0.056
X-8.447 Y40.244 Z-2.024 I-0.446 J-0.056
X-7.554 Y40.356 Z-2.073 I0.446 J0.056
X-8.447 Y40.244 Z-2.123 I-0.446 J-0.056
X-7.554 Y40.356 Z-2.172 I0.446 J0.056
X-8.447 Y40.244 Z-2.222 I-0.446 J-0.056
X-7.554 Y40.356 Z-2.271 I0.446 J0.056
X-8.447 Y40.244 Z-2.32 I-0.446 J-0.056
X-7.554 Y40.356 Z-2.37 I0.446 J0.056
X-8.447 Y40.244 Z-2.419 I-0.446 J-0.056
X-7.554 Y40.356 Z-2.468 I0.446 J0.056
X-8.447 Y40.244 Z-2.518 I-0.446 J-0.056
X-7.554 Y40.356 Z-2.567 I0.446 J0.056
X-8.447 Y40.244 Z-2.617 I-0.446 J-0.056
X-7.554 Y40.356 Z-2.666 I0.446 J0.056
X-8.447 Y40.244 Z-2.715 I-0.446 J-0.056
X-7.554 Y40.356 Z-2.765 I0.446 J0.056
X-8.447 Y40.244 Z-2.814 I-0.446 J-0.056
X-7.554 Y40.356 Z-2.863 I0.446 J0.056
X-8.447 Y40.244 Z-2.913 I-0.446 J-0.056
X-7.554 Y40.356 Z-2.962 I0.446 J0.056
X-8.447 Y40.244 Z-3.011 I-0.446 J-0.056
X-7.554 Y40.356 Z-3.061 I0.446 J0.056
X-8.447 Y40.244 Z-3.11 I-0.446 J-0.056
X-7.554 Y40.356 Z-3.16 I0.446 J0.056
X-8.447 Y40.244 Z-3.209 I-0.446 J-0.056
X-7.554 Y40.356 Z-3.258 I0.446 J0.056
X-8.447 Y40.244 Z-3.308 I-0.446 J-0.056
X-7.554 Y40.356 Z-3.357 I0.446 J0.056
X-8.447 Y40.244 Z-3.406 I-0.446 J-0.056
X-7.554 Y40.356 Z-3.456 I0.446 J0.056
X-8.447 Y40.244 Z-3.505 I-0.446 J-0.056
X-7.554 Y40.356 Z-3.555 I0.446 J0.056
X-8.447 Y40.244 Z-3.604 I-0.446 J-0.056
X-7.554 Y40.356 Z-3.653 I0.446 J0.056
X-8.447 Y40.244 Z-3.703 I-0.446 J-0.056
X-7.551 Y40.3 Z-3.75 I0.446 J0.056
X-8.451 I-0.45
X-7.551 I0.45
G1 X-7.553 Y40.397 F850
X-7.577 Y40.491
X-7.621 Y40.577
X-7.629 Y40.589
X-7.653 Y40.62
X-7.684 Y40.65
X-7.734 Y40.687
X-7.807 Y40.73
X-7.844 Y40.745
X-7.88 Y40.755
X-7.953 Y40.769
X-7.99 Y40.772
X-8.026
X-8.099 Y40.759
X-8.136 Y40.751
X-8.172 Y40.739
X-8.208 Y40.722
X-8.244 Y40.702
X-8.318 Y40.648
X-8.353 Y40.612
X-8.38 Y40.576
X-8.425 Y40.504
X-8.44 Y40.472
X-8.451 Y40.439
X-8.467 Y40.358
X-8.472 Y40.292
X-8.47 Y40.259
X-8.461 Y40.212
X-8.443 Y40.139
X-8.429 Y40.103
X-8.409 Y40.067
X-8.371 Y40.01
X-8.347 Y39.982
X-8.318 Y39.953
X-8.278 Y39.921
X-8.225 Y39.887
X-8.172 Y39.861
X-8.136 Y39.849
X-8.099 Y39.841
X-8.026 Y39.828
X-7.99
X-7.953 Y39.831
X-7.88 Y39.845
X-7.844 Y39.855
X-7.807 Y39.87
X-7.734 Y39.913
X-7.722 Y39.921
X-7.682 Y39.953
X-7.642 Y39.994
X-7.589 Y40.071
X-7.57 Y40.106
X-7.556 Y40.142
X-7.539 Y40.212
X-7.528 Y40.285
X-7.529 Y40.322
X-7.533 Y40.358
X-7.547 Y40.431
X-7.558 Y40.468
X-7.575 Y40.504
X-7.589 Y40.528
X-7.621 Y40.577
G3 X-7.878 Y40.709 I-0.258 J-0.186
G1 X-7.879
X-7.934 Y40.704
X-7.988 Y40.69
X-8.038 Y40.667
X-8.077 Y40.629 Z-3.745
X-8.115 Y40.592 Z-3.731
X-8.15 Y40.557 Z-3.708
X-8.165 Y40.511 Z-3.673
X-8.177 Y40.471 Z-3.629
X-8.187 Y40.44 Z-3.578
X-8.193 Y40.419 Z-3.522
X-8.197 Y40.408 Z-3.463
Y40.406 Z-3.432
G0 Z5
X-7.554 Y40.356
Z-1.25
G3 X-8.447 Y40.244 Z-1.299 I-0.446 J-0.056 F283.3
X-7.554 Y40.356 Z-1.349 I0.446 J0.056
X-8.447 Y40.244 Z-1.398 I-0.446 J-0.056
X-7.554 Y40.356 Z-1.447 I0.446 J0.056
X-8.447 Y40.244 Z-1.497 I-0.446 J-0.056
X-7.554 Y40.356 Z-1.546 I0.446 J0.056
X-8.447 Y40.244 Z-1.596 I-0.446 J-0.056
X-7.554 Y40.356 Z-1.645 I0.446 J0.056
X-8.447 Y40.244 Z-1.694 I-0.446 J-0.056
X-7.554 Y40.356 Z-1.744 I0.446 J0.056
X-8.447 Y40.244 Z-1.793 I-0.446 J-0.056
X-7.554 Y40.356 Z-1.842 I0.446 J0.056
X-8.447 Y40.244 Z-1.892 I-0.446 J-0.056
X-7.554 Y40.356 Z-1.941 I0.446 J0.056
X-8.447 Y40.244 Z-1.991 I-0.446 J-0.056
X-7.554 Y40.356 Z-2.04 I0.446 J0.056
X-8.447 Y40.244 Z-2.089 I-0.446 J-0.056
X-7.554 Y40.356 Z-2.139 I0.446 J0.056
X-8.447 Y40.244 Z-2.188 I-0.446 J-0.056
X-7.554 Y40.356 Z-2.237 I0.446 J0.056
X-8.447 Y40.244 Z-2.287 I-0.446 J-0.056
X-7.554 Y40.356 Z-2.336 I0.446 J0.056
X-8.447 Y40.244 Z-2.385 I-0.446 J-0.056
X-7.554 Y40.356 Z-2.435 I0.446 J0.056
X-8.447 Y40.244 Z-2.484 I-0.446 J-0.056
X-7.554 Y40.356 Z-2.534 I0.446 J0.056
X-8.447 Y40.244 Z-2.583 I-0.446 J-0.056
X-7.554 Y40.356 Z-2.632 I0.446 J0.056
X-8.447 Y40.244 Z-2.682 I-0.446 J-0.056
X-7.554 Y40.356 Z-2.731 I0.446 J0.056
X-8.447 Y40.244 Z-2.78 I-0.446 J-0.056
X-7.554 Y40.356 Z-2.83 I0.446 J0.056
X-8.447 Y40.244 Z-2.879 I-0.446 J-0.056
X-7.554 Y40.356 Z-2.929 I0.446 J0.056
X-8.447 Y40.244 Z-2.978 I-0.446 J-0.056
X-7.554 Y40.356 Z-3.027 I0.446 J0.056
X-8.447 Y40.244 Z-3.077 I-0.446 J-0.056
X-7.554 Y40.356 Z-3.126 I0.446 J0.056
X-8.447 Y40.244 Z-3.175 I-0.446 J-0.056
X-7.554 Y40.356 Z-3.225 I0.446 J0.056
X-8.447 Y40.244 Z-3.274 I-0.446 J-0.056
X-7.554 Y40.356 Z-3.323 I0.446 J0.056
X-8.447 Y40.244 Z-3.373 I-0.446 J-0.056
X-7.554 Y40.356 Z-3.422 I0.446 J0.056
X-8.447 Y40.244 Z-3.472 I-0.446 J-0.056
X-7.554 Y40.356 Z-3.521 I0.446 J0.056
X-8.447 Y40.244 Z-3.57 I-0.446 J-0.056
X-7.554 Y40.356 Z-3.62 I0.446 J0.056
X-8.447 Y40.244 Z-3.669 I-0.446 J-0.056
X-7.554 Y40.356 Z-3.718 I0.446 J0.056
X-8.447 Y40.244 Z-3.768 I-0.446 J-0.056
X-7.554 Y40.356 Z-3.817 I0.446 J0.056
X-8.447 Y40.244 Z-3.867 I-0.446 J-0.056
X-7.554 Y40.356 Z-3.916 I0.446 J0.056
X-8.447 Y40.244 Z-3.965 I-0.446 J-0.056
X-7.554 Y40.356 Z-4.015 I0.446 J0.056
X-8.447 Y40.244 Z-4.064 I-0.446 J-0.056
X-7.554 Y40.356 Z-4.113 I0.446 J0.056
X-8.447 Y40.244 Z-4.163 I-0.446 J-0.056
X-7.554 Y40.356 Z-4.212 I0.446 J0.056
X-8.447 Y40.244 Z-4.261 I-0.446 J-0.056
X-7.554 Y40.356 Z-4.311 I0.446 J0.056
X-8.447 Y40.244 Z-4.36 I-0.446 J-0.056
X-7.554 Y40.356 Z-4.41 I0.446 J0.056
X-8.447 Y40.244 Z-4.459 I-0.446 J-0.056
X-7.554 Y40.356 Z-4.508 I0.446 J0.056
X-8.447 Y40.244 Z-4.558 I-0.446 J-0.056
X-7.554 Y40.356 Z-4.607 I0.446 J0.056
X-8.447 Y40.244 Z-4.656 I-0.446 J-0.056
X-7.554 Y40.356 Z-4.706 I0.446 J0.056
X-8.447 Y40.244 Z-4.755 I-0.446 J-0.056
X-7.554 Y40.356 Z-4.805 I0.446 J0.056
X-8.447 Y40.244 Z-4.854 I-0.446 J-0.056
X-7.554 Y40.356 Z-4.903 I0.446 J0.056
X-8.447 Y40.244 Z-4.953 I-0.446 J-0.056
X-7.551 Y40.3 Z-5 I0.446 J0.056
X-8.451 I-0.45
X-7.551 I0.45
G1 X-7.553 Y40.397 F850
X-7.577 Y40.491
X-7.621 Y40.577
X-7.629 Y40.589
X-7.653 Y40.62
X-7.684 Y40.65
X-7.734 Y40.687
X-7.807 Y40.73
X-7.844 Y40.745
X-7.88 Y40.755
X-7.953 Y40.769
X-7.99 Y40.772
X-8.026
X-8.099 Y40.759
X-8.136 Y40.751
X-8.172 Y40.739
X-8.208 Y40.722
X-8.244 Y40.702
X-8.318 Y40.648
X-8.353 Y40.612
X-8.38 Y40.576
X-8.425 Y40.504
X-8.44 Y40.472
X-8.451 Y40.439
X-8.467 Y40.358
X-8.472 Y40.292
X-8.47 Y40.259
X-8.461 Y40.212
X-8.443 Y40.139
X-8.429 Y40.103
X-8.409 Y40.067
X-8.371 Y40.01
X-8.347 Y39.982
X-8.318 Y39.953
X-8.278 Y39.921
X-8.225 Y39.887
X-8.172 Y39.861
X-8.136 Y39.849
X-8.099 Y39.841
X-8.026 Y39.828
X-7.99
X-7.953 Y39.831
X-7.88 Y39.845
X-7.844 Y39.855
X-7.807 Y39.87
X-7.734 Y39.913
X-7.722 Y39.921
X-7.682 Y39.953
X-7.642 Y39.994
X-7.589 Y40.071
X-7.57 Y40.106
X-7.556 Y40.142
X-7.539 Y40.212
X-7.528 Y40.285
X-7.529 Y40.322
X-7.533 Y40.358
X-7.547 Y40.431
X-7.558 Y40.468
X-7.575 Y40.504
X-7.589 Y40.528
X-7.621 Y40.577
G3 X-7.878 Y40.709 I-0.258 J-0.186
G1 X-7.879
X-7.934 Y40.704
X-7.988 Y40.69
X-8.038 Y40.667
X-8.077 Y40.629 Z-4.995
X-8.115 Y40.592 Z-4.981
X-8.15 Y40.557 Z-4.958
X-8.165 Y40.511 Z-4.923
X-8.177 Y40.471 Z-4.879
X-8.187 Y40.44 Z-4.828
X-8.193 Y40.419 Z-4.772
X-8.197 Y40.408 Z-4.713
Y40.406 Z-4.682
G0 Z5
X-7.554 Y40.356
Z-2.5
G3 X-8.447 Y40.244 Z-2.549 I-0.446 J-0.056 F283.3
X-7.554 Y40.356 Z-2.599 I0.446 J0.056
X-8.447 Y40.244 Z-2.648 I-0.446 J-0.056
X-7.554 Y40.356 Z-2.697 I0.446 J0.056
X-8.447 Y40.244 Z-2.747 I-0.446 J-0.056
X-7.554 Y40.356 Z-2.796 I0.446 J0.056
X-8.447 Y40.244 Z-2.846 I-0.446 J-0.056
X-7.554 Y40.356 Z-2.895 I0.446 J0.056
X-8.447 Y40.244 Z-2.944 I-0.446 J-0.056
X-7.554 Y40.356 Z-2.994 I0.446 J0.056
X-8.447 Y40.244 Z-3.043 I-0.446 J-0.056
X-7.554 Y40.356 Z-3.092 I0.446 J0.056
X-8.447 Y40.244 Z-3.142 I-0.446 J-0.056
X-7.554 Y40.356 Z-3.191 I0.446 J0.056
X-8.447 Y40.244 Z-3.241 I-0.446 J-0.056
X-7.554 Y40.356 Z-3.29 I0.446 J0.056
X-8.447 Y40.244 Z-3.339 I-0.446 J-0.056
X-7.554 Y40.356 Z-3.389 I0.446 J0.056
X-8.447 Y40.244 Z-3.438 I-0.446 J-0.056
X-7.554 Y40.356 Z-3.487 I0.446 J0.056
X-8.447 Y40.244 Z-3.537 I-0.446 J-0.056
X-7.554 Y40.356 Z-3.586 I0.446 J0.056
X-8.447 Y40.244 Z-3.635 I-0.446 J-0.056
X-7.554 Y40.356 Z-3.685 I0.446 J0.056
X-8.447 Y40.244 Z-3.734 I-0.446 J-0.056
X-7.554 Y40.356 Z-3.784 I0.446 J0.056
X-8.447 Y40.244 Z-3.833 I-0.446 J-0.056
X-7.554 Y40.356 Z-3.882 I0.446 J0.056
X-8.447 Y40.244 Z-3.932 I-0.446 J-0.056
X-7.554 Y40.356 Z-3.981 I0.446 J0.056
X-8.447 Y40.244 Z-4.03 I-0.446 J-0.056
X-7.554 Y40.356 Z-4.08 I0.446 J0.056
X-8.447 Y40.244 Z-4.129 I-0.446 J-0.056
X-7.554 Y40.356 Z-4.179 I0.446 J0.056
X-8.447 Y40.244 Z-4.228 I-0.446 J-0.056
X-7.554 Y40.356 Z-4.277 I0.446 J0.056
X-8.447 Y40.244 Z-4.327 I-0.446 J-0.056
X-7.554 Y40.356 Z-4.376 I0.446 J0.056
X-8.447 Y40.244 Z-4.425 I-0.446 J-0.056
X-7.554 Y40.356 Z-4.475 I0.446 J0.056
X-8.447 Y40.244 Z-4.524 I-0.446 J-0.056
X-7.554 Y40.356 Z-4.573 I0.446 J0.056
X-8.447 Y40.244 Z-4.623 I-0.446 J-0.056
X-7.554 Y40.356 Z-4.672 I0.446 J0.056
X-8.447 Y40.244 Z-4.722 I-0.446 J-0.056
X-7.554 Y40.356 Z-4.771 I0.446 J0.056
X-8.447 Y40.244 Z-4.82 I-0.446 J-0.056
X-7.554 Y40.356 Z-4.87 I0.446 J0.056
X-8.447 Y40.244 Z-4.919 I-0.446 J-0.056
X-7.554 Y40.356 Z-4.968 I0.446 J0.056
X-8.447 Y40.244 Z-5.018 I-0.446 J-0.056
X-7.554 Y40.356 Z-5.067 I0.446 J0.056
X-8.447 Y40.244 Z-5.117 I-0.446 J-0.056
X-7.554 Y40.356 Z-5.166 I0.446 J0.056
X-8.447 Y40.244 Z-5.215 I-0.446 J-0.056
X-7.554 Y40.356 Z-5.265 I0.446 J0.056
X-8.447 Y40.244 Z-5.314 I-0.446 J-0.056
X-7.554 Y40.356 Z-5.363 I0.446 J0.056
X-8.447 Y40.244 Z-5.413 I-0.446 J-0.056
X-7.554 Y40.356 Z-5.462 I0.446 J0.056
X-8.447 Y40.244 Z-5.511 I-0.446 J-0.056
X-7.554 Y40.356 Z-5.561 I0.446 J0.056
X-8.447 Y40.244 Z-5.61 I-0.446 J-0.056
X-7.554 Y40.356 Z-5.66 I0.446 J0.056
X-8.447 Y40.244 Z-5.709 I-0.446 J-0.056
X-7.554 Y40.356 Z-5.758 I0.446 J0.056
X-8.447 Y40.244 Z-5.808 I-0.446 J-0.056
X-7.554 Y40.356 Z-5.857 I0.446 J0.056
X-8.447 Y40.244 Z-5.906 I-0.446 J-0.056
X-7.554 Y40.356 Z-5.956 I0.446 J0.056
X-8.447 Y40.244 Z-6.005 I-0.446 J-0.056
X-7.554 Y40.356 Z-6.055 I0.446 J0.056
X-8.447 Y40.244 Z-6.104 I-0.446 J-0.056
X-7.554 Y40.356 Z-6.153 I0.446 J0.056
X-8.447 Y40.244 Z-6.203 I-0.446 J-0.056
X-7.551 Y40.3 Z-6.25 I0.446 J0.056
X-8.451 I-0.45
X-7.551 I0.45
G1 X-7.553 Y40.397 F850
X-7.577 Y40.491
X-7.621 Y40.577
X-7.629 Y40.589
X-7.653 Y40.62
X-7.684 Y40.65
X-7.734 Y40.687
X-7.807 Y40.73
X-7.844 Y40.745
X-7.88 Y40.755
X-7.953 Y40.769
X-7.99 Y40.772
X-8.026
X-8.099 Y40.759
X-8.136 Y40.751
X-8.172 Y40.739
X-8.208 Y40.722
X-8.244 Y40.702
X-8.318 Y40.648
X-8.353 Y40.612
X-8.38 Y40.576
X-8.425 Y40.504
X-8.44 Y40.472
X-8.451 Y40.439
X-8.467 Y40.358
X-8.472 Y40.292
X-8.47 Y40.259
X-8.461 Y40.212
X-8.443 Y40.139
X-8.429 Y40.103
X-8.409 Y40.067
X-8.371 Y40.01
X-8.347 Y39.982
X-8.318 Y39.953
X-8.278 Y39.921
X-8.225 Y39.887
X-8.172 Y39.861
X-8.136 Y39.849
X-8.099 Y39.841
X-8.026 Y39.828
X-7.99
X-7.953 Y39.831
X-7.88 Y39.845
X-7.844 Y39.855
X-7.807 Y39.87
X-7.734 Y39.913
X-7.722 Y39.921
X-7.682 Y39.953
X-7.642 Y39.994
X-7.589 Y40.071
X-7.57 Y40.106
X-7.556 Y40.142
X-7.539 Y40.212
X-7.528 Y40.285
X-7.529 Y40.322
X-7.533 Y40.358
X-7.547 Y40.431
X-7.558 Y40.468
X-7.575 Y40.504
X-7.589 Y40.528
X-7.621 Y40.577
G3 X-7.878 Y40.709 I-0.258 J-0.186
G1 X-7.879
X-7.934 Y40.704
X-7.988 Y40.69
X-8.038 Y40.667
X-8.077 Y40.629 Z-6.245
X-8.115 Y40.592 Z-6.231
X-8.15 Y40.557 Z-6.208
X-8.165 Y40.511 Z-6.173
X-8.177 Y40.471 Z-6.129
X-8.187 Y40.44 Z-6.078
X-8.193 Y40.419 Z-6.022
X-8.197 Y40.408 Z-5.963
Y40.406 Z-5.932
G0 Z5
X-7.703 Y40.638
Z-3.75
G3 X-8.298 Y39.962 Z-3.799 I-0.297 J-0.338 F283.3
X-7.703 Y40.638 Z-3.849 I0.297 J0.338
X-8.298 Y39.962 Z-3.898 I-0.297 J-0.338
X-7.703 Y40.638 Z-3.947 I0.297 J0.338
X-8.298 Y39.962 Z-3.997 I-0.297 J-0.338
X-7.703 Y40.638 Z-4.046 I0.297 J0.338
X-8.298 Y39.962 Z-4.096 I-0.297 J-0.338
X-7.703 Y40.638 Z-4.145 I0.297 J0.338
X-8.298 Y39.962 Z-4.194 I-0.297 J-0.338
X-7.703 Y40.638 Z-4.244 I0.297 J0.338
X-8.298 Y39.962 Z-4.293 I-0.297 J-0.338
X-7.703 Y40.638 Z-4.342 I0.297 J0.338
X-8.298 Y39.962 Z-4.392 I-0.297 J-0.338
X-7.703 Y40.638 Z-4.441 I0.297 J0.338
X-8.298 Y39.962 Z-4.491 I-0.297 J-0.338
X-7.703 Y40.638 Z-4.54 I0.297 J0.338
X-8.298 Y39.962 Z-4.589 I-0.297 J-0.338
X-7.703 Y40.638 Z-4.639 I0.297 J0.338
X-8.298 Y39.962 Z-4.688 I-0.297 J-0.338
X-7.703 Y40.638 Z-4.737 I0.297 J0.338
X-8.298 Y39.962 Z-4.787 I-0.297 J-0.338
X-7.703 Y40.638 Z-4.836 I0.297 J0.338
X-8.298 Y39.962 Z-4.885 I-0.297 J-0.338
X-7.703 Y40.638 Z-4.935 I0.297 J0.338
X-8.298 Y39.962 Z-4.984 I-0.297 J-0.338
X-7.703 Y40.638 Z-5.034 I0.297 J0.338
X-8.298 Y39.962 Z-5.083 I-0.297 J-0.338
X-7.703 Y40.638 Z-5.132 I0.297 J0.338
X-8.298 Y39.962 Z-5.182 I-0.297 J-0.338
X-7.703 Y40.638 Z-5.231 I0.297 J0.338
X-8.298 Y39.962 Z-5.28 I-0.297 J-0.338
X-7.703 Y40.638 Z-5.33 I0.297 J0.338
X-8.298 Y39.962 Z-5.379 I-0.297 J-0.338
X-7.703 Y40.638 Z-5.429 I0.297 J0.338
X-8.298 Y39.962 Z-5.478 I-0.297 J-0.338
X-7.703 Y40.638 Z-5.527 I0.297 J0.338
X-8.298 Y39.962 Z-5.577 I-0.297 J-0.338
X-7.703 Y40.638 Z-5.626 I0.297 J0.338
X-8.298 Y39.962 Z-5.675 I-0.297 J-0.338
X-7.703 Y40.638 Z-5.725 I0.297 J0.338
X-8.298 Y39.962 Z-5.774 I-0.297 J-0.338
X-7.703 Y40.638 Z-5.823 I0.297 J0.338
X-8.298 Y39.962 Z-5.873 I-0.297 J-0.338
X-7.703 Y40.638 Z-5.922 I0.297 J0.338
X-8.298 Y39.962 Z-5.972 I-0.297 J-0.338
X-7.703 Y40.638 Z-6.021 I0.297 J0.338
X-8.298 Y39.962 Z-6.07 I-0.297 J-0.338
X-7.703 Y40.638 Z-6.12 I0.297 J0.338
X-8.298 Y39.962 Z-6.169 I-0.297 J-0.338
X-7.703 Y40.638 Z-6.218 I0.297 J0.338
X-8.298 Y39.962 Z-6.268 I-0.297 J-0.338
X-7.703 Y40.638 Z-6.317 I0.297 J0.338
X-8.298 Y39.962 Z-6.367 I-0.297 J-0.338
X-7.703 Y40.638 Z-6.416 I0.297 J0.338
X-8.298 Y39.962 Z-6.465 I-0.297 J-0.338
X-7.703 Y40.638 Z-6.515 I0.297 J0.338
X-8.298 Y39.962 Z-6.564 I-0.297 J-0.338
X-7.551 Y40.3 Z-6.6 I0.297 J0.338
X-8.451 I-0.45
X-7.551 I0.45
G1 X-7.553 Y40.397 F850
X-7.577 Y40.491
X-7.621 Y40.577
X-7.629 Y40.589
X-7.653 Y40.62
X-7.684 Y40.65
X-7.734 Y40.687
X-7.807 Y40.73
X-7.844 Y40.745
X-7.88 Y40.755
X-7.953 Y40.769
X-7.99 Y40.772
X-8.026
X-8.099 Y40.759
X-8.136 Y40.751
X-8.172 Y40.739
X-8.208 Y40.722
X-8.244 Y40.702
X-8.318 Y40.648
X-8.353 Y40.612
X-8.38 Y40.576
X-8.425 Y40.504
X-8.44 Y40.472
X-8.451 Y40.439
X-8.467 Y40.358
X-8.472 Y40.292
X-8.47 Y40.259
X-8.461 Y40.212
X-8.443 Y40.139
X-8.429 Y40.103
X-8.409 Y40.067
X-8.371 Y40.01
X-8.347 Y39.982
X-8.318 Y39.953
X-8.278 Y39.921
X-8.225 Y39.887
X-8.172 Y39.861
X-8.136 Y39.849
X-8.099 Y39.841
X-8.026 Y39.828
X-7.99
X-7.953 Y39.831
X-7.88 Y39.845
X-7.844 Y39.855
X-7.807 Y39.87
X-7.734 Y39.913
X-7.722 Y39.921
X-7.682 Y39.953
X-7.642 Y39.994
X-7.589 Y40.071
X-7.57 Y40.106
X-7.556 Y40.142
X-7.539 Y40.212
X-7.528 Y40.285
X-7.529 Y40.322
X-7.533 Y40.358
X-7.547 Y40.431
X-7.558 Y40.468
X-7.575 Y40.504
X-7.589 Y40.528
X-7.621 Y40.577
G3 X-7.878 Y40.709 I-0.258 J-0.186
G1 X-7.879
X-7.934 Y40.704
X-7.988 Y40.69
X-8.038 Y40.667
X-8.077 Y40.629 Z-6.595
X-8.115 Y40.592 Z-6.581
X-8.15 Y40.557 Z-6.558
X-8.165 Y40.511 Z-6.523
X-8.177 Y40.471 Z-6.479
X-8.187 Y40.44 Z-6.428
X-8.193 Y40.419 Z-6.372
X-8.197 Y40.408 Z-6.313
Y40.406 Z-6.282
G0 Z5
X12.447 Y40.356
Z2.5
G3 X11.554 Y40.244 Z2.451 I-0.446 J-0.056 F283.3
X12.447 Y40.356 Z2.401 I0.446 J0.056
X11.554 Y40.244 Z2.352 I-0.446 J-0.056
X12.447 Y40.356 Z2.303 I0.446 J0.056
X11.554 Y40.244 Z2.253 I-0.446 J-0.056
X12.447 Y40.356 Z2.204 I0.446 J0.056
X11.554 Y40.244 Z2.154 I-0.446 J-0.056
X12.447 Y40.356 Z2.105 I0.446 J0.056
X11.554 Y40.244 Z2.056 I-0.446 J-0.056
X12.447 Y40.356 Z2.006 I0.446 J0.056
X11.554 Y40.244 Z1.957 I-0.446 J-0.056
X12.447 Y40.356 Z1.908 I0.446 J0.056
X11.554 Y40.244 Z1.858 I-0.446 J-0.056
X12.447 Y40.356 Z1.809 I0.446 J0.056
X11.554 Y40.244 Z1.759 I-0.446 J-0.056
X12.447 Y40.356 Z1.71 I0.446 J0.056
X11.554 Y40.244 Z1.661 I-0.446 J-0.056
X12.447 Y40.356 Z1.611 I0.446 J0.056
X11.554 Y40.244 Z1.562 I-0.446 J-0.056
X12.447 Y40.356 Z1.513 I0.446 J0.056
X11.554 Y40.244 Z1.463 I-0.446 J-0.056
X12.447 Y40.356 Z1.414 I0.446 J0.056
X11.554 Y40.244 Z1.365 I-0.446 J-0.056
X12.447 Y40.356 Z1.315 I0.446 J0.056
X11.554 Y40.244 Z1.266 I-0.446 J-0.056
X12.447 Y40.356 Z1.216 I0.446 J0.056
X11.554 Y40.244 Z1.167 I-0.446 J-0.056
X12.447 Y40.356 Z1.118 I0.446 J0.056
X11.554 Y40.244 Z1.068 I-0.446 J-0.056
X12.447 Y40.356 Z1.019 I0.446 J0.056
X11.554 Y40.244 Z0.97 I-0.446 J-0.056
X12.447 Y40.356 Z0.92 I0.446 J0.056
X11.554 Y40.244 Z0.871 I-0.446 J-0.056
X12.447 Y40.356 Z0.821 I0.446 J0.056
X11.554 Y40.244 Z0.772 I-0.446 J-0.056
X12.447 Y40.356 Z0.723 I0.446 J0.056
X11.554 Y40.244 Z0.673 I-0.446 J-0.056
X12.447 Y40.356 Z0.624 I0.446 J0.056
X11.554 Y40.244 Z0.575 I-0.446 J-0.056
X12.447 Y40.356 Z0.525 I0.446 J0.056
X11.554 Y40.244 Z0.476 I-0.446 J-0.056
X12.447 Y40.356 Z0.427 I0.446 J0.056
X11.554 Y40.244 Z0.377 I-0.446 J-0.056
X12.447 Y40.356 Z0.328 I0.446 J0.056
X11.554 Y40.244 Z0.278 I-0.446 J-0.056
X12.447 Y40.356 Z0.229 I0.446 J0.056
X11.554 Y40.244 Z0.18 I-0.446 J-0.056
X12.447 Y40.356 Z0.13 I0.446 J0.056
X11.554 Y40.244 Z0.081 I-0.446 J-0.056
X12.447 Y40.356 Z0.032 I0.446 J0.056
X11.554 Y40.244 Z-0.018 I-0.446 J-0.056
X12.447 Y40.356 Z-0.067 I0.446 J0.056
X11.554 Y40.244 Z-0.117 I-0.446 J-0.056
X12.447 Y40.356 Z-0.166 I0.446 J0.056
X11.554 Y40.244 Z-0.215 I-0.446 J-0.056
X12.447 Y40.356 Z-0.265 I0.446 J0.056
X11.554 Y40.244 Z-0.314 I-0.446 J-0.056
X12.447 Y40.356 Z-0.363 I0.446 J0.056
X11.554 Y40.244 Z-0.413 I-0.446 J-0.056
X12.447 Y40.356 Z-0.462 I0.446 J0.056
X11.554 Y40.244 Z-0.511 I-0.446 J-0.056
X12.447 Y40.356 Z-0.561 I0.446 J0.056
X11.554 Y40.244 Z-0.61 I-0.446 J-0.056
X12.447 Y40.356 Z-0.66 I0.446 J0.056
X11.554 Y40.244 Z-0.709 I-0.446 J-0.056
X12.447 Y40.356 Z-0.758 I0.446 J0.056
X11.554 Y40.244 Z-0.808 I-0.446 J-0.056
X12.447 Y40.356 Z-0.857 I0.446 J0.056
X11.554 Y40.244 Z-0.906 I-0.446 J-0.056
X12.447 Y40.356 Z-0.956 I0.446 J0.056
X11.554 Y40.244 Z-1.005 I-0.446 J-0.056
X12.447 Y40.356 Z-1.055 I0.446 J0.056
X11.554 Y40.244 Z-1.104 I-0.446 J-0.056
X12.447 Y40.356 Z-1.153 I0.446 J0.056
X11.554 Y40.244 Z-1.203 I-0.446 J-0.056
X12.45 Y40.3 Z-1.25 I0.446 J0.056
X11.55 I-0.45
X12.45 I0.45
G1 X12.446 Y40.409 F850
X12.415 Y40.513
X12.358 Y40.606
X12.344 Y40.623
X12.316 Y40.65
X12.258 Y40.692
X12.185 Y40.733
X12.149 Y40.747
X12.112 Y40.756
X12.039 Y40.77
X12.003 Y40.773
X11.966 Y40.771
X11.894 Y40.758
X11.857 Y40.749
X11.821 Y40.736
X11.786 Y40.719
X11.752 Y40.699
X11.684 Y40.65
X11.675 Y40.642
X11.643 Y40.607
X11.618 Y40.573
X11.575 Y40.504
X11.559 Y40.468
X11.548 Y40.431
X11.533 Y40.358
X11.529 Y40.319
Y40.275
X11.539 Y40.212
X11.557 Y40.139
X11.571 Y40.103
X11.591 Y40.067
X11.627 Y40.013
X11.648 Y39.987
X11.675 Y39.96
X11.722 Y39.921
X11.772 Y39.889
X11.821 Y39.864
X11.857 Y39.851
X11.894 Y39.842
X11.966 Y39.829
X12.003 Y39.827
X12.039 Y39.83
X12.112 Y39.844
X12.149 Y39.853
X12.185 Y39.866
X12.258 Y39.908
X12.278 Y39.921
X12.316 Y39.951
X12.355 Y39.99
X12.409 Y40.067
X12.429 Y40.103
X12.443 Y40.139
X12.461 Y40.212
X12.472 Y40.285
X12.471 Y40.322
X12.467 Y40.358
X12.452 Y40.431
X12.441 Y40.468
X12.425 Y40.504
X12.404 Y40.54
X12.366 Y40.595
X12.358 Y40.606
G3 X11.934 Y40.657 I-0.24 J-0.208
G1 X11.899 Y40.616 Z-1.245
X11.865 Y40.576 Z-1.231
X11.832 Y40.539 Z-1.208
X11.821 Y40.491 Z-1.173
X11.812 Y40.451 Z-1.13
X11.805 Y40.419 Z-1.079
X11.799 Y40.397 Z-1.024
X11.8 Y40.387 Z-0.978
Y40.384 Z-0.932
G0 Z5
X12.447 Y40.356
Z1.25
G3 X11.554 Y40.244 Z1.201 I-0.446 J-0.056 F283.3
X12.447 Y40.356 Z1.151 I0.446 J0.056
X11.554 Y40.244 Z1.102 I-0.446 J-0.056
X12.447 Y40.356 Z1.053 I0.446 J0.056
X11.554 Y40.244 Z1.003 I-0.446 J-0.056
X12.447 Y40.356 Z0.954 I0.446 J0.056
X11.554 Y40.244 Z0.904 I-0.446 J-0.056
X12.447 Y40.356 Z0.855 I0.446 J0.056
X11.554 Y40.244 Z0.806 I-0.446 J-0.056
X12.447 Y40.356 Z0.756 I0.446 J0.056
X11.554 Y40.244 Z0.707 I-0.446 J-0.056
X12.447 Y40.356 Z0.658 I0.446 J0.056
X11.554 Y40.244 Z0.608 I-0.446 J-0.056
X12.447 Y40.356 Z0.559 I0.446 J0.056
X11.554 Y40.244 Z0.509 I-0.446 J-0.056
X12.447 Y40.356 Z0.46 I0.446 J0.056
X11.554 Y40.244 Z0.411 I-0.446 J-0.056
X12.447 Y40.356 Z0.361 I0.446 J0.056
X11.554 Y40.244 Z0.312 I-0.446 J-0.056
X12.447 Y40.356 Z0.263 I0.446 J0.056
X11.554 Y40.244 Z0.213 I-0.446 J-0.056
X12.447 Y40.356 Z0.164 I0.446 J0.056
X11.554 Y40.244 Z0.115 I-0.446 J-0.056
X12.447 Y40.356 Z0.065 I0.446 J0.056
X11.554 Y40.244 Z0.016 I-0.446 J-0.056
X12.447 Y40.356 Z-0.034 I0.446 J0.056
X11.554 Y40.244 Z-0.083 I-0.446 J-0.056
X12.447 Y40.356 Z-0.132 I0.446 J0.056
X11.554 Y40.244 Z-0.182 I-0.446 J-0.056
X12.447 Y40.356 Z-0.231 I0.446 J0.056
X11.554 Y40.244 Z-0.28 I-0.446 J-0.056
X12.447 Y40.356 Z-0.33 I0.446 J0.056
X11.554 Y40.244 Z-0.379 I-0.446 J-0.056
X12.447 Y40.356 Z-0.429 I0.446 J0.056
X11.554 Y40.244 Z-0.478 I-0.446 J-0.056
X12.447 Y40.356 Z-0.527 I0.446 J0.056
X11.554 Y40.244 Z-0.577 I-0.446 J-0.056
X12.447 Y40.356 Z-0.626 I0.446 J0.056
X11.554 Y40.244 Z-0.675 I-0.446 J-0.056
X12.447 Y40.356 Z-0.725 I0.446 J0.056
X11.554 Y40.244 Z-0.774 I-0.446 J-0.056
X12.447 Y40.356 Z-0.823 I0.446 J0.056
X11.554 Y40.244 Z-0.873 I-0.446 J-0.056
X12.447 Y40.356 Z-0.922 I0.446 J0.056
X11.554 Y40.244 Z-0.972 I-0.446 J-0.056
X12.447 Y40.356 Z-1.021 I0.446 J0.056
X11.554 Y40.244 Z-1.07 I-0.446 J-0.056
X12.447 Y40.356 Z-1.12 I0.446 J0.056
X11.554 Y40.244 Z-1.169 I-0.446 J-0.056
X12.447 Y40.356 Z-1.218 I0.446 J0.056
X11.554 Y40.244 Z-1.268 I-0.446 J-0.056
X12.447 Y40.356 Z-1.317 I0.446 J0.056
X11.554 Y40.244 Z-1.367 I-0.446 J-0.056
X12.447 Y40.356 Z-1.416 I0.446 J0.056
X11.554 Y40.244 Z-1.465 I-0.446 J-0.056
X12.447 Y40.356 Z-1.515 I0.446 J0.056
X11.554 Y40.244 Z-1.564 I-0.446 J-0.056
X12.447 Y40.356 Z-1.613 I0.446 J0.056
X11.554 Y40.244 Z-1.663 I-0.446 J-0.056
X12.447 Y40.356 Z-1.712 I0.446 J0.056
X11.554 Y40.244 Z-1.761 I-0.446 J-0.056
X12.447 Y40.356 Z-1.811 I0.446 J0.056
X11.554 Y40.244 Z-1.86 I-0.446 J-0.056
X12.447 Y40.356 Z-1.91 I0.446 J0.056
X11.554 Y40.244 Z-1.959 I-0.446 J-0.056
X12.447 Y40.356 Z-2.008 I0.446 J0.056
X11.554 Y40.244 Z-2.058 I-0.446 J-0.056
X12.447 Y40.356 Z-2.107 I0.446 J0.056
X11.554 Y40.244 Z-2.156 I-0.446 J-0.056
X12.447 Y40.356 Z-2.206 I0.446 J0.056
X11.554 Y40.244 Z-2.255 I-0.446 J-0.056
X12.447 Y40.356 Z-2.305 I0.446 J0.056
X11.554 Y40.244 Z-2.354 I-0.446 J-0.056
X12.447 Y40.356 Z-2.403 I0.446 J0.056
X11.554 Y40.244 Z-2.453 I-0.446 J-0.056
X12.45 Y40.3 Z-2.5 I0.446 J0.056
X11.55 I-0.45
X12.45 I0.45
G1 X12.446 Y40.409 F850
X12.415 Y40.513
X12.358 Y40.606
X12.344 Y40.623
X12.316 Y40.65
X12.258 Y40.692
X12.185 Y40.733
X12.149 Y40.747
X12.112 Y40.756
X12.039 Y40.77
X12.003 Y40.773
X11.966 Y40.771
X11.894 Y40.758
X11.857 Y40.749
X11.821 Y40.736
X11.786 Y40.719
X11.752 Y40.699
X11.684 Y40.65
X11.675 Y40.642
X11.643 Y40.607
X11.618 Y40.573
X11.575 Y40.504
X11.559 Y40.468
X11.548 Y40.431
X11.533 Y40.358
X11.529 Y40.319
Y40.275
X11.539 Y40.212
X11.557 Y40.139
X11.571 Y40.103
X11.591 Y40.067
X11.627 Y40.013
X11.648 Y39.987
X11.675 Y39.96
X11.722 Y39.921
X11.772 Y39.889
X11.821 Y39.864
X11.857 Y39.851
X11.894 Y39.842
X11.966 Y39.829
X12.003 Y39.827
X12.039 Y39.83
X12.112 Y39.844
X12.149 Y39.853
X12.185 Y39.866
X12.258 Y39.908
X12.278 Y39.921
X12.316 Y39.951
X12.355 Y39.99
X12.409 Y40.067
X12.429 Y40.103
X12.443 Y40.139
X12.461 Y40.212
X12.472 Y40.285
X12.471 Y40.322
X12.467 Y40.358
X12.452 Y40.431
X12.441 Y40.468
X12.425 Y40.504
X12.404 Y40.54
X12.366 Y40.595
X12.358 Y40.606
G3 X11.934 Y40.657 I-0.24 J-0.208
G1 X11.899 Y40.616 Z-2.495
X11.865 Y40.576 Z-2.481
X11.832 Y40.539 Z-2.458
X11.821 Y40.491 Z-2.423
X11.812 Y40.451 Z-2.38
X11.805 Y40.419 Z-2.329
X11.799 Y40.397 Z-2.274
X11.8 Y40.387 Z-2.228
Y40.384 Z-2.182
G0 Z5
X12.447 Y40.356
Z0
G3 X11.554 Y40.244 Z-0.049 I-0.446 J-0.056 F283.3
X12.447 Y40.356 Z-0.099 I0.446 J0.056
X11.554 Y40.244 Z-0.148 I-0.446 J-0.056
X12.447 Y40.356 Z-0.197 I0.446 J0.056
X11.554 Y40.244 Z-0.247 I-0.446 J-0.056
X12.447 Y40.356 Z-0.296 I0.446 J0.056
X11.554 Y40.244 Z-0.346 I-0.446 J-0.056
X12.447 Y40.356 Z-0.395 I0.446 J0.056
X11.554 Y40.244 Z-0.444 I-0.446 J-0.056
X12.447 Y40.356 Z-0.494 I0.446 J0.056
X11.554 Y40.244 Z-0.543 I-0.446 J-0.056
X12.447 Y40.356 Z-0.592 I0.446 J0.056
X11.554 Y40.244 Z-0.642 I-0.446 J-0.056
X12.447 Y40.356 Z-0.691 I0.446 J0.056
X11.554 Y40.244 Z-0.741 I-0.446 J-0.056
X12.447 Y40.356 Z-0.79 I0.446 J0.056
X11.554 Y40.244 Z-0.839 I-0.446 J-0.056
X12.447 Y40.356 Z-0.889 I0.446 J0.056
X11.554 Y40.244 Z-0.938 I-0.446 J-0.056
X12.447 Y40.356 Z-0.987 I0.446 J0.056
X11.554 Y40.244 Z-1.037 I-0.446 J-0.056
X12.447 Y40.356 Z-1.086 I0.446 J0.056
X11.554 Y40.244 Z-1.135 I-0.446 J-0.056
X12.447 Y40.356 Z-1.185 I0.446 J0.056
X11.554 Y40.244 Z-1.234 I-0.446 J-0.056
X12.447 Y40.356 Z-1.284 I0.446 J0.056
X11.554 Y40.244 Z-1.333 I-0.446 J-0.056
X12.447 Y40.356 Z-1.382 I0.446 J0.056
X11.554 Y40.244 Z-1.432 I-0.446 J-0.056
X12.447 Y40.356 Z-1.481 I0.446 J0.056
X11.554 Y40.244 Z-1.53 I-0.446 J-0.056
X12.447 Y40.356 Z-1.58 I0.446 J0.056
X11.554 Y40.244 Z-1.629 I-0.446 J-0.056
X12.447 Y40.356 Z-1.679 I0.446 J0.056
X11.554 Y40.244 Z-1.728 I-0.446 J-0.056
X12.447 Y40.356 Z-1.777 I0.446 J0.056
X11.554 Y40.244 Z-1.827 I-0.446 J-0.056
X12.447 Y40.356 Z-1.876 I0.446 J0.056
X11.554 Y40.244 Z-1.925 I-0.446 J-0.056
X12.447 Y40.356 Z-1.975 I0.446 J0.056
X11.554 Y40.244 Z-2.024 I-0.446 J-0.056
X12.447 Y40.356 Z-2.073 I0.446 J0.056
X11.554 Y40.244 Z-2.123 I-0.446 J-0.056
X12.447 Y40.356 Z-2.172 I0.446 J0.056
X11.554 Y40.244 Z-2.222 I-0.446 J-0.056
X12.447 Y40.356 Z-2.271 I0.446 J0.056
X11.554 Y40.244 Z-2.32 I-0.446 J-0.056
X12.447 Y40.356 Z-2.37 I0.446 J0.056
X11.554 Y40.244 Z-2.419 I-0.446 J-0.056
X12.447 Y40.356 Z-2.468 I0.446 J0.056
X11.554 Y40.244 Z-2.518 I-0.446 J-0.056
X12.447 Y40.356 Z-2.567 I0.446 J0.056
X11.554 Y40.244 Z-2.617 I-0.446 J-0.056
X12.447 Y40.356 Z-2.666 I0.446 J0.056
X11.554 Y40.244 Z-2.715 I-0.446 J-0.056
X12.447 Y40.356 Z-2.765 I0.446 J0.056
X11.554 Y40.244 Z-2.814 I-0.446 J-0.056
X12.447 Y40.356 Z-2.863 I0.446 J0.056
X11.554 Y40.244 Z-2.913 I-0.446 J-0.056
X12.447 Y40.356 Z-2.962 I0.446 J0.056
X11.554 Y40.244 Z-3.011 I-0.446 J-0.056
X12.447 Y40.356 Z-3.061 I0.446 J0.056
X11.554 Y40.244 Z-3.11 I-0.446 J-0.056
X12.447 Y40.356 Z-3.16 I0.446 J0.056
X11.554 Y40.244 Z-3.209 I-0.446 J-0.056
X12.447 Y40.356 Z-3.258 I0.446 J0.056
X11.554 Y40.244 Z-3.308 I-0.446 J-0.056
X12.447 Y40.356 Z-3.357 I0.446 J0.056
X11.554 Y40.244 Z-3.406 I-0.446 J-0.056
X12.447 Y40.356 Z-3.456 I0.446 J0.056
X11.554 Y40.244 Z-3.505 I-0.446 J-0.056
X12.447 Y40.356 Z-3.555 I0.446 J0.056
X11.554 Y40.244 Z-3.604 I-0.446 J-0.056
X12.447 Y40.356 Z-3.653 I0.446 J0.056
X11.554 Y40.244 Z-3.703 I-0.446 J-0.056
X12.45 Y40.3 Z-3.75 I0.446 J0.056
X11.55 I-0.45
X12.45 I0.45
G1 X12.446 Y40.409 F850
X12.415 Y40.513
X12.358 Y40.606
X12.344 Y40.623
X12.316 Y40.65
X12.258 Y40.692
X12.185 Y40.733
X12.149 Y40.747
X12.112 Y40.756
X12.039 Y40.77
X12.003 Y40.773
X11.966 Y40.771
X11.894 Y40.758
X11.857 Y40.749
X11.821 Y40.736
X11.786 Y40.719
X11.752 Y40.699
X11.684 Y40.65
X11.675 Y40.642
X11.643 Y40.607
X11.618 Y40.573
X11.575 Y40.504
X11.559 Y40.468
X11.548 Y40.431
X11.533 Y40.358
X11.529 Y40.319
Y40.275
X11.539 Y40.212
X11.557 Y40.139
X11.571 Y40.103
X11.591 Y40.067
X11.627 Y40.013
X11.648 Y39.987
X11.675 Y39.96
X11.722 Y39.921
X11.772 Y39.889
X11.821 Y39.864
X11.857 Y39.851
X11.894 Y39.842
X11.966 Y39.829
X12.003 Y39.827
X12.039 Y39.83
X12.112 Y39.844
X12.149 Y39.853
X12.185 Y39.866
X12.258 Y39.908
X12.278 Y39.921
X12.316 Y39.951
X12.355 Y39.99
X12.409 Y40.067
X12.429 Y40.103
X12.443 Y40.139
X12.461 Y40.212
X12.472 Y40.285
X12.471 Y40.322
X12.467 Y40.358
X12.452 Y40.431
X12.441 Y40.468
X12.425 Y40.504
X12.404 Y40.54
X12.366 Y40.595
X12.358 Y40.606
G3 X11.934 Y40.657 I-0.24 J-0.208
G1 X11.899 Y40.616 Z-3.745
X11.865 Y40.576 Z-3.731
X11.832 Y40.539 Z-3.708
X11.821 Y40.491 Z-3.673
X11.812 Y40.451 Z-3.63
X11.805 Y40.419 Z-3.579
X11.799 Y40.397 Z-3.524
X11.8 Y40.387 Z-3.478
Y40.384 Z-3.432
G0 Z5
X12.447 Y40.356
Z-1.25
G3 X11.554 Y40.244 Z-1.299 I-0.446 J-0.056 F283.3
X12.447 Y40.356 Z-1.349 I0.446 J0.056
X11.554 Y40.244 Z-1.398 I-0.446 J-0.056
X12.447 Y40.356 Z-1.447 I0.446 J0.056
X11.554 Y40.244 Z-1.497 I-0.446 J-0.056
X12.447 Y40.356 Z-1.546 I0.446 J0.056
X11.554 Y40.244 Z-1.596 I-0.446 J-0.056
X12.447 Y40.356 Z-1.645 I0.446 J0.056
X11.554 Y40.244 Z-1.694 I-0.446 J-0.056
X12.447 Y40.356 Z-1.744 I0.446 J0.056
X11.554 Y40.244 Z-1.793 I-0.446 J-0.056
X12.447 Y40.356 Z-1.842 I0.446 J0.056
X11.554 Y40.244 Z-1.892 I-0.446 J-0.056
X12.447 Y40.356 Z-1.941 I0.446 J0.056
X11.554 Y40.244 Z-1.991 I-0.446 J-0.056
X12.447 Y40.356 Z-2.04 I0.446 J0.056
X11.554 Y40.244 Z-2.089 I-0.446 J-0.056
X12.447 Y40.356 Z-2.139 I0.446 J0.056
X11.554 Y40.244 Z-2.188 I-0.446 J-0.056
X12.447 Y40.356 Z-2.237 I0.446 J0.056
X11.554 Y40.244 Z-2.287 I-0.446 J-0.056
X12.447 Y40.356 Z-2.336 I0.446 J0.056
X11.554 Y40.244 Z-2.385 I-0.446 J-0.056
X12.447 Y40.356 Z-2.435 I0.446 J0.056
X11.554 Y40.244 Z-2.484 I-0.446 J-0.056
X12.447 Y40.356 Z-2.534 I0.446 J0.056
X11.554 Y40.244 Z-2.583 I-0.446 J-0.056
X12.447 Y40.356 Z-2.632 I0.446 J0.056
X11.554 Y40.244 Z-2.682 I-0.446 J-0.056
X12.447 Y40.356 Z-2.731 I0.446 J0.056
X11.554 Y40.244 Z-2.78 I-0.446 J-0.056
X12.447 Y40.356 Z-2.83 I0.446 J0.056
X11.554 Y40.244 Z-2.879 I-0.446 J-0.056
X12.447 Y40.356 Z-2.929 I0.446 J0.056
X11.554 Y40.244 Z-2.978 I-0.446 J-0.056
X12.447 Y40.356 Z-3.027 I0.446 J0.056
X11.554 Y40.244 Z-3.077 I-0.446 J-0.056
X12.447 Y40.356 Z-3.126 I0.446 J0.056
X11.554 Y40.244 Z-3.175 I-0.446 J-0.056
X12.447 Y40.356 Z-3.225 I0.446 J0.056
X11.554 Y40.244 Z-3.274 I-0.446 J-0.056
X12.447 Y40.356 Z-3.323 I0.446 J0.056
X11.554 Y40.244 Z-3.373 I-0.446 J-0.056
X12.447 Y40.356 Z-3.422 I0.446 J0.056
X11.554 Y40.244 Z-3.472 I-0.446 J-0.056
X12.447 Y40.356 Z-3.521 I0.446 J0.056
X11.554 Y40.244 Z-3.57 I-0.446 J-0.056
X12.447 Y40.356 Z-3.62 I0.446 J0.056
X11.554 Y40.244 Z-3.669 I-0.446 J-0.056
X12.447 Y40.356 Z-3.718 I0.446 J0.056
X11.554 Y40.244 Z-3.768 I-0.446 J-0.056
X12.447 Y40.356 Z-3.817 I0.446 J0.056
X11.554 Y40.244 Z-3.867 I-0.446 J-0.056
X12.447 Y40.356 Z-3.916 I0.446 J0.056
X11.554 Y40.244 Z-3.965 I-0.446 J-0.056
X12.447 Y40.356 Z-4.015 I0.446 J0.056
X11.554 Y40.244 Z-4.064 I-0.446 J-0.056
X12.447 Y40.356 Z-4.113 I0.446 J0.056
X11.554 Y40.244 Z-4.163 I-0.446 J-0.056
X12.447 Y40.356 Z-4.212 I0.446 J0.056
X11.554 Y40.244 Z-4.261 I-0.446 J-0.056
X12.447 Y40.356 Z-4.311 I0.446 J0.056
X11.554 Y40.244 Z-4.36 I-0.446 J-0.056
X12.447 Y40.356 Z-4.41 I0.446 J0.056
X11.554 Y40.244 Z-4.459 I-0.446 J-0.056
X12.447 Y40.356 Z-4.508 I0.446 J0.056
X11.554 Y40.244 Z-4.558 I-0.446 J-0.056
X12.447 Y40.356 Z-4.607 I0.446 J0.056
X11.554 Y40.244 Z-4.656 I-0.446 J-0.056
X12.447 Y40.356 Z-4.706 I0.446 J0.056
X11.554 Y40.244 Z-4.755 I-0.446 J-0.056
X12.447 Y40.356 Z-4.805 I0.446 J0.056
X11.554 Y40.244 Z-4.854 I-0.446 J-0.056
X12.447 Y40.356 Z-4.903 I0.446 J0.056
X11.554 Y40.244 Z-4.953 I-0.446 J-0.056
X12.45 Y40.3 Z-5 I0.446 J0.056
X11.55 I-0.45
X12.45 I0.45
G1 X12.446 Y40.409 F850
X12.415 Y40.513
X12.358 Y40.606
X12.344 Y40.623
X12.316 Y40.65
X12.258 Y40.692
X12.185 Y40.733
X12.149 Y40.747
X12.112 Y40.756
X12.039 Y40.77
X12.003 Y40.773
X11.966 Y40.771
X11.894 Y40.758
X11.857 Y40.749
X11.821 Y40.736
X11.786 Y40.719
X11.752 Y40.699
X11.684 Y40.65
X11.675 Y40.642
X11.643 Y40.607
X11.618 Y40.573
X11.575 Y40.504
X11.559 Y40.468
X11.548 Y40.431
X11.533 Y40.358
X11.529 Y40.319
Y40.275
X11.539 Y40.212
X11.557 Y40.139
X11.571 Y40.103
X11.591 Y40.067
X11.627 Y40.013
X11.648 Y39.987
X11.675 Y39.96
X11.722 Y39.921
X11.772 Y39.889
X11.821 Y39.864
X11.857 Y39.851
X11.894 Y39.842
X11.966 Y39.829
X12.003 Y39.827
X12.039 Y39.83
X12.112 Y39.844
X12.149 Y39.853
X12.185 Y39.866
X12.258 Y39.908
X12.278 Y39.921
X12.316 Y39.951
X12.355 Y39.99
X12.409 Y40.067
X12.429 Y40.103
X12.443 Y40.139
X12.461 Y40.212
X12.472 Y40.285
X12.471 Y40.322
X12.467 Y40.358
X12.452 Y40.431
X12.441 Y40.468
X12.425 Y40.504
X12.404 Y40.54
X12.366 Y40.595
X12.358 Y40.606
G3 X11.934 Y40.657 I-0.24 J-0.208
G1 X11.899 Y40.616 Z-4.995
X11.865 Y40.576 Z-4.981
X11.832 Y40.539 Z-4.958
X11.821 Y40.491 Z-4.923
X11.812 Y40.451 Z-4.88
X11.805 Y40.419 Z-4.829
X11.799 Y40.397 Z-4.774
X11.8 Y40.387 Z-4.728
Y40.384 Z-4.682
G0 Z5
X12.447 Y40.356
Z-2.5
G3 X11.554 Y40.244 Z-2.549 I-0.446 J-0.056 F283.3
X12.447 Y40.356 Z-2.599 I0.446 J0.056
X11.554 Y40.244 Z-2.648 I-0.446 J-0.056
X12.447 Y40.356 Z-2.697 I0.446 J0.056
X11.554 Y40.244 Z-2.747 I-0.446 J-0.056
X12.447 Y40.356 Z-2.796 I0.446 J0.056
X11.554 Y40.244 Z-2.846 I-0.446 J-0.056
X12.447 Y40.356 Z-2.895 I0.446 J0.056
X11.554 Y40.244 Z-2.944 I-0.446 J-0.056
X12.447 Y40.356 Z-2.994 I0.446 J0.056
X11.554 Y40.244 Z-3.043 I-0.446 J-0.056
X12.447 Y40.356 Z-3.092 I0.446 J0.056
X11.554 Y40.244 Z-3.142 I-0.446 J-0.056
X12.447 Y40.356 Z-3.191 I0.446 J0.056
X11.554 Y40.244 Z-3.241 I-0.446 J-0.056
X12.447 Y40.356 Z-3.29 I0.446 J0.056
X11.554 Y40.244 Z-3.339 I-0.446 J-0.056
X12.447 Y40.356 Z-3.389 I0.446 J0.056
X11.554 Y40.244 Z-3.438 I-0.446 J-0.056
X12.447 Y40.356 Z-3.487 I0.446 J0.056
X11.554 Y40.244 Z-3.537 I-0.446 J-0.056
X12.447 Y40.356 Z-3.586 I0.446 J0.056
X11.554 Y40.244 Z-3.635 I-0.446 J-0.056
X12.447 Y40.356 Z-3.685 I0.446 J0.056
X11.554 Y40.244 Z-3.734 I-0.446 J-0.056
X12.447 Y40.356 Z-3.784 I0.446 J0.056
X11.554 Y40.244 Z-3.833 I-0.446 J-0.056
X12.447 Y40.356 Z-3.882 I0.446 J0.056
X11.554 Y40.244 Z-3.932 I-0.446 J-0.056
X12.447 Y40.356 Z-3.981 I0.446 J0.056
X11.554 Y40.244 Z-4.03 I-0.446 J-0.056
X12.447 Y40.356 Z-4.08 I0.446 J0.056
X11.554 Y40.244 Z-4.129 I-0.446 J-0.056
X12.447 Y40.356 Z-4.179 I0.446 J0.056
X11.554 Y40.244 Z-4.228 I-0.446 J-0.056
X12.447 Y40.356 Z-4.277 I0.446 J0.056
X11.554 Y40.244 Z-4.327 I-0.446 J-0.056
X12.447 Y40.356 Z-4.376 I0.446 J0.056
X11.554 Y40.244 Z-4.425 I-0.446 J-0.056
X12.447 Y40.356 Z-4.475 I0.446 J0.056
X11.554 Y40.244 Z-4.524 I-0.446 J-0.056
X12.447 Y40.356 Z-4.573 I0.446 J0.056
X11.554 Y40.244 Z-4.623 I-0.446 J-0.056
X12.447 Y40.356 Z-4.672 I0.446 J0.056
X11.554 Y40.244 Z-4.722 I-0.446 J-0.056
X12.447 Y40.356 Z-4.771 I0.446 J0.056
X11.554 Y40.244 Z-4.82 I-0.446 J-0.056
X12.447 Y40.356 Z-4.87 I0.446 J0.056
X11.554 Y40.244 Z-4.919 I-0.446 J-0.056
X12.447 Y40.356 Z-4.968 I0.446 J0.056
X11.554 Y40.244 Z-5.018 I-0.446 J-0.056
X12.447 Y40.356 Z-5.067 I0.446 J0.056
X11.554 Y40.244 Z-5.117 I-0.446 J-0.056
X12.447 Y40.356 Z-5.166 I0.446 J0.056
X11.554 Y40.244 Z-5.215 I-0.446 J-0.056
X12.447 Y40.356 Z-5.265 I0.446 J0.056
X11.554 Y40.244 Z-5.314 I-0.446 J-0.056
X12.447 Y40.356 Z-5.363 I0.446 J0.056
X11.554 Y40.244 Z-5.413 I-0.446 J-0.056
X12.447 Y40.356 Z-5.462 I0.446 J0.056
X11.554 Y40.244 Z-5.511 I-0.446 J-0.056
X12.447 Y40.356 Z-5.561 I0.446 J0.056
X11.554 Y40.244 Z-5.61 I-0.446 J-0.056
X12.447 Y40.356 Z-5.66 I0.446 J0.056
X11.554 Y40.244 Z-5.709 I-0.446 J-0.056
X12.447 Y40.356 Z-5.758 I0.446 J0.056
X11.554 Y40.244 Z-5.808 I-0.446 J-0.056
X12.447 Y40.356 Z-5.857 I0.446 J0.056
X11.554 Y40.244 Z-5.906 I-0.446 J-0.056
X12.447 Y40.356 Z-5.956 I0.446 J0.056
X11.554 Y40.244 Z-6.005 I-0.446 J-0.056
X12.447 Y40.356 Z-6.055 I0.446 J0.056
X11.554 Y40.244 Z-6.104 I-0.446 J-0.056
X12.447 Y40.356 Z-6.153 I0.446 J0.056
X11.554 Y40.244 Z-6.203 I-0.446 J-0.056
X12.45 Y40.3 Z-6.25 I0.446 J0.056
X11.55 I-0.45
X12.45 I0.45
G1 X12.446 Y40.409 F850
X12.415 Y40.513
X12.358 Y40.606
X12.344 Y40.623
X12.316 Y40.65
X12.258 Y40.692
X12.185 Y40.733
X12.149 Y40.747
X12.112 Y40.756
X12.039 Y40.77
X12.003 Y40.773
X11.966 Y40.771
X11.894 Y40.758
X11.857 Y40.749
X11.821 Y40.736
X11.786 Y40.719
X11.752 Y40.699
X11.684 Y40.65
X11.675 Y40.642
X11.643 Y40.607
X11.618 Y40.573
X11.575 Y40.504
X11.559 Y40.468
X11.548 Y40.431
X11.533 Y40.358
X11.529 Y40.319
Y40.275
X11.539 Y40.212
X11.557 Y40.139
X11.571 Y40.103
X11.591 Y40.067
X11.627 Y40.013
X11.648 Y39.987
X11.675 Y39.96
X11.722 Y39.921
X11.772 Y39.889
X11.821 Y39.864
X11.857 Y39.851
X11.894 Y39.842
X11.966 Y39.829
X12.003 Y39.827
X12.039 Y39.83
X12.112 Y39.844
X12.149 Y39.853
X12.185 Y39.866
X12.258 Y39.908
X12.278 Y39.921
X12.316 Y39.951
X12.355 Y39.99
X12.409 Y40.067
X12.429 Y40.103
X12.443 Y40.139
X12.461 Y40.212
X12.472 Y40.285
X12.471 Y40.322
X12.467 Y40.358
X12.452 Y40.431
X12.441 Y40.468
X12.425 Y40.504
X12.404 Y40.54
X12.366 Y40.595
X12.358 Y40.606
G3 X11.934 Y40.657 I-0.24 J-0.208
G1 X11.899 Y40.616 Z-6.245
X11.865 Y40.576 Z-6.231
X11.832 Y40.539 Z-6.208
X11.821 Y40.491 Z-6.173
X11.812 Y40.451 Z-6.13
X11.805 Y40.419 Z-6.079
X11.799 Y40.397 Z-6.024
X11.8 Y40.387 Z-5.978
Y40.384 Z-5.932
G0 Z5
X12.297 Y40.638
Z-3.75
G3 X11.703 Y39.962 Z-3.799 I-0.297 J-0.338 F283.3
X12.297 Y40.638 Z-3.849 I0.297 J0.338
X11.703 Y39.962 Z-3.898 I-0.297 J-0.338
X12.297 Y40.638 Z-3.947 I0.297 J0.338
X11.703 Y39.962 Z-3.997 I-0.297 J-0.338
X12.297 Y40.638 Z-4.046 I0.297 J0.338
X11.703 Y39.962 Z-4.096 I-0.297 J-0.338
X12.297 Y40.638 Z-4.145 I0.297 J0.338
X11.703 Y39.962 Z-4.194 I-0.297 J-0.338
X12.297 Y40.638 Z-4.244 I0.297 J0.338
X11.703 Y39.962 Z-4.293 I-0.297 J-0.338
X12.297 Y40.638 Z-4.342 I0.297 J0.338
X11.703 Y39.962 Z-4.392 I-0.297 J-0.338
X12.297 Y40.638 Z-4.441 I0.297 J0.338
X11.703 Y39.962 Z-4.491 I-0.297 J-0.338
X12.297 Y40.638 Z-4.54 I0.297 J0.338
X11.703 Y39.962 Z-4.589 I-0.297 J-0.338
X12.297 Y40.638 Z-4.639 I0.297 J0.338
X11.703 Y39.962 Z-4.688 I-0.297 J-0.338
X12.297 Y40.638 Z-4.737 I0.297 J0.338
X11.703 Y39.962 Z-4.787 I-0.297 J-0.338
X12.297 Y40.638 Z-4.836 I0.297 J0.338
X11.703 Y39.962 Z-4.885 I-0.297 J-0.338
X12.297 Y40.638 Z-4.935 I0.297 J0.338
X11.703 Y39.962 Z-4.984 I-0.297 J-0.338
X12.297 Y40.638 Z-5.034 I0.297 J0.338
X11.703 Y39.962 Z-5.083 I-0.297 J-0.338
X12.297 Y40.638 Z-5.132 I0.297 J0.338
X11.703 Y39.962 Z-5.182 I-0.297 J-0.338
X12.297 Y40.638 Z-5.231 I0.297 J0.338
X11.703 Y39.962 Z-5.28 I-0.297 J-0.338
X12.297 Y40.638 Z-5.33 I0.297 J0.338
X11.703 Y39.962 Z-5.379 I-0.297 J-0.338
X12.297 Y40.638 Z-5.429 I0.297 J0.338
X11.703 Y39.962 Z-5.478 I-0.297 J-0.338
X12.297 Y40.638 Z-5.527 I0.297 J0.338
X11.703 Y39.962 Z-5.577 I-0.297 J-0.338
X12.297 Y40.638 Z-5.626 I0.297 J0.338
X11.703 Y39.962 Z-5.675 I-0.297 J-0.338
X12.297 Y40.638 Z-5.725 I0.297 J0.338
X11.703 Y39.962 Z-5.774 I-0.297 J-0.338
X12.297 Y40.638 Z-5.823 I0.297 J0.338
X11.703 Y39.962 Z-5.873 I-0.297 J-0.338
X12.297 Y40.638 Z-5.922 I0.297 J0.338
X11.703 Y39.962 Z-5.972 I-0.297 J-0.338
X12.297 Y40.638 Z-6.021 I0.297 J0.338
X11.703 Y39.962 Z-6.07 I-0.297 J-0.338
X12.297 Y40.638 Z-6.12 I0.297 J0.338
X11.703 Y39.962 Z-6.169 I-0.297 J-0.338
X12.297 Y40.638 Z-6.218 I0.297 J0.338
X11.703 Y39.962 Z-6.268 I-0.297 J-0.338
X12.297 Y40.638 Z-6.317 I0.297 J0.338
X11.703 Y39.962 Z-6.367 I-0.297 J-0.338
X12.297 Y40.638 Z-6.416 I0.297 J0.338
X11.703 Y39.962 Z-6.465 I-0.297 J-0.338
X12.297 Y40.638 Z-6.515 I0.297 J0.338
X11.703 Y39.962 Z-6.564 I-0.297 J-0.338
X12.45 Y40.3 Z-6.6 I0.297 J0.338
X11.55 I-0.45
X12.45 I0.45
G1 X12.446 Y40.409 F850
X12.415 Y40.513
X12.358 Y40.606
X12.344 Y40.623
X12.316 Y40.65
X12.258 Y40.692
X12.185 Y40.733
X12.149 Y40.747
X12.112 Y40.756
X12.039 Y40.77
X12.003 Y40.773
X11.966 Y40.771
X11.894 Y40.758
X11.857 Y40.749
X11.821 Y40.736
X11.786 Y40.719
X11.752 Y40.699
X11.684 Y40.65
X11.675 Y40.642
X11.643 Y40.607
X11.618 Y40.573
X11.575 Y40.504
X11.559 Y40.468
X11.548 Y40.431
X11.533 Y40.358
X11.529 Y40.319
Y40.275
X11.539 Y40.212
X11.557 Y40.139
X11.571 Y40.103
X11.591 Y40.067
X11.627 Y40.013
X11.648 Y39.987
X11.675 Y39.96
X11.722 Y39.921
X11.772 Y39.889
X11.821 Y39.864
X11.857 Y39.851
X11.894 Y39.842
X11.966 Y39.829
X12.003 Y39.827
X12.039 Y39.83
X12.112 Y39.844
X12.149 Y39.853
X12.185 Y39.866
X12.258 Y39.908
X12.278 Y39.921
X12.316 Y39.951
X12.355 Y39.99
X12.409 Y40.067
X12.429 Y40.103
X12.443 Y40.139
X12.461 Y40.212
X12.472 Y40.285
X12.471 Y40.322
X12.467 Y40.358
X12.452 Y40.431
X12.441 Y40.468
X12.425 Y40.504
X12.404 Y40.54
X12.366 Y40.595
X12.358 Y40.606
G3 X11.8 Y40.384 I-0.24 J-0.208
G1 X11.803 Y40.313 Z-6.592
X11.806 Y40.246 Z-6.569
X11.808 Y40.186 Z-6.531
X11.81 Y40.135 Z-6.48
X11.812 Y40.098 Z-6.42
X11.813 Y40.074 Z-6.353
Y40.066 Z-6.282
G0 Z15

(backlash_nut_bottom_cleaning)
X-8.001 Y40.3
Z15
Z5
Z2.55
G1 Z-6.6 F283.3
X-8.037 Y40.291 F850
X-8.002 Y40.277
X-7.978 Y40.306
X-8.014 Y40.319
X-8.05 Y40.309
Y40.272
X-8.017 Y40.254
X-7.982 Y40.266
X-7.958 Y40.295
X-7.974 Y40.328
X-8.009 Y40.342
X-8.046 Y40.339
X-8.071 Y40.311
X-8.076 Y40.274
X-8.053 Y40.244
X-8.018 Y40.231
X-7.981 Y40.237
X-7.95 Y40.257
X-7.935 Y40.292
X-7.943 Y40.328
X-7.969 Y40.356
X-8.003 Y40.37
X-8.041
X-8.074 Y40.352
X-8.096 Y40.322
X-8.104 Y40.285
X-8.093 Y40.249
X-8.068 Y40.221
X-8.034 Y40.206
X-7.996 Y40.203
X-7.96 Y40.213
X-7.931 Y40.236
X-7.912 Y40.268
X-7.907 Y40.305
X-7.918 Y40.341
X-7.94 Y40.371
X-7.972 Y40.392
X-8.008 Y40.403
X-8.045 Y40.401
X-8.08 Y40.386
X-8.108 Y40.361
X-8.127 Y40.329
X-8.134 Y40.292
X-8.129 Y40.255
X-8.112 Y40.222
X-8.086 Y40.195
X-8.053 Y40.177
X-8.017 Y40.168
X-7.979 Y40.171
X-7.944 Y40.183
X-7.913 Y40.205
X-7.89 Y40.234
X-7.877 Y40.269
X-7.874 Y40.307
X-7.881 Y40.343
X-7.899 Y40.376
X-7.924 Y40.404
X-7.956 Y40.425
X-7.991 Y40.437
X-8.029 Y40.439
X-8.065 Y40.432
X-8.099 Y40.417
X-8.129 Y40.393
X-8.151 Y40.363
X-8.165 Y40.329
X-8.17 Y40.292
X-8.167 Y40.254
X-8.142 Y40.184
X-8.084 Y40.135
X-8.012 Y40.116
X-7.938 Y40.127
X-7.875 Y40.167
X-7.833 Y40.229
X-7.819 Y40.303
X-7.836 Y40.376
X-7.879 Y40.438
X-7.941 Y40.48
X-8.014 Y40.496
X-8.088 Y40.484
X-8.154 Y40.448
X-8.201 Y40.39
X-8.226 Y40.319
X-8.227 Y40.244
X-8.201 Y40.173
X-8.155 Y40.114
X-8.092 Y40.074
X-8.019 Y40.056
X-7.944 Y40.063
X-7.875 Y40.092
X-7.818 Y40.14
X-7.778 Y40.203
X-7.76 Y40.276
X-7.765 Y40.351
X-7.79 Y40.422
X-7.834 Y40.482
X-7.894 Y40.527
X-7.965 Y40.553
X-8.039 Y40.558
X-8.113 Y40.544
X-8.179 Y40.509
X-8.233 Y40.457
X-8.271 Y40.392
X-8.292 Y40.32
X-8.293 Y40.245
X-8.275 Y40.173
X-8.238 Y40.107
X-8.186 Y40.053
X-8.122 Y40.014
X-8.05 Y39.992
X-7.976 Y39.988
X-7.902 Y40.004
X-7.834 Y40.036
X-7.776 Y40.083
X-7.731 Y40.143
X-7.673 Y40.281
X-7.692 Y40.43
X-7.772 Y40.556
X-7.9 Y40.634
X-8.049 Y40.657
X-8.193 Y40.615
X-8.309 Y40.52
X-8.379 Y40.387
X-8.393 Y40.238
X-8.348 Y40.095
X-8.254 Y39.978
X-8.123 Y39.906
X-7.974 Y39.887
X-7.828 Y39.923
X-7.705 Y40.008
X-7.613 Y40.127
X-7.573 Y40.271
X-7.585 Y40.421
X-7.643 Y40.56
X-7.745 Y40.669
X-7.877 Y40.74
X-8.026 Y40.761
X-8.174 Y40.736
X-8.222 Y40.71
X-8.27 Y40.682
X-8.315 Y40.651
X-8.316 Y40.65
X-8.318 Y40.648
X-8.353 Y40.612
X-8.415 Y40.52
X-8.425 Y40.504
X-8.437 Y40.472
X-8.435 Y40.437
X-8.42 Y40.405
X-8.394 Y40.382
X-8.362 Y40.369
X-8.327 Y40.37
X-8.295 Y40.384
X-8.271 Y40.41
X-8.213 Y40.498
X-8.2 Y40.533
X-8.202 Y40.571
X-8.218 Y40.604
X-8.248 Y40.628
X-8.284 Y40.638
X-8.321 Y40.633
X-8.353 Y40.612
X-8.38 Y40.576
X-8.425 Y40.504
X-8.44 Y40.472
X-8.451 Y40.439
X-8.458 Y40.403
X-8.466 Y40.349
X-8.472 Y40.292
G3 X-8.167 Y39.981 I0.349 J0.036
X-8.081 Y40.662 I0.043 J0.341
X-8.458 Y40.403 I-0.043 J-0.341
G1 X-8.467 Y40.358
X-8.472 Y40.292
X-8.47 Y40.259
X-8.461 Y40.212
X-8.451 Y40.172
X-8.443 Y40.139
X-8.429 Y40.103
X-8.409 Y40.067
X-8.371 Y40.01
X-8.347 Y39.982
X-8.318 Y39.953
X-8.278 Y39.921
X-8.225 Y39.887
X-8.172 Y39.861
X-8.136 Y39.849
X-8.099 Y39.841
X-8.026 Y39.828
X-7.99
X-7.953 Y39.831
X-7.88 Y39.845
X-7.844 Y39.855
X-7.807 Y39.87
X-7.734 Y39.913
X-7.722 Y39.921
X-7.682 Y39.953
X-7.642 Y39.994
X-7.589 Y40.071
X-7.57 Y40.106
X-7.556 Y40.142
X-7.539 Y40.212
X-7.528 Y40.285
X-7.529 Y40.322
X-7.533 Y40.358
X-7.547 Y40.431
X-7.558 Y40.468
X-7.575 Y40.504
X-7.589 Y40.528
X-7.629 Y40.589
X-7.653 Y40.62
X-7.684 Y40.65
X-7.734 Y40.687
X-7.807 Y40.73
X-7.844 Y40.745
X-7.88 Y40.755
X-7.953 Y40.769
X-7.99 Y40.772
X-8.026
X-8.099 Y40.759
X-8.136 Y40.751
X-8.172 Y40.739
X-8.208 Y40.722
X-8.244 Y40.702
X-8.315 Y40.651
X-8.319 Y40.622
X-8.328 Y40.552 Z-6.592
X-8.337 Y40.486 Z-6.569
X-8.345 Y40.426 Z-6.531
X-8.351 Y40.376 Z-6.48
X-8.356 Y40.338 Z-6.42
X-8.359 Y40.315 Z-6.353
X-8.36 Y40.307 Z-6.282
G0 Z5
X11.999 Y40.3
Z2.55
G1 Z-6.6 F283.3
X11.978 Y40.331 F850
X11.977 Y40.293
X12.013 Y40.282
X12.012 Y40.319
X11.99 Y40.349
X11.955 Y40.336
X11.95 Y40.299
X11.975 Y40.27
X12.01 Y40.259
X12.036 Y40.286
Y40.324
X12.019 Y40.357
X11.984 Y40.37
X11.948 Y40.361
X11.928 Y40.329
X11.929 Y40.291
X11.948 Y40.259
X11.978 Y40.237
X12.016 Y40.236
X12.047 Y40.257
X12.063 Y40.291
Y40.329
X12.049 Y40.363
X12.021 Y40.388
X11.985 Y40.397
X11.948 Y40.391
X11.918 Y40.368
X11.901 Y40.334
X11.9 Y40.297
X11.911 Y40.261
X11.933 Y40.231
X11.965 Y40.212
X12.002 Y40.206
X12.039 Y40.215
X12.068 Y40.238
X12.088 Y40.271
X12.095 Y40.307
X12.092 Y40.345
X12.077 Y40.379
X12.05 Y40.405
X12.017 Y40.422
X11.98 Y40.429
X11.943 Y40.422
X11.911 Y40.403
X11.885 Y40.375
X11.87 Y40.341
X11.865 Y40.304
X11.871 Y40.267
X11.887 Y40.233
X11.911 Y40.205
X11.943 Y40.184
X11.979 Y40.174
X12.016
X12.052 Y40.185
X12.083 Y40.205
X12.108 Y40.234
X12.124 Y40.268
X12.132 Y40.304
X12.13 Y40.342
X12.119 Y40.378
X12.099 Y40.409
X12.072 Y40.435
X12.039 Y40.454
X12.003 Y40.464
X11.966
X11.929 Y40.455
X11.896 Y40.438
X11.839 Y40.389
X11.815 Y40.318
X11.824 Y40.243
X11.861 Y40.178
X11.922 Y40.134
X11.995 Y40.119
X12.069 Y40.133
X12.131 Y40.175
X12.173 Y40.238
X12.188 Y40.311
X12.177 Y40.385
X12.139 Y40.45
X12.081 Y40.497
X12.009 Y40.52
X11.934 Y40.517
X11.864 Y40.49
X11.808 Y40.44
X11.77 Y40.376
X11.756 Y40.302
X11.766 Y40.228
X11.799 Y40.161
X11.852 Y40.107
X11.918 Y40.071
X11.991 Y40.057
X12.066 Y40.068
X12.133 Y40.1
X12.19 Y40.149
X12.23 Y40.212
X12.25 Y40.285
X12.248 Y40.36
X12.225 Y40.431
X12.185 Y40.494
X12.128 Y40.543
X12.06 Y40.574
X11.986 Y40.586
X11.911 Y40.579
X11.841 Y40.553
X11.78 Y40.509
X11.733 Y40.45
X11.702 Y40.382
X11.689 Y40.308
X11.694 Y40.234
X11.719 Y40.163
X11.76 Y40.1
X11.815 Y40.049
X11.88 Y40.011
X11.952 Y39.991
X12.102 Y39.989
X12.234 Y40.061
X12.321 Y40.182
X12.347 Y40.33
X12.314 Y40.476
X12.222 Y40.595
X12.091 Y40.668
X11.942 Y40.684
X11.797 Y40.643
X11.681 Y40.548
X11.607 Y40.418
X11.588 Y40.269
X11.625 Y40.124
X11.712 Y40.002
X11.836 Y39.918
X11.981 Y39.877
X12.13 Y39.892
X12.265 Y39.958
X12.372 Y40.063
X12.437 Y40.198
X12.454 Y40.347
X12.419 Y40.493
X12.342 Y40.622
X12.293 Y40.662
X12.241 Y40.7
X12.186 Y40.733
X12.185
X12.149 Y40.747
X12.112 Y40.756
X12.087 Y40.76
X12.01 Y40.766
X11.933 Y40.762
X11.857 Y40.749
G3 X11.602 Y40.361 I0.151 J-0.377
X12.401 Y40.384 I0.4 J0.011
X12.112 Y40.756 I-0.4 J-0.011
G1 X12.039 Y40.77
X12.003 Y40.773
X11.966 Y40.771
X11.894 Y40.758
X11.857 Y40.749
X11.821 Y40.736
X11.786 Y40.719
X11.752 Y40.699
X11.715 Y40.672
X11.67 Y40.637
G3 X11.666 Y40.363 I0.164 J-0.139
X11.998 Y40.628 I0.166 J0.132
X11.715 Y40.672 I-0.166 J-0.132
G1 X11.684 Y40.65
X11.675 Y40.642
X11.643 Y40.607
X11.618 Y40.573
X11.575 Y40.504
X11.559 Y40.468
X11.548 Y40.431
X11.533 Y40.358
X11.529 Y40.319
Y40.275
X11.539 Y40.212
X11.557 Y40.139
X11.571 Y40.103
X11.591 Y40.067
X11.627 Y40.013
X11.648 Y39.987
X11.675 Y39.96
X11.722 Y39.921
X11.772 Y39.889
X11.821 Y39.864
X11.857 Y39.851
X11.894 Y39.842
X11.966 Y39.829
X12.003 Y39.827
X12.039 Y39.83
X12.112 Y39.844
X12.149 Y39.853
X12.185 Y39.866
X12.258 Y39.908
X12.278 Y39.921
X12.316 Y39.951
X12.355 Y39.99
X12.409 Y40.067
X12.429 Y40.103
X12.443 Y40.139
X12.461 Y40.212
X12.472 Y40.285
X12.471 Y40.322
X12.467 Y40.358
X12.452 Y40.431
X12.441 Y40.468
X12.425 Y40.504
X12.404 Y40.54
X12.366 Y40.595
X12.344 Y40.623
X12.316 Y40.65
X12.258 Y40.692
X12.186 Y40.733
X12.159 Y40.724
X12.091 Y40.703 Z-6.592
X12.027 Y40.683 Z-6.569
X11.97 Y40.664 Z-6.531
X11.922 Y40.649 Z-6.48
X11.886 Y40.638 Z-6.42
X11.863 Y40.631 Z-6.353
X11.856 Y40.628 Z-6.282
G0 Z15

(backlash_nut_finishing)
X11.91 Y40.1
Z15
Z5
G1 Z1 F283.3
Z-6.4
G18 G2 X12.11 Z-6.6 I0.2
G1 X12.31 F850
G17 G3 X12.51 Y40.3 J0.2
X11.49 I-0.51
X12.51 I0.51
X11.49 I-0.51
X12.51 I0.51
X12.31 Y40.5 I-0.2
G1 X12.11
G18 G3 X11.91 Z-6.4 K0.2
G0 Z5
X-8.09 Y40.1
G1 Z1 F283.3
Z-6.4
G2 X-7.89 Z-6.6 I0.2
G1 X-7.69 F850
G17 G3 X-7.49 Y40.3 J0.2
X-8.51 I-0.51
X-7.49 I0.51
X-8.51 I-0.51
X-7.49 I0.51
X-7.69 Y40.5 I-0.2
G1 X-7.89
G18 G3 X-8.09 Z-6.4 K0.2
G0 Z15
G17

(mgn12h_roughing)
M9
G0 X-8.333 Y30.473
Z15
Z5
Z2.5
G3 X-7.667 Y30.128 Z2.459 I0.333 J-0.172 F283.3
X-8.333 Y30.473 Z2.418 I-0.333 J0.172
X-7.667 Y30.128 Z2.377 I0.333 J-0.172
X-8.333 Y30.473 Z2.335 I-0.333 J0.172
X-7.667 Y30.128 Z2.294 I0.333 J-0.172
X-8.333 Y30.473 Z2.253 I-0.333 J0.172
X-7.667 Y30.128 Z2.212 I0.333 J-0.172
X-8.333 Y30.473 Z2.171 I-0.333 J0.172
X-7.667 Y30.128 Z2.13 I0.333 J-0.172
X-8.333 Y30.473 Z2.089 I-0.333 J0.172
X-7.667 Y30.128 Z2.047 I0.333 J-0.172
X-8.333 Y30.473 Z2.006 I-0.333 J0.172
X-7.667 Y30.128 Z1.965 I0.333 J-0.172
X-8.333 Y30.473 Z1.924 I-0.333 J0.172
X-7.667 Y30.128 Z1.883 I0.333 J-0.172
X-8.333 Y30.473 Z1.842 I-0.333 J0.172
X-7.667 Y30.128 Z1.801 I0.333 J-0.172
X-8.333 Y30.473 Z1.759 I-0.333 J0.172
X-7.667 Y30.128 Z1.718 I0.333 J-0.172
X-8.333 Y30.473 Z1.677 I-0.333 J0.172
X-7.667 Y30.128 Z1.636 I0.333 J-0.172
X-8.333 Y30.473 Z1.595 I-0.333 J0.172
X-7.667 Y30.128 Z1.554 I0.333 J-0.172
X-8.333 Y30.473 Z1.513 I-0.333 J0.172
X-7.667 Y30.128 Z1.471 I0.333 J-0.172
X-8.333 Y30.473 Z1.43 I-0.333 J0.172
X-7.667 Y30.128 Z1.389 I0.333 J-0.172
X-8.333 Y30.473 Z1.348 I-0.333 J0.172
X-7.667 Y30.128 Z1.307 I0.333 J-0.172
X-8.333 Y30.473 Z1.266 I-0.333 J0.172
X-7.667 Y30.128 Z1.225 I0.333 J-0.172
X-8.333 Y30.473 Z1.184 I-0.333 J0.172
X-7.667 Y30.128 Z1.142 I0.333 J-0.172
X-8.333 Y30.473 Z1.101 I-0.333 J0.172
X-7.667 Y30.128 Z1.06 I0.333 J-0.172
X-8.333 Y30.473 Z1.019 I-0.333 J0.172
X-7.667 Y30.128 Z0.978 I0.333 J-0.172
X-8.333 Y30.473 Z0.937 I-0.333 J0.172
X-7.667 Y30.128 Z0.896 I0.333 J-0.172
X-8.333 Y30.473 Z0.854 I-0.333 J0.172
X-7.667 Y30.128 Z0.813 I0.333 J-0.172
X-8.333 Y30.473 Z0.772 I-0.333 J0.172
X-7.667 Y30.128 Z0.731 I0.333 J-0.172
X-8.333 Y30.473 Z0.69 I-0.333 J0.172
X-7.667 Y30.128 Z0.649 I0.333 J-0.172
X-8.333 Y30.473 Z0.608 I-0.333 J0.172
X-7.667 Y30.128 Z0.566 I0.333 J-0.172
X-8.333 Y30.473 Z0.525 I-0.333 J0.172
X-7.667 Y30.128 Z0.484 I0.333 J-0.172
X-8.333 Y30.473 Z0.443 I-0.333 J0.172
X-7.667 Y30.128 Z0.402 I0.333 J-0.172
X-8.333 Y30.473 Z0.361 I-0.333 J0.172
X-7.667 Y30.128 Z0.32 I0.333 J-0.172
X-8.333 Y30.473 Z0.278 I-0.333 J0.172
X-7.667 Y30.128 Z0.237 I0.333 J-0.172
X-8.333 Y30.473 Z0.196 I-0.333 J0.172
X-7.667 Y30.128 Z0.155 I0.333 J-0.172
X-8.333 Y30.473 Z0.114 I-0.333 J0.172
X-7.667 Y30.128 Z0.073 I0.333 J-0.172
X-8.333 Y30.473 Z0.032 I-0.333 J0.172
X-7.667 Y30.128 Z-0.01 I0.333 J-0.172
X-8.333 Y30.473 Z-0.051 I-0.333 J0.172
X-7.667 Y30.128 Z-0.092 I0.333 J-0.172
X-8.333 Y30.473 Z-0.133 I-0.333 J0.172
X-7.667 Y30.128 Z-0.174 I0.333 J-0.172
X-8.333 Y30.473 Z-0.215 I-0.333 J0.172
X-7.667 Y30.128 Z-0.256 I0.333 J-0.172
X-8.333 Y30.473 Z-0.298 I-0.333 J0.172
X-7.667 Y30.128 Z-0.339 I0.333 J-0.172
X-8.333 Y30.473 Z-0.38 I-0.333 J0.172
X-7.667 Y30.128 Z-0.421 I0.333 J-0.172
X-8.333 Y30.473 Z-0.462 I-0.333 J0.172
X-7.667 Y30.128 Z-0.503 I0.333 J-0.172
X-8.333 Y30.473 Z-0.544 I-0.333 J0.172
X-7.667 Y30.128 Z-0.586 I0.333 J-0.172
X-8.333 Y30.473 Z-0.627 I-0.333 J0.172
X-7.667 Y30.128 Z-0.668 I0.333 J-0.172
X-8.333 Y30.473 Z-0.709 I-0.333 J0.172
X-7.667 Y30.128 Z-0.75 I0.333 J-0.172
X-8.333 Y30.473 Z-0.791 I-0.333 J0.172
X-7.667 Y30.128 Z-0.832 I0.333 J-0.172
X-8.333 Y30.473 Z-0.873 I-0.333 J0.172
X-7.667 Y30.128 Z-0.915 I0.333 J-0.172
X-8.333 Y30.473 Z-0.956 I-0.333 J0.172
X-7.667 Y30.128 Z-0.997 I0.333 J-0.172
X-8.333 Y30.473 Z-1.038 I-0.333 J0.172
X-7.667 Y30.128 Z-1.079 I0.333 J-0.172
X-8.333 Y30.473 Z-1.12 I-0.333 J0.172
X-7.667 Y30.128 Z-1.161 I0.333 J-0.172
X-8.333 Y30.473 Z-1.203 I-0.333 J0.172
X-7.667 Y30.128 Z-1.244 I0.333 J-0.172
X-7.625 Y30.3 Z-1.25 I-0.333 J0.172
X-8.375 I-0.375
X-7.625 I0.375
G1 X-7.638 Y30.426 F850
X-7.791 Y30.623
X-7.825 Y30.643
X-7.867 Y30.662
X-7.898 Y30.672
X-7.928 Y30.679
X-7.98 Y30.686
X-8.032 Y30.685
X-8.083 Y30.677
X-8.108 Y30.671
X-8.136 Y30.661
X-8.187 Y30.637
X-8.213 Y30.622
X-8.239 Y30.603
X-8.286 Y30.558
X-8.304 Y30.538
X-8.319 Y30.517
X-8.343 Y30.476
X-8.353 Y30.455
X-8.363 Y30.429
X-8.371 Y30.403
X-8.382 Y30.351
X-8.385 Y30.299
X-8.382 Y30.248
X-8.372 Y30.196
X-8.352 Y30.144
X-8.343 Y30.124
X-8.317 Y30.082
X-8.285 Y30.04
X-8.239 Y29.997
X-8.187 Y29.963
X-8.136 Y29.939
X-8.129 Y29.937
X-8.081 Y29.923
X-8.032 Y29.915
X-7.98 Y29.914
X-7.928 Y29.921
X-7.871 Y29.937
X-7.825 Y29.957
X-7.773 Y29.988
X-7.747 Y30.009
X-7.721 Y30.034
X-7.715 Y30.04
X-7.676 Y30.092
X-7.648 Y30.144
X-7.628 Y30.196
X-7.617 Y30.252
X-7.615 Y30.299
X-7.617 Y30.346
X-7.618 Y30.351
X-7.629 Y30.403
X-7.637 Y30.429
X-7.647 Y30.455
X-7.674 Y30.507
X-7.692 Y30.533
X-7.714 Y30.558
X-7.721 Y30.566
X-7.773 Y30.612
X-7.791 Y30.623
G3 X-8.02 Y30.298 I-0.097 J-0.175
G1 X-7.99 Y30.276 Z-1.246
X-7.952 Y30.266 Z-1.235
X-7.918 Y30.256 Z-1.215
X-7.888 Y30.248 Z-1.189
X-7.858 Y30.252 Z-1.148
X-7.839 Y30.255 Z-1.101
X-7.833 Y30.256 Z-1.05
G0 Z5
X-8.333 Y30.473
Z1.25
G3 X-7.667 Y30.128 Z1.209 I0.333 J-0.172 F283.3
X-8.333 Y30.473 Z1.168 I-0.333 J0.172
X-7.667 Y30.128 Z1.127 I0.333 J-0.172
X-8.333 Y30.473 Z1.085 I-0.333 J0.172
X-7.667 Y30.128 Z1.044 I0.333 J-0.172
X-8.333 Y30.473 Z1.003 I-0.333 J0.172
X-7.667 Y30.128 Z0.962 I0.333 J-0.172
X-8.333 Y30.473 Z0.921 I-0.333 J0.172
X-7.667 Y30.128 Z0.88 I0.333 J-0.172
X-8.333 Y30.473 Z0.839 I-0.333 J0.172
X-7.667 Y30.128 Z0.797 I0.333 J-0.172
X-8.333 Y30.473 Z0.756 I-0.333 J0.172
X-7.667 Y30.128 Z0.715 I0.333 J-0.172
X-8.333 Y30.473 Z0.674 I-0.333 J0.172
X-7.667 Y30.128 Z0.633 I0.333 J-0.172
X-8.333 Y30.473 Z0.592 I-0.333 J0.172
X-7.667 Y30.128 Z0.551 I0.333 J-0.172
X-8.333 Y30.473 Z0.509 I-0.333 J0.172
X-7.667 Y30.128 Z0.468 I0.333 J-0.172
X-8.333 Y30.473 Z0.427 I-0.333 J0.172
X-7.667 Y30.128 Z0.386 I0.333 J-0.172
X-8.333 Y30.473 Z0.345 I-0.333 J0.172
X-7.667 Y30.128 Z0.304 I0.333 J-0.172
X-8.333 Y30.473 Z0.263 I-0.333 J0.172
X-7.667 Y30.128 Z0.221 I0.333 J-0.172
X-8.333 Y30.473 Z0.18 I-0.333 J0.172
X-7.667 Y30.128 Z0.139 I0.333 J-0.172
X-8.333 Y30.473 Z0.098 I-0.333 J0.172
X-7.667 Y30.128 Z0.057 I0.333 J-0.172
X-8.333 Y30.473 Z0.016 I-0.333 J0.172
X-7.667 Y30.128 Z-0.025 I0.333 J-0.172
X-8.333 Y30.473 Z-0.066 I-0.333 J0.172
X-7.667 Y30.128 Z-0.108 I0.333 J-0.172
X-8.333 Y30.473 Z-0.149 I-0.333 J0.172
X-7.667 Y30.128 Z-0.19 I0.333 J-0.172
X-8.333 Y30.473 Z-0.231 I-0.333 J0.172
X-7.667 Y30.128 Z-0.272 I0.333 J-0.172
X-8.333 Y30.473 Z-0.313 I-0.333 J0.172
X-7.667 Y30.128 Z-0.354 I0.333 J-0.172
X-8.333 Y30.473 Z-0.396 I-0.333 J0.172
X-7.667 Y30.128 Z-0.437 I0.333 J-0.172
X-8.333 Y30.473 Z-0.478 I-0.333 J0.172
X-7.667 Y30.128 Z-0.519 I0.333 J-0.172
X-8.333 Y30.473 Z-0.56 I-0.333 J0.172
X-7.667 Y30.128 Z-0.601 I0.333 J-0.172
X-8.333 Y30.473 Z-0.642 I-0.333 J0.172
X-7.667 Y30.128 Z-0.684 I0.333 J-0.172
X-8.333 Y30.473 Z-0.725 I-0.333 J0.172
X-7.667 Y30.128 Z-0.766 I0.333 J-0.172
X-8.333 Y30.473 Z-0.807 I-0.333 J0.172
X-7.667 Y30.128 Z-0.848 I0.333 J-0.172
X-8.333 Y30.473 Z-0.889 I-0.333 J0.172
X-7.667 Y30.128 Z-0.93 I0.333 J-0.172
X-8.333 Y30.473 Z-0.972 I-0.333 J0.172
X-7.667 Y30.128 Z-1.013 I0.333 J-0.172
X-8.333 Y30.473 Z-1.054 I-0.333 J0.172
X-7.667 Y30.128 Z-1.095 I0.333 J-0.172
X-8.333 Y30.473 Z-1.136 I-0.333 J0.172
X-7.667 Y30.128 Z-1.177 I0.333 J-0.172
X-8.333 Y30.473 Z-1.218 I-0.333 J0.172
X-7.667 Y30.128 Z-1.26 I0.333 J-0.172
X-8.333 Y30.473 Z-1.301 I-0.333 J0.172
X-7.667 Y30.128 Z-1.342 I0.333 J-0.172
X-8.333 Y30.473 Z-1.383 I-0.333 J0.172
X-7.667 Y30.128 Z-1.424 I0.333 J-0.172
X-8.333 Y30.473 Z-1.465 I-0.333 J0.172
X-7.667 Y30.128 Z-1.506 I0.333 J-0.172
X-8.333 Y30.473 Z-1.548 I-0.333 J0.172
X-7.667 Y30.128 Z-1.589 I0.333 J-0.172
X-8.333 Y30.473 Z-1.63 I-0.333 J0.172
X-7.667 Y30.128 Z-1.671 I0.333 J-0.172
X-8.333 Y30.473 Z-1.712 I-0.333 J0.172
X-7.667 Y30.128 Z-1.753 I0.333 J-0.172
X-8.333 Y30.473 Z-1.794 I-0.333 J0.172
X-7.667 Y30.128 Z-1.836 I0.333 J-0.172
X-8.333 Y30.473 Z-1.877 I-0.333 J0.172
X-7.667 Y30.128 Z-1.918 I0.333 J-0.172
X-8.333 Y30.473 Z-1.959 I-0.333 J0.172
X-7.667 Y30.128 Z-2 I0.333 J-0.172
X-8.333 Y30.473 Z-2.041 I-0.333 J0.172
X-7.667 Y30.128 Z-2.082 I0.333 J-0.172
X-8.333 Y30.473 Z-2.123 I-0.333 J0.172
X-7.667 Y30.128 Z-2.165 I0.333 J-0.172
X-8.333 Y30.473 Z-2.206 I-0.333 J0.172
X-7.667 Y30.128 Z-2.247 I0.333 J-0.172
X-8.333 Y30.473 Z-2.288 I-0.333 J0.172
X-7.667 Y30.128 Z-2.329 I0.333 J-0.172
X-8.333 Y30.473 Z-2.37 I-0.333 J0.172
X-7.667 Y30.128 Z-2.411 I0.333 J-0.172
X-8.333 Y30.473 Z-2.453 I-0.333 J0.172
X-7.667 Y30.128 Z-2.494 I0.333 J-0.172
X-7.625 Y30.3 Z-2.5 I-0.333 J0.172
X-8.375 I-0.375
X-7.625 I0.375
G1 X-7.638 Y30.426 F850
X-7.791 Y30.623
X-7.825 Y30.643
X-7.867 Y30.662
X-7.898 Y30.672
X-7.928 Y30.679
X-7.98 Y30.686
X-8.032 Y30.685
X-8.083 Y30.677
X-8.108 Y30.671
X-8.136 Y30.661
X-8.187 Y30.637
X-8.213 Y30.622
X-8.239 Y30.603
X-8.286 Y30.558
X-8.304 Y30.538
X-8.319 Y30.517
X-8.343 Y30.476
X-8.353 Y30.455
X-8.363 Y30.429
X-8.371 Y30.403
X-8.382 Y30.351
X-8.385 Y30.299
X-8.382 Y30.248
X-8.372 Y30.196
X-8.352 Y30.144
X-8.343 Y30.124
X-8.317 Y30.082
X-8.285 Y30.04
X-8.239 Y29.997
X-8.187 Y29.963
X-8.136 Y29.939
X-8.129 Y29.937
X-8.081 Y29.923
X-8.032 Y29.915
X-7.98 Y29.914
X-7.928 Y29.921
X-7.871 Y29.937
X-7.825 Y29.957
X-7.773 Y29.988
X-7.747 Y30.009
X-7.721 Y30.034
X-7.715 Y30.04
X-7.676 Y30.092
X-7.648 Y30.144
X-7.628 Y30.196
X-7.617 Y30.252
X-7.615 Y30.299
X-7.617 Y30.346
X-7.618 Y30.351
X-7.629 Y30.403
X-7.637 Y30.429
X-7.647 Y30.455
X-7.674 Y30.507
X-7.692 Y30.533
X-7.714 Y30.558
X-7.721 Y30.566
X-7.773 Y30.612
X-7.791 Y30.623
G3 X-8.02 Y30.298 I-0.097 J-0.175
G1 X-7.99 Y30.276 Z-2.496
X-7.952 Y30.266 Z-2.485
X-7.918 Y30.256 Z-2.465
X-7.888 Y30.248 Z-2.439
X-7.858 Y30.252 Z-2.398
X-7.839 Y30.255 Z-2.351
X-7.833 Y30.256 Z-2.3
G0 Z5
X-8.304 Y30.52
Z0
G3 X-7.696 Y30.081 Z-0.041 I0.304 J-0.219 F283.3
X-8.304 Y30.52 Z-0.082 I-0.304 J0.219
X-7.696 Y30.081 Z-0.123 I0.304 J-0.219
X-8.304 Y30.52 Z-0.165 I-0.304 J0.219
X-7.696 Y30.081 Z-0.206 I0.304 J-0.219
X-8.304 Y30.52 Z-0.247 I-0.304 J0.219
X-7.696 Y30.081 Z-0.288 I0.304 J-0.219
X-8.304 Y30.52 Z-0.329 I-0.304 J0.219
X-7.696 Y30.081 Z-0.37 I0.304 J-0.219
X-8.304 Y30.52 Z-0.411 I-0.304 J0.219
X-7.696 Y30.081 Z-0.453 I0.304 J-0.219
X-8.304 Y30.52 Z-0.494 I-0.304 J0.219
X-7.696 Y30.081 Z-0.535 I0.304 J-0.219
X-8.304 Y30.52 Z-0.576 I-0.304 J0.219
X-7.696 Y30.081 Z-0.617 I0.304 J-0.219
X-8.304 Y30.52 Z-0.658 I-0.304 J0.219
X-7.696 Y30.081 Z-0.699 I0.304 J-0.219
X-8.304 Y30.52 Z-0.741 I-0.304 J0.219
X-7.696 Y30.081 Z-0.782 I0.304 J-0.219
X-8.304 Y30.52 Z-0.823 I-0.304 J0.219
X-7.696 Y30.081 Z-0.864 I0.304 J-0.219
X-8.304 Y30.52 Z-0.905 I-0.304 J0.219
X-7.696 Y30.081 Z-0.946 I0.304 J-0.219
X-8.304 Y30.52 Z-0.987 I-0.304 J0.219
X-7.696 Y30.081 Z-1.029 I0.304 J-0.219
X-8.304 Y30.52 Z-1.07 I-0.304 J0.219
X-7.696 Y30.081 Z-1.111 I0.304 J-0.219
X-8.304 Y30.52 Z-1.152 I-0.304 J0.219
X-7.696 Y30.081 Z-1.193 I0.304 J-0.219
X-8.304 Y30.52 Z-1.234 I-0.304 J0.219
X-7.696 Y30.081 Z-1.275 I0.304 J-0.219
X-8.304 Y30.52 Z-1.316 I-0.304 J0.219
X-7.696 Y30.081 Z-1.358 I0.304 J-0.219
X-8.304 Y30.52 Z-1.399 I-0.304 J0.219
X-7.696 Y30.081 Z-1.44 I0.304 J-0.219
X-8.304 Y30.52 Z-1.481 I-0.304 J0.219
X-7.696 Y30.081 Z-1.522 I0.304 J-0.219
X-8.304 Y30.52 Z-1.563 I-0.304 J0.219
X-7.696 Y30.081 Z-1.604 I0.304 J-0.219
X-8.304 Y30.52 Z-1.646 I-0.304 J0.219
X-7.696 Y30.081 Z-1.687 I0.304 J-0.219
X-8.304 Y30.52 Z-1.728 I-0.304 J0.219
X-7.696 Y30.081 Z-1.769 I0.304 J-0.219
X-8.304 Y30.52 Z-1.81 I-0.304 J0.219
X-7.696 Y30.081 Z-1.851 I0.304 J-0.219
X-8.304 Y30.52 Z-1.892 I-0.304 J0.219
X-7.696 Y30.081 Z-1.934 I0.304 J-0.219
X-8.304 Y30.52 Z-1.975 I-0.304 J0.219
X-7.696 Y30.081 Z-2.016 I0.304 J-0.219
X-8.304 Y30.52 Z-2.057 I-0.304 J0.219
X-7.696 Y30.081 Z-2.098 I0.304 J-0.219
X-8.304 Y30.52 Z-2.139 I-0.304 J0.219
X-7.696 Y30.081 Z-2.18 I0.304 J-0.219
X-8.304 Y30.52 Z-2.222 I-0.304 J0.219
X-7.696 Y30.081 Z-2.263 I0.304 J-0.219
X-8.304 Y30.52 Z-2.304 I-0.304 J0.219
X-7.696 Y30.081 Z-2.345 I0.304 J-0.219
X-8.304 Y30.52 Z-2.386 I-0.304 J0.219
X-7.696 Y30.081 Z-2.427 I0.304 J-0.219
X-8.304 Y30.52 Z-2.468 I-0.304 J0.219
X-7.696 Y30.081 Z-2.51 I0.304 J-0.219
X-8.304 Y30.52 Z-2.551 I-0.304 J0.219
X-7.696 Y30.081 Z-2.592 I0.304 J-0.219
X-7.625 Y30.3 Z-2.6 I-0.304 J0.219
X-8.375 I-0.375
X-7.625 I0.375
G1 X-7.638 Y30.426 F850
X-7.791 Y30.623
X-7.825 Y30.643
X-7.867 Y30.662
X-7.898 Y30.672
X-7.928 Y30.679
X-7.98 Y30.686
X-8.032 Y30.685
X-8.083 Y30.677
X-8.108 Y30.671
X-8.136 Y30.661
X-8.187 Y30.637
X-8.213 Y30.622
X-8.239 Y30.603
X-8.286 Y30.558
X-8.304 Y30.538
X-8.319 Y30.517
X-8.343 Y30.476
X-8.353 Y30.455
X-8.363 Y30.429
X-8.371 Y30.403
X-8.382 Y30.351
X-8.385 Y30.299
X-8.382 Y30.248
X-8.372 Y30.196
X-8.352 Y30.144
X-8.343 Y30.124
X-8.317 Y30.082
X-8.285 Y30.04
X-8.239 Y29.997
X-8.187 Y29.963
X-8.136 Y29.939
X-8.129 Y29.937
X-8.081 Y29.923
X-8.032 Y29.915
X-7.98 Y29.914
X-7.928 Y29.921
X-7.871 Y29.937
X-7.825 Y29.957
X-7.773 Y29.988
X-7.747 Y30.009
X-7.721 Y30.034
X-7.715 Y30.04
X-7.676 Y30.092
X-7.648 Y30.144
X-7.628 Y30.196
X-7.617 Y30.252
X-7.615 Y30.299
X-7.617 Y30.346
X-7.618 Y30.351
X-7.629 Y30.403
X-7.637 Y30.429
X-7.647 Y30.455
X-7.674 Y30.507
X-7.692 Y30.533
X-7.714 Y30.558
X-7.721 Y30.566
X-7.773 Y30.612
X-7.791 Y30.623
G3 X-8.02 Y30.298 I-0.097 J-0.175
G1 X-7.99 Y30.276 Z-2.596
X-7.952 Y30.266 Z-2.585
X-7.918 Y30.256 Z-2.565
X-7.888 Y30.248 Z-2.539
X-7.858 Y30.252 Z-2.498
X-7.839 Y30.255 Z-2.451
X-7.833 Y30.256 Z-2.4
G0 Z5
X11.667 Y30.472
Z2.5
G3 X12.333 Y30.128 Z2.459 I0.333 J-0.172 F283.3
X11.667 Y30.472 Z2.418 I-0.333 J0.172
X12.333 Y30.128 Z2.377 I0.333 J-0.172
X11.667 Y30.472 Z2.335 I-0.333 J0.172
X12.333 Y30.128 Z2.294 I0.333 J-0.172
X11.667 Y30.472 Z2.253 I-0.333 J0.172
X12.333 Y30.128 Z2.212 I0.333 J-0.172
X11.667 Y30.472 Z2.171 I-0.333 J0.172
X12.333 Y30.128 Z2.13 I0.333 J-0.172
X11.667 Y30.472 Z2.089 I-0.333 J0.172
X12.333 Y30.128 Z2.047 I0.333 J-0.172
X11.667 Y30.472 Z2.006 I-0.333 J0.172
X12.333 Y30.128 Z1.965 I0.333 J-0.172
X11.667 Y30.472 Z1.924 I-0.333 J0.172
X12.333 Y30.128 Z1.883 I0.333 J-0.172
X11.667 Y30.472 Z1.842 I-0.333 J0.172
X12.333 Y30.128 Z1.801 I0.333 J-0.172
X11.667 Y30.472 Z1.759 I-0.333 J0.172
X12.333 Y30.128 Z1.718 I0.333 J-0.172
X11.667 Y30.472 Z1.677 I-0.333 J0.172
X12.333 Y30.128 Z1.636 I0.333 J-0.172
X11.667 Y30.472 Z1.595 I-0.333 J0.172
X12.333 Y30.128 Z1.554 I0.333 J-0.172
X11.667 Y30.472 Z1.513 I-0.333 J0.172
X12.333 Y30.128 Z1.471 I0.333 J-0.172
X11.667 Y30.472 Z1.43 I-0.333 J0.172
X12.333 Y30.128 Z1.389 I0.333 J-0.172
X11.667 Y30.472 Z1.348 I-0.333 J0.172
X12.333 Y30.128 Z1.307 I0.333 J-0.172
X11.667 Y30.472 Z1.266 I-0.333 J0.172
X12.333 Y30.128 Z1.225 I0.333 J-0.172
X11.667 Y30.472 Z1.184 I-0.333 J0.172
X12.333 Y30.128 Z1.142 I0.333 J-0.172
X11.667 Y30.472 Z1.101 I-0.333 J0.172
X12.333 Y30.128 Z1.06 I0.333 J-0.172
X11.667 Y30.472 Z1.019 I-0.333 J0.172
X12.333 Y30.128 Z0.978 I0.333 J-0.172
X11.667 Y30.472 Z0.937 I-0.333 J0.172
X12.333 Y30.128 Z0.896 I0.333 J-0.172
X11.667 Y30.472 Z0.854 I-0.333 J0.172
X12.333 Y30.128 Z0.813 I0.333 J-0.172
X11.667 Y30.472 Z0.772 I-0.333 J0.172
X12.333 Y30.128 Z0.731 I0.333 J-0.172
X11.667 Y30.472 Z0.69 I-0.333 J0.172
X12.333 Y30.128 Z0.649 I0.333 J-0.172
X11.667 Y30.472 Z0.608 I-0.333 J0.172
X12.333 Y30.128 Z0.566 I0.333 J-0.172
X11.667 Y30.472 Z0.525 I-0.333 J0.172
X12.333 Y30.128 Z0.484 I0.333 J-0.172
X11.667 Y30.472 Z0.443 I-0.333 J0.172
X12.333 Y30.128 Z0.402 I0.333 J-0.172
X11.667 Y30.472 Z0.361 I-0.333 J0.172
X12.333 Y30.128 Z0.32 I0.333 J-0.172
X11.667 Y30.472 Z0.278 I-0.333 J0.172
X12.333 Y30.128 Z0.237 I0.333 J-0.172
X11.667 Y30.472 Z0.196 I-0.333 J0.172
X12.333 Y30.128 Z0.155 I0.333 J-0.172
X11.667 Y30.472 Z0.114 I-0.333 J0.172
X12.333 Y30.128 Z0.073 I0.333 J-0.172
X11.667 Y30.472 Z0.032 I-0.333 J0.172
X12.333 Y30.128 Z-0.01 I0.333 J-0.172
X11.667 Y30.472 Z-0.051 I-0.333 J0.172
X12.333 Y30.128 Z-0.092 I0.333 J-0.172
X11.667 Y30.472 Z-0.133 I-0.333 J0.172
X12.333 Y30.128 Z-0.174 I0.333 J-0.172
X11.667 Y30.472 Z-0.215 I-0.333 J0.172
X12.333 Y30.128 Z-0.256 I0.333 J-0.172
X11.667 Y30.472 Z-0.298 I-0.333 J0.172
X12.333 Y30.128 Z-0.339 I0.333 J-0.172
X11.667 Y30.472 Z-0.38 I-0.333 J0.172
X12.333 Y30.128 Z-0.421 I0.333 J-0.172
X11.667 Y30.472 Z-0.462 I-0.333 J0.172
X12.333 Y30.128 Z-0.503 I0.333 J-0.172
X11.667 Y30.472 Z-0.544 I-0.333 J0.172
X12.333 Y30.128 Z-0.586 I0.333 J-0.172
X11.667 Y30.472 Z-0.627 I-0.333 J0.172
X12.333 Y30.128 Z-0.668 I0.333 J-0.172
X11.667 Y30.472 Z-0.709 I-0.333 J0.172
X12.333 Y30.128 Z-0.75 I0.333 J-0.172
X11.667 Y30.472 Z-0.791 I-0.333 J0.172
X12.333 Y30.128 Z-0.832 I0.333 J-0.172
X11.667 Y30.472 Z-0.873 I-0.333 J0.172
X12.333 Y30.128 Z-0.915 I0.333 J-0.172
X11.667 Y30.472 Z-0.956 I-0.333 J0.172
X12.333 Y30.128 Z-0.997 I0.333 J-0.172
X11.667 Y30.472 Z-1.038 I-0.333 J0.172
X12.333 Y30.128 Z-1.079 I0.333 J-0.172
X11.667 Y30.472 Z-1.12 I-0.333 J0.172
X12.333 Y30.128 Z-1.161 I0.333 J-0.172
X11.667 Y30.472 Z-1.203 I-0.333 J0.172
X12.333 Y30.128 Z-1.244 I0.333 J-0.172
X12.375 Y30.3 Z-1.25 I-0.333 J0.172
X11.625 I-0.375
X12.375 I0.375
G1 X12.376 Y30.348 F850
X12.37 Y30.397
X12.357 Y30.443
X12.353 Y30.455
X12.326 Y30.507
X12.308 Y30.533
X12.286 Y30.558
X12.281 Y30.564
X12.229 Y30.61
X12.203 Y30.628
X12.178 Y30.642
X12.133 Y30.662
X12.104 Y30.672
X12.074 Y30.678
X12.022 Y30.686
X11.97 Y30.685
X11.918 Y30.677
X11.893 Y30.671
X11.867 Y30.662
X11.815 Y30.638
X11.789 Y30.623
X11.763 Y30.604
X11.714 Y30.558
X11.682 Y30.519
X11.659 Y30.48
X11.647 Y30.455
X11.629 Y30.403
X11.618 Y30.351
X11.614 Y30.299
X11.618 Y30.248
X11.629 Y30.196
X11.648 Y30.144
X11.659 Y30.12
X11.683 Y30.08
X11.715 Y30.04
X11.763 Y29.995
X11.815 Y29.962
X11.869 Y29.937
X11.894 Y29.929
X11.919 Y29.923
X11.97 Y29.915
X12.022
X12.074 Y29.922
X12.102 Y29.928
X12.129 Y29.937
X12.178 Y29.958
X12.229 Y29.99
X12.255 Y30.011
X12.285 Y30.04
X12.307 Y30.066
X12.324 Y30.092
X12.352 Y30.144
X12.372 Y30.196
X12.382 Y30.248
X12.385 Y30.275
Y30.313
X12.382 Y30.351
X12.371 Y30.403
X12.357 Y30.443
G3 X11.973 Y30.342 I-0.187 J-0.071
G1 X11.982 Y30.306 Z-1.246
X12.01 Y30.268 Z-1.231
X12.035 Y30.235 Z-1.204
X12.056 Y30.208 Z-1.167
X12.074 Y30.198 Z-1.131
X12.085 Y30.192 Z-1.091
X12.089 Y30.189 Z-1.05
G0 Z5
X11.667 Y30.472
Z1.25
G3 X12.333 Y30.128 Z1.209 I0.333 J-0.172 F283.3
X11.667 Y30.472 Z1.168 I-0.333 J0.172
X12.333 Y30.128 Z1.127 I0.333 J-0.172
X11.667 Y30.472 Z1.085 I-0.333 J0.172
X12.333 Y30.128 Z1.044 I0.333 J-0.172
X11.667 Y30.472 Z1.003 I-0.333 J0.172
X12.333 Y30.128 Z0.962 I0.333 J-0.172
X11.667 Y30.472 Z0.921 I-0.333 J0.172
X12.333 Y30.128 Z0.88 I0.333 J-0.172
X11.667 Y30.472 Z0.839 I-0.333 J0.172
X12.333 Y30.128 Z0.797 I0.333 J-0.172
X11.667 Y30.472 Z0.756 I-0.333 J0.172
X12.333 Y30.128 Z0.715 I0.333 J-0.172
X11.667 Y30.472 Z0.674 I-0.333 J0.172
X12.333 Y30.128 Z0.633 I0.333 J-0.172
X11.667 Y30.472 Z0.592 I-0.333 J0.172
X12.333 Y30.128 Z0.551 I0.333 J-0.172
X11.667 Y30.472 Z0.509 I-0.333 J0.172
X12.333 Y30.128 Z0.468 I0.333 J-0.172
X11.667 Y30.472 Z0.427 I-0.333 J0.172
X12.333 Y30.128 Z0.386 I0.333 J-0.172
X11.667 Y30.472 Z0.345 I-0.333 J0.172
X12.333 Y30.128 Z0.304 I0.333 J-0.172
X11.667 Y30.472 Z0.263 I-0.333 J0.172
X12.333 Y30.128 Z0.221 I0.333 J-0.172
X11.667 Y30.472 Z0.18 I-0.333 J0.172
X12.333 Y30.128 Z0.139 I0.333 J-0.172
X11.667 Y30.472 Z0.098 I-0.333 J0.172
X12.333 Y30.128 Z0.057 I0.333 J-0.172
X11.667 Y30.472 Z0.016 I-0.333 J0.172
X12.333 Y30.128 Z-0.025 I0.333 J-0.172
X11.667 Y30.472 Z-0.066 I-0.333 J0.172
X12.333 Y30.128 Z-0.108 I0.333 J-0.172
X11.667 Y30.472 Z-0.149 I-0.333 J0.172
X12.333 Y30.128 Z-0.19 I0.333 J-0.172
X11.667 Y30.472 Z-0.231 I-0.333 J0.172
X12.333 Y30.128 Z-0.272 I0.333 J-0.172
X11.667 Y30.472 Z-0.313 I-0.333 J0.172
X12.333 Y30.128 Z-0.354 I0.333 J-0.172
X11.667 Y30.472 Z-0.396 I-0.333 J0.172
X12.333 Y30.128 Z-0.437 I0.333 J-0.172
X11.667 Y30.472 Z-0.478 I-0.333 J0.172
X12.333 Y30.128 Z-0.519 I0.333 J-0.172
X11.667 Y30.472 Z-0.56 I-0.333 J0.172
X12.333 Y30.128 Z-0.601 I0.333 J-0.172
X11.667 Y30.472 Z-0.642 I-0.333 J0.172
X12.333 Y30.128 Z-0.684 I0.333 J-0.172
X11.667 Y30.472 Z-0.725 I-0.333 J0.172
X12.333 Y30.128 Z-0.766 I0.333 J-0.172
X11.667 Y30.472 Z-0.807 I-0.333 J0.172
X12.333 Y30.128 Z-0.848 I0.333 J-0.172
X11.667 Y30.472 Z-0.889 I-0.333 J0.172
X12.333 Y30.128 Z-0.93 I0.333 J-0.172
X11.667 Y30.472 Z-0.972 I-0.333 J0.172
X12.333 Y30.128 Z-1.013 I0.333 J-0.172
X11.667 Y30.472 Z-1.054 I-0.333 J0.172
X12.333 Y30.128 Z-1.095 I0.333 J-0.172
X11.667 Y30.472 Z-1.136 I-0.333 J0.172
X12.333 Y30.128 Z-1.177 I0.333 J-0.172
X11.667 Y30.472 Z-1.218 I-0.333 J0.172
X12.333 Y30.128 Z-1.26 I0.333 J-0.172
X11.667 Y30.472 Z-1.301 I-0.333 J0.172
X12.333 Y30.128 Z-1.342 I0.333 J-0.172
X11.667 Y30.472 Z-1.383 I-0.333 J0.172
X12.333 Y30.128 Z-1.424 I0.333 J-0.172
X11.667 Y30.472 Z-1.465 I-0.333 J0.172
X12.333 Y30.128 Z-1.506 I0.333 J-0.172
X11.667 Y30.472 Z-1.548 I-0.333 J0.172
X12.333 Y30.128 Z-1.589 I0.333 J-0.172
X11.667 Y30.472 Z-1.63 I-0.333 J0.172
X12.333 Y30.128 Z-1.671 I0.333 J-0.172
X11.667 Y30.472 Z-1.712 I-0.333 J0.172
X12.333 Y30.128 Z-1.753 I0.333 J-0.172
X11.667 Y30.472 Z-1.794 I-0.333 J0.172
X12.333 Y30.128 Z-1.836 I0.333 J-0.172
X11.667 Y30.472 Z-1.877 I-0.333 J0.172
X12.333 Y30.128 Z-1.918 I0.333 J-0.172
X11.667 Y30.472 Z-1.959 I-0.333 J0.172
X12.333 Y30.128 Z-2 I0.333 J-0.172
X11.667 Y30.472 Z-2.041 I-0.333 J0.172
X12.333 Y30.128 Z-2.082 I0.333 J-0.172
X11.667 Y30.472 Z-2.123 I-0.333 J0.172
X12.333 Y30.128 Z-2.165 I0.333 J-0.172
X11.667 Y30.472 Z-2.206 I-0.333 J0.172
X12.333 Y30.128 Z-2.247 I0.333 J-0.172
X11.667 Y30.472 Z-2.288 I-0.333 J0.172
X12.333 Y30.128 Z-2.329 I0.333 J-0.172
X11.667 Y30.472 Z-2.37 I-0.333 J0.172
X12.333 Y30.128 Z-2.411 I0.333 J-0.172
X11.667 Y30.472 Z-2.453 I-0.333 J0.172
X12.333 Y30.128 Z-2.494 I0.333 J-0.172
X12.375 Y30.3 Z-2.5 I-0.333 J0.172
X11.625 I-0.375
X12.375 I0.375
G1 X12.376 Y30.348 F850
X12.37 Y30.397
X12.357 Y30.443
X12.353 Y30.455
X12.326 Y30.507
X12.308 Y30.533
X12.286 Y30.558
X12.281 Y30.564
X12.229 Y30.61
X12.203 Y30.628
X12.178 Y30.642
X12.133 Y30.662
X12.104 Y30.672
X12.074 Y30.678
X12.022 Y30.686
X11.97 Y30.685
X11.918 Y30.677
X11.893 Y30.671
X11.867 Y30.662
X11.815 Y30.638
X11.789 Y30.623
X11.763 Y30.604
X11.714 Y30.558
X11.682 Y30.519
X11.659 Y30.48
X11.647 Y30.455
X11.629 Y30.403
X11.618 Y30.351
X11.614 Y30.299
X11.618 Y30.248
X11.629 Y30.196
X11.648 Y30.144
X11.659 Y30.12
X11.683 Y30.08
X11.715 Y30.04
X11.763 Y29.995
X11.815 Y29.962
X11.869 Y29.937
X11.894 Y29.929
X11.919 Y29.923
X11.97 Y29.915
X12.022
X12.074 Y29.922
X12.102 Y29.928
X12.129 Y29.937
X12.178 Y29.958
X12.229 Y29.99
X12.255 Y30.011
X12.285 Y30.04
X12.307 Y30.066
X12.324 Y30.092
X12.352 Y30.144
X12.372 Y30.196
X12.382 Y30.248
X12.385 Y30.275
Y30.313
X12.382 Y30.351
X12.371 Y30.403
X12.357 Y30.443
G3 X11.973 Y30.342 I-0.187 J-0.071
G1 X11.982 Y30.306 Z-2.496
X12.01 Y30.268 Z-2.481
X12.035 Y30.235 Z-2.454
X12.056 Y30.208 Z-2.417
X12.074 Y30.198 Z-2.381
X12.085 Y30.192 Z-2.341
X12.089 Y30.189 Z-2.3
G0 Z5
X11.696 Y30.519
Z0
G3 X12.304 Y30.081 Z-0.041 I0.304 J-0.219 F283.3
X11.696 Y30.519 Z-0.082 I-0.304 J0.219
X12.304 Y30.081 Z-0.123 I0.304 J-0.219
X11.696 Y30.519 Z-0.165 I-0.304 J0.219
X12.304 Y30.081 Z-0.206 I0.304 J-0.219
X11.696 Y30.519 Z-0.247 I-0.304 J0.219
X12.304 Y30.081 Z-0.288 I0.304 J-0.219
X11.696 Y30.519 Z-0.329 I-0.304 J0.219
X12.304 Y30.081 Z-0.37 I0.304 J-0.219
X11.696 Y30.519 Z-0.411 I-0.304 J0.219
X12.304 Y30.081 Z-0.453 I0.304 J-0.219
X11.696 Y30.519 Z-0.494 I-0.304 J0.219
X12.304 Y30.081 Z-0.535 I0.304 J-0.219
X11.696 Y30.519 Z-0.576 I-0.304 J0.219
X12.304 Y30.081 Z-0.617 I0.304 J-0.219
X11.696 Y30.519 Z-0.658 I-0.304 J0.219
X12.304 Y30.081 Z-0.699 I0.304 J-0.219
X11.696 Y30.519 Z-0.741 I-0.304 J0.219
X12.304 Y30.081 Z-0.782 I0.304 J-0.219
X11.696 Y30.519 Z-0.823 I-0.304 J0.219
X12.304 Y30.081 Z-0.864 I0.304 J-0.219
X11.696 Y30.519 Z-0.905 I-0.304 J0.219
X12.304 Y30.081 Z-0.946 I0.304 J-0.219
X11.696 Y30.519 Z-0.987 I-0.304 J0.219
X12.304 Y30.081 Z-1.029 I0.304 J-0.219
X11.696 Y30.519 Z-1.07 I-0.304 J0.219
X12.304 Y30.081 Z-1.111 I0.304 J-0.219
X11.696 Y30.519 Z-1.152 I-0.304 J0.219
X12.304 Y30.081 Z-1.193 I0.304 J-0.219
X11.696 Y30.519 Z-1.234 I-0.304 J0.219
X12.304 Y30.081 Z-1.275 I0.304 J-0.219
X11.696 Y30.519 Z-1.316 I-0.304 J0.219
X12.304 Y30.081 Z-1.358 I0.304 J-0.219
X11.696 Y30.519 Z-1.399 I-0.304 J0.219
X12.304 Y30.081 Z-1.44 I0.304 J-0.219
X11.696 Y30.519 Z-1.481 I-0.304 J0.219
X12.304 Y30.081 Z-1.522 I0.304 J-0.219
X11.696 Y30.519 Z-1.563 I-0.304 J0.219
X12.304 Y30.081 Z-1.604 I0.304 J-0.219
X11.696 Y30.519 Z-1.646 I-0.304 J0.219
X12.304 Y30.081 Z-1.687 I0.304 J-0.219
X11.696 Y30.519 Z-1.728 I-0.304 J0.219
X12.304 Y30.081 Z-1.769 I0.304 J-0.219
X11.696 Y30.519 Z-1.81 I-0.304 J0.219
X12.304 Y30.081 Z-1.851 I0.304 J-0.219
X11.696 Y30.519 Z-1.892 I-0.304 J0.219
X12.304 Y30.081 Z-1.934 I0.304 J-0.219
X11.696 Y30.519 Z-1.975 I-0.304 J0.219
X12.304 Y30.081 Z-2.016 I0.304 J-0.219
X11.696 Y30.519 Z-2.057 I-0.304 J0.219
X12.304 Y30.081 Z-2.098 I0.304 J-0.219
X11.696 Y30.519 Z-2.139 I-0.304 J0.219
X12.304 Y30.081 Z-2.18 I0.304 J-0.219
X11.696 Y30.519 Z-2.222 I-0.304 J0.219
X12.304 Y30.081 Z-2.263 I0.304 J-0.219
X11.696 Y30.519 Z-2.304 I-0.304 J0.219
X12.304 Y30.081 Z-2.345 I0.304 J-0.219
X11.696 Y30.519 Z-2.386 I-0.304 J0.219
X12.304 Y30.081 Z-2.427 I0.304 J-0.219
X11.696 Y30.519 Z-2.468 I-0.304 J0.219
X12.304 Y30.081 Z-2.51 I0.304 J-0.219
X11.696 Y30.519 Z-2.551 I-0.304 J0.219
X12.304 Y30.081 Z-2.592 I0.304 J-0.219
X12.375 Y30.3 Z-2.6 I-0.304 J0.219
X11.625 I-0.375
X12.375 I0.375
G1 X12.376 Y30.348 F850
X12.37 Y30.397
X12.357 Y30.443
X12.353 Y30.455
X12.326 Y30.507
X12.308 Y30.533
X12.286 Y30.558
X12.281 Y30.564
X12.229 Y30.61
X12.203 Y30.628
X12.178 Y30.642
X12.133 Y30.662
X12.104 Y30.672
X12.074 Y30.678
X12.022 Y30.686
X11.97 Y30.685
X11.918 Y30.677
X11.893 Y30.671
X11.867 Y30.662
X11.815 Y30.638
X11.789 Y30.623
X11.763 Y30.604
X11.714 Y30.558
X11.682 Y30.519
X11.659 Y30.48
X11.647 Y30.455
X11.629 Y30.403
X11.618 Y30.351
X11.614 Y30.299
X11.618 Y30.248
X11.629 Y30.196
X11.648 Y30.144
X11.659 Y30.12
X11.683 Y30.08
X11.715 Y30.04
X11.763 Y29.995
X11.815 Y29.962
X11.869 Y29.937
X11.894 Y29.929
X11.919 Y29.923
X11.97 Y29.915
X12.022
X12.074 Y29.922
X12.102 Y29.928
X12.129 Y29.937
X12.178 Y29.958
X12.229 Y29.99
X12.255 Y30.011
X12.285 Y30.04
X12.307 Y30.066
X12.324 Y30.092
X12.352 Y30.144
X12.372 Y30.196
X12.382 Y30.248
X12.385 Y30.275
Y30.313
X12.382 Y30.351
X12.371 Y30.403
X12.357 Y30.443
G3 X11.973 Y30.342 I-0.187 J-0.071
G1 X11.982 Y30.306 Z-2.596
X12.01 Y30.268 Z-2.581
X12.035 Y30.235 Z-2.554
X12.056 Y30.208 Z-2.517
X12.074 Y30.198 Z-2.481
X12.085 Y30.192 Z-2.441
X12.089 Y30.189 Z-2.4
G0 Z5
X11.667 Y50.472
Z2.5
G3 X12.333 Y50.127 Z2.459 I0.333 J-0.172 F283.3
X11.667 Y50.472 Z2.418 I-0.333 J0.172
X12.333 Y50.127 Z2.377 I0.333 J-0.172
X11.667 Y50.472 Z2.335 I-0.333 J0.172
X12.333 Y50.127 Z2.294 I0.333 J-0.172
X11.667 Y50.472 Z2.253 I-0.333 J0.172
X12.333 Y50.127 Z2.212 I0.333 J-0.172
X11.667 Y50.472 Z2.171 I-0.333 J0.172
X12.333 Y50.127 Z2.13 I0.333 J-0.172
X11.667 Y50.472 Z2.089 I-0.333 J0.172
X12.333 Y50.127 Z2.047 I0.333 J-0.172
X11.667 Y50.472 Z2.006 I-0.333 J0.172
X12.333 Y50.127 Z1.965 I0.333 J-0.172
X11.667 Y50.472 Z1.924 I-0.333 J0.172
X12.333 Y50.127 Z1.883 I0.333 J-0.172
X11.667 Y50.472 Z1.842 I-0.333 J0.172
X12.333 Y50.127 Z1.801 I0.333 J-0.172
X11.667 Y50.472 Z1.759 I-0.333 J0.172
X12.333 Y50.127 Z1.718 I0.333 J-0.172
X11.667 Y50.472 Z1.677 I-0.333 J0.172
X12.333 Y50.127 Z1.636 I0.333 J-0.172
X11.667 Y50.472 Z1.595 I-0.333 J0.172
X12.333 Y50.127 Z1.554 I0.333 J-0.172
X11.667 Y50.472 Z1.513 I-0.333 J0.172
X12.333 Y50.127 Z1.471 I0.333 J-0.172
X11.667 Y50.472 Z1.43 I-0.333 J0.172
X12.333 Y50.127 Z1.389 I0.333 J-0.172
X11.667 Y50.472 Z1.348 I-0.333 J0.172
X12.333 Y50.127 Z1.307 I0.333 J-0.172
X11.667 Y50.472 Z1.266 I-0.333 J0.172
X12.333 Y50.127 Z1.225 I0.333 J-0.172
X11.667 Y50.472 Z1.184 I-0.333 J0.172
X12.333 Y50.127 Z1.142 I0.333 J-0.172
X11.667 Y50.472 Z1.101 I-0.333 J0.172
X12.333 Y50.127 Z1.06 I0.333 J-0.172
X11.667 Y50.472 Z1.019 I-0.333 J0.172
X12.333 Y50.127 Z0.978 I0.333 J-0.172
X11.667 Y50.472 Z0.937 I-0.333 J0.172
X12.333 Y50.127 Z0.896 I0.333 J-0.172
X11.667 Y50.472 Z0.854 I-0.333 J0.172
X12.333 Y50.127 Z0.813 I0.333 J-0.172
X11.667 Y50.472 Z0.772 I-0.333 J0.172
X12.333 Y50.127 Z0.731 I0.333 J-0.172
X11.667 Y50.472 Z0.69 I-0.333 J0.172
X12.333 Y50.127 Z0.649 I0.333 J-0.172
X11.667 Y50.472 Z0.608 I-0.333 J0.172
X12.333 Y50.127 Z0.566 I0.333 J-0.172
X11.667 Y50.472 Z0.525 I-0.333 J0.172
X12.333 Y50.127 Z0.484 I0.333 J-0.172
X11.667 Y50.472 Z0.443 I-0.333 J0.172
X12.333 Y50.127 Z0.402 I0.333 J-0.172
X11.667 Y50.472 Z0.361 I-0.333 J0.172
X12.333 Y50.127 Z0.32 I0.333 J-0.172
X11.667 Y50.472 Z0.278 I-0.333 J0.172
X12.333 Y50.127 Z0.237 I0.333 J-0.172
X11.667 Y50.472 Z0.196 I-0.333 J0.172
X12.333 Y50.127 Z0.155 I0.333 J-0.172
X11.667 Y50.472 Z0.114 I-0.333 J0.172
X12.333 Y50.127 Z0.073 I0.333 J-0.172
X11.667 Y50.472 Z0.032 I-0.333 J0.172
X12.333 Y50.127 Z-0.01 I0.333 J-0.172
X11.667 Y50.472 Z-0.051 I-0.333 J0.172
X12.333 Y50.127 Z-0.092 I0.333 J-0.172
X11.667 Y50.472 Z-0.133 I-0.333 J0.172
X12.333 Y50.127 Z-0.174 I0.333 J-0.172
X11.667 Y50.472 Z-0.215 I-0.333 J0.172
X12.333 Y50.127 Z-0.256 I0.333 J-0.172
X11.667 Y50.472 Z-0.298 I-0.333 J0.172
X12.333 Y50.127 Z-0.339 I0.333 J-0.172
X11.667 Y50.472 Z-0.38 I-0.333 J0.172
X12.333 Y50.127 Z-0.421 I0.333 J-0.172
X11.667 Y50.472 Z-0.462 I-0.333 J0.172
X12.333 Y50.127 Z-0.503 I0.333 J-0.172
X11.667 Y50.472 Z-0.544 I-0.333 J0.172
X12.333 Y50.127 Z-0.586 I0.333 J-0.172
X11.667 Y50.472 Z-0.627 I-0.333 J0.172
X12.333 Y50.127 Z-0.668 I0.333 J-0.172
X11.667 Y50.472 Z-0.709 I-0.333 J0.172
X12.333 Y50.127 Z-0.75 I0.333 J-0.172
X11.667 Y50.472 Z-0.791 I-0.333 J0.172
X12.333 Y50.127 Z-0.832 I0.333 J-0.172
X11.667 Y50.472 Z-0.873 I-0.333 J0.172
X12.333 Y50.127 Z-0.915 I0.333 J-0.172
X11.667 Y50.472 Z-0.956 I-0.333 J0.172
X12.333 Y50.127 Z-0.997 I0.333 J-0.172
X11.667 Y50.472 Z-1.038 I-0.333 J0.172
X12.333 Y50.127 Z-1.079 I0.333 J-0.172
X11.667 Y50.472 Z-1.12 I-0.333 J0.172
X12.333 Y50.127 Z-1.161 I0.333 J-0.172
X11.667 Y50.472 Z-1.203 I-0.333 J0.172
X12.333 Y50.127 Z-1.244 I0.333 J-0.172
X12.375 Y50.299 Z-1.25 I-0.333 J0.172
X11.625 I-0.375
X12.375 I0.375
G1 X12.362 Y50.423 F850
X12.216 Y50.618
X12.178 Y50.642
X12.14 Y50.66
X12.107 Y50.671
X12.074 Y50.678
X12.022 Y50.686
X11.97 Y50.685
X11.918 Y50.677
X11.867 Y50.662
X11.86 Y50.66
X11.812 Y50.636
X11.763 Y50.604
X11.738 Y50.582
X11.712 Y50.556
X11.681 Y50.518
X11.659 Y50.48
X11.646 Y50.453
X11.628 Y50.401
X11.618 Y50.349
X11.614 Y50.297
X11.618 Y50.245
X11.63 Y50.194
X11.649 Y50.142
X11.659 Y50.12
X11.684 Y50.079
X11.699 Y50.059
X11.717 Y50.038
X11.763 Y49.996
X11.815 Y49.962
X11.867 Y49.937
X11.875 Y49.934
X11.923 Y49.922
X11.97 Y49.915
X12.022
X12.074 Y49.922
X12.099 Y49.927
X12.125 Y49.934
X12.178 Y49.958
X12.229 Y49.99
X12.255 Y50.011
X12.283 Y50.038
X12.305 Y50.064
X12.323 Y50.09
X12.352 Y50.142
X12.363 Y50.168
X12.371 Y50.194
X12.381 Y50.245
X12.385 Y50.289
Y50.323
X12.382 Y50.349
X12.373 Y50.401
X12.365 Y50.427
X12.354 Y50.453
X12.327 Y50.504
X12.287 Y50.556
X12.281 Y50.563
X12.255 Y50.589
X12.229 Y50.609
X12.216 Y50.618
G3 X11.979 Y50.298 I-0.101 J-0.173
G1 X12.009 Y50.275 Z-1.246
X12.048 Y50.264 Z-1.234
X12.084 Y50.254 Z-1.212
X12.115 Y50.245 Z-1.184
X12.142 Y50.249 Z-1.144
X12.16 Y50.251 Z-1.098
X12.165 Y50.252 Z-1.05
G0 Z5
X11.667 Y50.472
Z1.25
G3 X12.333 Y50.127 Z1.209 I0.333 J-0.172 F283.3
X11.667 Y50.472 Z1.168 I-0.333 J0.172
X12.333 Y50.127 Z1.127 I0.333 J-0.172
X11.667 Y50.472 Z1.085 I-0.333 J0.172
X12.333 Y50.127 Z1.044 I0.333 J-0.172
X11.667 Y50.472 Z1.003 I-0.333 J0.172
X12.333 Y50.127 Z0.962 I0.333 J-0.172
X11.667 Y50.472 Z0.921 I-0.333 J0.172
X12.333 Y50.127 Z0.88 I0.333 J-0.172
X11.667 Y50.472 Z0.839 I-0.333 J0.172
X12.333 Y50.127 Z0.797 I0.333 J-0.172
X11.667 Y50.472 Z0.756 I-0.333 J0.172
X12.333 Y50.127 Z0.715 I0.333 J-0.172
X11.667 Y50.472 Z0.674 I-0.333 J0.172
X12.333 Y50.127 Z0.633 I0.333 J-0.172
X11.667 Y50.472 Z0.592 I-0.333 J0.172
X12.333 Y50.127 Z0.551 I0.333 J-0.172
X11.667 Y50.472 Z0.509 I-0.333 J0.172
X12.333 Y50.127 Z0.468 I0.333 J-0.172
X11.667 Y50.472 Z0.427 I-0.333 J0.172
X12.333 Y50.127 Z0.386 I0.333 J-0.172
X11.667 Y50.472 Z0.345 I-0.333 J0.172
X12.333 Y50.127 Z0.304 I0.333 J-0.172
X11.667 Y50.472 Z0.263 I-0.333 J0.172
X12.333 Y50.127 Z0.221 I0.333 J-0.172
X11.667 Y50.472 Z0.18 I-0.333 J0.172
X12.333 Y50.127 Z0.139 I0.333 J-0.172
X11.667 Y50.472 Z0.098 I-0.333 J0.172
X12.333 Y50.127 Z0.057 I0.333 J-0.172
X11.667 Y50.472 Z0.016 I-0.333 J0.172
X12.333 Y50.127 Z-0.025 I0.333 J-0.172
X11.667 Y50.472 Z-0.066 I-0.333 J0.172
X12.333 Y50.127 Z-0.108 I0.333 J-0.172
X11.667 Y50.472 Z-0.149 I-0.333 J0.172
X12.333 Y50.127 Z-0.19 I0.333 J-0.172
X11.667 Y50.472 Z-0.231 I-0.333 J0.172
X12.333 Y50.127 Z-0.272 I0.333 J-0.172
X11.667 Y50.472 Z-0.313 I-0.333 J0.172
X12.333 Y50.127 Z-0.354 I0.333 J-0.172
X11.667 Y50.472 Z-0.396 I-0.333 J0.172
X12.333 Y50.127 Z-0.437 I0.333 J-0.172
X11.667 Y50.472 Z-0.478 I-0.333 J0.172
X12.333 Y50.127 Z-0.519 I0.333 J-0.172
X11.667 Y50.472 Z-0.56 I-0.333 J0.172
X12.333 Y50.127 Z-0.601 I0.333 J-0.172
X11.667 Y50.472 Z-0.642 I-0.333 J0.172
X12.333 Y50.127 Z-0.684 I0.333 J-0.172
X11.667 Y50.472 Z-0.725 I-0.333 J0.172
X12.333 Y50.127 Z-0.766 I0.333 J-0.172
X11.667 Y50.472 Z-0.807 I-0.333 J0.172
X12.333 Y50.127 Z-0.848 I0.333 J-0.172
X11.667 Y50.472 Z-0.889 I-0.333 J0.172
X12.333 Y50.127 Z-0.93 I0.333 J-0.172
X11.667 Y50.472 Z-0.972 I-0.333 J0.172
X12.333 Y50.127 Z-1.013 I0.333 J-0.172
X11.667 Y50.472 Z-1.054 I-0.333 J0.172
X12.333 Y50.127 Z-1.095 I0.333 J-0.172
X11.667 Y50.472 Z-1.136 I-0.333 J0.172
X12.333 Y50.127 Z-1.177 I0.333 J-0.172
X11.667 Y50.472 Z-1.218 I-0.333 J0.172
X12.333 Y50.127 Z-1.26 I0.333 J-0.172
X11.667 Y50.472 Z-1.301 I-0.333 J0.172
X12.333 Y50.127 Z-1.342 I0.333 J-0.172
X11.667 Y50.472 Z-1.383 I-0.333 J0.172
X12.333 Y50.127 Z-1.424 I0.333 J-0.172
X11.667 Y50.472 Z-1.465 I-0.333 J0.172
X12.333 Y50.127 Z-1.506 I0.333 J-0.172
X11.667 Y50.472 Z-1.548 I-0.333 J0.172
X12.333 Y50.127 Z-1.589 I0.333 J-0.172
X11.667 Y50.472 Z-1.63 I-0.333 J0.172
X12.333 Y50.127 Z-1.671 I0.333 J-0.172
X11.667 Y50.472 Z-1.712 I-0.333 J0.172
X12.333 Y50.127 Z-1.753 I0.333 J-0.172
X11.667 Y50.472 Z-1.794 I-0.333 J0.172
X12.333 Y50.127 Z-1.836 I0.333 J-0.172
X11.667 Y50.472 Z-1.877 I-0.333 J0.172
X12.333 Y50.127 Z-1.918 I0.333 J-0.172
X11.667 Y50.472 Z-1.959 I-0.333 J0.172
X12.333 Y50.127 Z-2 I0.333 J-0.172
X11.667 Y50.472 Z-2.041 I-0.333 J0.172
X12.333 Y50.127 Z-2.082 I0.333 J-0.172
X11.667 Y50.472 Z-2.123 I-0.333 J0.172
X12.333 Y50.127 Z-2.165 I0.333 J-0.172
X11.667 Y50.472 Z-2.206 I-0.333 J0.172
X12.333 Y50.127 Z-2.247 I0.333 J-0.172
X11.667 Y50.472 Z-2.288 I-0.333 J0.172
X12.333 Y50.127 Z-2.329 I0.333 J-0.172
X11.667 Y50.472 Z-2.37 I-0.333 J0.172
X12.333 Y50.127 Z-2.411 I0.333 J-0.172
X11.667 Y50.472 Z-2.453 I-0.333 J0.172
X12.333 Y50.127 Z-2.494 I0.333 J-0.172
X12.375 Y50.299 Z-2.5 I-0.333 J0.172
X11.625 I-0.375
X12.375 I0.375
G1 X12.362 Y50.423 F850
X12.216 Y50.618
X12.178 Y50.642
X12.14 Y50.66
X12.107 Y50.671
X12.074 Y50.678
X12.022 Y50.686
X11.97 Y50.685
X11.918 Y50.677
X11.867 Y50.662
X11.86 Y50.66
X11.812 Y50.636
X11.763 Y50.604
X11.738 Y50.582
X11.712 Y50.556
X11.681 Y50.518
X11.659 Y50.48
X11.646 Y50.453
X11.628 Y50.401
X11.618 Y50.349
X11.614 Y50.297
X11.618 Y50.245
X11.63 Y50.194
X11.649 Y50.142
X11.659 Y50.12
X11.684 Y50.079
X11.699 Y50.059
X11.717 Y50.038
X11.763 Y49.996
X11.815 Y49.962
X11.867 Y49.937
X11.875 Y49.934
X11.923 Y49.922
X11.97 Y49.915
X12.022
X12.074 Y49.922
X12.099 Y49.927
X12.125 Y49.934
X12.178 Y49.958
X12.229 Y49.99
X12.255 Y50.011
X12.283 Y50.038
X12.305 Y50.064
X12.323 Y50.09
X12.352 Y50.142
X12.363 Y50.168
X12.371 Y50.194
X12.381 Y50.245
X12.385 Y50.289
Y50.323
X12.382 Y50.349
X12.373 Y50.401
X12.365 Y50.427
X12.354 Y50.453
X12.327 Y50.504
X12.287 Y50.556
X12.281 Y50.563
X12.255 Y50.589
X12.229 Y50.609
X12.216 Y50.618
G3 X11.979 Y50.298 I-0.101 J-0.173
G1 X12.009 Y50.275 Z-2.496
X12.048 Y50.264 Z-2.484
X12.084 Y50.254 Z-2.462
X12.115 Y50.245 Z-2.434
X12.142 Y50.249 Z-2.394
X12.16 Y50.251 Z-2.348
X12.165 Y50.252 Z-2.3
G0 Z5
X11.695 Y50.519
Z0
G3 X12.304 Y50.08 Z-0.041 I0.304 J-0.219 F283.3
X11.695 Y50.519 Z-0.082 I-0.304 J0.219
X12.304 Y50.08 Z-0.123 I0.304 J-0.219
X11.695 Y50.519 Z-0.165 I-0.304 J0.219
X12.304 Y50.08 Z-0.206 I0.304 J-0.219
X11.695 Y50.519 Z-0.247 I-0.304 J0.219
X12.304 Y50.08 Z-0.288 I0.304 J-0.219
X11.695 Y50.519 Z-0.329 I-0.304 J0.219
X12.304 Y50.08 Z-0.37 I0.304 J-0.219
X11.695 Y50.519 Z-0.411 I-0.304 J0.219
X12.304 Y50.08 Z-0.453 I0.304 J-0.219
X11.695 Y50.519 Z-0.494 I-0.304 J0.219
X12.304 Y50.08 Z-0.535 I0.304 J-0.219
X11.695 Y50.519 Z-0.576 I-0.304 J0.219
X12.304 Y50.08 Z-0.617 I0.304 J-0.219
X11.695 Y50.519 Z-0.658 I-0.304 J0.219
X12.304 Y50.08 Z-0.699 I0.304 J-0.219
X11.695 Y50.519 Z-0.741 I-0.304 J0.219
X12.304 Y50.08 Z-0.782 I0.304 J-0.219
X11.695 Y50.519 Z-0.823 I-0.304 J0.219
X12.304 Y50.08 Z-0.864 I0.304 J-0.219
X11.695 Y50.519 Z-0.905 I-0.304 J0.219
X12.304 Y50.08 Z-0.946 I0.304 J-0.219
X11.695 Y50.519 Z-0.987 I-0.304 J0.219
X12.304 Y50.08 Z-1.029 I0.304 J-0.219
X11.695 Y50.519 Z-1.07 I-0.304 J0.219
X12.304 Y50.08 Z-1.111 I0.304 J-0.219
X11.695 Y50.519 Z-1.152 I-0.304 J0.219
X12.304 Y50.08 Z-1.193 I0.304 J-0.219
X11.695 Y50.519 Z-1.234 I-0.304 J0.219
X12.304 Y50.08 Z-1.275 I0.304 J-0.219
X11.695 Y50.519 Z-1.316 I-0.304 J0.219
X12.304 Y50.08 Z-1.358 I0.304 J-0.219
X11.695 Y50.519 Z-1.399 I-0.304 J0.219
X12.304 Y50.08 Z-1.44 I0.304 J-0.219
X11.695 Y50.519 Z-1.481 I-0.304 J0.219
X12.304 Y50.08 Z-1.522 I0.304 J-0.219
X11.695 Y50.519 Z-1.563 I-0.304 J0.219
X12.304 Y50.08 Z-1.604 I0.304 J-0.219
X11.695 Y50.519 Z-1.646 I-0.304 J0.219
X12.304 Y50.08 Z-1.687 I0.304 J-0.219
X11.695 Y50.519 Z-1.728 I-0.304 J0.219
X12.304 Y50.08 Z-1.769 I0.304 J-0.219
X11.695 Y50.519 Z-1.81 I-0.304 J0.219
X12.304 Y50.08 Z-1.851 I0.304 J-0.219
X11.695 Y50.519 Z-1.892 I-0.304 J0.219
X12.304 Y50.08 Z-1.934 I0.304 J-0.219
X11.695 Y50.519 Z-1.975 I-0.304 J0.219
X12.304 Y50.08 Z-2.016 I0.304 J-0.219
X11.695 Y50.519 Z-2.057 I-0.304 J0.219
X12.304 Y50.08 Z-2.098 I0.304 J-0.219
X11.695 Y50.519 Z-2.139 I-0.304 J0.219
X12.304 Y50.08 Z-2.18 I0.304 J-0.219
X11.695 Y50.519 Z-2.222 I-0.304 J0.219
X12.304 Y50.08 Z-2.263 I0.304 J-0.219
X11.695 Y50.519 Z-2.304 I-0.304 J0.219
X12.304 Y50.08 Z-2.345 I0.304 J-0.219
X11.695 Y50.519 Z-2.386 I-0.304 J0.219
X12.304 Y50.08 Z-2.427 I0.304 J-0.219
X11.695 Y50.519 Z-2.468 I-0.304 J0.219
X12.304 Y50.08 Z-2.51 I0.304 J-0.219
X11.695 Y50.519 Z-2.551 I-0.304 J0.219
X12.304 Y50.08 Z-2.592 I0.304 J-0.219
X12.375 Y50.299 Z-2.6 I-0.304 J0.219
X11.625 I-0.375
X12.375 I0.375
G1 X12.362 Y50.423 F850
X12.216 Y50.618
X12.178 Y50.642
X12.14 Y50.66
X12.107 Y50.671
X12.074 Y50.678
X12.022 Y50.686
X11.97 Y50.685
X11.918 Y50.677
X11.867 Y50.662
X11.86 Y50.66
X11.812 Y50.636
X11.763 Y50.604
X11.738 Y50.582
X11.712 Y50.556
X11.681 Y50.518
X11.659 Y50.48
X11.646 Y50.453
X11.628 Y50.401
X11.618 Y50.349
X11.614 Y50.297
X11.618 Y50.245
X11.63 Y50.194
X11.649 Y50.142
X11.659 Y50.12
X11.684 Y50.079
X11.699 Y50.059
X11.717 Y50.038
X11.763 Y49.996
X11.815 Y49.962
X11.867 Y49.937
X11.875 Y49.934
X11.923 Y49.922
X11.97 Y49.915
X12.022
X12.074 Y49.922
X12.099 Y49.927
X12.125 Y49.934
X12.178 Y49.958
X12.229 Y49.99
X12.255 Y50.011
X12.283 Y50.038
X12.305 Y50.064
X12.323 Y50.09
X12.352 Y50.142
X12.363 Y50.168
X12.371 Y50.194
X12.381 Y50.245
X12.385 Y50.289
Y50.323
X12.382 Y50.349
X12.373 Y50.401
X12.365 Y50.427
X12.354 Y50.453
X12.327 Y50.504
X12.287 Y50.556
X12.281 Y50.563
X12.255 Y50.589
X12.229 Y50.609
X12.216 Y50.618
G3 X11.979 Y50.298 I-0.101 J-0.173
G1 X12.009 Y50.275 Z-2.596
X12.048 Y50.264 Z-2.584
X12.084 Y50.254 Z-2.562
X12.115 Y50.245 Z-2.534
X12.142 Y50.249 Z-2.494
X12.16 Y50.251 Z-2.448
X12.165 Y50.252 Z-2.4
G0 Z5
X-8.333 Y50.472
Z2.5
G3 X-7.667 Y50.128 Z2.459 I0.333 J-0.172 F283.3
X-8.333 Y50.472 Z2.418 I-0.333 J0.172
X-7.667 Y50.128 Z2.377 I0.333 J-0.172
X-8.333 Y50.472 Z2.335 I-0.333 J0.172
X-7.667 Y50.128 Z2.294 I0.333 J-0.172
X-8.333 Y50.472 Z2.253 I-0.333 J0.172
X-7.667 Y50.128 Z2.212 I0.333 J-0.172
X-8.333 Y50.472 Z2.171 I-0.333 J0.172
X-7.667 Y50.128 Z2.13 I0.333 J-0.172
X-8.333 Y50.472 Z2.089 I-0.333 J0.172
X-7.667 Y50.128 Z2.047 I0.333 J-0.172
X-8.333 Y50.472 Z2.006 I-0.333 J0.172
X-7.667 Y50.128 Z1.965 I0.333 J-0.172
X-8.333 Y50.472 Z1.924 I-0.333 J0.172
X-7.667 Y50.128 Z1.883 I0.333 J-0.172
X-8.333 Y50.472 Z1.842 I-0.333 J0.172
X-7.667 Y50.128 Z1.801 I0.333 J-0.172
X-8.333 Y50.472 Z1.759 I-0.333 J0.172
X-7.667 Y50.128 Z1.718 I0.333 J-0.172
X-8.333 Y50.472 Z1.677 I-0.333 J0.172
X-7.667 Y50.128 Z1.636 I0.333 J-0.172
X-8.333 Y50.472 Z1.595 I-0.333 J0.172
X-7.667 Y50.128 Z1.554 I0.333 J-0.172
X-8.333 Y50.472 Z1.513 I-0.333 J0.172
X-7.667 Y50.128 Z1.471 I0.333 J-0.172
X-8.333 Y50.472 Z1.43 I-0.333 J0.172
X-7.667 Y50.128 Z1.389 I0.333 J-0.172
X-8.333 Y50.472 Z1.348 I-0.333 J0.172
X-7.667 Y50.128 Z1.307 I0.333 J-0.172
X-8.333 Y50.472 Z1.266 I-0.333 J0.172
X-7.667 Y50.128 Z1.225 I0.333 J-0.172
X-8.333 Y50.472 Z1.184 I-0.333 J0.172
X-7.667 Y50.128 Z1.142 I0.333 J-0.172
X-8.333 Y50.472 Z1.101 I-0.333 J0.172
X-7.667 Y50.128 Z1.06 I0.333 J-0.172
X-8.333 Y50.472 Z1.019 I-0.333 J0.172
X-7.667 Y50.128 Z0.978 I0.333 J-0.172
X-8.333 Y50.472 Z0.937 I-0.333 J0.172
X-7.667 Y50.128 Z0.896 I0.333 J-0.172
X-8.333 Y50.472 Z0.854 I-0.333 J0.172
X-7.667 Y50.128 Z0.813 I0.333 J-0.172
X-8.333 Y50.472 Z0.772 I-0.333 J0.172
X-7.667 Y50.128 Z0.731 I0.333 J-0.172
X-8.333 Y50.472 Z0.69 I-0.333 J0.172
X-7.667 Y50.128 Z0.649 I0.333 J-0.172
X-8.333 Y50.472 Z0.608 I-0.333 J0.172
X-7.667 Y50.128 Z0.566 I0.333 J-0.172
X-8.333 Y50.472 Z0.525 I-0.333 J0.172
X-7.667 Y50.128 Z0.484 I0.333 J-0.172
X-8.333 Y50.472 Z0.443 I-0.333 J0.172
X-7.667 Y50.128 Z0.402 I0.333 J-0.172
X-8.333 Y50.472 Z0.361 I-0.333 J0.172
X-7.667 Y50.128 Z0.32 I0.333 J-0.172
X-8.333 Y50.472 Z0.278 I-0.333 J0.172
X-7.667 Y50.128 Z0.237 I0.333 J-0.172
X-8.333 Y50.472 Z0.196 I-0.333 J0.172
X-7.667 Y50.128 Z0.155 I0.333 J-0.172
X-8.333 Y50.472 Z0.114 I-0.333 J0.172
X-7.667 Y50.128 Z0.073 I0.333 J-0.172
X-8.333 Y50.472 Z0.032 I-0.333 J0.172
X-7.667 Y50.128 Z-0.01 I0.333 J-0.172
X-8.333 Y50.472 Z-0.051 I-0.333 J0.172
X-7.667 Y50.128 Z-0.092 I0.333 J-0.172
X-8.333 Y50.472 Z-0.133 I-0.333 J0.172
X-7.667 Y50.128 Z-0.174 I0.333 J-0.172
X-8.333 Y50.472 Z-0.215 I-0.333 J0.172
X-7.667 Y50.128 Z-0.256 I0.333 J-0.172
X-8.333 Y50.472 Z-0.298 I-0.333 J0.172
X-7.667 Y50.128 Z-0.339 I0.333 J-0.172
X-8.333 Y50.472 Z-0.38 I-0.333 J0.172
X-7.667 Y50.128 Z-0.421 I0.333 J-0.172
X-8.333 Y50.472 Z-0.462 I-0.333 J0.172
X-7.667 Y50.128 Z-0.503 I0.333 J-0.172
X-8.333 Y50.472 Z-0.544 I-0.333 J0.172
X-7.667 Y50.128 Z-0.586 I0.333 J-0.172
X-8.333 Y50.472 Z-0.627 I-0.333 J0.172
