%
(1001)
(origin stock top)
(T1  D=2 CR=0 - ZMIN=-6.6 - flat end mill)
G90 G94
G17
G21

(adaptive_roughing 3)
M9
T1 M6
S7500 M3
G54
M8
G0 X-8.552 Y32.357
Z15
Z5
Z2.5
G3 X-10.449 Y32.244 Z2.396 I-0.948 J-0.056 F283.3
X-8.552 Y32.357 Z2.292 I0.948 J0.056
X-10.449 Y32.244 Z2.187 I-0.948 J-0.056
X-8.552 Y32.357 Z2.083 I0.948 J0.056
X-10.449 Y32.244 Z1.979 I-0.948 J-0.056
X-8.552 Y32.357 Z1.875 I0.948 J0.056
X-10.449 Y32.244 Z1.77 I-0.948 J-0.056
X-8.552 Y32.357 Z1.666 I0.948 J0.056
X-10.449 Y32.244 Z1.562 I-0.948 J-0.056
X-8.552 Y32.357 Z1.458 I0.948 J0.056
X-10.449 Y32.244 Z1.354 I-0.948 J-0.056
X-8.552 Y32.357 Z1.249 I0.948 J0.056
X-10.449 Y32.244 Z1.145 I-0.948 J-0.056
X-8.552 Y32.357 Z1.041 I0.948 J0.056
X-10.449 Y32.244 Z0.937 I-0.948 J-0.056
X-8.552 Y32.357 Z0.832 I0.948 J0.056
X-10.449 Y32.244 Z0.728 I-0.948 J-0.056
X-8.552 Y32.357 Z0.624 I0.948 J0.056
X-10.449 Y32.244 Z0.52 I-0.948 J-0.056
X-8.552 Y32.357 Z0.416 I0.948 J0.056
X-10.449 Y32.244 Z0.311 I-0.948 J-0.056
X-8.552 Y32.357 Z0.207 I0.948 J0.056
X-10.449 Y32.244 Z0.103 I-0.948 J-0.056
X-8.552 Y32.357 Z-0.001 I0.948 J0.056
X-10.449 Y32.244 Z-0.106 I-0.948 J-0.056
X-8.552 Y32.357 Z-0.21 I0.948 J0.056
X-10.449 Y32.244 Z-0.314 I-0.948 J-0.056
X-8.552 Y32.357 Z-0.418 I0.948 J0.056
X-10.449 Y32.244 Z-0.522 I-0.948 J-0.056
X-8.552 Y32.357 Z-0.627 I0.948 J0.056
X-10.449 Y32.244 Z-0.731 I-0.948 J-0.056
X-8.552 Y32.357 Z-0.835 I0.948 J0.056
X-10.449 Y32.244 Z-0.939 I-0.948 J-0.056
X-8.552 Y32.357 Z-1.044 I0.948 J0.056
X-10.449 Y32.244 Z-1.148 I-0.948 J-0.056
X-8.55 Y32.3 Z-1.25 I0.948 J0.056
X-10.45 I-0.95
X-8.55 I0.95
G1 X-8.535 Y32.596 F850
X-8.534 Y32.746
X-8.579 Y32.889
X-8.653 Y33.019
X-8.749 Y33.134
X-8.863 Y33.233
X-8.989 Y33.313
X-9.126 Y33.375
X-9.27 Y33.417
X-9.418 Y33.439
X-9.568 Y33.441
X-9.717 Y33.423
X-9.862 Y33.385
X-10.001 Y33.329
X-10.132 Y33.254
X-10.251 Y33.164
X-10.358 Y33.058
X-10.45 Y32.939
X-10.525 Y32.81
X-10.583 Y32.671
X-10.622 Y32.527
X-10.642 Y32.378
X-10.643 Y32.228
X-10.623 Y32.079
X-10.585 Y31.934
X-10.528 Y31.796
X-10.453 Y31.666
X-10.362 Y31.546
X-10.256 Y31.44
X-10.137 Y31.349
X-10.007 Y31.274
X-9.869 Y31.216
X-9.724 Y31.177
X-9.575 Y31.158
X-9.425
X-9.276 Y31.177
X-9.131 Y31.216
X-8.993 Y31.274
X-8.863 Y31.349
X-8.744 Y31.44
X-8.638 Y31.547
X-8.547 Y31.666
X-8.473 Y31.796
X-8.415 Y31.935
X-8.373 Y32.079
X-8.341 Y32.225
X-8.317 Y32.373
X-8.309 Y32.523
X-8.319 Y32.673
X-8.351 Y32.819
X-8.404 Y32.96
X-8.476 Y33.091
X-8.564 Y33.212
X-8.668 Y33.321
X-8.785 Y33.415
X-8.912 Y33.494
X-9.049 Y33.556
X-9.192 Y33.602
X-9.339 Y33.63
X-9.488 Y33.642
X-9.638 Y33.637
X-9.787 Y33.614
X-9.932 Y33.575
X-10.071 Y33.52
X-10.203 Y33.449
X-10.326 Y33.364
X-10.44 Y33.265
X-10.542 Y33.155
X-10.631 Y33.034
X-10.706 Y32.904
X-10.765 Y32.767
X-10.809 Y32.623
X-10.836 Y32.476
X-10.848 Y32.326
X-10.843 Y32.176
X-10.821 Y32.028
X-10.783 Y31.883
X-10.728 Y31.743
X-10.658 Y31.61
X-10.574 Y31.486
X-10.477 Y31.372
X-10.368 Y31.268
X-10.249 Y31.178
X-10.119 Y31.102
X-9.982 Y31.041
X-9.839 Y30.996
X-9.692 Y30.966
X-9.543 Y30.953
X-9.393 Y30.956
X-9.244 Y30.976
X-9.099 Y31.013
X-8.959 Y31.066
X-8.825 Y31.134
X-8.699 Y31.216
X-8.584 Y31.311
X-8.479 Y31.419
X-8.388 Y31.538
X-8.309 Y31.666
X-8.243 Y31.801
X-8.188 Y31.94
X-8.145 Y32.084
X-8.115 Y32.231
X-8.098 Y32.38
X-8.095 Y32.53
X-8.11 Y32.679
X-8.141 Y32.826
X-8.187 Y32.968
X-8.25 Y33.105
X-8.326 Y33.234
X-8.417 Y33.353
X-8.52 Y33.462
X-8.635 Y33.559
X-8.759 Y33.643
X-8.892 Y33.713
X-9.031 Y33.769
X-9.175 Y33.811
X-9.322 Y33.839
X-9.472 Y33.851
X-9.622 Y33.849
X-9.771 Y33.831
X-9.917 Y33.799
X-10.06 Y33.752
X-10.197 Y33.692
X-10.328 Y33.619
X-10.452 Y33.534
X-10.567 Y33.438
X-10.671 Y33.33
X-10.765 Y33.213
X-10.846 Y33.087
X-10.916 Y32.954
X-10.972 Y32.815
X-11.015 Y32.671
X-11.044 Y32.524
X-11.059 Y32.375
Y32.225
X-11.044 Y32.076
X-11.015 Y31.928
X-10.972 Y31.785
X-10.916 Y31.645
X-10.847 Y31.512
X-10.765 Y31.387
X-10.672 Y31.269
X-10.567 Y31.162
X-10.453 Y31.065
X-10.33 Y30.979
X-10.199 Y30.905
X-10.062 Y30.845
X-9.92 Y30.797
X-9.773 Y30.764
X-9.625 Y30.745
X-9.475 Y30.74
X-9.325 Y30.75
X-9.177 Y30.774
X-9.032 Y30.812
X-8.891 Y30.864
X-8.756 Y30.929
X-8.628 Y31.007
X-8.508 Y31.097
X-8.397 Y31.198
X-8.296 Y31.308
X-8.205 Y31.428
X-8.124 Y31.554
X-8.054 Y31.687
X-7.995 Y31.825
X-7.947 Y31.967
X-7.911 Y32.112
X-7.887 Y32.26
X-7.877 Y32.41
X-7.88 Y32.56
X-7.896 Y32.709
X-7.926 Y32.856
X-7.97 Y32.999
X-8.028 Y33.138
X-8.098 Y33.271
X-8.18 Y33.396
X-8.274 Y33.513
X-8.378 Y33.621
X-8.492 Y33.718
X-8.615 Y33.805
X-8.745 Y33.88
X-8.881 Y33.943
X-9.022 Y33.993
X-9.167 Y34.031
X-9.315 Y34.056
X-9.465 Y34.068
X-9.615 Y34.067
X-9.764 Y34.052
X-9.912 Y34.025
X-10.056 Y33.985
X-10.197 Y33.933
X-10.332 Y33.869
X-10.462 Y33.794
X-10.585 Y33.708
X-10.701 Y33.612
X-10.807 Y33.506
X-10.904 Y33.392
X-10.991 Y33.27
X-11.068 Y33.141
X-11.133 Y33.006
X-11.187 Y32.866
X-11.229 Y32.722
X-11.259 Y32.575
X-11.276 Y32.426
X-11.28 Y32.276
X-11.271 Y32.126
X-11.25 Y31.977
X-11.216 Y31.831
X-11.171 Y31.688
X-11.114 Y31.55
X-11.045 Y31.416
X-10.965 Y31.289
X-10.875 Y31.169
X-10.775 Y31.058
X-10.665 Y30.955
X-10.548 Y30.862
X-10.423 Y30.779
X-10.292 Y30.706
X-10.155 Y30.645
X-10.013 Y30.596
X-9.868 Y30.558
X-9.72 Y30.534
X-9.57 Y30.522
X-9.42 Y30.523
X-9.271 Y30.536
X-9.123 Y30.561
X-8.978 Y30.599
X-8.836 Y30.648
X-8.7 Y30.71
X-8.569 Y30.783
X-8.444 Y30.867
X-8.328 Y30.961
X-8.219 Y31.064
X-8.118 Y31.176
X-8.026 Y31.294
X-7.943 Y31.419
X-7.87 Y31.55
X-7.806 Y31.686
X-7.753 Y31.826
X-7.711 Y31.97
X-7.68 Y32.117
X-7.66 Y32.266
X-7.652 Y32.415
X-7.656 Y32.565
X-7.671 Y32.715
X-7.699 Y32.862
X-7.738 Y33.007
X-7.79 Y33.147
X-7.853 Y33.284
X-7.927 Y33.414
X-8.011 Y33.538
X-8.105 Y33.655
X-8.208 Y33.764
X-8.32 Y33.864
X-8.44 Y33.955
X-8.566 Y34.035
X-8.699 Y34.105
X-8.837 Y34.164
X-8.979 Y34.212
X-9.124 Y34.25
X-9.272 Y34.276
X-9.421 Y34.29
X-9.571 Y34.293
X-9.721 Y34.283
X-9.869 Y34.263
X-10.016 Y34.23
X-10.16 Y34.187
X-10.299 Y34.133
X-10.435 Y34.069
X-10.565 Y33.995
X-10.69 Y33.911
X-10.808 Y33.818
X-10.918 Y33.716
X-11.02 Y33.606
X-11.113 Y33.489
X-11.198 Y33.365
X-11.273 Y33.235
X-11.338 Y33.1
X-11.393 Y32.961
X-11.438 Y32.817
X-11.471 Y32.671
X-11.494 Y32.523
X-11.504 Y32.373
Y32.223
X-11.492 Y32.074
X-11.47 Y31.925
X-11.436 Y31.779
X-11.392 Y31.636
X-11.338 Y31.496
X-11.273 Y31.361
X-11.198 Y31.231
X-11.113 Y31.107
X-11.019 Y30.99
X-10.917 Y30.881
X-10.807 Y30.779
X-10.689 Y30.685
X-10.565 Y30.601
X-10.436 Y30.526
X-10.301 Y30.46
X-10.161 Y30.406
X-10.017 Y30.362
X-9.871 Y30.329
X-9.723 Y30.307
X-9.573 Y30.296
X-9.423
X-9.273 Y30.307
X-9.125 Y30.33
X-8.979 Y30.363
X-8.836 Y30.407
X-8.696 Y30.462
X-8.561 Y30.528
X-8.431 Y30.603
X-8.307 Y30.688
X-8.19 Y30.781
X-8.079 Y30.882
X-7.975 Y30.99
X-7.879 Y31.106
X-7.792 Y31.227
X-7.713 Y31.355
X-7.643 Y31.487
X-7.582 Y31.624
X-7.53 Y31.765
X-7.489 Y31.909
X-7.457 Y32.056
X-7.435 Y32.204
X-7.423 Y32.354
Y32.504
X-7.433 Y32.654
X-7.453 Y32.802
X-7.485 Y32.949
X-7.527 Y33.093
X-7.579 Y33.233
X-7.642 Y33.37
X-7.713 Y33.502
X-7.795 Y33.628
X-7.885 Y33.748
X-7.984 Y33.861
X-8.09 Y33.966
X-8.205 Y34.063
X-8.325 Y34.152
X-8.452 Y34.232
X-8.584 Y34.303
X-8.643 Y34.329
X-8.68 Y34.343
X-8.759 Y34.372
X-8.823 Y34.395
X-8.851 Y34.406
X-8.994 Y34.45
X-9.141 Y34.483
X-9.191 Y34.491
X-9.231 Y34.496
X-9.272 Y34.5
X-9.313 Y34.501
G3 X-9.347 Y34.105 I0.007 J-0.2
G1 X-9.155 Y34.064
X-8.967 Y34.025
G3 X-8.851 Y34.406 I0.041 J0.196
G1 X-8.99 Y34.456
X-9.105 Y34.496
X-9.134 Y34.499
X-9.163 Y34.501
X-9.566
X-9.601
X-9.645
X-9.795 Y34.493
X-9.892 Y34.48
X-9.948 Y34.47
X-10.003 Y34.456
X-10.057 Y34.439
G3 X-9.954 Y34.056 I0.075 J-0.185
G1 X-9.814 Y34.076
X-9.624 Y34.103
G3 X-9.645 Y34.501 I-0.028 J0.198
G1 X-9.854
X-9.883 Y34.498
X-9.912 Y34.491
X-10.142 Y34.408
X-10.335 Y34.338
X-10.373 Y34.324
X-10.408 Y34.312
X-10.546 Y34.253
X-10.609 Y34.22
X-10.657 Y34.192
X-10.703 Y34.161
X-10.747 Y34.126
G3 X-10.519 Y33.802 I0.134 J-0.149
G1 X-10.421 Y33.854
X-10.251 Y33.945
G3 X-10.408 Y34.312 I-0.095 J0.176
G1 X-10.488 Y34.282
X-10.603 Y34.238
X-10.63 Y34.223
X-10.718 Y34.15
X-11.001 Y33.913
X-11.025 Y33.893
X-11.044 Y33.877
X-11.154 Y33.775
X-11.197 Y33.727
X-11.233 Y33.684
X-11.266 Y33.639
X-11.295 Y33.592
G3 X-11.118 Y33.299 I0.177 J-0.094
G1 X-11.063 Y33.306
X-11.012 Y33.329
X-10.969 Y33.365
X-10.9 Y33.442
X-10.772 Y33.586
G3 X-11.044 Y33.877 I-0.149 J0.133
G1 X-11.182 Y33.762
X-11.197 Y33.747
X-11.209 Y33.733
X-11.23 Y33.704
X-11.41 Y33.393
X-11.463 Y33.3
X-11.482 Y33.268
X-11.506 Y33.227
X-11.574 Y33.094
X-11.586 Y33.064
X-11.602 Y33.016
X-11.615 Y32.968
X-11.625 Y32.919
G3 X-11.241 Y32.817 I0.198 J-0.028
G1 X-11.222 Y32.868
X-11.15 Y33.047
G3 X-11.506 Y33.227 I-0.186 J0.074
G1 X-11.53 Y33.185
X-11.593 Y33.07
X-11.603 Y33.041
X-11.609 Y33.012
X-11.68 Y32.609
X-11.691 Y32.545
X-11.696 Y32.517
X-11.715 Y32.368
X-11.717 Y32.302
Y32.246
X-11.713 Y32.191
X-11.706 Y32.136
G3 X-11.31 Y32.171 I0.196 J0.042
G1 X-11.307 Y32.276
X-11.301 Y32.469
G3 X-11.501 Y32.675 I-0.2 J0.006
X-11.696 Y32.517 J-0.2
G1 X-11.721 Y32.378
X-11.73 Y32.321
Y32.292
X-11.728 Y32.263
X-11.647 Y31.802
X-11.641 Y31.767
X-11.633 Y31.722
X-11.599 Y31.576
X-11.589 Y31.545
X-11.57 Y31.498
X-11.549 Y31.452
X-11.525 Y31.407
G3 X-11.166 Y31.576 I0.17 J0.106
G1 X-11.184 Y31.63
X-11.245 Y31.813
G3 X-11.633 Y31.722 I-0.19 J-0.063
G1 X-11.606 Y31.571
X-11.598 Y31.542
X-11.586 Y31.514
X-11.354 Y31.11
X-11.336 Y31.079
X-11.313 Y31.04
X-11.232 Y30.914
X-11.201 Y30.874
X-11.166 Y30.835
X-11.13 Y30.797
X-11.091 Y30.762
G3 X-10.811 Y31.044 I0.123 J0.158
G1 X-10.86 Y31.106
X-10.98 Y31.258
G3 X-11.313 Y31.04 I-0.157 J-0.124
G1 X-11.219 Y30.879
X-11.201 Y30.858
X-11.18 Y30.837
X-10.834 Y30.546
X-10.819 Y30.534
X-10.788 Y30.508
X-10.669 Y30.418
X-10.613 Y30.382
X-10.563 Y30.354
X-10.512 Y30.329
X-10.46 Y30.307
G3 X-10.292 Y30.668 I0.062 J0.19
G1 X-10.385 Y30.725
X-10.549 Y30.827
G3 X-10.788 Y30.508 I-0.105 J-0.17
G1 X-10.642 Y30.386
X-10.603 Y30.362
X-10.488 Y30.318
X-10.142 Y30.192
X-10.131 Y30.188
X-10.099 Y30.176
X-9.956 Y30.132
X-9.889 Y30.118
X-9.833 Y30.108
X-9.777 Y30.101
X-9.72 Y30.099
G3 X-9.685 Y30.495 I-0.007 J0.2
G1 X-9.795 Y30.518
X-9.984 Y30.558
G3 X-10.099 Y30.176 I-0.041 J-0.196
G1 X-9.912 Y30.109
X-9.883 Y30.102
X-9.854 Y30.099
X-9.387
X-9.359
X-9.335
X-9.186 Y30.107
X-9.118 Y30.116
X-9.062 Y30.126
X-9.008 Y30.14
X-8.954 Y30.157
G3 X-9.057 Y30.54 I-0.075 J0.185
G1 X-9.166 Y30.525
X-9.357 Y30.497
G3 X-9.335 Y30.099 I0.028 J-0.198
G1 X-9.163
X-9.134 Y30.1
X-9.105 Y30.104
X-8.99 Y30.144
X-8.644 Y30.27
X-8.616 Y30.28
X-8.581 Y30.293
X-8.443 Y30.351
X-8.394 Y30.377
X-8.347 Y30.404
X-8.302 Y30.435
X-8.259 Y30.469
G3 X-8.487 Y30.794 I-0.134 J0.149
G1 X-8.568 Y30.75
X-8.738 Y30.659
G3 X-8.581 Y30.293 I0.095 J-0.176
G1 X-8.413 Y30.354
X-8.39 Y30.364
X-8.366 Y30.379
X-7.952 Y30.726
X-7.927 Y30.747
X-7.907 Y30.764
X-7.797 Y30.866
X-7.779 Y30.887
X-7.764 Y30.909
X-7.749 Y30.932
G3 X-8.067 Y31.169 I-0.176 J0.095
G1 X-8.172 Y31.063
G3 X-7.907 Y30.764 I0.142 J-0.141
G1 X-7.809 Y30.847
X-7.793 Y30.863
X-7.78 Y30.879
X-7.712 Y30.995
X-7.467 Y31.421
X-7.414 Y31.514
X-7.402 Y31.542
X-7.394 Y31.571
X-7.272 Y32.263
X-7.27 Y32.292
Y32.321
X-7.279 Y32.378
X-7.391 Y33.012
X-7.397 Y33.041
X-7.407 Y33.07
X-7.47 Y33.185
X-7.77 Y33.704
X-7.791 Y33.733
X-7.803 Y33.747
X-7.818 Y33.762
X-8.298 Y34.164
X-8.369 Y34.223
X-8.391 Y34.236
X-8.413 Y34.246
X-8.68 Y34.343
G3 X-8.842 Y33.98 I-0.062 J-0.19
G1 X-8.809 Y33.965 Z-1.246
X-8.774 Y33.959 Z-1.236
X-8.741 Y33.953 Z-1.22
X-8.704 Y33.962 Z-1.188
X-8.675 Y33.969 Z-1.147
X-8.657 Y33.973 Z-1.1
X-8.651 Y33.975 Z-1.05
G0 Z5
X-1.052 Y12.857
Z2.5
G3 X-2.948 Y12.744 Z2.396 I-0.948 J-0.056 F283.3
X-1.052 Y12.857 Z2.292 I0.948 J0.056
X-2.948 Y12.744 Z2.187 I-0.948 J-0.056
X-1.052 Y12.857 Z2.083 I0.948 J0.056
X-2.948 Y12.744 Z1.979 I-0.948 J-0.056
X-1.052 Y12.857 Z1.875 I0.948 J0.056
X-2.948 Y12.744 Z1.77 I-0.948 J-0.056
X-1.052 Y12.857 Z1.666 I0.948 J0.056
X-2.948 Y12.744 Z1.562 I-0.948 J-0.056
X-1.052 Y12.857 Z1.458 I0.948 J0.056
X-2.948 Y12.744 Z1.354 I-0.948 J-0.056
X-1.052 Y12.857 Z1.249 I0.948 J0.056
X-2.948 Y12.744 Z1.145 I-0.948 J-0.056
X-1.052 Y12.857 Z1.041 I0.948 J0.056
X-2.948 Y12.744 Z0.937 I-0.948 J-0.056
X-1.052 Y12.857 Z0.832 I0.948 J0.056
X-2.948 Y12.744 Z0.728 I-0.948 J-0.056
X-1.052 Y12.857 Z0.624 I0.948 J0.056
X-2.948 Y12.744 Z0.52 I-0.948 J-0.056
X-1.052 Y12.857 Z0.416 I0.948 J0.056
X-2.948 Y12.744 Z0.311 I-0.948 J-0.056
X-1.052 Y12.857 Z0.207 I0.948 J0.056
X-2.948 Y12.744 Z0.103 I-0.948 J-0.056
X-1.052 Y12.857 Z-0.001 I0.948 J0.056
X-2.948 Y12.744 Z-0.106 I-0.948 J-0.056
X-1.052 Y12.857 Z-0.21 I0.948 J0.056
X-2.948 Y12.744 Z-0.314 I-0.948 J-0.056
X-1.052 Y12.857 Z-0.418 I0.948 J0.056
X-2.948 Y12.744 Z-0.522 I-0.948 J-0.056
X-1.052 Y12.857 Z-0.627 I0.948 J0.056
X-2.948 Y12.744 Z-0.731 I-0.948 J-0.056
X-1.052 Y12.857 Z-0.835 I0.948 J0.056
X-2.948 Y12.744 Z-0.939 I-0.948 J-0.056
X-1.052 Y12.857 Z-1.044 I0.948 J0.056
X-2.948 Y12.744 Z-1.148 I-0.948 J-0.056
X-1.05 Y12.8 Z-1.25 I0.948 J0.056
X-2.95 I-0.95
X-1.05 I0.95
G1 X-1.035 Y13.096 F850
X-1.033 Y13.246
X-1.078 Y13.389
X-1.153 Y13.519
X-1.249 Y13.634
X-1.362 Y13.733
X-1.489 Y13.813
X-1.626 Y13.875
X-1.77 Y13.917
X-1.918 Y13.939
X-2.068 Y13.941
X-2.217 Y13.923
X-2.362 Y13.885
X-2.501 Y13.829
X-2.631 Y13.754
X-2.751 Y13.664
X-2.858 Y13.558
X-2.949 Y13.44
X-3.025 Y13.31
X-3.083 Y13.172
X-3.122 Y13.027
X-3.142 Y12.878
Y12.728
X-3.123 Y12.579
X-3.085 Y12.434
X-3.028 Y12.296
X-2.953 Y12.166
X-2.862 Y12.047
X-2.756 Y11.94
X-2.637 Y11.849
X-2.507 Y11.774
X-2.368 Y11.716
X-2.223 Y11.677
X-2.075 Y11.658
X-1.925
X-1.776 Y11.678
X-1.631 Y11.716
X-1.493 Y11.774
X-1.363 Y11.849
X-1.244 Y11.941
X-1.138 Y12.047
X-1.047 Y12.166
X-0.972 Y12.296
X-0.915 Y12.435
X-0.873 Y12.579
X-0.84 Y12.725
X-0.817 Y12.873
X-0.809 Y13.023
X-0.819 Y13.173
X-0.851 Y13.319
X-0.904 Y13.46
X-0.975 Y13.591
X-1.064 Y13.712
X-1.168 Y13.821
X-1.284 Y13.915
X-1.412 Y13.994
X-1.548 Y14.056
X-1.691 Y14.102
X-1.839 Y14.13
X-1.988 Y14.142
X-2.138 Y14.137
X-2.286 Y14.114
X-2.431 Y14.075
X-2.571 Y14.02
X-2.703 Y13.949
X-2.826 Y13.864
X-2.939 Y13.765
X-3.041 Y13.655
X-3.13 Y13.535
X-3.205 Y13.405
X-3.265 Y13.267
X-3.308 Y13.123
X-3.336 Y12.976
X-3.347 Y12.826
X-3.342 Y12.676
X-3.321 Y12.528
X-3.282 Y12.383
X-3.228 Y12.243
X-3.158 Y12.111
X-3.074 Y11.986
X-2.977 Y11.872
X-2.868 Y11.769
X-2.748 Y11.678
X-2.619 Y11.602
X-2.482 Y11.541
X-2.339 Y11.496
X-2.192 Y11.466
X-2.043 Y11.453
X-1.893 Y11.456
X-1.744 Y11.476
X-1.599 Y11.513
X-1.458 Y11.566
X-1.325 Y11.634
X-1.199 Y11.716
X-1.083 Y11.812
X-0.979 Y11.919
X-0.887 Y12.038
X-0.809 Y12.166
X-0.743 Y12.301
X-0.688 Y12.44
X-0.645 Y12.584
X-0.615 Y12.731
X-0.597 Y12.88
X-0.595 Y13.03
X-0.609 Y13.179
X-0.64 Y13.326
X-0.687 Y13.469
X-0.749 Y13.605
X-0.826 Y13.734
X-0.917 Y13.854
X-1.02 Y13.962
X-1.135 Y14.059
X-1.259 Y14.143
X-1.392 Y14.213
X-1.531 Y14.269
X-1.675 Y14.311
X-1.822 Y14.339
X-1.971 Y14.351
X-2.121 Y14.349
X-2.27 Y14.331
X-2.417 Y14.299
X-2.559 Y14.252
X-2.697 Y14.192
X-2.828 Y14.119
X-2.952 Y14.034
X-3.066 Y13.938
X-3.171 Y13.83
X-3.264 Y13.713
X-3.346 Y13.587
X-3.415 Y13.454
X-3.472 Y13.315
X-3.515 Y13.171
X-3.544 Y13.024
X-3.558 Y12.875
Y12.725
X-3.544 Y12.576
X-3.515 Y12.428
X-3.472 Y12.285
X-3.416 Y12.146
X-3.347 Y12.012
X-3.265 Y11.887
X-3.171 Y11.769
X-3.067 Y11.662
X-2.952 Y11.565
X-2.829 Y11.479
X-2.699 Y11.406
X-2.562 Y11.345
X-2.419 Y11.297
X-2.273 Y11.264
X-2.124 Y11.245
X-1.974 Y11.24
X-1.825 Y11.25
X-1.677 Y11.274
X-1.531 Y11.312
X-1.391 Y11.364
X-1.255 Y11.429
X-1.127 Y11.507
X-1.007 Y11.597
X-0.896 Y11.698
X-0.795 Y11.808
X-0.704 Y11.928
X-0.624 Y12.054
X-0.553 Y12.187
X-0.494 Y12.325
X-0.446 Y12.467
X-0.41 Y12.612
X-0.387 Y12.761
X-0.376 Y12.91
X-0.379 Y13.06
X-0.396 Y13.209
X-0.426 Y13.356
X-0.47 Y13.5
X-0.527 Y13.638
X-0.598 Y13.771
X-0.68 Y13.896
X-0.774 Y14.013
X-0.878 Y14.121
X-0.992 Y14.219
X-1.114 Y14.305
X-1.244 Y14.38
X-1.381 Y14.443
X-1.522 Y14.493
X-1.667 Y14.531
X-1.815 Y14.556
X-1.964 Y14.568
X-2.114 Y14.567
X-2.264 Y14.553
X-2.411 Y14.525
X-2.556 Y14.485
X-2.696 Y14.433
X-2.832 Y14.369
X-2.962 Y14.294
X-3.085 Y14.208
X-3.2 Y14.112
X-3.307 Y14.006
X-3.404 Y13.892
X-3.491 Y13.77
X-3.567 Y13.641
X-3.633 Y13.506
X-3.686 Y13.366
X-3.728 Y13.222
X-3.758 Y13.075
X-3.775 Y12.926
X-3.78 Y12.776
X-3.771 Y12.626
X-3.75 Y12.477
X-3.716 Y12.331
X-3.671 Y12.188
X-3.613 Y12.05
X-3.545 Y11.916
X-3.465 Y11.789
X-3.375 Y11.67
X-3.274 Y11.558
X-3.165 Y11.455
X-3.048 Y11.362
X-2.923 Y11.279
X-2.791 Y11.206
X-2.654 Y11.145
X-2.513 Y11.096
X-2.368 Y11.058
X-2.22 Y11.034
X-2.07 Y11.022
X-1.92 Y11.023
X-1.771 Y11.036
X-1.623 Y11.061
X-1.478 Y11.099
X-1.336 Y11.149
X-1.199 Y11.21
X-1.068 Y11.284
X-0.944 Y11.368
X-0.827 Y11.461
X-0.718 Y11.564
X-0.617 Y11.676
X-0.526 Y11.794
X-0.443 Y11.919
X-0.369 Y12.05
X-0.306 Y12.186
X-0.253 Y12.326
X-0.211 Y12.47
X-0.18 Y12.617
X-0.16 Y12.766
X-0.152 Y12.915
X-0.155 Y13.065
X-0.171 Y13.215
X-0.198 Y13.362
X-0.238 Y13.507
X-0.29 Y13.648
X-0.353 Y13.784
X-0.427 Y13.914
X-0.511 Y14.038
X-0.605 Y14.155
X-0.708 Y14.264
X-0.82 Y14.364
X-0.939 Y14.455
X-1.066 Y14.535
X-1.199 Y14.605
X-1.336 Y14.664
X-1.478 Y14.713
X-1.624 Y14.75
X-1.772 Y14.776
X-1.921 Y14.79
X-2.071 Y14.793
X-2.221 Y14.784
X-2.369 Y14.763
X-2.516 Y14.73
X-2.659 Y14.687
X-2.799 Y14.633
X-2.935 Y14.569
X-3.065 Y14.495
X-3.19 Y14.411
X-3.307 Y14.318
X-3.417 Y14.216
X-3.52 Y14.107
X-3.613 Y13.989
X-3.697 Y13.865
X-3.772 Y13.735
X-3.838 Y13.6
X-3.893 Y13.461
X-3.937 Y13.318
X-3.971 Y13.171
X-3.993 Y13.023
X-4.004 Y12.873
Y12.723
X-3.992 Y12.574
X-3.97 Y12.426
X-3.936 Y12.279
X-3.892 Y12.136
X-3.838 Y11.996
X-3.773 Y11.861
X-3.697 Y11.731
X-3.613 Y11.607
X-3.519 Y11.49
X-3.416 Y11.381
X-3.306 Y11.279
X-3.189 Y11.186
X-3.065 Y11.101
X-2.935 Y11.026
X-2.8 Y10.961
X-2.66 Y10.906
X-2.517 Y10.862
X-2.371 Y10.829
X-2.222 Y10.807
X-2.073 Y10.796
X-1.923
X-1.773 Y10.807
X-1.625 Y10.83
X-1.478 Y10.863
X-1.335 Y10.907
X-1.196 Y10.963
X-1.061 Y11.028
X-0.931 Y11.103
X-0.807 Y11.188
X-0.689 Y11.281
X-0.579 Y11.382
X-0.475 Y11.49
X-0.379 Y11.606
X-0.291 Y11.727
X-0.212 Y11.855
X-0.142 Y11.987
X-0.081 Y12.125
X-0.03 Y12.265
X0.012 Y12.41
X0.043 Y12.556
X0.065 Y12.705
X0.077 Y12.854
X0.078 Y13.004
X0.068 Y13.154
X0.047 Y13.302
X0.015 Y13.449
X-0.027 Y13.593
X-0.079 Y13.734
X-0.141 Y13.87
X-0.213 Y14.002
X-0.294 Y14.128
X-0.384 Y14.248
X-0.483 Y14.361
X-0.59 Y14.466
X-0.704 Y14.563
X-0.825 Y14.652
X-0.952 Y14.732
X-1.084 Y14.803
X-1.221 Y14.864
X-1.362 Y14.916
X-1.506 Y14.958
X-1.652 Y14.99
X-1.801 Y15.011
X-1.951 Y15.021
X-2.101
X-2.25 Y15.011
X-2.399 Y14.991
X-2.546 Y14.96
X-2.69 Y14.92
X-2.832 Y14.87
X-2.969 Y14.81
X-3.103 Y14.742
X-3.231 Y14.664
X-3.353 Y14.577
X-3.47 Y14.483
X-3.58 Y14.38
X-3.682 Y14.271
X-3.777 Y14.155
X-3.865 Y14.033
X-3.944 Y13.906
X-4.014 Y13.773
X-4.075 Y13.636
X-4.126 Y13.495
X-4.168 Y13.351
X-4.2 Y13.204
X-4.222 Y13.056
X-4.234 Y12.906
X-4.236 Y12.756
X-4.228 Y12.607
X-4.211 Y12.458
X-4.183 Y12.31
X-4.145 Y12.165
X-4.098 Y12.023
X-4.041 Y11.884
X-3.975 Y11.749
X-3.9 Y11.619
X-3.817 Y11.495
X-3.725 Y11.376
X-3.626 Y11.263
X-3.519 Y11.158
X-3.406 Y11.06
X-3.286 Y10.969
X-3.161 Y10.887
X-3.03 Y10.814
X-2.894 Y10.749
X-2.755 Y10.694
X-2.612 Y10.648
X-2.466 Y10.612
X-2.319 Y10.586
X-2.17 Y10.569
X-2.02 Y10.563
X-1.87 Y10.566
X-1.721 Y10.58
X-1.572 Y10.604
X-1.426 Y10.638
X-1.283 Y10.681
X-1.142 Y10.734
X-1.006 Y10.796
X-0.873 Y10.866
X-0.746 Y10.946
X-0.624 Y11.033
X-0.508 Y11.128
X-0.398 Y11.231
X-0.295 Y11.34
X-0.199 Y11.455
X-0.111 Y11.576
X-0.03 Y11.702
X0.043 Y11.833
X0.108 Y11.968
X0.165 Y12.107
X0.212 Y12.249
X0.251 Y12.394
X0.28 Y12.541
X0.3 Y12.69
X0.311 Y12.84
X0.312 Y12.99
X0.304 Y13.14
X0.286 Y13.288
X0.259 Y13.436
X0.222 Y13.581
X0.175 Y13.724
X0.12 Y13.863
X0.055 Y13.999
X-0.018 Y14.13
X-0.099 Y14.256
X-0.189 Y14.376
X-0.286 Y14.49
X-0.39 Y14.598
X-0.501 Y14.699
X-0.619 Y14.792
X-0.742 Y14.878
X-0.871 Y14.955
X-1.004 Y15.024
X-1.141 Y15.085
X-1.282 Y15.136
X-1.426 Y15.179
X-1.572 Y15.213
X-1.72 Y15.237
X-1.869 Y15.252
X-2.019 Y15.258
X-2.169 Y15.254
X-2.318 Y15.24
X-2.467 Y15.218
X-2.613 Y15.186
X-2.758 Y15.146
X-2.899 Y15.096
X-3.038 Y15.038
X-3.172 Y14.972
X-3.302 Y14.898
X-3.428 Y14.815
X-3.548 Y14.725
X-3.662 Y14.628
X-3.77 Y14.524
X-3.872 Y14.414
X-3.966 Y14.297
X-4.054 Y14.175
X-4.134 Y14.049
X-4.206 Y13.917
X-4.27 Y13.781
X-4.325 Y13.642
X-4.372 Y13.5
X-4.41 Y13.354
X-4.44 Y13.207
X-4.46 Y13.059
X-4.471 Y12.909
X-4.473 Y12.759
X-4.466 Y12.609
X-4.45 Y12.46
X-4.425 Y12.312
X-4.391 Y12.166
X-4.349 Y12.022
X-4.297 Y11.881
X-4.237 Y11.744
X-4.169 Y11.61
X-4.093 Y11.481
X-4.009 Y11.357
X-3.918 Y11.238
X-3.819 Y11.124
X-3.715 Y11.017
X-3.604 Y10.916
X-3.487 Y10.822
X-3.364 Y10.736
X-3.236 Y10.657
X-3.104 Y10.586
X-2.968 Y10.523
X-2.828 Y10.469
X-2.685 Y10.423
X-2.54 Y10.386
X-2.393 Y10.358
X-2.244 Y10.338
X-2.094 Y10.328
X-1.944 Y10.326
X-1.795 Y10.334
X-1.646 Y10.351
X-1.498 Y10.377
X-1.352 Y10.412
X-1.208 Y10.456
X-1.068 Y10.508
X-0.931 Y10.569
X-0.797 Y10.637
X-0.668 Y10.713
X-0.543 Y10.797
X-0.424 Y10.888
X-0.31 Y10.985
X-0.202 Y11.089
X-0.1 Y11.2
X-0.005 Y11.315
X0.084 Y11.436
X0.166 Y11.562
X0.24 Y11.692
X0.307 Y11.826
X0.367 Y11.964
X0.418 Y12.105
X0.462 Y12.249
X0.497 Y12.394
X0.523 Y12.542
X0.541 Y12.691
X0.551 Y12.841
X0.552 Y12.991
X0.544 Y13.14
X0.527 Y13.29
X0.502 Y13.437
X0.468 Y13.584
X0.426 Y13.728
X0.376 Y13.869
X0.317 Y14.007
X0.25 Y14.141
X0.175 Y14.271
X0.093 Y14.396
X0.003 Y14.517
X-0.093 Y14.632
X-0.196 Y14.741
X-0.305 Y14.844
X-0.42 Y14.94
X-0.541 Y15.03
X-0.666 Y15.112
X-0.796 Y15.187
X-0.93 Y15.254
X-1.068 Y15.313
X-1.209 Y15.364
X-1.353 Y15.407
X-1.499 Y15.442
X-1.646 Y15.468
X-1.795 Y15.486
X-1.945 Y15.496
X-2.095 Y15.497
X-2.245 Y15.489
X-2.394 Y15.473
X-2.542 Y15.448
X-2.688 Y15.415
X-2.832 Y15.374
X-2.974 Y15.325
X-3.113 Y15.268
X-3.248 Y15.203
X-3.38 Y15.131
X-3.507 Y15.052
X-3.63 Y14.966
X-3.748 Y14.873
X-3.86 Y14.773
X-3.966 Y14.667
X-4.067 Y14.556
X-4.161 Y14.439
X-4.248 Y14.317
X-4.329 Y14.191
X-4.403 Y14.06
X-4.469 Y13.926
X-4.528 Y13.788
X-4.579 Y13.647
X-4.622 Y13.503
X-4.657 Y13.357
X-4.683 Y13.209
X-4.702 Y13.061
X-4.712 Y12.911
X-4.714 Y12.761
X-4.708 Y12.611
X-4.693 Y12.462
X-4.671 Y12.313
X-4.64 Y12.167
X-4.601 Y12.022
X-4.554 Y11.879
X-4.499 Y11.74
X-4.437 Y11.603
X-4.367 Y11.47
X-4.29 Y11.342
X-4.206 Y11.218
X-4.115 Y11.098
X-4.018 Y10.984
X-3.914 Y10.875
X-3.805 Y10.772
X-3.691 Y10.676
X-3.571 Y10.585
X-3.446 Y10.502
X-3.317 Y10.426
X-3.184 Y10.357
X-3.047 Y10.295
X-2.907 Y10.241
X-2.764 Y10.195
X-2.619 Y10.157
X-2.472 Y10.127
X-2.324 Y10.105
X-2.175 Y10.091
X-2.025 Y10.085
X-1.875 Y10.088
X-1.725 Y10.099
X-1.577 Y10.118
X-1.429 Y10.146
X-1.283 Y10.181
X-1.14 Y10.225
X-0.999 Y10.276
X-0.861 Y10.335
X-0.726 Y10.401
X-0.595 Y10.474
X-0.468 Y10.554
X-0.346 Y10.641
X-0.229 Y10.734
X-0.116 Y10.834
X-0.009 Y10.939
X0.092 Y11.05
X0.187 Y11.165
X0.276 Y11.286
X0.359 Y11.411
X0.435 Y11.541
X0.504 Y11.674
X0.567 Y11.81
X0.622 Y11.949
X0.67 Y12.092
X0.71 Y12.236
X0.743 Y12.382
X0.768 Y12.53
X0.785 Y12.679
X0.794 Y12.829
X0.795 Y12.979
X0.788 Y13.129
X0.774 Y13.278
X0.751 Y13.427
X0.721 Y13.573
X0.683 Y13.719
X0.637 Y13.861
X0.584 Y14.002
X0.523 Y14.139
X0.454 Y14.272
X0.379 Y14.402
X0.297 Y14.527
X0.208 Y14.648
X0.113 Y14.764
X0.012 Y14.875
X-0.095 Y14.98
X-0.207 Y15.08
X-0.325 Y15.173
X-0.447 Y15.26
X-0.574 Y15.34
X-0.705 Y15.413
X-0.839 Y15.479
X-0.977 Y15.538
X-1.118 Y15.59
X-1.262 Y15.634
X-1.407 Y15.671
X-1.554 Y15.7
X-1.703 Y15.721
X-1.852 Y15.735
X-2.002 Y15.741
X-2.152 Y15.739
X-2.302 Y15.729
X-2.451 Y15.711
X-2.598 Y15.686
X-2.745 Y15.652
X-2.889 Y15.612
X-3.031 Y15.564
X-3.171 Y15.509
X-3.307 Y15.447
X-3.44 Y15.378
X-3.57 Y15.302
X-3.695 Y15.22
X-3.816 Y15.131
X-3.933 Y15.036
X-4.044 Y14.936
X-4.15 Y14.829
X-4.25 Y14.718
X-4.345 Y14.602
X-4.433 Y14.48
X-4.516 Y14.355
X-4.591 Y14.226
X-4.661 Y14.093
X-4.723 Y13.956
X-4.779 Y13.817
X-4.827 Y13.675
X-4.868 Y13.53
X-4.901 Y13.384
X-4.927 Y13.236
X-4.945 Y13.088
X-4.956 Y12.938
X-4.959 Y12.788
X-4.955 Y12.638
X-4.943 Y12.489
X-4.923 Y12.34
X-4.896 Y12.192
X-4.862 Y12.046
X-4.821 Y11.902
X-4.772 Y11.76
X-4.715 Y11.621
X-4.652 Y11.485
X-4.582 Y11.353
X-4.505 Y11.224
X-4.422 Y11.099
X-4.332 Y10.979
X-4.237 Y10.863
X-4.136 Y10.752
X-4.03 Y10.646
X-3.918 Y10.546
X-3.802 Y10.451
X-3.681 Y10.363
X-3.555 Y10.281
X-3.425 Y10.206
X-3.292 Y10.137
X-3.155 Y10.075
X-3.016 Y10.02
X-2.873 Y9.972
X-2.729 Y9.932
X-2.583 Y9.898
X-2.435 Y9.872
X-2.286 Y9.854
X-2.137 Y9.843
X-1.987 Y9.84
X-1.837 Y9.844
X-1.687 Y9.856
X-1.539 Y9.876
X-1.391 Y9.903
X-1.245 Y9.938
X-1.101 Y9.98
X-0.959 Y10.029
X-0.82 Y10.084
X-0.684 Y10.147
X-0.551 Y10.216
X-0.421 Y10.292
X-0.296 Y10.374
X-0.174 Y10.462
X-0.057 Y10.556
X0.055 Y10.656
X0.162 Y10.761
X0.263 Y10.871
X0.36 Y10.986
X0.451 Y11.106
X0.536 Y11.229
X0.615 Y11.357
X0.687 Y11.488
X0.754 Y11.622
X0.814 Y11.76
X0.867 Y11.9
X0.914 Y12.043
X0.953 Y12.187
X0.985 Y12.334
X1.01 Y12.482
X1.028 Y12.631
X1.039 Y12.78
X1.042 Y12.93
X1.038 Y13.08
X1.027 Y13.23
X1.009 Y13.379
X0.984 Y13.527
X0.951 Y13.673
X0.911 Y13.818
X0.864 Y13.96
X0.81 Y14.1
X0.748 Y14.237
X0.681 Y14.371
X0.607 Y14.501
X0.526 Y14.628
X0.439 Y14.75
X0.347 Y14.868
X0.249 Y14.982
X0.146 Y15.09
X0.037 Y15.194
X-0.077 Y15.292
X-0.195 Y15.384
X-0.318 Y15.47
X-0.445 Y15.55
X-0.576 Y15.623
X-0.71 Y15.691
X-0.847 Y15.751
X-0.987 Y15.805
X-1.129 Y15.852
X-1.274 Y15.893
X-1.42 Y15.926
X-1.568 Y15.952
X-1.716 Y15.972
X-1.866 Y15.984
X-2.016 Y15.988
X-2.166 Y15.986
X-2.316 Y15.976
X-2.465 Y15.959
X-2.613 Y15.934
X-2.759 Y15.903
X-2.904 Y15.865
X-3.048 Y15.821
X-3.188 Y15.769
X-3.327 Y15.711
X-3.462 Y15.647
X-3.595 Y15.576
X-3.723 Y15.499
X-3.848 Y15.416
X-3.969 Y15.327
X-4.085 Y15.232
X-4.197 Y15.132
X-4.304 Y15.027
X-4.406 Y14.917
X-4.502 Y14.802
X-4.594 Y14.683
X-4.679 Y14.56
X-4.759 Y14.433
X-4.833 Y14.302
X-4.9 Y14.168
X-4.961 Y14.031
X-5.016 Y13.891
X-5.064 Y13.749
X-5.105 Y13.605
X-5.139 Y13.459
X-5.166 Y13.311
X-5.187 Y13.163
X-5.2 Y13.013
X-5.207 Y12.863
X-5.206 Y12.713
X-5.199 Y12.564
X-5.185 Y12.414
X-5.163 Y12.266
X-5.135 Y12.119
X-5.1 Y11.973
X-5.058 Y11.829
X-5.009 Y11.687
X-4.954 Y11.548
X-4.892 Y11.411
X-4.823 Y11.277
X-4.749 Y11.147
X-4.669 Y11.02
X-4.583 Y10.897
X-4.491 Y10.779
X-4.394 Y10.664
X-4.292 Y10.555
X-4.184 Y10.45
X-4.072 Y10.35
X-3.955 Y10.256
X-3.834 Y10.168
X-3.709 Y10.085
X-3.58 Y10.008
X-3.448 Y9.937
X-3.313 Y9.873
X-3.174 Y9.815
X-3.034 Y9.763
X-2.891 Y9.718
X-2.746 Y9.679
X-2.599 Y9.648
X-2.451 Y9.623
X-2.302 Y9.606
X-2.152 Y9.595
X-2.002 Y9.591
X-1.852 Y9.595
X-1.703 Y9.605
X-1.554 Y9.623
X-1.406 Y9.647
X-1.259 Y9.678
X-1.114 Y9.716
X-0.971 Y9.76
X-0.83 Y9.811
X-0.691 Y9.869
X-0.555 Y9.932
X-0.422 Y10.002
X-0.293 Y10.078
X-0.167 Y10.16
X-0.045 Y10.247
X0.072 Y10.34
X0.186 Y10.438
X0.295 Y10.541
X0.399 Y10.649
X0.499 Y10.761
X0.593 Y10.878
X0.682 Y10.999
X0.765 Y11.123
X0.843 Y11.252
X0.916 Y11.383
X0.982 Y11.518
X1.042 Y11.655
X1.095 Y11.795
X1.143 Y11.937
X1.184 Y12.082
X1.218 Y12.228
X1.246 Y12.375
X1.268 Y12.524
X1.283 Y12.673
X1.291 Y12.823
X1.292 Y12.973
X1.287 Y13.123
X1.275 Y13.272
X1.256 Y13.421
X1.23 Y13.569
X1.198 Y13.715
X1.158 Y13.86
X1.113 Y14.003
X1.061 Y14.143
X1.002 Y14.282
X0.938 Y14.417
X0.867 Y14.549
X0.791 Y14.678
X0.708 Y14.804
X0.621 Y14.925
X0.527 Y15.043
X0.429 Y15.156
X0.325 Y15.264
X0.216 Y15.368
X0.103 Y15.466
X-0.014 Y15.56
X-0.136 Y15.647
X-0.261 Y15.73
X-0.39 Y15.806
X-0.522 Y15.877
X-0.658 Y15.942
X-0.796 Y16
X-0.936 Y16.053
X-1.079 Y16.099
X-1.224 Y16.139
X-1.37 Y16.172
X-1.518 Y16.198
X-1.666 Y16.218
X-1.816 Y16.231
X-1.966 Y16.238
X-2.116 Y16.237
X-2.265 Y16.23
X-2.415 Y16.217
X-2.564 Y16.197
X-2.711 Y16.171
X-2.858 Y16.138
X-3.002 Y16.098
X-3.145 Y16.053
X-3.286 Y16.001
X-3.424 Y15.943
X-3.56 Y15.879
X-3.692 Y15.809
X-3.822 Y15.733
X-3.948 Y15.651
X-4.07 Y15.564
X-4.188 Y15.472
X-4.303 Y15.375
X-4.413 Y15.273
X-4.518 Y15.166
X-4.619 Y15.055
X-4.714 Y14.94
X-4.805 Y14.82
X-4.89 Y14.697
X-4.97 Y14.57
X-5.044 Y14.439
X-5.113 Y14.306
X-5.175 Y14.169
X-5.232 Y14.03
X-5.282 Y13.889
X-5.326 Y13.746
X-5.364 Y13.601
X-5.396 Y13.454
X-5.421 Y13.306
X-5.44 Y13.157
X-5.453 Y13.008
X-5.459 Y12.858
X-5.458 Y12.708
X-5.451 Y12.558
X-5.437 Y12.409
X-5.417 Y12.26
X-5.39 Y12.113
X-5.357 Y11.966
X-5.318 Y11.822
X-5.273 Y11.679
X-5.221 Y11.538
X-5.163 Y11.399
X-5.1 Y11.264
X-5.03 Y11.131
X-4.955 Y11.001
X-4.874 Y10.874
X-4.788 Y10.752
X-4.697 Y10.633
X-4.6 Y10.518
X-4.499 Y10.407
X-4.393 Y10.301
X-4.282 Y10.2
X-4.167 Y10.103
X-4.048 Y10.012
X-3.926 Y9.926
X-3.799 Y9.845
X-3.669 Y9.77
X-3.537 Y9.7
X-3.401 Y9.636
X-3.262 Y9.579
X-3.122 Y9.527
X-2.979 Y9.481
X-2.834 Y9.442
X-2.688 Y9.409
X-2.54 Y9.383
X-2.391 Y9.362
X-2.242 Y9.349
X-2.092 Y9.341
X-1.942
X-1.792 Y9.346
X-1.643 Y9.358
X-1.494 Y9.377
X-1.346 Y9.402
X-1.199 Y9.433
X-1.054 Y9.471
X-0.911 Y9.515
X-0.769 Y9.565
X-0.63 Y9.62
X-0.493 Y9.682
X-0.359 Y9.75
X-0.228 Y9.823
X-0.101 Y9.902
X0.024 Y9.986
X0.144 Y10.075
X0.261 Y10.169
X0.374 Y10.268
X0.483 Y10.371
X0.587 Y10.479
X0.686 Y10.591
X0.781 Y10.708
X0.871 Y10.828
X0.956 Y10.951
X1.035 Y11.079
X1.109 Y11.209
X1.178 Y11.342
X1.241 Y11.478
X1.299 Y11.617
X1.35 Y11.758
X1.396 Y11.901
X1.436 Y12.045
X1.47 Y12.191
X1.497 Y12.339
X1.519 Y12.487
X1.534 Y12.636
X1.543 Y12.786
X1.545 Y12.936
X1.542 Y13.086
X1.532 Y13.236
X1.516 Y13.385
X1.493 Y13.533
X1.465 Y13.68
X1.43 Y13.826
X1.389 Y13.971
X1.342 Y14.113
X1.289 Y14.254
X1.23 Y14.392
X1.166 Y14.527
X1.095 Y14.659
X1.019 Y14.789
X0.938 Y14.915
X0.852 Y15.038
X0.76 Y15.156
X0.664 Y15.271
X0.563 Y15.382
X0.457 Y15.488
X0.347 Y15.59
X0.232 Y15.687
X0.114 Y15.779
X-0.008 Y15.867
X-0.134 Y15.948
X-0.263 Y16.025
X-0.395 Y16.096
X-0.53 Y16.162
X-0.667 Y16.221
X-0.807 Y16.275
X-0.949 Y16.324
X-1.093 Y16.366
X-1.239 Y16.402
X-1.386 Y16.432
X-1.534 Y16.456
X-1.683 Y16.474
X-1.832 Y16.486
X-1.982 Y16.491
X-2.132
X-2.282 Y16.484
X-2.431 Y16.47
X-2.58 Y16.451
X-2.728 Y16.426
X-2.875 Y16.394
X-3.02 Y16.357
X-3.164 Y16.314
X-3.305 Y16.265
X-3.445 Y16.21
X-3.582 Y16.149
X-3.717 Y16.083
X-3.849 Y16.011
X-3.978 Y15.935
X-4.103 Y15.853
X-4.226 Y15.765
X-4.344 Y15.673
X-4.459 Y15.576
X-4.57 Y15.474
X-4.677 Y15.367
X-4.78 Y15.257
X-4.878 Y15.142
X-4.971 Y15.023
X-5.059 Y14.9
X-5.142 Y14.774
X-5.221 Y14.644
X-5.293 Y14.512
X-5.361 Y14.376
X-5.422 Y14.239
X-5.478 Y14.099
X-5.528 Y13.957
X-5.572 Y13.813
X-5.61 Y13.667
X-5.643 Y13.519
X-5.669 Y13.37
X-5.689 Y13.22
X-5.703 Y13.069
X-5.711 Y12.918
X-5.713 Y12.766
X-5.709 Y12.615
X-5.698 Y12.463
X-5.681 Y12.312
X-5.658 Y12.162
X-5.629 Y12.013
X-5.594 Y11.865
X-5.553 Y11.72
X-5.506 Y11.576
X-5.454 Y11.435
X-5.396 Y11.296
X-5.332 Y11.159
X-5.262 Y11.024
X-5.187 Y10.893
X-5.107 Y10.765
X-5.021 Y10.639
X-4.93 Y10.518
X-4.834 Y10.4
X-4.734 Y10.286
X-4.629 Y10.177
X-4.519 Y10.071
X-4.405 Y9.97
X-4.287 Y9.874
X-4.165 Y9.782
X-4.04 Y9.696
X-3.913 Y9.616
X-3.782 Y9.541
X-3.649 Y9.472
X-3.512 Y9.407
X-3.373 Y9.349
X-3.231 Y9.296
X-3.087 Y9.248
X-2.941 Y9.207
X-2.793 Y9.172
X-2.644 Y9.142
X-2.493 Y9.119
X-2.342 Y9.102
X-2.189 Y9.091
X-2.037 Y9.086
X-1.884 Y9.087
X-1.732 Y9.095
X-1.58 Y9.109
X-1.429 Y9.129
X-1.28 Y9.155
X-1.131 Y9.187
X-0.984 Y9.226
X-0.837 Y9.27
X-0.692 Y9.321
X-0.549 Y9.378
X-0.408 Y9.44
X-0.269 Y9.509
X-0.133 Y9.584
X0.001 Y9.664
X0.131 Y9.749
X0.258 Y9.84
X0.381 Y9.936
X0.5 Y10.037
X0.615 Y10.144
X0.726 Y10.255
X0.833 Y10.37
X0.935 Y10.49
X1.032 Y10.614
X1.124 Y10.742
X1.21 Y10.874
X1.291 Y11.009
X1.367 Y11.148
X1.437 Y11.29
X1.501 Y11.434
X1.559 Y11.58
X1.611 Y11.729
X1.657 Y11.88
X1.697 Y12.032
X1.73 Y12.186
X1.757 Y12.341
X1.778 Y12.496
X1.792 Y12.653
X1.8 Y12.809
X1.802 Y12.965
X1.797 Y13.121
X1.786 Y13.277
X1.768 Y13.432
X1.744 Y13.586
X1.714 Y13.739
X1.678 Y13.89
X1.636 Y14.04
X1.587 Y14.187
X1.533 Y14.333
X1.472 Y14.477
X1.406 Y14.617
X1.334 Y14.756
X1.257 Y14.891
X1.174 Y15.022
X1.085 Y15.151
X0.992 Y15.276
X0.893 Y15.397
X0.789 Y15.513
X0.681 Y15.626
X0.569 Y15.734
X0.452 Y15.837
X0.331 Y15.935
X0.206 Y16.029
X0.076 Y16.117
X-0.056 Y16.201
X-0.192 Y16.278
X-0.332 Y16.351
X-0.474 Y16.417
X-0.619 Y16.478
X-0.767 Y16.533
X-0.917 Y16.582
X-1.069 Y16.625
X-1.223 Y16.661
X-1.378 Y16.691
X-1.534 Y16.715
X-1.691 Y16.733
X-1.848 Y16.744
X-2.007 Y16.748
X-2.165 Y16.747
X-2.324 Y16.738
X-2.482 Y16.723
X-2.64 Y16.702
X-2.797 Y16.674
X-2.953 Y16.64
X-3.108 Y16.6
X-3.261 Y16.553
X-3.412 Y16.499
X-3.561 Y16.44
X-3.707 Y16.375
X-3.851 Y16.304
X-3.991 Y16.227
X-4.128 Y16.144
X-4.262 Y16.056
X-4.393 Y15.962
X-4.519 Y15.863
X-4.642 Y15.758
X-4.76 Y15.649
X-4.874 Y15.535
X-4.983 Y15.416
X-5.087 Y15.292
X-5.186 Y15.165
X-5.28 Y15.034
X-5.369 Y14.898
X-5.452 Y14.76
X-5.529 Y14.618
X-5.6 Y14.473
X-5.665 Y14.325
X-5.724 Y14.175
X-5.777 Y14.023
X-5.824 Y13.868
X-5.865 Y13.712
X-5.899 Y13.553
X-5.926 Y13.394
X-5.947 Y13.233
X-5.962 Y13.072
X-5.97 Y12.91
X-5.971 Y12.748
X-5.966 Y12.586
X-5.954 Y12.424
X-5.935 Y12.263
X-5.91 Y12.103
X-5.878 Y11.944
X-5.84 Y11.787
X-5.796 Y11.631
X-5.745 Y11.478
X-5.688 Y11.326
X-5.625 Y11.177
X-5.556 Y11.031
X-5.481 Y10.887
X-5.4 Y10.747
X-5.314 Y10.61
X-5.221 Y10.477
X-5.124 Y10.347
X-5.021 Y10.221
X-4.913 Y10.1
X-4.8 Y9.983
X-4.682 Y9.871
X-4.56 Y9.763
X-4.434 Y9.661
X-4.304 Y9.565
X-4.171 Y9.474
X-4.034 Y9.388
X-3.893 Y9.308
X-3.749 Y9.234
X-3.603 Y9.166
X-3.453 Y9.103
X-3.301 Y9.047
X-3.147 Y8.997
X-2.99 Y8.953
X-2.832 Y8.916
X-2.672 Y8.885
X-2.511 Y8.861
X-2.349 Y8.843
X-2.187 Y8.832
X-2.024 Y8.828
X-1.861 Y8.83
X-1.698 Y8.839
X-1.537 Y8.854
X-1.375 Y8.876
X-1.215 Y8.905
X-1.055 Y8.94
X-0.897 Y8.982
X-0.741 Y9.03
X-0.586 Y9.085
X-0.433 Y9.146
X-0.282 Y9.214
X-0.134 Y9.288
X0.011 Y9.368
X0.153 Y9.454
X0.292 Y9.546
X0.427 Y9.643
X0.558 Y9.746
X0.685 Y9.855
X0.807 Y9.969
X0.925 Y10.087
X1.038 Y10.211
X1.146 Y10.34
X1.249 Y10.472
X1.347 Y10.609
X1.439 Y10.75
X1.525 Y10.895
X1.605 Y11.043
X1.679 Y11.194
X1.746 Y11.348
X1.808 Y11.504
X1.862 Y11.663
X1.911 Y11.824
X1.952 Y11.987
X1.987 Y12.151
X2.016 Y12.316
X2.037 Y12.482
X2.052 Y12.649
X2.06 Y12.816
X2.061 Y12.983
X2.055 Y13.15
X2.042 Y13.316
X2.023 Y13.481
X1.997 Y13.646
X1.964 Y13.809
X1.925 Y13.97
X1.879 Y14.13
X1.826 Y14.288
X1.767 Y14.443
X1.702 Y14.596
X1.631 Y14.746
X1.554 Y14.894
X1.47 Y15.038
X1.381 Y15.178
X1.286 Y15.315
X1.186 Y15.448
X1.08 Y15.576
X0.969 Y15.701
X0.853 Y15.82
X0.732 Y15.935
X0.607 Y16.045
X0.477 Y16.15
X0.343 Y16.249
X0.205 Y16.343
X0.063 Y16.431
X-0.083 Y16.514
X-0.232 Y16.591
X-0.385 Y16.661
X-0.54 Y16.725
X-0.698 Y16.783
X-0.858 Y16.835
X-1.02 Y16.88
X-1.184 Y16.918
X-1.349 Y16.95
X-1.516 Y16.975
X-1.684 Y16.993
X-1.852 Y17.004
X-2.021 Y17.008
X-2.191 Y17.005
X-2.36 Y16.996
X-2.529 Y16.979
X-2.697 Y16.956
X-2.865 Y16.926
X-3.031 Y16.889
X-3.196 Y16.845
X-3.359 Y16.794
X-3.519 Y16.737
X-3.677 Y16.673
X-3.833 Y16.603
X-3.986 Y16.527
X-4.135 Y16.444
X-4.281 Y16.355
X-4.424 Y16.26
X-4.563 Y16.16
X-4.697 Y16.053
X-4.827 Y15.941
X-4.953 Y15.824
X-5.074 Y15.702
X-5.189 Y15.575
X-5.3 Y15.443
X-5.405 Y15.307
X-5.505 Y15.167
X-5.598 Y15.022
X-5.686 Y14.874
X-5.767 Y14.723
X-5.843 Y14.568
X-5.912 Y14.411
X-5.974 Y14.25
X-6.03 Y14.087
X-6.079 Y13.922
X-6.122 Y13.755
X-6.157 Y13.587
X-6.186 Y13.417
X-6.208 Y13.245
X-6.223 Y13.073
X-6.23 Y12.901
X-6.231 Y12.728
X-6.225 Y12.556
X-6.211 Y12.383
X-6.191 Y12.212
X-6.163 Y12.041
X-6.129 Y11.872
X-6.088 Y11.705
X-6.04 Y11.539
X-5.985 Y11.376
X-5.924 Y11.215
X-5.856 Y11.056
X-5.782 Y10.9
X-5.701 Y10.747
X-5.614 Y10.598
X-5.522 Y10.453
X-5.423 Y10.311
X-5.318 Y10.173
X-5.208 Y10.039
X-5.093 Y9.911
X-4.972 Y9.787
X-4.846 Y9.668
X-4.716 Y9.554
X-4.582 Y9.446
X-4.443 Y9.344
X-4.3 Y9.247
X-4.153 Y9.156
X-4.003 Y9.071
X-3.849 Y8.993
X-3.693 Y8.921
X-3.533 Y8.855
X-3.37 Y8.796
X-3.206 Y8.743
X-3.039 Y8.697
X-2.87 Y8.658
X-2.7 Y8.626
X-2.528 Y8.6
X-2.356 Y8.582
X-2.182 Y8.571
X-2.009 Y8.567
X-1.836 Y8.57
X-1.663 Y8.58
X-1.49 Y8.597
X-1.318 Y8.622
X-1.147 Y8.653
X-0.977 Y8.691
X-0.808 Y8.736
X-0.641 Y8.789
X-0.477 Y8.848
X-0.314 Y8.913
X-0.154 Y8.986
X0.003 Y9.065
X0.158 Y9.151
X0.308 Y9.243
X0.455 Y9.341
X0.599 Y9.446
X0.738 Y9.556
X0.872 Y9.672
X1.002 Y9.793
X1.127 Y9.92
X1.247 Y10.052
X1.361 Y10.189
X1.47 Y10.331
X1.573 Y10.477
X1.67 Y10.627
X1.761 Y10.781
X1.845 Y10.938
X1.923 Y11.099
X1.994 Y11.263
X2.059 Y11.43
X2.117 Y11.599
X2.167 Y11.77
X2.211 Y11.943
X2.248 Y12.118
X2.277 Y12.293
X2.299 Y12.47
X2.314 Y12.647
X2.321 Y12.825
X2.322 Y13.003
X2.315 Y13.18
X2.301 Y13.357
X2.28 Y13.533
X2.251 Y13.708
X2.216 Y13.881
X2.173 Y14.053
X2.123 Y14.223
X2.067 Y14.391
X2.004 Y14.556
X1.934 Y14.719
X1.857 Y14.878
X1.774 Y15.035
X1.685 Y15.188
X1.589 Y15.337
X1.488 Y15.482
X1.381 Y15.623
X1.267 Y15.759
X1.149 Y15.891
X1.025 Y16.018
X0.896 Y16.14
X0.762 Y16.256
X0.623 Y16.367
X0.48 Y16.472
X0.332 Y16.572
X0.181 Y16.665
X0.025 Y16.753
X-0.134 Y16.833
X-0.296 Y16.908
X-0.461 Y16.976
X-0.629 Y17.037
X-0.8 Y17.091
X-0.972 Y17.138
X-1.147 Y17.178
X-1.323 Y17.211
X-1.5 Y17.236
X-1.679 Y17.255
X-1.858 Y17.266
X-2.038 Y17.27
X-2.218 Y17.267
X-2.398 Y17.256
X-2.578 Y17.238
X-2.757 Y17.212
X-2.934 Y17.179
X-3.111 Y17.139
X-3.285 Y17.092
X-3.458 Y17.037
X-3.629 Y16.976
X-3.797 Y16.908
X-3.962 Y16.832
X-4.124 Y16.75
X-4.282 Y16.662
X-4.437 Y16.567
X-4.588 Y16.465
X-4.735 Y16.358
X-4.878 Y16.244
X-5.016 Y16.125
X-5.149 Y16
X-5.276 Y15.87
X-5.399 Y15.735
X-5.516 Y15.594
X-5.627 Y15.449
X-5.732 Y15.3
X-5.831 Y15.146
X-5.923 Y14.988
X-6.009 Y14.827
X-6.088 Y14.663
X-6.161 Y14.495
X-6.227 Y14.324
X-6.286 Y14.151
X-6.337 Y13.975
X-6.382 Y13.798
X-6.419 Y13.618
X-6.449 Y13.438
X-6.471 Y13.256
X-6.486 Y13.073
X-6.493 Y12.89
Y12.706
X-6.486 Y12.523
X-6.471 Y12.34
X-6.449 Y12.158
X-6.419 Y11.978
X-6.382 Y11.798
X-6.337 Y11.62
X-6.286 Y11.445
X-6.227 Y11.271
X-6.161 Y11.1
X-6.088 Y10.932
X-6.009 Y10.767
X-5.923 Y10.605
X-5.83 Y10.446
X-5.73 Y10.292
X-5.625 Y10.142
X-5.513 Y9.996
X-5.396 Y9.855
X-5.273 Y9.718
X-5.144 Y9.587
X-5.011 Y9.462
X-4.872 Y9.342
X-4.729 Y9.227
X-4.581 Y9.119
X-4.428 Y9.017
X-4.272 Y8.921
X-4.112 Y8.832
X-3.948 Y8.749
X-3.781 Y8.673
X-3.611 Y8.603
X-3.439 Y8.541
X-3.263 Y8.486
X-3.086 Y8.438
X-2.906 Y8.397
X-2.726 Y8.363
X-2.543 Y8.337
X-2.36 Y8.319
X-2.177 Y8.308
X-1.992 Y8.304
X-1.808 Y8.308
X-1.624 Y8.319
X-1.441 Y8.338
X-1.258 Y8.365
X-1.076 Y8.399
X-0.896 Y8.44
X-0.717 Y8.489
X-0.54 Y8.545
X-0.365 Y8.608
X-0.192 Y8.679
X-0.023 Y8.757
X0.144 Y8.841
X0.307 Y8.933
X0.467 Y9.031
X0.622 Y9.136
X0.774 Y9.247
X0.921 Y9.365
X1.063 Y9.488
X1.2 Y9.618
X1.332 Y9.753
X1.458 Y9.893
X1.579 Y10.039
X1.694 Y10.189
X1.802 Y10.344
X1.904 Y10.504
X2 Y10.667
X2.089 Y10.834
X2.171 Y11.005
X2.246 Y11.179
X2.313 Y11.356
X2.374 Y11.536
X2.427 Y11.717
X2.472 Y11.901
X2.51 Y12.086
X2.541 Y12.272
X2.563 Y12.46
X2.579 Y12.648
X2.586 Y12.836
Y13.025
X2.578 Y13.213
X2.562 Y13.4
X2.539 Y13.587
X2.508 Y13.772
X2.469 Y13.956
X2.423 Y14.138
X2.37 Y14.319
X2.309 Y14.496
X2.242 Y14.672
X2.167 Y14.844
X2.085 Y15.013
X1.996 Y15.179
X1.901 Y15.341
X1.799 Y15.498
X1.691 Y15.652
X1.576 Y15.801
X1.455 Y15.945
X1.329 Y16.085
X1.197 Y16.219
X1.06 Y16.348
X0.917 Y16.471
X0.769 Y16.588
X0.617 Y16.699
X0.46 Y16.804
X0.299 Y16.902
X0.134 Y16.994
X-0.035 Y17.079
X-0.208 Y17.158
X-0.383 Y17.229
X-0.562 Y17.293
X-0.743 Y17.349
X-0.926 Y17.399
X-1.111 Y17.44
X-1.298 Y17.475
X-1.486 Y17.501
X-1.676 Y17.52
X-1.866 Y17.531
X-2.057 Y17.535
X-2.248 Y17.53
X-2.438 Y17.518
X-2.629 Y17.498
X-2.818 Y17.47
X-3.006 Y17.435
X-3.193 Y17.391
X-3.378 Y17.341
X-3.561 Y17.282
X-3.741 Y17.216
X-3.919 Y17.143
X-4.093 Y17.063
X-4.265 Y16.975
X-4.432 Y16.881
X-4.596 Y16.78
X-4.756 Y16.672
X-4.911 Y16.557
X-5.062 Y16.436
X-5.207 Y16.309
X-5.347 Y16.177
X-5.482 Y16.038
X-5.611 Y15.894
X-5.735 Y15.745
X-5.851 Y15.591
X-5.962 Y15.432
X-6.066 Y15.269
X-6.164 Y15.102
X-6.254 Y14.931
X-6.337 Y14.756
X-6.414 Y14.578
X-6.483 Y14.397
X-6.544 Y14.213
X-6.598 Y14.027
X-6.644 Y13.839
X-6.683 Y13.648
X-6.714 Y13.457
X-6.737 Y13.264
X-6.752 Y13.071
X-6.759 Y12.877
X-6.758 Y12.683
X-6.75 Y12.489
X-6.733 Y12.295
X-6.709 Y12.103
X-6.676 Y11.911
X-6.636 Y11.721
X-6.589 Y11.533
X-6.533 Y11.347
X-6.47 Y11.164
X-6.4 Y10.983
X-6.322 Y10.805
X-6.237 Y10.63
X-6.145 Y10.459
X-6.046 Y10.292
X-5.94 Y10.128
X-5.828 Y9.97
X-5.709 Y9.816
X-5.584 Y9.667
X-5.454 Y9.523
X-5.317 Y9.385
X-5.175 Y9.253
X-5.028 Y9.126
X-4.875 Y9.006
X-4.718 Y8.891
X-4.556 Y8.784
X-4.39 Y8.683
X-4.22 Y8.589
X-4.047 Y8.502
X-3.869 Y8.422
X-3.689 Y8.349
X-3.506 Y8.284
X-3.32 Y8.226
X-3.132 Y8.176
X-2.942 Y8.133
X-2.75 Y8.098
X-2.557 Y8.072
X-2.363 Y8.053
X-2.168 Y8.042
X-1.973 Y8.039
X-1.778 Y8.043
X-1.583 Y8.056
X-1.389 Y8.077
X-1.195 Y8.106
X-1.003 Y8.143
X-0.812 Y8.187
X-0.623 Y8.24
X-0.435 Y8.3
X-0.25 Y8.368
X-0.068 Y8.443
X0.111 Y8.526
X0.287 Y8.616
X0.459 Y8.714
X0.628 Y8.818
X0.792 Y8.93
X0.952 Y9.048
X1.107 Y9.173
X1.257 Y9.304
X1.401 Y9.442
X1.54 Y9.585
X1.673 Y9.734
X1.8 Y9.888
X1.921 Y10.048
X2.035 Y10.212
X2.142 Y10.381
X2.242 Y10.554
X2.336 Y10.731
X2.422 Y10.912
X2.5 Y11.096
X2.571 Y11.284
X2.634 Y11.473
X2.689 Y11.666
X2.737 Y11.86
X2.776 Y12.056
X2.807 Y12.253
X2.831 Y12.451
X2.846 Y12.65
X2.853 Y12.849
X2.852 Y13.049
X2.842 Y13.248
X2.825 Y13.446
X2.8 Y13.643
X2.766 Y13.839
X2.725 Y14.034
X2.675 Y14.227
X2.618 Y14.417
X2.553 Y14.605
X2.481 Y14.79
X2.401 Y14.972
X2.314 Y15.151
X2.219 Y15.326
X2.118 Y15.496
X2.009 Y15.663
X1.894 Y15.825
X1.772 Y15.983
X1.644 Y16.135
X1.51 Y16.282
X1.369 Y16.423
X1.223 Y16.559
X1.072 Y16.688
X0.915 Y16.812
X0.754 Y16.929
X0.587 Y17.039
X0.416 Y17.142
X0.241 Y17.239
X0.062 Y17.328
X-0.121 Y17.41
X-0.306 Y17.485
X-0.495 Y17.552
X-0.687 Y17.611
X-0.881 Y17.662
X-1.077 Y17.706
X-1.275 Y17.741
X-1.474 Y17.768
X-1.675 Y17.788
X-1.876 Y17.799
X-2.078 Y17.801
X-2.279 Y17.796
X-2.481 Y17.782
X-2.682 Y17.76
X-2.882 Y17.73
X-3.081 Y17.692
X-3.278 Y17.646
X-3.473 Y17.591
X-3.666 Y17.529
X-3.856 Y17.458
X-4.044 Y17.38
X-4.228 Y17.295
X-4.409 Y17.202
X-4.586 Y17.101
X-4.758 Y16.993
X-4.927 Y16.878
X-5.09 Y16.757
X-5.249 Y16.629
X-5.402 Y16.494
X-5.549 Y16.353
X-5.691 Y16.206
X-5.827 Y16.054
X-5.957 Y15.896
X-6.079 Y15.733
X-6.196 Y15.564
X-6.305 Y15.392
X-6.407 Y15.215
X-6.502 Y15.033
X-6.589 Y14.848
X-6.669 Y14.66
X-6.741 Y14.468
X-6.805 Y14.274
X-6.862 Y14.077
X-6.91 Y13.878
X-6.95 Y13.677
X-6.982 Y13.475
X-7.005 Y13.271
X-7.02 Y13.067
X-7.027 Y12.862
X-7.026 Y12.657
X-7.016 Y12.452
X-6.997 Y12.248
X-6.971 Y12.044
X-6.936 Y11.842
X-6.893 Y11.642
X-6.842 Y11.443
X-6.782 Y11.247
X-6.715 Y11.053
X-6.64 Y10.862
X-6.557 Y10.675
X-6.467 Y10.49
X-6.369 Y10.31
X-6.263 Y10.134
X-6.151 Y9.962
X-6.032 Y9.795
X-5.906 Y9.633
X-5.773 Y9.476
X-5.635 Y9.325
X-5.49 Y9.179
X-5.339 Y9.04
X-5.183 Y8.907
X-5.022 Y8.78
X-4.855 Y8.66
X-4.684 Y8.547
X-4.508 Y8.441
X-4.328 Y8.343
X-4.144 Y8.251
X-3.957 Y8.167
X-3.766 Y8.091
X-3.572 Y8.023
X-3.375 Y7.963
X-3.176 Y7.911
X-2.975 Y7.867
X-2.773 Y7.831
X-2.569 Y7.803
X-2.364 Y7.784
X-2.158 Y7.773
X-1.952 Y7.771
X-1.746 Y7.777
X-1.54 Y7.791
X-1.335 Y7.814
X-1.13 Y7.845
X-0.927 Y7.885
X-0.725 Y7.932
X-0.526 Y7.988
X-0.328 Y8.053
X-0.133 Y8.125
X0.059 Y8.206
X0.248 Y8.294
X0.433 Y8.39
X0.615 Y8.494
X0.792 Y8.605
X0.965 Y8.723
X1.133 Y8.848
X1.296 Y8.981
X1.453 Y9.12
X1.605 Y9.265
X1.751 Y9.417
X1.891 Y9.575
X2.024 Y9.738
X2.151 Y9.907
X2.27 Y10.08
X2.383 Y10.259
X2.488 Y10.442
X2.585 Y10.629
X2.675 Y10.82
X2.757 Y11.015
X2.831 Y11.212
X2.897 Y11.413
X2.954 Y11.616
X3.004 Y11.821
X3.044 Y12.027
X3.077 Y12.235
X3.1 Y12.445
X3.116 Y12.654
X3.122 Y12.865
X3.12 Y13.075
X3.11 Y13.285
X3.09 Y13.494
X3.063 Y13.702
X3.027 Y13.909
X2.982 Y14.114
X2.929 Y14.317
X2.868 Y14.518
X2.799 Y14.716
X2.722 Y14.911
X2.637 Y15.103
X2.544 Y15.291
X2.443 Y15.476
X2.335 Y15.655
X2.22 Y15.831
X2.098 Y16.002
X1.969 Y16.167
X1.833 Y16.327
X1.691 Y16.482
X1.542 Y16.63
X1.387 Y16.773
X1.227 Y16.909
X1.061 Y17.039
X0.89 Y17.162
X0.714 Y17.277
X0.533 Y17.386
X0.348 Y17.487
X0.159 Y17.58
X-0.034 Y17.666
X-0.231 Y17.744
X-0.43 Y17.814
X-0.633 Y17.876
X-0.838 Y17.929
X-1.045 Y17.974
X-1.254 Y18.01
X-1.464 Y18.039
X-1.675 Y18.058
X-1.888 Y18.069
X-2.1 Y18.071
X-2.313 Y18.064
X-2.526 Y18.049
X-2.737 Y18.025
X-2.948 Y17.993
X-3.158 Y17.951
X-3.365 Y17.902
X-3.571 Y17.843
X-3.774 Y17.777
X-3.974 Y17.702
X-4.172 Y17.619
X-4.366 Y17.528
X-4.556 Y17.429
X-4.742 Y17.322
X-4.923 Y17.208
X-5.1 Y17.086
X-5.272 Y16.957
X-5.439 Y16.822
X-5.6 Y16.679
X-5.755 Y16.53
X-5.904 Y16.375
X-6.046 Y16.213
X-6.182 Y16.046
X-6.311 Y15.874
X-6.432 Y15.696
X-6.547 Y15.514
X-6.654 Y15.327
X-6.753 Y15.135
X-6.844 Y14.94
X-6.928 Y14.741
X-7.003 Y14.539
X-7.07 Y14.334
X-7.128 Y14.126
X-7.178 Y13.916
X-7.22 Y13.704
X-7.252 Y13.491
X-7.276 Y13.276
X-7.291 Y13.06
X-7.298 Y12.845
X-7.295 Y12.629
X-7.284 Y12.413
X-7.264 Y12.198
X-7.235 Y11.984
X-7.198 Y11.771
X-7.151 Y11.56
X-7.097 Y11.351
X-7.033 Y11.144
X-6.962 Y10.94
X-6.882 Y10.739
X-6.793 Y10.542
X-6.697 Y10.348
X-6.593 Y10.158
X-6.482 Y9.973
X-6.363 Y9.793
X-6.236 Y9.617
X-6.103 Y9.447
X-5.963 Y9.282
X-5.816 Y9.123
X-5.663 Y8.971
X-5.504 Y8.824
X-5.338 Y8.685
X-5.168 Y8.552
X-4.992 Y8.426
X-4.811 Y8.308
X-4.625 Y8.197
X-4.435 Y8.093
X-4.241 Y7.998
X-4.043 Y7.91
X-3.841 Y7.831
X-3.637 Y7.76
X-3.429 Y7.697
X-3.22 Y7.643
X-3.008 Y7.597
X-2.794 Y7.56
X-2.579 Y7.532
X-2.363 Y7.513
X-2.146 Y7.502
X-1.929 Y7.5
X-1.711 Y7.507
X-1.494 Y7.523
X-1.278 Y7.548
X-1.063 Y7.582
X-0.849 Y7.624
X-0.637 Y7.676
X-0.426 Y7.736
X-0.218 Y7.804
X-0.013 Y7.881
X0.189 Y7.967
X0.387 Y8.06
X0.582 Y8.162
X0.773 Y8.272
X0.959 Y8.39
X1.14 Y8.515
X1.317 Y8.648
X1.488 Y8.788
X1.653 Y8.935
X1.812 Y9.089
X1.965 Y9.249
X2.112 Y9.415
X2.251 Y9.588
X2.384 Y9.765
X2.509 Y9.949
X2.626 Y10.137
X2.736 Y10.33
X2.838 Y10.527
X2.932 Y10.729
X3.017 Y10.934
X3.094 Y11.142
X3.163 Y11.353
X3.222 Y11.567
X3.273 Y11.783
X3.315 Y12.001
X3.348 Y12.22
X3.373 Y12.44
X3.388 Y12.661
X3.394 Y12.882
X3.391 Y13.104
X3.379 Y13.325
X3.358 Y13.545
X3.328 Y13.764
X3.289 Y13.981
X3.241 Y14.197
X3.185 Y14.411
X3.12 Y14.622
X3.046 Y14.83
X2.964 Y15.036
X2.874 Y15.237
X2.775 Y15.435
X2.668 Y15.628
X2.554 Y15.817
X2.432 Y16.002
X2.369 Y16.089
X2.335 Y16.129
X1.932 Y16.584
X1.844 Y16.684
X1.83 Y16.7
X1.671 Y16.862
X1.596 Y16.932
X1.566 Y16.959
X1.535 Y16.984
X1.503 Y17.008
G3 X1.257 Y16.694 I-0.108 J-0.168
G1 X1.399 Y16.56
X1.407 Y16.552
X1.538 Y16.427
G3 X1.83 Y16.7 I0.138 J0.145
G1 X1.677 Y16.872
X1.646 Y16.905
X1.614 Y16.931
X0.807 Y17.488
X0.576 Y17.647
X0.547 Y17.664
X0.519 Y17.676
X-0.576 Y18.092
X-0.692 Y18.132
X-0.807 Y18.148
X-1.959 Y18.288
X-1.988 Y18.291
X-2.017 Y18.29
X-3.285 Y18.137
X-3.314 Y18.131
X-3.342 Y18.122
X-4.495 Y17.685
X-4.552 Y17.662
X-4.613 Y17.622
X-5.615 Y16.93
X-5.647 Y16.903
X-5.728 Y16.815
X-6.499 Y15.944
X-6.52 Y15.918
X-6.535 Y15.893
X-7.079 Y14.855
X-7.136 Y14.74
X-7.146 Y14.707
X-7.422 Y13.587
X-7.45 Y13.472
X-7.453 Y13.356
Y12.203
X-7.451 Y12.146
X-7.44 Y12.088
X-7.146 Y10.893
X-7.135 Y10.856
X-7.119 Y10.82
X-6.542 Y9.72
X-6.527 Y9.694
X-6.509 Y9.667
X-5.692 Y8.745
X-5.647 Y8.695
X-5.557 Y8.63
X-4.61 Y7.976
X-4.55 Y7.938
X-4.495 Y7.915
X-3.34 Y7.477
X-3.312 Y7.469
X-3.284 Y7.463
X-2.017 Y7.31
X-1.988 Y7.309
X-1.844 Y7.326
X-0.807 Y7.452
X-0.692 Y7.467
X-0.66 Y7.477
X0.461 Y7.902
X0.551 Y7.938
X0.576 Y7.953
X1.614 Y8.669
X1.633 Y8.683
X1.653 Y8.701
X2.42 Y9.567
X2.508 Y9.667
X2.536 Y9.709
X3.119 Y10.82
X3.132 Y10.849
X3.142 Y10.878
X3.44 Y12.088
X3.451 Y12.146
X3.453 Y12.203
Y13.356
X3.45 Y13.472
X3.337 Y13.933
X3.166 Y14.624
X3.136 Y14.74
X3.112 Y14.793
X2.535 Y15.893
X2.518 Y15.921
X2.494 Y15.95
X2.335 Y16.129
G3 X2.019 Y15.888 I-0.145 J-0.138
G1 X2.041 Y15.858 Z-1.246
X2.082 Y15.834 Z-1.231
X2.118 Y15.813 Z-1.204
X2.147 Y15.796 Z-1.167
X2.168 Y15.794 Z-1.131
X2.181 Y15.792 Z-1.091
X2.185 Z-1.05
G0 Z5
X6.448 Y32.356
Z2.5
G3 X4.551 Y32.243 Z2.396 I-0.948 J-0.056 F283.3
X6.448 Y32.356 Z2.292 I0.948 J0.056
X4.551 Y32.243 Z2.187 I-0.948 J-0.056
X6.448 Y32.356 Z2.083 I0.948 J0.056
X4.551 Y32.243 Z1.979 I-0.948 J-0.056
X6.448 Y32.356 Z1.875 I0.948 J0.056
X4.551 Y32.243 Z1.77 I-0.948 J-0.056
X6.448 Y32.356 Z1.666 I0.948 J0.056
X4.551 Y32.243 Z1.562 I-0.948 J-0.056
X6.448 Y32.356 Z1.458 I0.948 J0.056
X4.551 Y32.243 Z1.354 I-0.948 J-0.056
X6.448 Y32.356 Z1.249 I0.948 J0.056
X4.551 Y32.243 Z1.145 I-0.948 J-0.056
X6.448 Y32.356 Z1.041 I0.948 J0.056
X4.551 Y32.243 Z0.937 I-0.948 J-0.056
X6.448 Y32.356 Z0.832 I0.948 J0.056
X4.551 Y32.243 Z0.728 I-0.948 J-0.056
X6.448 Y32.356 Z0.624 I0.948 J0.056
X4.551 Y32.243 Z0.52 I-0.948 J-0.056
X6.448 Y32.356 Z0.416 I0.948 J0.056
X4.551 Y32.243 Z0.311 I-0.948 J-0.056
X6.448 Y32.356 Z0.207 I0.948 J0.056
X4.551 Y32.243 Z0.103 I-0.948 J-0.056
X6.448 Y32.356 Z-0.001 I0.948 J0.056
X4.551 Y32.243 Z-0.106 I-0.948 J-0.056
X6.448 Y32.356 Z-0.21 I0.948 J0.056
X4.551 Y32.243 Z-0.314 I-0.948 J-0.056
X6.448 Y32.356 Z-0.418 I0.948 J0.056
X4.551 Y32.243 Z-0.522 I-0.948 J-0.056
X6.448 Y32.356 Z-0.627 I0.948 J0.056
X4.551 Y32.243 Z-0.731 I-0.948 J-0.056
X6.448 Y32.356 Z-0.835 I0.948 J0.056
X4.551 Y32.243 Z-0.939 I-0.948 J-0.056
X6.448 Y32.356 Z-1.044 I0.948 J0.056
X4.551 Y32.243 Z-1.148 I-0.948 J-0.056
X6.45 Y32.3 Z-1.25 I0.948 J0.056
X4.55 I-0.95
X6.45 I0.95
G1 X6.465 Y32.596 F850
X6.466 Y32.746
X6.421 Y32.889
X6.347 Y33.019
X6.251 Y33.134
X6.137 Y33.232
X6.011 Y33.313
X5.874 Y33.375
X5.73 Y33.417
X5.582 Y33.439
X5.432 Y33.44
X5.283 Y33.422
X5.137 Y33.385
X4.998 Y33.328
X4.868 Y33.254
X4.749 Y33.163
X4.642 Y33.058
X4.55 Y32.939
X4.475 Y32.81
X4.417 Y32.671
X4.378 Y32.527
X4.358 Y32.378
X4.357 Y32.228
X4.376 Y32.079
X4.415 Y31.934
X4.472 Y31.795
X4.547 Y31.665
X4.638 Y31.546
X4.744 Y31.44
X4.863 Y31.349
X4.993 Y31.274
X5.131 Y31.216
X5.276 Y31.177
X5.425 Y31.158
X5.575
X5.724 Y31.177
X5.868 Y31.216
X6.007 Y31.274
X6.137 Y31.349
X6.256 Y31.44
X6.362 Y31.547
X6.453 Y31.666
X6.527 Y31.796
X6.585 Y31.935
X6.627 Y32.078
X6.659 Y32.225
X6.683 Y32.373
X6.691 Y32.523
X6.68 Y32.672
X6.649 Y32.819
X6.596 Y32.959
X6.524 Y33.091
X6.435 Y33.212
X6.332 Y33.321
X6.215 Y33.415
X6.088 Y33.494
X5.951 Y33.556
X5.808 Y33.602
X5.661 Y33.63
X5.511 Y33.642
X5.362 Y33.636
X5.213 Y33.614
X5.068 Y33.575
X4.929 Y33.52
X4.797 Y33.449
X4.673 Y33.363
X4.56 Y33.265
X4.458 Y33.155
X4.369 Y33.034
X4.294 Y32.904
X4.235 Y32.767
X4.191 Y32.623
X4.164 Y32.476
X4.152 Y32.326
X4.157 Y32.176
X4.179 Y32.028
X4.217 Y31.883
X4.272 Y31.743
X4.342 Y31.61
X4.426 Y31.486
X4.523 Y31.371
X4.631 Y31.268
X4.751 Y31.178
X4.881 Y31.102
X5.018 Y31.041
X5.161 Y30.996
X5.308 Y30.966
X5.457 Y30.953
X5.607 Y30.956
X5.756 Y30.976
X5.901 Y31.013
X6.041 Y31.066
X6.175 Y31.134
X6.301 Y31.216
X6.416 Y31.311
X6.521 Y31.419
X6.612 Y31.538
X6.69 Y31.666
X6.757 Y31.801
X6.811 Y31.94
X6.855 Y32.084
X6.885 Y32.231
X6.902 Y32.38
X6.905 Y32.53
X6.89 Y32.679
X6.859 Y32.826
X6.812 Y32.968
X6.75 Y33.105
X6.674 Y33.234
X6.583 Y33.353
X6.48 Y33.462
X6.365 Y33.559
X6.241 Y33.642
X6.108 Y33.713
X5.969 Y33.769
X5.825 Y33.811
X5.678 Y33.839
X5.528 Y33.851
X5.378 Y33.849
X5.229 Y33.831
X5.083 Y33.799
X4.94 Y33.752
X4.803 Y33.692
X4.672 Y33.619
X4.548 Y33.534
X4.433 Y33.437
X4.329 Y33.33
X4.235 Y33.213
X4.154 Y33.087
X4.084 Y32.954
X4.028 Y32.815
X3.985 Y32.671
X3.956 Y32.524
X3.941 Y32.375
Y32.225
X3.956 Y32.075
X3.985 Y31.928
X4.028 Y31.784
X4.084 Y31.645
X4.153 Y31.512
X4.235 Y31.386
X4.328 Y31.269
X4.433 Y31.162
X4.547 Y31.065
X4.67 Y30.979
X4.801 Y30.905
X4.938 Y30.844
X5.08 Y30.797
X5.227 Y30.764
X5.375 Y30.745
X5.525 Y30.74
X5.675 Y30.75
X5.823 Y30.774
X5.968 Y30.812
X6.109 Y30.864
X6.244 Y30.929
X6.372 Y31.007
X6.492 Y31.097
X6.603 Y31.197
X6.704 Y31.308
X6.795 Y31.428
X6.876 Y31.554
X6.946 Y31.687
X7.005 Y31.824
X7.053 Y31.967
X7.089 Y32.112
X7.113 Y32.26
X7.123 Y32.41
X7.12 Y32.56
X7.104 Y32.709
X7.074 Y32.856
X7.03 Y32.999
X6.972 Y33.138
X6.902 Y33.27
X6.82 Y33.396
X6.726 Y33.513
X6.622 Y33.621
X6.508 Y33.718
X6.385 Y33.805
X6.255 Y33.88
X6.119 Y33.943
X5.978 Y33.993
X5.833 Y34.031
X5.685 Y34.056
X5.535 Y34.068
X5.385 Y34.067
X5.236 Y34.052
X5.088 Y34.025
X4.944 Y33.985
X4.803 Y33.933
X4.668 Y33.869
X4.538 Y33.793
X4.415 Y33.708
X4.299 Y33.612
X4.193 Y33.506
X4.096 Y33.392
X4.009 Y33.27
X3.932 Y33.141
X3.867 Y33.005
X3.813 Y32.865
X3.771 Y32.721
X3.741 Y32.574
X3.724 Y32.425
X3.72 Y32.276
X3.729 Y32.126
X3.75 Y31.977
X3.783 Y31.831
X3.829 Y31.688
X3.886 Y31.549
X3.955 Y31.416
X4.035 Y31.289
X4.125 Y31.169
X4.225 Y31.058
X4.335 Y30.955
X4.452 Y30.862
X4.577 Y30.779
X4.708 Y30.706
X4.845 Y30.645
X4.987 Y30.595
X5.132 Y30.558
X5.28 Y30.534
X5.43 Y30.522
X5.58
X5.729 Y30.536
X5.877 Y30.561
X6.022 Y30.599
X6.164 Y30.648
X6.3 Y30.71
X6.431 Y30.783
X6.555 Y30.867
X6.672 Y30.961
X6.781 Y31.064
X6.882 Y31.175
X6.974 Y31.294
X7.057 Y31.419
X7.13 Y31.55
X7.194 Y31.686
X7.247 Y31.826
X7.289 Y31.97
X7.32 Y32.117
X7.339 Y32.265
X7.348 Y32.415
X7.344 Y32.565
X7.329 Y32.714
X7.301 Y32.862
X7.262 Y33.007
X7.21 Y33.147
X7.147 Y33.283
X7.073 Y33.414
X6.989 Y33.538
X6.895 Y33.655
X6.792 Y33.764
X6.68 Y33.864
X6.56 Y33.954
X6.434 Y34.035
X6.301 Y34.105
X6.163 Y34.164
X6.021 Y34.212
X5.876 Y34.25
X5.728 Y34.275
X5.579 Y34.29
X5.429 Y34.293
X5.279 Y34.283
X5.131 Y34.262
X4.984 Y34.23
X4.84 Y34.187
X4.7 Y34.133
X4.565 Y34.069
X4.434 Y33.995
X4.31 Y33.911
X4.192 Y33.818
X4.082 Y33.716
X3.98 Y33.606
X3.887 Y33.489
X3.802 Y33.365
X3.727 Y33.235
X3.662 Y33.1
X3.607 Y32.961
X3.562 Y32.817
X3.529 Y32.671
X3.506 Y32.523
X3.495 Y32.373
X3.496 Y32.223
X3.507 Y32.074
X3.53 Y31.925
X3.563 Y31.779
X3.607 Y31.636
X3.662 Y31.496
X3.727 Y31.361
X3.802 Y31.231
X3.887 Y31.107
X3.981 Y30.99
X4.083 Y30.881
X4.193 Y30.779
X4.311 Y30.685
X4.435 Y30.601
X4.564 Y30.525
X4.699 Y30.46
X4.839 Y30.406
X4.983 Y30.362
X5.129 Y30.329
X5.277 Y30.307
X5.427 Y30.296
X5.577
X5.727 Y30.307
X5.875 Y30.329
X6.021 Y30.363
X6.164 Y30.407
X6.304 Y30.462
X6.439 Y30.528
X6.569 Y30.603
X6.693 Y30.687
X6.81 Y30.78
X6.921 Y30.882
X7.025 Y30.99
X7.121 Y31.105
X7.208 Y31.227
X7.287 Y31.355
X7.357 Y31.487
X7.418 Y31.624
X7.47 Y31.765
X7.511 Y31.909
X7.543 Y32.056
X7.565 Y32.204
X7.576 Y32.354
X7.577 Y32.504
X7.567 Y32.654
X7.546 Y32.802
X7.515 Y32.949
X7.473 Y33.093
X7.42 Y33.233
X7.358 Y33.37
X7.286 Y33.501
X7.205 Y33.628
X7.115 Y33.748
X7.016 Y33.86
X6.91 Y33.966
X6.795 Y34.063
X6.675 Y34.152
X6.548 Y34.232
X6.415 Y34.303
X6.355 Y34.33
X6.319 Y34.344
X6.224 Y34.378
X6.189 Y34.391
X6.145 Y34.407
X6.001 Y34.451
X5.855 Y34.485
X5.809 Y34.492
X5.769 Y34.497
X5.729 Y34.5
X5.689 Y34.501
G3 X5.655 Y34.105 I0.007 J-0.2
G1 X5.84 Y34.066
X6.028 Y34.026
G3 X6.145 Y34.407 I0.041 J0.196
G1 X5.936 Y34.483
X5.907 Y34.492
X5.878 Y34.498
X5.763 Y34.501
X5.417
X5.382
X5.338
X5.188 Y34.493
X5.105 Y34.481
X5.052 Y34.471
X5 Y34.458
X4.949 Y34.441
G3 X5.053 Y34.058 I0.075 J-0.185
G1 X5.169 Y34.075
X5.36 Y34.103
G3 X5.338 Y34.501 I-0.029 J0.198
G1 X5.186
X5.129 Y34.499
X5.1 Y34.494
X5.071 Y34.486
X4.665 Y34.338
X4.635 Y34.327
X4.61 Y34.318
X4.472 Y34.26
X4.396 Y34.221
X4.344 Y34.192
X4.295 Y34.159
X4.248 Y34.122
G3 X4.476 Y33.797 I0.134 J-0.149
G1 X4.596 Y33.861
X4.766 Y33.951
G3 X4.61 Y34.318 I-0.094 J0.177
G1 X4.437 Y34.255
X4.408 Y34.244
X4.38 Y34.229
X4.369 Y34.223
X4.23 Y34.107
X4.034 Y33.942
X3.991 Y33.906
X3.956 Y33.877
X3.846 Y33.775
X3.803 Y33.727
X3.767 Y33.684
X3.734 Y33.639
X3.705 Y33.592
G3 X3.882 Y33.299 I0.177 J-0.094
G1 X3.937 Y33.306
X3.988 Y33.329
X4.031 Y33.365
X4.1 Y33.442
X4.228 Y33.586
G3 X3.956 Y33.877 I-0.149 J0.133
G1 X3.818 Y33.762
X3.803 Y33.747
X3.783 Y33.722
X3.765 Y33.697
X3.537 Y33.3
X3.516 Y33.266
X3.502 Y33.241
X3.434 Y33.108
X3.416 Y33.061
X3.398 Y33.011
X3.384 Y32.96
X3.373 Y32.908
G3 X3.757 Y32.807 I0.198 J-0.028
G1 X3.787 Y32.882
X3.858 Y33.061
G3 X3.502 Y33.241 I-0.186 J0.074
G1 X3.458 Y33.164
X3.407 Y33.07
X3.397 Y33.041
X3.391 Y33.012
X3.32 Y32.609
X3.309 Y32.545
X3.304 Y32.517
X3.285 Y32.368
X3.283 Y32.302
Y32.246
X3.287 Y32.191
X3.294 Y32.136
G3 X3.69 Y32.171 I0.196 J0.042
G1 X3.693 Y32.276
X3.699 Y32.469
G3 X3.499 Y32.675 I-0.2 J0.006
X3.304 Y32.517 J-0.2
G1 X3.279 Y32.378
X3.27 Y32.321
Y32.292
X3.272 Y32.263
X3.353 Y31.802
X3.359 Y31.767
X3.367 Y31.723
X3.401 Y31.576
X3.411 Y31.545
X3.43 Y31.498
X3.451 Y31.452
X3.475 Y31.407
G3 X3.834 Y31.576 I0.17 J0.106
G1 X3.816 Y31.63
X3.755 Y31.814
G3 X3.367 Y31.723 I-0.19 J-0.063
G1 X3.394 Y31.571
X3.402 Y31.542
X3.414 Y31.514
X3.646 Y31.11
X3.669 Y31.07
X3.688 Y31.037
X3.769 Y30.911
X3.799 Y30.875
X3.83 Y30.838
X3.864 Y30.803
X3.9 Y30.77
G3 X4.183 Y31.049 I0.125 J0.156
G1 X4.141 Y31.103
X4.022 Y31.254
G3 X3.688 Y31.037 I-0.157 J-0.123
G1 X3.781 Y30.879
X3.803 Y30.853
X3.919 Y30.754
X4.149 Y30.561
X4.181 Y30.534
X4.207 Y30.513
X4.326 Y30.422
X4.386 Y30.384
X4.436 Y30.354
X4.489 Y30.329
X4.543 Y30.307
G3 X4.71 Y30.667 I0.062 J0.19
G1 X4.609 Y30.729
X4.446 Y30.831
G3 X4.207 Y30.513 I-0.106 J-0.17
G1 X4.319 Y30.418
X4.38 Y30.371
X4.408 Y30.356
X4.61 Y30.282
X4.841 Y30.198
X4.869 Y30.188
X4.895 Y30.178
X5.039 Y30.134
X5.11 Y30.118
X5.167 Y30.108
X5.225 Y30.102
X5.283 Y30.099
G3 X5.317 Y30.495 I-0.007 J0.2
G1 X5.2 Y30.52
X5.012 Y30.559
G3 X4.895 Y30.178 I-0.041 J-0.196
G1 X5.071 Y30.114
X5.1 Y30.106
X5.129 Y30.101
X5.186 Y30.099
X5.596
X5.624
X5.647
X5.797 Y30.107
X5.878 Y30.117
X5.937 Y30.127
X5.995 Y30.141
X6.052 Y30.159
G3 X5.949 Y30.543 I-0.075 J0.185
G1 X5.817 Y30.524
X5.627 Y30.497
G3 X5.647 Y30.099 I0.028 J-0.198
G1 X5.763
X5.878 Y30.101
X5.907 Y30.108
X5.936 Y30.117
X6.339 Y30.263
X6.372 Y30.275
X6.414 Y30.291
X6.552 Y30.349
X6.605 Y30.377
X6.653 Y30.405
X6.699 Y30.436
X6.743 Y30.471
G3 X6.515 Y30.795 I-0.134 J0.149
G1 X6.427 Y30.748
X6.257 Y30.657
G3 X6.414 Y30.291 I0.095 J-0.176
G1 X6.569 Y30.347
X6.597 Y30.359
X6.625 Y30.374
X6.685 Y30.421
X7.03 Y30.711
X7.065 Y30.74
X7.093 Y30.764
X7.203 Y30.866
X7.221 Y30.887
X7.237 Y30.909
X7.251 Y30.932
G3 X6.934 Y31.169 I-0.175 J0.096
G1 X6.828 Y31.063
G3 X7.093 Y30.764 I0.142 J-0.141
G1 X7.183 Y30.839
X7.204 Y30.859
X7.22 Y30.879
X7.288 Y30.995
X7.526 Y31.407
X7.586 Y31.514
X7.598 Y31.542
X7.607 Y31.575
X7.728 Y32.263
X7.73 Y32.29
Y32.317
X7.721 Y32.378
X7.607 Y33.025
X7.593 Y33.07
X7.53 Y33.185
X7.229 Y33.706
X7.208 Y33.734
X7.196 Y33.748
X7.182 Y33.762
X6.685 Y34.179
X6.63 Y34.223
X6.6 Y34.24
X6.569 Y34.253
X6.319 Y34.344
G3 X6.156 Y33.981 I-0.062 J-0.19
G1 X6.19 Y33.965 Z-1.246
X6.224 Y33.959 Z-1.236
X6.257 Y33.954 Z-1.22
X6.295 Y33.963 Z-1.188
X6.323 Y33.97 Z-1.147
X6.341 Y33.974 Z-1.1
X6.348 Y33.975 Z-1.05
G0 Z5
X-8.552 Y32.357
Z1.25
G3 X-10.449 Y32.244 Z1.146 I-0.948 J-0.056 F283.3
X-8.552 Y32.357 Z1.042 I0.948 J0.056
X-10.449 Y32.244 Z0.937 I-0.948 J-0.056
X-8.552 Y32.357 Z0.833 I0.948 J0.056
X-10.449 Y32.244 Z0.729 I-0.948 J-0.056
X-8.552 Y32.357 Z0.625 I0.948 J0.056
X-10.449 Y32.244 Z0.52 I-0.948 J-0.056
X-8.552 Y32.357 Z0.416 I0.948 J0.056
X-10.449 Y32.244 Z0.312 I-0.948 J-0.056
X-8.552 Y32.357 Z0.208 I0.948 J0.056
X-10.449 Y32.244 Z0.104 I-0.948 J-0.056
X-8.552 Y32.357 Z-0.001 I0.948 J0.056
X-10.449 Y32.244 Z-0.105 I-0.948 J-0.056
X-8.552 Y32.357 Z-0.209 I0.948 J0.056
X-10.449 Y32.244 Z-0.313 I-0.948 J-0.056
X-8.552 Y32.357 Z-0.418 I0.948 J0.056
X-10.449 Y32.244 Z-0.522 I-0.948 J-0.056
X-8.552 Y32.357 Z-0.626 I0.948 J0.056
X-10.449 Y32.244 Z-0.73 I-0.948 J-0.056
X-8.552 Y32.357 Z-0.834 I0.948 J0.056
X-10.449 Y32.244 Z-0.939 I-0.948 J-0.056
X-8.552 Y32.357 Z-1.043 I0.948 J0.056
X-10.449 Y32.244 Z-1.147 I-0.948 J-0.056
X-8.552 Y32.357 Z-1.251 I0.948 J0.056
X-10.449 Y32.244 Z-1.356 I-0.948 J-0.056
X-8.552 Y32.357 Z-1.46 I0.948 J0.056
X-10.449 Y32.244 Z-1.564 I-0.948 J-0.056
X-8.552 Y32.357 Z-1.668 I0.948 J0.056
X-10.449 Y32.244 Z-1.772 I-0.948 J-0.056
X-8.552 Y32.357 Z-1.877 I0.948 J0.056
X-10.449 Y32.244 Z-1.981 I-0.948 J-0.056
X-8.552 Y32.357 Z-2.085 I0.948 J0.056
X-10.449 Y32.244 Z-2.189 I-0.948 J-0.056
X-8.552 Y32.357 Z-2.294 I0.948 J0.056
X-10.449 Y32.244 Z-2.398 I-0.948 J-0.056
X-8.55 Y32.3 Z-2.5 I0.948 J0.056
X-10.45 I-0.95
X-8.55 I0.95
G1 X-8.535 Y32.596 F850
X-8.534 Y32.746
X-8.579 Y32.889
X-8.653 Y33.019
X-8.749 Y33.134
X-8.863 Y33.233
X-8.989 Y33.313
X-9.126 Y33.375
X-9.27 Y33.417
X-9.418 Y33.439
X-9.568 Y33.441
X-9.717 Y33.423
X-9.862 Y33.385
X-10.001 Y33.329
X-10.132 Y33.254
X-10.251 Y33.164
X-10.358 Y33.058
X-10.45 Y32.939
X-10.525 Y32.81
X-10.583 Y32.671
X-10.622 Y32.527
X-10.642 Y32.378
X-10.643 Y32.228
X-10.623 Y32.079
X-10.585 Y31.934
X-10.528 Y31.796
X-10.453 Y31.666
X-10.362 Y31.546
X-10.256 Y31.44
X-10.137 Y31.349
X-10.007 Y31.274
X-9.869 Y31.216
X-9.724 Y31.177
X-9.575 Y31.158
X-9.425
X-9.276 Y31.177
X-9.131 Y31.216
X-8.993 Y31.274
X-8.863 Y31.349
X-8.744 Y31.44
X-8.638 Y31.547
X-8.547 Y31.666
X-8.473 Y31.796
X-8.415 Y31.935
X-8.373 Y32.079
X-8.341 Y32.225
X-8.317 Y32.373
X-8.309 Y32.523
X-8.319 Y32.673
X-8.351 Y32.819
X-8.404 Y32.96
X-8.476 Y33.091
X-8.564 Y33.212
X-8.668 Y33.321
X-8.785 Y33.415
X-8.912 Y33.494
X-9.049 Y33.556
X-9.192 Y33.602
X-9.339 Y33.63
X-9.488 Y33.642
X-9.638 Y33.637
X-9.787 Y33.614
X-9.932 Y33.575
X-10.071 Y33.52
X-10.203 Y33.449
X-10.326 Y33.364
X-10.44 Y33.265
X-10.542 Y33.155
X-10.631 Y33.034
X-10.706 Y32.904
X-10.765 Y32.767
X-10.809 Y32.623
X-10.836 Y32.476
X-10.848 Y32.326
X-10.843 Y32.176
X-10.821 Y32.028
X-10.783 Y31.883
X-10.728 Y31.743
X-10.658 Y31.61
X-10.574 Y31.486
X-10.477 Y31.372
X-10.368 Y31.268
X-10.249 Y31.178
X-10.119 Y31.102
X-9.982 Y31.041
X-9.839 Y30.996
X-9.692 Y30.966
X-9.543 Y30.953
X-9.393 Y30.956
X-9.244 Y30.976
X-9.099 Y31.013
X-8.959 Y31.066
X-8.825 Y31.134
X-8.699 Y31.216
X-8.584 Y31.311
X-8.479 Y31.419
X-8.388 Y31.538
X-8.309 Y31.666
X-8.243 Y31.801
X-8.188 Y31.94
X-8.145 Y32.084
X-8.115 Y32.231
X-8.098 Y32.38
X-8.095 Y32.53
X-8.11 Y32.679
X-8.141 Y32.826
X-8.187 Y32.968
X-8.25 Y33.105
X-8.326 Y33.234
X-8.417 Y33.353
X-8.52 Y33.462
X-8.635 Y33.559
X-8.759 Y33.643
X-8.892 Y33.713
X-9.031 Y33.769
X-9.175 Y33.811
X-9.322 Y33.839
X-9.472 Y33.851
X-9.622 Y33.849
X-9.771 Y33.831
X-9.917 Y33.799
X-10.06 Y33.752
X-10.197 Y33.692
X-10.328 Y33.619
X-10.452 Y33.534
X-10.567 Y33.438
X-10.671 Y33.33
X-10.765 Y33.213
X-10.846 Y33.087
X-10.916 Y32.954
X-10.972 Y32.815
X-11.015 Y32.671
X-11.044 Y32.524
X-11.059 Y32.375
Y32.225
X-11.044 Y32.076
X-11.015 Y31.928
X-10.972 Y31.785
X-10.916 Y31.645
X-10.847 Y31.512
X-10.765 Y31.387
X-10.672 Y31.269
X-10.567 Y31.162
X-10.453 Y31.065
X-10.33 Y30.979
X-10.199 Y30.905
X-10.062 Y30.845
X-9.92 Y30.797
X-9.773 Y30.764
X-9.625 Y30.745
X-9.475 Y30.74
X-9.325 Y30.75
X-9.177 Y30.774
X-9.032 Y30.812
X-8.891 Y30.864
X-8.756 Y30.929
X-8.628 Y31.007
X-8.508 Y31.097
X-8.397 Y31.198
X-8.296 Y31.308
X-8.205 Y31.428
X-8.124 Y31.554
X-8.054 Y31.687
X-7.995 Y31.825
X-7.947 Y31.967
X-7.911 Y32.112
X-7.887 Y32.26
X-7.877 Y32.41
X-7.88 Y32.56
X-7.896 Y32.709
X-7.926 Y32.856
X-7.97 Y32.999
X-8.028 Y33.138
X-8.098 Y33.271
X-8.18 Y33.396
X-8.274 Y33.513
X-8.378 Y33.621
X-8.492 Y33.718
X-8.615 Y33.805
X-8.745 Y33.88
X-8.881 Y33.943
X-9.022 Y33.993
X-9.167 Y34.031
X-9.315 Y34.056
X-9.465 Y34.068
X-9.615 Y34.067
X-9.764 Y34.052
X-9.912 Y34.025
X-10.056 Y33.985
X-10.197 Y33.933
X-10.332 Y33.869
X-10.462 Y33.794
X-10.585 Y33.708
X-10.701 Y33.612
X-10.807 Y33.506
X-10.904 Y33.392
X-10.991 Y33.27
X-11.068 Y33.141
X-11.133 Y33.006
X-11.187 Y32.866
X-11.229 Y32.722
X-11.259 Y32.575
X-11.276 Y32.426
X-11.28 Y32.276
X-11.271 Y32.126
X-11.25 Y31.977
X-11.216 Y31.831
X-11.171 Y31.688
X-11.114 Y31.55
X-11.045 Y31.416
X-10.965 Y31.289
X-10.875 Y31.169
X-10.775 Y31.058
X-10.665 Y30.955
X-10.548 Y30.862
X-10.423 Y30.779
X-10.292 Y30.706
X-10.155 Y30.645
X-10.013 Y30.596
X-9.868 Y30.558
X-9.72 Y30.534
X-9.57 Y30.522
X-9.42 Y30.523
X-9.271 Y30.536
X-9.123 Y30.561
X-8.978 Y30.599
X-8.836 Y30.648
X-8.7 Y30.71
X-8.569 Y30.783
X-8.444 Y30.867
X-8.328 Y30.961
X-8.219 Y31.064
X-8.118 Y31.176
X-8.026 Y31.294
X-7.943 Y31.419
X-7.87 Y31.55
X-7.806 Y31.686
X-7.753 Y31.826
X-7.711 Y31.97
X-7.68 Y32.117
X-7.66 Y32.266
X-7.652 Y32.415
X-7.656 Y32.565
X-7.671 Y32.715
X-7.699 Y32.862
X-7.738 Y33.007
X-7.79 Y33.147
X-7.853 Y33.284
X-7.927 Y33.414
X-8.011 Y33.538
X-8.105 Y33.655
X-8.208 Y33.764
X-8.32 Y33.864
X-8.44 Y33.955
X-8.566 Y34.035
X-8.699 Y34.105
X-8.837 Y34.164
X-8.979 Y34.212
X-9.124 Y34.25
X-9.272 Y34.276
X-9.421 Y34.29
X-9.571 Y34.293
X-9.721 Y34.283
X-9.869 Y34.263
X-10.016 Y34.23
X-10.16 Y34.187
X-10.299 Y34.133
X-10.435 Y34.069
X-10.565 Y33.995
X-10.69 Y33.911
X-10.808 Y33.818
X-10.918 Y33.716
X-11.02 Y33.606
X-11.113 Y33.489
X-11.198 Y33.365
X-11.273 Y33.235
X-11.338 Y33.1
X-11.393 Y32.961
X-11.438 Y32.817
X-11.471 Y32.671
X-11.494 Y32.523
X-11.504 Y32.373
Y32.223
X-11.492 Y32.074
X-11.47 Y31.925
X-11.436 Y31.779
X-11.392 Y31.636
X-11.338 Y31.496
X-11.273 Y31.361
X-11.198 Y31.231
X-11.113 Y31.107
X-11.019 Y30.99
X-10.917 Y30.881
X-10.807 Y30.779
X-10.689 Y30.685
X-10.565 Y30.601
X-10.436 Y30.526
X-10.301 Y30.46
X-10.161 Y30.406
X-10.017 Y30.362
X-9.871 Y30.329
X-9.723 Y30.307
X-9.573 Y30.296
X-9.423
X-9.273 Y30.307
X-9.125 Y30.33
X-8.979 Y30.363
X-8.836 Y30.407
X-8.696 Y30.462
X-8.561 Y30.528
X-8.431 Y30.603
X-8.307 Y30.688
X-8.19 Y30.781
X-8.079 Y30.882
X-7.975 Y30.99
X-7.879 Y31.106
X-7.792 Y31.227
X-7.713 Y31.355
X-7.643 Y31.487
X-7.582 Y31.624
X-7.53 Y31.765
X-7.489 Y31.909
X-7.457 Y32.056
X-7.435 Y32.204
X-7.423 Y32.354
Y32.504
X-7.433 Y32.654
X-7.453 Y32.802
X-7.485 Y32.949
X-7.527 Y33.093
X-7.579 Y33.233
X-7.642 Y33.37
X-7.713 Y33.502
X-7.795 Y33.628
X-7.885 Y33.748
X-7.984 Y33.861
X-8.09 Y33.966
X-8.205 Y34.063
X-8.325 Y34.152
X-8.452 Y34.232
X-8.584 Y34.303
X-8.643 Y34.329
X-8.68 Y34.343
X-8.759 Y34.372
X-8.823 Y34.395
X-8.851 Y34.406
X-8.994 Y34.45
X-9.141 Y34.483
X-9.191 Y34.491
X-9.231 Y34.496
X-9.272 Y34.5
X-9.313 Y34.501
G3 X-9.347 Y34.105 I0.007 J-0.2
G1 X-9.155 Y34.064
X-8.967 Y34.025
G3 X-8.851 Y34.406 I0.041 J0.196
G1 X-8.99 Y34.456
X-9.105 Y34.496
X-9.134 Y34.499
X-9.163 Y34.501
X-9.566
X-9.601
X-9.645
X-9.795 Y34.493
X-9.892 Y34.48
X-9.948 Y34.47
X-10.003 Y34.456
X-10.057 Y34.439
G3 X-9.954 Y34.056 I0.075 J-0.185
G1 X-9.814 Y34.076
X-9.624 Y34.103
G3 X-9.645 Y34.501 I-0.028 J0.198
G1 X-9.854
X-9.883 Y34.498
X-9.912 Y34.491
X-10.142 Y34.408
X-10.335 Y34.338
X-10.373 Y34.324
X-10.408 Y34.312
X-10.546 Y34.253
X-10.609 Y34.22
X-10.657 Y34.192
X-10.703 Y34.161
X-10.747 Y34.126
G3 X-10.519 Y33.802 I0.134 J-0.149
G1 X-10.421 Y33.854
X-10.251 Y33.945
G3 X-10.408 Y34.312 I-0.095 J0.176
G1 X-10.488 Y34.282
X-10.603 Y34.238
X-10.63 Y34.223
X-10.718 Y34.15
X-11.001 Y33.913
X-11.025 Y33.893
X-11.044 Y33.877
X-11.154 Y33.775
X-11.197 Y33.727
X-11.233 Y33.684
X-11.266 Y33.639
X-11.295 Y33.592
G3 X-11.118 Y33.299 I0.177 J-0.094
G1 X-11.063 Y33.306
X-11.012 Y33.329
X-10.969 Y33.365
X-10.9 Y33.442
X-10.772 Y33.586
G3 X-11.044 Y33.877 I-0.149 J0.133
G1 X-11.182 Y33.762
X-11.197 Y33.747
X-11.209 Y33.733
X-11.23 Y33.704
X-11.41 Y33.393
X-11.463 Y33.3
X-11.482 Y33.268
X-11.506 Y33.227
X-11.574 Y33.094
X-11.586 Y33.064
X-11.602 Y33.016
X-11.615 Y32.968
X-11.625 Y32.919
G3 X-11.241 Y32.817 I0.198 J-0.028
G1 X-11.222 Y32.868
X-11.15 Y33.047
G3 X-11.506 Y33.227 I-0.186 J0.074
G1 X-11.53 Y33.185
X-11.593 Y33.07
X-11.603 Y33.041
X-11.609 Y33.012
X-11.68 Y32.609
X-11.691 Y32.545
X-11.696 Y32.517
X-11.715 Y32.368
X-11.717 Y32.302
Y32.246
X-11.713 Y32.191
X-11.706 Y32.136
G3 X-11.31 Y32.171 I0.196 J0.042
G1 X-11.307 Y32.276
X-11.301 Y32.469
G3 X-11.501 Y32.675 I-0.2 J0.006
X-11.696 Y32.517 J-0.2
G1 X-11.721 Y32.378
X-11.73 Y32.321
Y32.292
X-11.728 Y32.263
X-11.647 Y31.802
X-11.641 Y31.767
X-11.633 Y31.722
X-11.599 Y31.576
X-11.589 Y31.545
X-11.57 Y31.498
X-11.549 Y31.452
X-11.525 Y31.407
G3 X-11.166 Y31.576 I0.17 J0.106
G1 X-11.184 Y31.63
X-11.245 Y31.813
G3 X-11.633 Y31.722 I-0.19 J-0.063
G1 X-11.606 Y31.571
X-11.598 Y31.542
X-11.586 Y31.514
X-11.354 Y31.11
X-11.336 Y31.079
X-11.313 Y31.04
X-11.232 Y30.914
X-11.201 Y30.874
X-11.166 Y30.835
X-11.13 Y30.797
X-11.091 Y30.762
G3 X-10.811 Y31.044 I0.123 J0.158
G1 X-10.86 Y31.106
X-10.98 Y31.258
G3 X-11.313 Y31.04 I-0.157 J-0.124
G1 X-11.219 Y30.879
X-11.201 Y30.858
X-11.18 Y30.837
X-10.834 Y30.546
X-10.819 Y30.534
X-10.788 Y30.508
X-10.669 Y30.418
X-10.613 Y30.382
X-10.563 Y30.354
X-10.512 Y30.329
X-10.46 Y30.307
G3 X-10.292 Y30.668 I0.062 J0.19
G1 X-10.385 Y30.725
X-10.549 Y30.827
G3 X-10.788 Y30.508 I-0.105 J-0.17
G1 X-10.642 Y30.386
X-10.603 Y30.362
X-10.488 Y30.318
X-10.142 Y30.192
X-10.131 Y30.188
X-10.099 Y30.176
X-9.956 Y30.132
X-9.889 Y30.118
X-9.833 Y30.108
X-9.777 Y30.101
X-9.72 Y30.099
G3 X-9.685 Y30.495 I-0.007 J0.2
G1 X-9.795 Y30.518
X-9.984 Y30.558
G3 X-10.099 Y30.176 I-0.041 J-0.196
G1 X-9.912 Y30.109
X-9.883 Y30.102
X-9.854 Y30.099
X-9.387
X-9.359
X-9.335
X-9.186 Y30.107
X-9.118 Y30.116
X-9.062 Y30.126
X-9.008 Y30.14
X-8.954 Y30.157
G3 X-9.057 Y30.54 I-0.075 J0.185
G1 X-9.166 Y30.525
X-9.357 Y30.497
G3 X-9.335 Y30.099 I0.028 J-0.198
G1 X-9.163
X-9.134 Y30.1
X-9.105 Y30.104
X-8.99 Y30.144
X-8.644 Y30.27
X-8.616 Y30.28
X-8.581 Y30.293
X-8.443 Y30.351
X-8.394 Y30.377
X-8.347 Y30.404
X-8.302 Y30.435
X-8.259 Y30.469
G3 X-8.487 Y30.794 I-0.134 J0.149
G1 X-8.568 Y30.75
X-8.738 Y30.659
G3 X-8.581 Y30.293 I0.095 J-0.176
G1 X-8.413 Y30.354
X-8.39 Y30.364
X-8.366 Y30.379
X-7.952 Y30.726
X-7.927 Y30.747
X-7.907 Y30.764
X-7.797 Y30.866
X-7.779 Y30.887
X-7.764 Y30.909
X-7.749 Y30.932
G3 X-8.067 Y31.169 I-0.176 J0.095
G1 X-8.172 Y31.063
G3 X-7.907 Y30.764 I0.142 J-0.141
G1 X-7.809 Y30.847
X-7.793 Y30.863
X-7.78 Y30.879
X-7.712 Y30.995
X-7.467 Y31.421
X-7.414 Y31.514
X-7.402 Y31.542
X-7.394 Y31.571
X-7.272 Y32.263
X-7.27 Y32.292
Y32.321
X-7.279 Y32.378
X-7.391 Y33.012
X-7.397 Y33.041
X-7.407 Y33.07
X-7.47 Y33.185
X-7.77 Y33.704
X-7.791 Y33.733
X-7.803 Y33.747
X-7.818 Y33.762
X-8.298 Y34.164
X-8.369 Y34.223
X-8.391 Y34.236
X-8.413 Y34.246
X-8.68 Y34.343
G3 X-8.842 Y33.98 I-0.062 J-0.19
G1 X-8.809 Y33.965 Z-2.496
X-8.774 Y33.959 Z-2.486
X-8.741 Y33.953 Z-2.47
X-8.704 Y33.962 Z-2.438
X-8.675 Y33.969 Z-2.397
X-8.657 Y33.973 Z-2.35
X-8.651 Y33.975 Z-2.3
G0 Z5
X-1.052 Y12.857
Z1.25
G3 X-2.948 Y12.744 Z1.146 I-0.948 J-0.056 F283.3
X-1.052 Y12.857 Z1.042 I0.948 J0.056
X-2.948 Y12.744 Z0.937 I-0.948 J-0.056
X-1.052 Y12.857 Z0.833 I0.948 J0.056
X-2.948 Y12.744 Z0.729 I-0.948 J-0.056
X-1.052 Y12.857 Z0.625 I0.948 J0.056
X-2.948 Y12.744 Z0.52 I-0.948 J-0.056
X-1.052 Y12.857 Z0.416 I0.948 J0.056
X-2.948 Y12.744 Z0.312 I-0.948 J-0.056
X-1.052 Y12.857 Z0.208 I0.948 J0.056
X-2.948 Y12.744 Z0.104 I-0.948 J-0.056
X-1.052 Y12.857 Z-0.001 I0.948 J0.056
X-2.948 Y12.744 Z-0.105 I-0.948 J-0.056
X-1.052 Y12.857 Z-0.209 I0.948 J0.056
X-2.948 Y12.744 Z-0.313 I-0.948 J-0.056
X-1.052 Y12.857 Z-0.418 I0.948 J0.056
X-2.948 Y12.744 Z-0.522 I-0.948 J-0.056
X-1.052 Y12.857 Z-0.626 I0.948 J0.056
X-2.948 Y12.744 Z-0.73 I-0.948 J-0.056
X-1.052 Y12.857 Z-0.834 I0.948 J0.056
X-2.948 Y12.744 Z-0.939 I-0.948 J-0.056
X-1.052 Y12.857 Z-1.043 I0.948 J0.056
X-2.948 Y12.744 Z-1.147 I-0.948 J-0.056
X-1.052 Y12.857 Z-1.251 I0.948 J0.056
X-2.948 Y12.744 Z-1.356 I-0.948 J-0.056
X-1.052 Y12.857 Z-1.46 I0.948 J0.056
X-2.948 Y12.744 Z-1.564 I-0.948 J-0.056
X-1.052 Y12.857 Z-1.668 I0.948 J0.056
X-2.948 Y12.744 Z-1.772 I-0.948 J-0.056
X-1.052 Y12.857 Z-1.877 I0.948 J0.056
X-2.948 Y12.744 Z-1.981 I-0.948 J-0.056
X-1.052 Y12.857 Z-2.085 I0.948 J0.056
X-2.948 Y12.744 Z-2.189 I-0.948 J-0.056
X-1.052 Y12.857 Z-2.294 I0.948 J0.056
X-2.948 Y12.744 Z-2.398 I-0.948 J-0.056
X-1.05 Y12.8 Z-2.5 I0.948 J0.056
X-2.95 I-0.95
X-1.05 I0.95
G1 X-1.035 Y13.096 F850
X-1.033 Y13.246
X-1.078 Y13.389
X-1.153 Y13.519
X-1.249 Y13.634
X-1.362 Y13.733
X-1.489 Y13.813
X-1.626 Y13.875
X-1.77 Y13.917
X-1.918 Y13.939
X-2.068 Y13.941
X-2.217 Y13.923
X-2.362 Y13.885
X-2.501 Y13.829
X-2.631 Y13.754
X-2.751 Y13.664
X-2.858 Y13.558
X-2.949 Y13.44
X-3.025 Y13.31
X-3.083 Y13.172
X-3.122 Y13.027
X-3.142 Y12.878
Y12.728
X-3.123 Y12.579
X-3.085 Y12.434
X-3.028 Y12.296
X-2.953 Y12.166
X-2.862 Y12.047
X-2.756 Y11.94
X-2.637 Y11.849
X-2.507 Y11.774
X-2.368 Y11.716
X-2.223 Y11.677
X-2.075 Y11.658
X-1.925
X-1.776 Y11.678
X-1.631 Y11.716
X-1.493 Y11.774
X-1.363 Y11.849
X-1.244 Y11.941
X-1.138 Y12.047
X-1.047 Y12.166
X-0.972 Y12.296
X-0.915 Y12.435
X-0.873 Y12.579
X-0.84 Y12.725
X-0.817 Y12.873
X-0.809 Y13.023
X-0.819 Y13.173
X-0.851 Y13.319
X-0.904 Y13.46
X-0.975 Y13.591
X-1.064 Y13.712
X-1.168 Y13.821
X-1.284 Y13.915
X-1.412 Y13.994
X-1.548 Y14.056
X-1.691 Y14.102
X-1.839 Y14.13
X-1.988 Y14.142
X-2.138 Y14.137
X-2.286 Y14.114
X-2.431 Y14.075
X-2.571 Y14.02
X-2.703 Y13.949
X-2.826 Y13.864
X-2.939 Y13.765
X-3.041 Y13.655
X-3.13 Y13.535
X-3.205 Y13.405
X-3.265 Y13.267
X-3.308 Y13.123
X-3.336 Y12.976
X-3.347 Y12.826
X-3.342 Y12.676
X-3.321 Y12.528
X-3.282 Y12.383
X-3.228 Y12.243
X-3.158 Y12.111
X-3.074 Y11.986
X-2.977 Y11.872
X-2.868 Y11.769
X-2.748 Y11.678
X-2.619 Y11.602
X-2.482 Y11.541
X-2.339 Y11.496
X-2.192 Y11.466
X-2.043 Y11.453
X-1.893 Y11.456
X-1.744 Y11.476
X-1.599 Y11.513
X-1.458 Y11.566
X-1.325 Y11.634
X-1.199 Y11.716
X-1.083 Y11.812
X-0.979 Y11.919
X-0.887 Y12.038
X-0.809 Y12.166
X-0.743 Y12.301
X-0.688 Y12.44
X-0.645 Y12.584
X-0.615 Y12.731
X-0.597 Y12.88
X-0.595 Y13.03
X-0.609 Y13.179
X-0.64 Y13.326
X-0.687 Y13.469
X-0.749 Y13.605
X-0.826 Y13.734
X-0.917 Y13.854
X-1.02 Y13.962
X-1.135 Y14.059
X-1.259 Y14.143
X-1.392 Y14.213
X-1.531 Y14.269
X-1.675 Y14.311
X-1.822 Y14.339
X-1.971 Y14.351
X-2.121 Y14.349
X-2.27 Y14.331
X-2.417 Y14.299
X-2.559 Y14.252
X-2.697 Y14.192
X-2.828 Y14.119
X-2.952 Y14.034
X-3.066 Y13.938
X-3.171 Y13.83
X-3.264 Y13.713
X-3.346 Y13.587
X-3.415 Y13.454
X-3.472 Y13.315
X-3.515 Y13.171
X-3.544 Y13.024
X-3.558 Y12.875
Y12.725
X-3.544 Y12.576
X-3.515 Y12.428
X-3.472 Y12.285
X-3.416 Y12.146
X-3.347 Y12.012
X-3.265 Y11.887
X-3.171 Y11.769
X-3.067 Y11.662
X-2.952 Y11.565
X-2.829 Y11.479
X-2.699 Y11.406
X-2.562 Y11.345
X-2.419 Y11.297
X-2.273 Y11.264
X-2.124 Y11.245
X-1.974 Y11.24
X-1.825 Y11.25
X-1.677 Y11.274
X-1.531 Y11.312
X-1.391 Y11.364
X-1.255 Y11.429
X-1.127 Y11.507
X-1.007 Y11.597
X-0.896 Y11.698
X-0.795 Y11.808
X-0.704 Y11.928
X-0.624 Y12.054
X-0.553 Y12.187
X-0.494 Y12.325
X-0.446 Y12.467
X-0.41 Y12.612
X-0.387 Y12.761
X-0.376 Y12.91
X-0.379 Y13.06
X-0.396 Y13.209
X-0.426 Y13.356
X-0.47 Y13.5
X-0.527 Y13.638
X-0.598 Y13.771
X-0.68 Y13.896
X-0.774 Y14.013
X-0.878 Y14.121
X-0.992 Y14.219
X-1.114 Y14.305
X-1.244 Y14.38
X-1.381 Y14.443
X-1.522 Y14.493
X-1.667 Y14.531
X-1.815 Y14.556
X-1.964 Y14.568
X-2.114 Y14.567
X-2.264 Y14.553
X-2.411 Y14.525
X-2.556 Y14.485
X-2.696 Y14.433
X-2.832 Y14.369
X-2.962 Y14.294
X-3.085 Y14.208
X-3.2 Y14.112
X-3.307 Y14.006
X-3.404 Y13.892
X-3.491 Y13.77
X-3.567 Y13.641
X-3.633 Y13.506
X-3.686 Y13.366
X-3.728 Y13.222
X-3.758 Y13.075
X-3.775 Y12.926
X-3.78 Y12.776
X-3.771 Y12.626
X-3.75 Y12.477
X-3.716 Y12.331
X-3.671 Y12.188
X-3.613 Y12.05
X-3.545 Y11.916
X-3.465 Y11.789
X-3.375 Y11.67
X-3.274 Y11.558
X-3.165 Y11.455
X-3.048 Y11.362
X-2.923 Y11.279
X-2.791 Y11.206
X-2.654 Y11.145
X-2.513 Y11.096
X-2.368 Y11.058
X-2.22 Y11.034
X-2.07 Y11.022
X-1.92 Y11.023
X-1.771 Y11.036
X-1.623 Y11.061
X-1.478 Y11.099
X-1.336 Y11.149
X-1.199 Y11.21
X-1.068 Y11.284
X-0.944 Y11.368
X-0.827 Y11.461
X-0.718 Y11.564
X-0.617 Y11.676
X-0.526 Y11.794
X-0.443 Y11.919
X-0.369 Y12.05
X-0.306 Y12.186
X-0.253 Y12.326
X-0.211 Y12.47
X-0.18 Y12.617
X-0.16 Y12.766
X-0.152 Y12.915
X-0.155 Y13.065
X-0.171 Y13.215
X-0.198 Y13.362
X-0.238 Y13.507
X-0.29 Y13.648
X-0.353 Y13.784
X-0.427 Y13.914
X-0.511 Y14.038
X-0.605 Y14.155
X-0.708 Y14.264
X-0.82 Y14.364
X-0.939 Y14.455
X-1.066 Y14.535
X-1.199 Y14.605
X-1.336 Y14.664
X-1.478 Y14.713
X-1.624 Y14.75
X-1.772 Y14.776
X-1.921 Y14.79
X-2.071 Y14.793
X-2.221 Y14.784
X-2.369 Y14.763
X-2.516 Y14.73
X-2.659 Y14.687
X-2.799 Y14.633
X-2.935 Y14.569
X-3.065 Y14.495
X-3.19 Y14.411
X-3.307 Y14.318
X-3.417 Y14.216
X-3.52 Y14.107
X-3.613 Y13.989
X-3.697 Y13.865
X-3.772 Y13.735
X-3.838 Y13.6
X-3.893 Y13.461
X-3.937 Y13.318
X-3.971 Y13.171
X-3.993 Y13.023
X-4.004 Y12.873
Y12.723
X-3.992 Y12.574
X-3.97 Y12.426
X-3.936 Y12.279
X-3.892 Y12.136
X-3.838 Y11.996
X-3.773 Y11.861
X-3.697 Y11.731
X-3.613 Y11.607
X-3.519 Y11.49
X-3.416 Y11.381
X-3.306 Y11.279
X-3.189 Y11.186
X-3.065 Y11.101
X-2.935 Y11.026
X-2.8 Y10.961
X-2.66 Y10.906
X-2.517 Y10.862
X-2.371 Y10.829
X-2.222 Y10.807
X-2.073 Y10.796
X-1.923
X-1.773 Y10.807
X-1.625 Y10.83
X-1.478 Y10.863
X-1.335 Y10.907
X-1.196 Y10.963
X-1.061 Y11.028
X-0.931 Y11.103
X-0.807 Y11.188
X-0.689 Y11.281
X-0.579 Y11.382
X-0.475 Y11.49
X-0.379 Y11.606
X-0.291 Y11.727
X-0.212 Y11.855
X-0.142 Y11.987
X-0.081 Y12.125
X-0.03 Y12.265
X0.012 Y12.41
X0.043 Y12.556
X0.065 Y12.705
X0.077 Y12.854
X0.078 Y13.004
X0.068 Y13.154
X0.047 Y13.302
X0.015 Y13.449
X-0.027 Y13.593
X-0.079 Y13.734
X-0.141 Y13.87
X-0.213 Y14.002
X-0.294 Y14.128
X-0.384 Y14.248
X-0.483 Y14.361
X-0.59 Y14.466
X-0.704 Y14.563
X-0.825 Y14.652
X-0.952 Y14.732
X-1.084 Y14.803
X-1.221 Y14.864
X-1.362 Y14.916
X-1.506 Y14.958
X-1.652 Y14.99
X-1.801 Y15.011
X-1.951 Y15.021
X-2.101
X-2.25 Y15.011
X-2.399 Y14.991
X-2.546 Y14.96
X-2.69 Y14.92
X-2.832 Y14.87
X-2.969 Y14.81
X-3.103 Y14.742
X-3.231 Y14.664
X-3.353 Y14.577
X-3.47 Y14.483
X-3.58 Y14.38
X-3.682 Y14.271
X-3.777 Y14.155
X-3.865 Y14.033
X-3.944 Y13.906
X-4.014 Y13.773
X-4.075 Y13.636
X-4.126 Y13.495
X-4.168 Y13.351
X-4.2 Y13.204
X-4.222 Y13.056
X-4.234 Y12.906
X-4.236 Y12.756
X-4.228 Y12.607
X-4.211 Y12.458
X-4.183 Y12.31
X-4.145 Y12.165
X-4.098 Y12.023
X-4.041 Y11.884
X-3.975 Y11.749
X-3.9 Y11.619
X-3.817 Y11.495
X-3.725 Y11.376
X-3.626 Y11.263
X-3.519 Y11.158
X-3.406 Y11.06
X-3.286 Y10.969
X-3.161 Y10.887
X-3.03 Y10.814
X-2.894 Y10.749
X-2.755 Y10.694
X-2.612 Y10.648
X-2.466 Y10.612
X-2.319 Y10.586
X-2.17 Y10.569
X-2.02 Y10.563
X-1.87 Y10.566
X-1.721 Y10.58
X-1.572 Y10.604
X-1.426 Y10.638
X-1.283 Y10.681
X-1.142 Y10.734
X-1.006 Y10.796
X-0.873 Y10.866
X-0.746 Y10.946
X-0.624 Y11.033
X-0.508 Y11.128
X-0.398 Y11.231
X-0.295 Y11.34
X-0.199 Y11.455
X-0.111 Y11.576
X-0.03 Y11.702
X0.043 Y11.833
X0.108 Y11.968
X0.165 Y12.107
X0.212 Y12.249
X0.251 Y12.394
X0.28 Y12.541
X0.3 Y12.69
X0.311 Y12.84
X0.312 Y12.99
X0.304 Y13.14
X0.286 Y13.288
X0.259 Y13.436
X0.222 Y13.581
X0.175 Y13.724
X0.12 Y13.863
X0.055 Y13.999
X-0.018 Y14.13
X-0.099 Y14.256
X-0.189 Y14.376
X-0.286 Y14.49
X-0.39 Y14.598
X-0.501 Y14.699
X-0.619 Y14.792
X-0.742 Y14.878
X-0.871 Y14.955
X-1.004 Y15.024
X-1.141 Y15.085
X-1.282 Y15.136
X-1.426 Y15.179
X-1.572 Y15.213
X-1.72 Y15.237
X-1.869 Y15.252
X-2.019 Y15.258
X-2.169 Y15.254
X-2.318 Y15.24
X-2.467 Y15.218
X-2.613 Y15.186
X-2.758 Y15.146
X-2.899 Y15.096
X-3.038 Y15.038
X-3.172 Y14.972
X-3.302 Y14.898
X-3.428 Y14.815
X-3.548 Y14.725
X-3.662 Y14.628
X-3.77 Y14.524
X-3.872 Y14.414
X-3.966 Y14.297
X-4.054 Y14.175
X-4.134 Y14.049
X-4.206 Y13.917
X-4.27 Y13.781
X-4.325 Y13.642
X-4.372 Y13.5
X-4.41 Y13.354
X-4.44 Y13.207
X-4.46 Y13.059
X-4.471 Y12.909
X-4.473 Y12.759
X-4.466 Y12.609
X-4.45 Y12.46
X-4.425 Y12.312
X-4.391 Y12.166
X-4.349 Y12.022
X-4.297 Y11.881
X-4.237 Y11.744
X-4.169 Y11.61
X-4.093 Y11.481
X-4.009 Y11.357
X-3.918 Y11.238
X-3.819 Y11.124
X-3.715 Y11.017
X-3.604 Y10.916
X-3.487 Y10.822
X-3.364 Y10.736
X-3.236 Y10.657
X-3.104 Y10.586
X-2.968 Y10.523
X-2.828 Y10.469
X-2.685 Y10.423
X-2.54 Y10.386
X-2.393 Y10.358
X-2.244 Y10.338
X-2.094 Y10.328
X-1.944 Y10.326
X-1.795 Y10.334
X-1.646 Y10.351
X-1.498 Y10.377
X-1.352 Y10.412
X-1.208 Y10.456
X-1.068 Y10.508
X-0.931 Y10.569
X-0.797 Y10.637
X-0.668 Y10.713
X-0.543 Y10.797
X-0.424 Y10.888
X-0.31 Y10.985
X-0.202 Y11.089
X-0.1 Y11.2
X-0.005 Y11.315
X0.084 Y11.436
X0.166 Y11.562
X0.24 Y11.692
X0.307 Y11.826
X0.367 Y11.964
X0.418 Y12.105
X0.462 Y12.249
X0.497 Y12.394
X0.523 Y12.542
X0.541 Y12.691
X0.551 Y12.841
X0.552 Y12.991
X0.544 Y13.14
X0.527 Y13.29
X0.502 Y13.437
X0.468 Y13.584
X0.426 Y13.728
X0.376 Y13.869
X0.317 Y14.007
X0.25 Y14.141
X0.175 Y14.271
X0.093 Y14.396
X0.003 Y14.517
X-0.093 Y14.632
X-0.196 Y14.741
X-0.305 Y14.844
X-0.42 Y14.94
X-0.541 Y15.03
X-0.666 Y15.112
X-0.796 Y15.187
X-0.93 Y15.254
X-1.068 Y15.313
X-1.209 Y15.364
X-1.353 Y15.407
X-1.499 Y15.442
X-1.646 Y15.468
X-1.795 Y15.486
X-1.945 Y15.496
X-2.095 Y15.497
X-2.245 Y15.489
X-2.394 Y15.473
X-2.542 Y15.448
X-2.688 Y15.415
X-2.832 Y15.374
X-2.974 Y15.325
X-3.113 Y15.268
X-3.248 Y15.203
X-3.38 Y15.131
X-3.507 Y15.052
X-3.63 Y14.966
X-3.748 Y14.873
X-3.86 Y14.773
X-3.966 Y14.667
X-4.067 Y14.556
X-4.161 Y14.439
X-4.248 Y14.317
X-4.329 Y14.191
X-4.403 Y14.06
X-4.469 Y13.926
X-4.528 Y13.788
X-4.579 Y13.647
X-4.622 Y13.503
X-4.657 Y13.357
X-4.683 Y13.209
X-4.702 Y13.061
X-4.712 Y12.911
X-4.714 Y12.761
X-4.708 Y12.611
X-4.693 Y12.462
X-4.671 Y12.313
X-4.64 Y12.167
X-4.601 Y12.022
X-4.554 Y11.879
X-4.499 Y11.74
X-4.437 Y11.603
X-4.367 Y11.47
X-4.29 Y11.342
X-4.206 Y11.218
X-4.115 Y11.098
X-4.018 Y10.984
X-3.914 Y10.875
X-3.805 Y10.772
X-3.691 Y10.676
X-3.571 Y10.585
X-3.446 Y10.502
X-3.317 Y10.426
X-3.184 Y10.357
X-3.047 Y10.295
X-2.907 Y10.241
X-2.764 Y10.195
X-2.619 Y10.157
X-2.472 Y10.127
X-2.324 Y10.105
X-2.175 Y10.091
X-2.025 Y10.085
X-1.875 Y10.088
X-1.725 Y10.099
X-1.577 Y10.118
X-1.429 Y10.146
X-1.283 Y10.181
X-1.14 Y10.225
X-0.999 Y10.276
X-0.861 Y10.335
X-0.726 Y10.401
X-0.595 Y10.474
X-0.468 Y10.554
X-0.346 Y10.641
X-0.229 Y10.734
X-0.116 Y10.834
X-0.009 Y10.939
X0.092 Y11.05
X0.187 Y11.165
X0.276 Y11.286
X0.359 Y11.411
X0.435 Y11.541
X0.504 Y11.674
X0.567 Y11.81
X0.622 Y11.949
X0.67 Y12.092
X0.71 Y12.236
X0.743 Y12.382
X0.768 Y12.53
X0.785 Y12.679
X0.794 Y12.829
X0.795 Y12.979
X0.788 Y13.129
X0.774 Y13.278
X0.751 Y13.427
X0.721 Y13.573
X0.683 Y13.719
X0.637 Y13.861
X0.584 Y14.002
X0.523 Y14.139
X0.454 Y14.272
X0.379 Y14.402
X0.297 Y14.527
X0.208 Y14.648
X0.113 Y14.764
X0.012 Y14.875
X-0.095 Y14.98
X-0.207 Y15.08
X-0.325 Y15.173
X-0.447 Y15.26
X-0.574 Y15.34
X-0.705 Y15.413
X-0.839 Y15.479
X-0.977 Y15.538
X-1.118 Y15.59
X-1.262 Y15.634
X-1.407 Y15.671
X-1.554 Y15.7
X-1.703 Y15.721
X-1.852 Y15.735
X-2.002 Y15.741
X-2.152 Y15.739
X-2.302 Y15.729
X-2.451 Y15.711
X-2.598 Y15.686
X-2.745 Y15.652
X-2.889 Y15.612
X-3.031 Y15.564
X-3.171 Y15.509
X-3.307 Y15.447
X-3.44 Y15.378
X-3.57 Y15.302
X-3.695 Y15.22
X-3.816 Y15.131
X-3.933 Y15.036
X-4.044 Y14.936
X-4.15 Y14.829
X-4.25 Y14.718
X-4.345 Y14.602
X-4.433 Y14.48
X-4.516 Y14.355
X-4.591 Y14.226
X-4.661 Y14.093
X-4.723 Y13.956
X-4.779 Y13.817
X-4.827 Y13.675
X-4.868 Y13.53
X-4.901 Y13.384
X-4.927 Y13.236
X-4.945 Y13.088
X-4.956 Y12.938
X-4.959 Y12.788
X-4.955 Y12.638
X-4.943 Y12.489
X-4.923 Y12.34
X-4.896 Y12.192
X-4.862 Y12.046
X-4.821 Y11.902
X-4.772 Y11.76
X-4.715 Y11.621
X-4.652 Y11.485
X-4.582 Y11.353
X-4.505 Y11.224
X-4.422 Y11.099
X-4.332 Y10.979
X-4.237 Y10.863
X-4.136 Y10.752
X-4.03 Y10.646
X-3.918 Y10.546
X-3.802 Y10.451
X-3.681 Y10.363
X-3.555 Y10.281
X-3.425 Y10.206
X-3.292 Y10.137
X-3.155 Y10.075
X-3.016 Y10.02
X-2.873 Y9.972
X-2.729 Y9.932
X-2.583 Y9.898
X-2.435 Y9.872
X-2.286 Y9.854
X-2.137 Y9.843
X-1.987 Y9.84
X-1.837 Y9.844
X-1.687 Y9.856
X-1.539 Y9.876
X-1.391 Y9.903
X-1.245 Y9.938
X-1.101 Y9.98
X-0.959 Y10.029
X-0.82 Y10.084
X-0.684 Y10.147
X-0.551 Y10.216
X-0.421 Y10.292
X-0.296 Y10.374
X-0.174 Y10.462
X-0.057 Y10.556
X0.055 Y10.656
X0.162 Y10.761
X0.263 Y10.871
X0.36 Y10.986
X0.451 Y11.106
X0.536 Y11.229
X0.615 Y11.357
X0.687 Y11.488
X0.754 Y11.622
X0.814 Y11.76
X0.867 Y11.9
X0.914 Y12.043
X0.953 Y12.187
X0.985 Y12.334
X1.01 Y12.482
X1.028 Y12.631
X1.039 Y12.78
X1.042 Y12.93
X1.038 Y13.08
X1.027 Y13.23
X1.009 Y13.379
X0.984 Y13.527
X0.951 Y13.673
X0.911 Y13.818
X0.864 Y13.96
X0.81 Y14.1
X0.748 Y14.237
X0.681 Y14.371
X0.607 Y14.501
X0.526 Y14.628
X0.439 Y14.75
X0.347 Y14.868
X0.249 Y14.982
X0.146 Y15.09
X0.037 Y15.194
X-0.077 Y15.292
X-0.195 Y15.384
X-0.318 Y15.47
X-0.445 Y15.55
X-0.576 Y15.623
X-0.71 Y15.691
X-0.847 Y15.751
X-0.987 Y15.805
X-1.129 Y15.852
X-1.274 Y15.893
X-1.42 Y15.926
X-1.568 Y15.952
X-1.716 Y15.972
X-1.866 Y15.984
X-2.016 Y15.988
X-2.166 Y15.986
X-2.316 Y15.976
X-2.465 Y15.959
X-2.613 Y15.934
X-2.759 Y15.903
X-2.904 Y15.865
X-3.048 Y15.821
X-3.188 Y15.769
X-3.327 Y15.711
X-3.462 Y15.647
X-3.595 Y15.576
X-3.723 Y15.499
X-3.848 Y15.416
X-3.969 Y15.327
X-4.085 Y15.232
X-4.197 Y15.132
X-4.304 Y15.027
X-4.406 Y14.917
X-4.502 Y14.802
X-4.594 Y14.683
X-4.679 Y14.56
X-4.759 Y14.433
X-4.833 Y14.302
X-4.9 Y14.168
X-4.961 Y14.031
X-5.016 Y13.891
X-5.064 Y13.749
X-5.105 Y13.605
X-5.139 Y13.459
X-5.166 Y13.311
X-5.187 Y13.163
X-5.2 Y13.013
X-5.207 Y12.863
X-5.206 Y12.713
X-5.199 Y12.564
X-5.185 Y12.414
X-5.163 Y12.266
X-5.135 Y12.119
X-5.1 Y11.973
X-5.058 Y11.829
X-5.009 Y11.687
X-4.954 Y11.548
X-4.892 Y11.411
X-4.823 Y11.277
X-4.749 Y11.147
X-4.669 Y11.02
X-4.583 Y10.897
X-4.491 Y10.779
X-4.394 Y10.664
X-4.292 Y10.555
X-4.184 Y10.45
X-4.072 Y10.35
X-3.955 Y10.256
X-3.834 Y10.168
X-3.709 Y10.085
X-3.58 Y10.008
X-3.448 Y9.937
X-3.313 Y9.873
X-3.174 Y9.815
X-3.034 Y9.763
X-2.891 Y9.718
X-2.746 Y9.679
X-2.599 Y9.648
X-2.451 Y9.623
X-2.302 Y9.606
X-2.152 Y9.595
X-2.002 Y9.591
X-1.852 Y9.595
X-1.703 Y9.605
X-1.554 Y9.623
X-1.406 Y9.647
X-1.259 Y9.678
X-1.114 Y9.716
X-0.971 Y9.76
X-0.83 Y9.811
X-0.691 Y9.869
X-0.555 Y9.932
X-0.422 Y10.002
X-0.293 Y10.078
X-0.167 Y10.16
X-0.045 Y10.247
X0.072 Y10.34
X0.186 Y10.438
X0.295 Y10.541
X0.399 Y10.649
X0.499 Y10.761
X0.593 Y10.878
X0.682 Y10.999
X0.765 Y11.123
X0.843 Y11.252
X0.916 Y11.383
X0.982 Y11.518
X1.042 Y11.655
X1.095 Y11.795
X1.143 Y11.937
X1.184 Y12.082
X1.218 Y12.228
X1.246 Y12.375
X1.268 Y12.524
X1.283 Y12.673
X1.291 Y12.823
X1.292 Y12.973
X1.287 Y13.123
X1.275 Y13.272
X1.256 Y13.421
X1.23 Y13.569
X1.198 Y13.715
X1.158 Y13.86
X1.113 Y14.003
X1.061 Y14.143
X1.002 Y14.282
X0.938 Y14.417
X0.867 Y14.549
X0.791 Y14.678
X0.708 Y14.804
X0.621 Y14.925
X0.527 Y15.043
X0.429 Y15.156
X0.325 Y15.264
X0.216 Y15.368
X0.103 Y15.466
X-0.014 Y15.56
X-0.136 Y15.647
X-0.261 Y15.73
X-0.39 Y15.806
X-0.522 Y15.877
X-0.658 Y15.942
X-0.796 Y16
X-0.936 Y16.053
X-1.079 Y16.099
X-1.224 Y16.139
X-1.37 Y16.172
X-1.518 Y16.198
X-1.666 Y16.218
X-1.816 Y16.231
X-1.966 Y16.238
X-2.116 Y16.237
X-2.265 Y16.23
X-2.415 Y16.217
X-2.564 Y16.197
X-2.711 Y16.171
X-2.858 Y16.138
X-3.002 Y16.098
X-3.145 Y16.053
X-3.286 Y16.001
X-3.424 Y15.943
X-3.56 Y15.879
X-3.692 Y15.809
X-3.822 Y15.733
X-3.948 Y15.651
X-4.07 Y15.564
X-4.188 Y15.472
X-4.303 Y15.375
X-4.413 Y15.273
X-4.518 Y15.166
X-4.619 Y15.055
X-4.714 Y14.94
X-4.805 Y14.82
X-4.89 Y14.697
X-4.97 Y14.57
X-5.044 Y14.439
X-5.113 Y14.306
X-5.175 Y14.169
X-5.232 Y14.03
X-5.282 Y13.889
X-5.326 Y13.746
X-5.364 Y13.601
X-5.396 Y13.454
X-5.421 Y13.306
X-5.44 Y13.157
X-5.453 Y13.008
X-5.459 Y12.858
X-5.458 Y12.708
X-5.451 Y12.558
X-5.437 Y12.409
X-5.417 Y12.26
X-5.39 Y12.113
X-5.357 Y11.966
X-5.318 Y11.822
X-5.273 Y11.679
X-5.221 Y11.538
X-5.163 Y11.399
X-5.1 Y11.264
X-5.03 Y11.131
X-4.955 Y11.001
X-4.874 Y10.874
X-4.788 Y10.752
X-4.697 Y10.633
X-4.6 Y10.518
X-4.499 Y10.407
X-4.393 Y10.301
X-4.282 Y10.2
X-4.167 Y10.103
X-4.048 Y10.012
X-3.926 Y9.926
X-3.799 Y9.845
X-3.669 Y9.77
X-3.537 Y9.7
X-3.401 Y9.636
X-3.262 Y9.579
X-3.122 Y9.527
X-2.979 Y9.481
X-2.834 Y9.442
X-2.688 Y9.409
X-2.54 Y9.383
X-2.391 Y9.362
X-2.242 Y9.349
X-2.092 Y9.341
X-1.942
X-1.792 Y9.346
X-1.643 Y9.358
X-1.494 Y9.377
X-1.346 Y9.402
X-1.199 Y9.433
X-1.054 Y9.471
X-0.911 Y9.515
X-0.769 Y9.565
X-0.63 Y9.62
X-0.493 Y9.682
X-0.359 Y9.75
X-0.228 Y9.823
X-0.101 Y9.902
X0.024 Y9.986
X0.144 Y10.075
X0.261 Y10.169
X0.374 Y10.268
X0.483 Y10.371
X0.587 Y10.479
X0.686 Y10.591
X0.781 Y10.708
X0.871 Y10.828
X0.956 Y10.951
X1.035 Y11.079
X1.109 Y11.209
X1.178 Y11.342
X1.241 Y11.478
X1.299 Y11.617
X1.35 Y11.758
X1.396 Y11.901
X1.436 Y12.045
X1.47 Y12.191
X1.497 Y12.339
X1.519 Y12.487
X1.534 Y12.636
X1.543 Y12.786
X1.545 Y12.936
X1.542 Y13.086
X1.532 Y13.236
X1.516 Y13.385
X1.493 Y13.533
X1.465 Y13.68
X1.43 Y13.826
X1.389 Y13.971
X1.342 Y14.113
X1.289 Y14.254
X1.23 Y14.392
X1.166 Y14.527
X1.095 Y14.659
X1.019 Y14.789
X0.938 Y14.915
X0.852 Y15.038
X0.76 Y15.156
X0.664 Y15.271
X0.563 Y15.382
X0.457 Y15.488
X0.347 Y15.59
X0.232 Y15.687
X0.114 Y15.779
X-0.008 Y15.867
X-0.134 Y15.948
X-0.263 Y16.025
X-0.395 Y16.096
X-0.53 Y16.162
X-0.667 Y16.221
X-0.807 Y16.275
X-0.949 Y16.324
X-1.093 Y16.366
X-1.239 Y16.402
X-1.386 Y16.432
X-1.534 Y16.456
X-1.683 Y16.474
X-1.832 Y16.486
X-1.982 Y16.491
X-2.132
X-2.282 Y16.484
X-2.431 Y16.47
X-2.58 Y16.451
X-2.728 Y16.426
X-2.875 Y16.394
X-3.02 Y16.357
X-3.164 Y16.314
X-3.305 Y16.265
X-3.445 Y16.21
X-3.582 Y16.149
X-3.717 Y16.083
X-3.849 Y16.011
X-3.978 Y15.935
X-4.103 Y15.853
X-4.226 Y15.765
X-4.344 Y15.673
X-4.459 Y15.576
X-4.57 Y15.474
X-4.677 Y15.367
X-4.78 Y15.257
X-4.878 Y15.142
X-4.971 Y15.023
X-5.059 Y14.9
X-5.142 Y14.774
X-5.221 Y14.644
X-5.293 Y14.512
X-5.361 Y14.376
X-5.422 Y14.239
X-5.478 Y14.099
X-5.528 Y13.957
X-5.572 Y13.813
X-5.61 Y13.667
X-5.643 Y13.519
X-5.669 Y13.37
X-5.689 Y13.22
X-5.703 Y13.069
X-5.711 Y12.918
X-5.713 Y12.766
X-5.709 Y12.615
X-5.698 Y12.463
X-5.681 Y12.312
X-5.658 Y12.162
X-5.629 Y12.013
X-5.594 Y11.865
X-5.553 Y11.72
X-5.506 Y11.576
X-5.454 Y11.435
X-5.396 Y11.296
X-5.332 Y11.159
X-5.262 Y11.024
X-5.187 Y10.893
X-5.107 Y10.765
X-5.021 Y10.639
X-4.93 Y10.518
X-4.834 Y10.4
X-4.734 Y10.286
X-4.629 Y10.177
X-4.519 Y10.071
X-4.405 Y9.97
X-4.287 Y9.874
X-4.165 Y9.782
X-4.04 Y9.696
X-3.913 Y9.616
X-3.782 Y9.541
X-3.649 Y9.472
X-3.512 Y9.407
X-3.373 Y9.349
X-3.231 Y9.296
X-3.087 Y9.248
X-2.941 Y9.207
X-2.793 Y9.172
X-2.644 Y9.142
X-2.493 Y9.119
X-2.342 Y9.102
X-2.189 Y9.091
X-2.037 Y9.086
X-1.884 Y9.087
X-1.732 Y9.095
X-1.58 Y9.109
X-1.429 Y9.129
X-1.28 Y9.155
X-1.131 Y9.187
X-0.984 Y9.226
X-0.837 Y9.27
X-0.692 Y9.321
X-0.549 Y9.378
X-0.408 Y9.44
X-0.269 Y9.509
X-0.133 Y9.584
X0.001 Y9.664
X0.131 Y9.749
X0.258 Y9.84
X0.381 Y9.936
X0.5 Y10.037
X0.615 Y10.144
X0.726 Y10.255
X0.833 Y10.37
X0.935 Y10.49
X1.032 Y10.614
X1.124 Y10.742
X1.21 Y10.874
X1.291 Y11.009
X1.367 Y11.148
X1.437 Y11.29
X1.501 Y11.434
X1.559 Y11.58
X1.611 Y11.729
X1.657 Y11.88
X1.697 Y12.032
X1.73 Y12.186
X1.757 Y12.341
X1.778 Y12.496
X1.792 Y12.653
X1.8 Y12.809
X1.802 Y12.965
X1.797 Y13.121
X1.786 Y13.277
X1.768 Y13.432
X1.744 Y13.586
X1.714 Y13.739
X1.678 Y13.89
X1.636 Y14.04
X1.587 Y14.187
X1.533 Y14.333
X1.472 Y14.477
X1.406 Y14.617
X1.334 Y14.756
X1.257 Y14.891
X1.174 Y15.022
X1.085 Y15.151
X0.992 Y15.276
X0.893 Y15.397
X0.789 Y15.513
X0.681 Y15.626
X0.569 Y15.734
X0.452 Y15.837
X0.331 Y15.935
X0.206 Y16.029
X0.076 Y16.117
X-0.056 Y16.201
X-0.192 Y16.278
X-0.332 Y16.351
X-0.474 Y16.417
X-0.619 Y16.478
X-0.767 Y16.533
X-0.917 Y16.582
X-1.069 Y16.625
X-1.223 Y16.661
X-1.378 Y16.691
X-1.534 Y16.715
X-1.691 Y16.733
X-1.848 Y16.744
X-2.007 Y16.748
X-2.165 Y16.747
X-2.324 Y16.738
X-2.482 Y16.723
X-2.64 Y16.702
X-2.797 Y16.674
X-2.953 Y16.64
X-3.108 Y16.6
X-3.261 Y16.553
X-3.412 Y16.499
X-3.561 Y16.44
X-3.707 Y16.375
X-3.851 Y16.304
X-3.991 Y16.227
X-4.128 Y16.144
X-4.262 Y16.056
X-4.393 Y15.962
X-4.519 Y15.863
X-4.642 Y15.758
X-4.76 Y15.649
X-4.874 Y15.535
X-4.983 Y15.416
X-5.087 Y15.292
X-5.186 Y15.165
X-5.28 Y15.034
X-5.369 Y14.898
X-5.452 Y14.76
X-5.529 Y14.618
X-5.6 Y14.473
X-5.665 Y14.325
X-5.724 Y14.175
X-5.777 Y14.023
X-5.824 Y13.868
X-5.865 Y13.712
X-5.899 Y13.553
X-5.926 Y13.394
X-5.947 Y13.233
X-5.962 Y13.072
X-5.97 Y12.91
X-5.971 Y12.748
X-5.966 Y12.586
X-5.954 Y12.424
X-5.935 Y12.263
X-5.91 Y12.103
X-5.878 Y11.944
X-5.84 Y11.787
X-5.796 Y11.631
X-5.745 Y11.478
X-5.688 Y11.326
X-5.625 Y11.177
X-5.556 Y11.031
X-5.481 Y10.887
X-5.4 Y10.747
X-5.314 Y10.61
X-5.221 Y10.477
X-5.124 Y10.347
X-5.021 Y10.221
X-4.913 Y10.1
X-4.8 Y9.983
X-4.682 Y9.871
X-4.56 Y9.763
X-4.434 Y9.661
X-4.304 Y9.565
X-4.171 Y9.474
X-4.034 Y9.388
X-3.893 Y9.308
X-3.749 Y9.234
X-3.603 Y9.166
X-3.453 Y9.103
X-3.301 Y9.047
X-3.147 Y8.997
X-2.99 Y8.953
X-2.832 Y8.916
X-2.672 Y8.885
X-2.511 Y8.861
X-2.349 Y8.843
X-2.187 Y8.832
X-2.024 Y8.828
X-1.861 Y8.83
X-1.698 Y8.839
X-1.537 Y8.854
X-1.375 Y8.876
X-1.215 Y8.905
X-1.055 Y8.94
X-0.897 Y8.982
X-0.741 Y9.03
X-0.586 Y9.085
X-0.433 Y9.146
X-0.282 Y9.214
X-0.134 Y9.288
X0.011 Y9.368
X0.153 Y9.454
X0.292 Y9.546
X0.427 Y9.643
X0.558 Y9.746
X0.685 Y9.855
X0.807 Y9.969
X0.925 Y10.087
X1.038 Y10.211
X1.146 Y10.34
X1.249 Y10.472
X1.347 Y10.609
X1.439 Y10.75
X1.525 Y10.895
X1.605 Y11.043
X1.679 Y11.194
X1.746 Y11.348
X1.808 Y11.504
X1.862 Y11.663
X1.911 Y11.824
X1.952 Y11.987
X1.987 Y12.151
X2.016 Y12.316
X2.037 Y12.482
X2.052 Y12.649
X2.06 Y12.816
X2.061 Y12.983
X2.055 Y13.15
X2.042 Y13.316
X2.023 Y13.481
X1.997 Y13.646
X1.964 Y13.809
X1.925 Y13.97
X1.879 Y14.13
X1.826 Y14.288
X1.767 Y14.443
X1.702 Y14.596
X1.631 Y14.746
X1.554 Y14.894
X1.47 Y15.038
X1.381 Y15.178
X1.286 Y15.315
X1.186 Y15.448
X1.08 Y15.576
X0.969 Y15.701
X0.853 Y15.82
X0.732 Y15.935
X0.607 Y16.045
X0.477 Y16.15
X0.343 Y16.249
X0.205 Y16.343
X0.063 Y16.431
X-0.083 Y16.514
X-0.232 Y16.591
X-0.385 Y16.661
X-0.54 Y16.725
X-0.698 Y16.783
X-0.858 Y16.835
X-1.02 Y16.88
X-1.184 Y16.918
X-1.349 Y16.95
X-1.516 Y16.975
X-1.684 Y16.993
X-1.852 Y17.004
X-2.021 Y17.008
X-2.191 Y17.005
X-2.36 Y16.996
X-2.529 Y16.979
X-2.697 Y16.956
X-2.865 Y16.926
X-3.031 Y16.889
X-3.196 Y16.845
X-3.359 Y16.794
X-3.519 Y16.737
X-3.677 Y16.673
X-3.833 Y16.603
X-3.986 Y16.527
X-4.135 Y16.444
X-4.281 Y16.355
X-4.424 Y16.26
X-4.563 Y16.16
X-4.697 Y16.053
X-4.827 Y15.941
X-4.953 Y15.824
X-5.074 Y15.702
X-5.189 Y15.575
X-5.3 Y15.443
X-5.405 Y15.307
X-5.505 Y15.167
X-5.598 Y15.022
X-5.686 Y14.874
X-5.767 Y14.723
X-5.843 Y14.568
X-5.912 Y14.411
X-5.974 Y14.25
X-6.03 Y14.087
X-6.079 Y13.922
X-6.122 Y13.755
X-6.157 Y13.587
X-6.186 Y13.417
X-6.208 Y13.245
X-6.223 Y13.073
X-6.23 Y12.901
X-6.231 Y12.728
X-6.225 Y12.556
X-6.211 Y12.383
X-6.191 Y12.212
X-6.163 Y12.041
X-6.129 Y11.872
X-6.088 Y11.705
X-6.04 Y11.539
X-5.985 Y11.376
X-5.924 Y11.215
X-5.856 Y11.056
X-5.782 Y10.9
X-5.701 Y10.747
X-5.614 Y10.598
X-5.522 Y10.453
X-5.423 Y10.311
X-5.318 Y10.173
X-5.208 Y10.039
X-5.093 Y9.911
X-4.972 Y9.787
X-4.846 Y9.668
X-4.716 Y9.554
X-4.582 Y9.446
X-4.443 Y9.344
X-4.3 Y9.247
X-4.153 Y9.156
X-4.003 Y9.071
X-3.849 Y8.993
X-3.693 Y8.921
X-3.533 Y8.855
X-3.37 Y8.796
X-3.206 Y8.743
X-3.039 Y8.697
X-2.87 Y8.658
X-2.7 Y8.626
X-2.528 Y8.6
X-2.356 Y8.582
X-2.182 Y8.571
X-2.009 Y8.567
X-1.836 Y8.57
X-1.663 Y8.58
X-1.49 Y8.597
X-1.318 Y8.622
X-1.147 Y8.653
X-0.977 Y8.691
X-0.808 Y8.736
X-0.641 Y8.789
X-0.477 Y8.848
X-0.314 Y8.913
X-0.154 Y8.986
X0.003 Y9.065
X0.158 Y9.151
X0.308 Y9.243
X0.455 Y9.341
X0.599 Y9.446
X0.738 Y9.556
X0.872 Y9.672
X1.002 Y9.793
X1.127 Y9.92
X1.247 Y10.052
X1.361 Y10.189
X1.47 Y10.331
X1.573 Y10.477
X1.67 Y10.627
X1.761 Y10.781
X1.845 Y10.938
X1.923 Y11.099
X1.994 Y11.263
X2.059 Y11.43
X2.117 Y11.599
X2.167 Y11.77
X2.211 Y11.943
X2.248 Y12.118
X2.277 Y12.293
X2.299 Y12.47
X2.314 Y12.647
X2.321 Y12.825
X2.322 Y13.003
X2.315 Y13.18
X2.301 Y13.357
X2.28 Y13.533
X2.251 Y13.708
X2.216 Y13.881
X2.173 Y14.053
X2.123 Y14.223
X2.067 Y14.391
X2.004 Y14.556
X1.934 Y14.719
X1.857 Y14.878
X1.774 Y15.035
X1.685 Y15.188
X1.589 Y15.337
X1.488 Y15.482
X1.381 Y15.623
X1.267 Y15.759
X1.149 Y15.891
X1.025 Y16.018
X0.896 Y16.14
X0.762 Y16.256
X0.623 Y16.367
X0.48 Y16.472
X0.332 Y16.572
X0.181 Y16.665
X0.025 Y16.753
X-0.134 Y16.833
X-0.296 Y16.908
X-0.461 Y16.976
X-0.629 Y17.037
X-0.8 Y17.091
X-0.972 Y17.138
X-1.147 Y17.178
X-1.323 Y17.211
X-1.5 Y17.236
X-1.679 Y17.255
X-1.858 Y17.266
X-2.038 Y17.27
X-2.218 Y17.267
X-2.398 Y17.256
X-2.578 Y17.238
X-2.757 Y17.212
X-2.934 Y17.179
X-3.111 Y17.139
X-3.285 Y17.092
X-3.458 Y17.037
X-3.629 Y16.976
X-3.797 Y16.908
X-3.962 Y16.832
X-4.124 Y16.75
X-4.282 Y16.662
X-4.437 Y16.567
X-4.588 Y16.465
X-4.735 Y16.358
X-4.878 Y16.244
X-5.016 Y16.125
X-5.149 Y16
X-5.276 Y15.87
X-5.399 Y15.735
X-5.516 Y15.594
X-5.627 Y15.449
X-5.732 Y15.3
X-5.831 Y15.146
X-5.923 Y14.988
X-6.009 Y14.827
X-6.088 Y14.663
X-6.161 Y14.495
X-6.227 Y14.324
X-6.286 Y14.151
X-6.337 Y13.975
X-6.382 Y13.798
X-6.419 Y13.618
X-6.449 Y13.438
X-6.471 Y13.256
X-6.486 Y13.073
X-6.493 Y12.89
Y12.706
X-6.486 Y12.523
X-6.471 Y12.34
X-6.449 Y12.158
X-6.419 Y11.978
X-6.382 Y11.798
X-6.337 Y11.62
X-6.286 Y11.445
X-6.227 Y11.271
X-6.161 Y11.1
X-6.088 Y10.932
X-6.009 Y10.767
X-5.923 Y10.605
X-5.83 Y10.446
X-5.73 Y10.292
X-5.625 Y10.142
X-5.513 Y9.996
X-5.396 Y9.855
X-5.273 Y9.718
X-5.144 Y9.587
X-5.011 Y9.462
X-4.872 Y9.342
X-4.729 Y9.227
X-4.581 Y9.119
X-4.428 Y9.017
X-4.272 Y8.921
X-4.112 Y8.832
X-3.948 Y8.749
X-3.781 Y8.673
X-3.611 Y8.603
X-3.439 Y8.541
X-3.263 Y8.486
X-3.086 Y8.438
X-2.906 Y8.397
X-2.726 Y8.363
X-2.543 Y8.337
X-2.36 Y8.319
X-2.177 Y8.308
X-1.992 Y8.304
X-1.808 Y8.308
X-1.624 Y8.319
X-1.441 Y8.338
X-1.258 Y8.365
X-1.076 Y8.399
X-0.896 Y8.44
X-0.717 Y8.489
X-0.54 Y8.545
X-0.365 Y8.608
X-0.192 Y8.679
X-0.023 Y8.757
X0.144 Y8.841
X0.307 Y8.933
X0.467 Y9.031
X0.622 Y9.136
X0.774 Y9.247
X0.921 Y9.365
X1.063 Y9.488
X1.2 Y9.618
X1.332 Y9.753
X1.458 Y9.893
X1.579 Y10.039
X1.694 Y10.189
X1.802 Y10.344
X1.904 Y10.504
X2 Y10.667
X2.089 Y10.834
X2.171 Y11.005
X2.246 Y11.179
X2.313 Y11.356
X2.374 Y11.536
X2.427 Y11.717
X2.472 Y11.901
X2.51 Y12.086
X2.541 Y12.272
X2.563 Y12.46
X2.579 Y12.648
X2.586 Y12.836
Y13.025
X2.578 Y13.213
X2.562 Y13.4
X2.539 Y13.587
X2.508 Y13.772
X2.469 Y13.956
X2.423 Y14.138
X2.37 Y14.319
X2.309 Y14.496
X2.242 Y14.672
X2.167 Y14.844
X2.085 Y15.013
X1.996 Y15.179
X1.901 Y15.341
X1.799 Y15.498
X1.691 Y15.652
X1.576 Y15.801
X1.455 Y15.945
X1.329 Y16.085
X1.197 Y16.219
X1.06 Y16.348
X0.917 Y16.471
X0.769 Y16.588
X0.617 Y16.699
X0.46 Y16.804
X0.299 Y16.902
X0.134 Y16.994
X-0.035 Y17.079
X-0.208 Y17.158
X-0.383 Y17.229
X-0.562 Y17.293
X-0.743 Y17.349
X-0.926 Y17.399
X-1.111 Y17.44
X-1.298 Y17.475
X-1.486 Y17.501
X-1.676 Y17.52
X-1.866 Y17.531
X-2.057 Y17.535
X-2.248 Y17.53
X-2.438 Y17.518
X-2.629 Y17.498
X-2.818 Y17.47
X-3.006 Y17.435
X-3.193 Y17.391
X-3.378 Y17.341
X-3.561 Y17.282
X-3.741 Y17.216
X-3.919 Y17.143
X-4.093 Y17.063
X-4.265 Y16.975
X-4.432 Y16.881
X-4.596 Y16.78
X-4.756 Y16.672
X-4.911 Y16.557
X-5.062 Y16.436
X-5.207 Y16.309
X-5.347 Y16.177
X-5.482 Y16.038
X-5.611 Y15.894
X-5.735 Y15.745
X-5.851 Y15.591
X-5.962 Y15.432
X-6.066 Y15.269
X-6.164 Y15.102
X-6.254 Y14.931
X-6.337 Y14.756
X-6.414 Y14.578
X-6.483 Y14.397
X-6.544 Y14.213
X-6.598 Y14.027
X-6.644 Y13.839
X-6.683 Y13.648
X-6.714 Y13.457
X-6.737 Y13.264
X-6.752 Y13.071
X-6.759 Y12.877
X-6.758 Y12.683
X-6.75 Y12.489
X-6.733 Y12.295
X-6.709 Y12.103
X-6.676 Y11.911
X-6.636 Y11.721
X-6.589 Y11.533
X-6.533 Y11.347
X-6.47 Y11.164
X-6.4 Y10.983
X-6.322 Y10.805
X-6.237 Y10.63
X-6.145 Y10.459
X-6.046 Y10.292
X-5.94 Y10.128
X-5.828 Y9.97
X-5.709 Y9.816
X-5.584 Y9.667
X-5.454 Y9.523
X-5.317 Y9.385
X-5.175 Y9.253
X-5.028 Y9.126
X-4.875 Y9.006
X-4.718 Y8.891
X-4.556 Y8.784
X-4.39 Y8.683
X-4.22 Y8.589
X-4.047 Y8.502
X-3.869 Y8.422
X-3.689 Y8.349
X-3.506 Y8.284
X-3.32 Y8.226
X-3.132 Y8.176
X-2.942 Y8.133
X-2.75 Y8.098
X-2.557 Y8.072
X-2.363 Y8.053
X-2.168 Y8.042
X-1.973 Y8.039
X-1.778 Y8.043
X-1.583 Y8.056
X-1.389 Y8.077
X-1.195 Y8.106
X-1.003 Y8.143
X-0.812 Y8.187
X-0.623 Y8.24
X-0.435 Y8.3
X-0.25 Y8.368
X-0.068 Y8.443
X0.111 Y8.526
X0.287 Y8.616
X0.459 Y8.714
X0.628 Y8.818
X0.792 Y8.93
X0.952 Y9.048
X1.107 Y9.173
X1.257 Y9.304
X1.401 Y9.442
X1.54 Y9.585
X1.673 Y9.734
X1.8 Y9.888
X1.921 Y10.048
X2.035 Y10.212
X2.142 Y10.381
X2.242 Y10.554
X2.336 Y10.731
X2.422 Y10.912
X2.5 Y11.096
X2.571 Y11.284
X2.634 Y11.473
X2.689 Y11.666
X2.737 Y11.86
X2.776 Y12.056
X2.807 Y12.253
X2.831 Y12.451
X2.846 Y12.65
X2.853 Y12.849
X2.852 Y13.049
X2.842 Y13.248
X2.825 Y13.446
X2.8 Y13.643
X2.766 Y13.839
X2.725 Y14.034
X2.675 Y14.227
X2.618 Y14.417
X2.553 Y14.605
X2.481 Y14.79
X2.401 Y14.972
X2.314 Y15.151
X2.219 Y15.326
X2.118 Y15.496
X2.009 Y15.663
X1.894 Y15.825
X1.772 Y15.983
X1.644 Y16.135
X1.51 Y16.282
X1.369 Y16.423
X1.223 Y16.559
X1.072 Y16.688
X0.915 Y16.812
X0.754 Y16.929
X0.587 Y17.039
X0.416 Y17.142
X0.241 Y17.239
X0.062 Y17.328
X-0.121 Y17.41
X-0.306 Y17.485
X-0.495 Y17.552
X-0.687 Y17.611
X-0.881 Y17.662
X-1.077 Y17.706
X-1.275 Y17.741
X-1.474 Y17.768
X-1.675 Y17.788
X-1.876 Y17.799
X-2.078 Y17.801
X-2.279 Y17.796
X-2.481 Y17.782
X-2.682 Y17.76
X-2.882 Y17.73
X-3.081 Y17.692
X-3.278 Y17.646
X-3.473 Y17.591
X-3.666 Y17.529
X-3.856 Y17.458
X-4.044 Y17.38
X-4.228 Y17.295
X-4.409 Y17.202
X-4.586 Y17.101
X-4.758 Y16.993
X-4.927 Y16.878
X-5.09 Y16.757
X-5.249 Y16.629
X-5.402 Y16.494
X-5.549 Y16.353
X-5.691 Y16.206
X-5.827 Y16.054
X-5.957 Y15.896
X-6.079 Y15.733
X-6.196 Y15.564
X-6.305 Y15.392
X-6.407 Y15.215
X-6.502 Y15.033
X-6.589 Y14.848
X-6.669 Y14.66
X-6.741 Y14.468
X-6.805 Y14.274
X-6.862 Y14.077
X-6.91 Y13.878
X-6.95 Y13.677
X-6.982 Y13.475
X-7.005 Y13.271
X-7.02 Y13.067
X-7.027 Y12.862
X-7.026 Y12.657
X-7.016 Y12.452
X-6.997 Y12.248
X-6.971 Y12.044
X-6.936 Y11.842
X-6.893 Y11.642
X-6.842 Y11.443
X-6.782 Y11.247
X-6.715 Y11.053
X-6.64 Y10.862
X-6.557 Y10.675
X-6.467 Y10.49
X-6.369 Y10.31
X-6.263 Y10.134
X-6.151 Y9.962
X-6.032 Y9.795
X-5.906 Y9.633
X-5.773 Y9.476
X-5.635 Y9.325
X-5.49 Y9.179
X-5.339 Y9.04
X-5.183 Y8.907
X-5.022 Y8.78
X-4.855 Y8.66
X-4.684 Y8.547
X-4.508 Y8.441
X-4.328 Y8.343
X-4.144 Y8.251
X-3.957 Y8.167
X-3.766 Y8.091
X-3.572 Y8.023
X-3.375 Y7.963
X-3.176 Y7.911
X-2.975 Y7.867
X-2.773 Y7.831
X-2.569 Y7.803
X-2.364 Y7.784
X-2.158 Y7.773
X-1.952 Y7.771
X-1.746 Y7.777
X-1.54 Y7.791
X-1.335 Y7.814
X-1.13 Y7.845
X-0.927 Y7.885
X-0.725 Y7.932
