%
(1001)
(origin stock top outer edge centre)
(T1  D=3.18 CR=0 - ZMIN=-6.6 - flat end mill)
G90 G94
G17
G21

(adaptive_roughing 3)
M9
T1 M6
S6000 M3
G54
M8
G0 X-6.098 Y30.913
Z15
Z5
Z2.5
G3 X-4.902 Y33.687 Z2.334 I0.598 J1.387 F283.3
X-6.098 Y30.913 Z2.169 I-0.598 J-1.387
X-4.902 Y33.687 Z2.003 I0.598 J1.387
X-6.098 Y30.913 Z1.837 I-0.598 J-1.387
X-4.902 Y33.687 Z1.671 I0.598 J1.387
X-6.098 Y30.913 Z1.506 I-0.598 J-1.387
X-4.902 Y33.687 Z1.34 I0.598 J1.387
X-6.098 Y30.913 Z1.174 I-0.598 J-1.387
X-4.902 Y33.687 Z1.009 I0.598 J1.387
X-6.098 Y30.913 Z0.843 I-0.598 J-1.387
X-4.902 Y33.687 Z0.677 I0.598 J1.387
X-6.098 Y30.913 Z0.511 I-0.598 J-1.387
X-4.902 Y33.687 Z0.346 I0.598 J1.387
X-6.098 Y30.913 Z0.18 I-0.598 J-1.387
X-4.902 Y33.687 Z0.014 I0.598 J1.387
X-6.098 Y30.913 Z-0.151 I-0.598 J-1.387
X-4.902 Y33.687 Z-0.317 I0.598 J1.387
X-6.098 Y30.913 Z-0.483 I-0.598 J-1.387
X-4.902 Y33.687 Z-0.649 I0.598 J1.387
X-6.098 Y30.913 Z-0.814 I-0.598 J-1.387
X-4.902 Y33.687 Z-0.98 I0.598 J1.387
X-6.098 Y30.913 Z-1.146 I-0.598 J-1.387
X-3.99 Y32.3 Z-1.25 I0.598 J1.387
X-7.011 I-1.51
X-3.99 I1.51
G1 X-3.979 Y32.683 F850
X-3.992 Y32.817
X-4.027 Y32.946
X-4.084 Y33.068
X-4.19 Y33.251
X-4.233 Y33.324
X-4.263 Y33.361
X-4.302 Y33.397
X-4.61 Y33.656
X-4.652 Y33.69
X-4.704 Y33.722
X-4.756 Y33.743
X-5.048 Y33.849
X-5.128 Y33.878
X-5.164 Y33.89
X-5.21 Y33.901
X-5.257 Y33.908
X-5.304 Y33.911
G3 X-5.279 Y33.178 I0.012 J-0.366
X-4.99 Y33.752 I-0.012 J0.366
G1 X-5.039 Y33.81
X-5.097 Y33.856
X-5.164 Y33.89
X-5.194 Y33.901
X-5.23 Y33.908
X-5.267 Y33.911
X-5.632
X-5.712 Y33.908
X-5.748 Y33.907
X-5.777
X-5.825 Y33.893
X-5.864 Y33.881
X-5.902 Y33.868
G3 X-5.663 Y33.278 I0.119 J-0.295
X-5.47 Y33.516 I-0.119 J0.295
G1 X-5.467 Y33.532
G3 X-5.777 Y33.907 I-0.313 J0.057
G1 X-5.814 Y33.899
X-5.85 Y33.886
X-6.215 Y33.754
X-6.282 Y33.729
X-6.315 Y33.712
X-6.348 Y33.69
X-6.361 Y33.679
X-6.698 Y33.397
X-6.731 Y33.366
X-6.758 Y33.334
X-6.799 Y33.271
X-6.979 Y32.959
X-7.019 Y32.886
X-7.034 Y32.85
X-7.045 Y32.813
X-7.122 Y32.375
X-7.128 Y32.339
X-7.13 Y32.302
X-7.123 Y32.229
X-7.046 Y31.791
X-7.036 Y31.755
X-7.021 Y31.718
X-6.982 Y31.645
X-6.799 Y31.329
X-6.761 Y31.268
X-6.736 Y31.237
X-6.703 Y31.207
X-6.354 Y30.915
X-6.319 Y30.891
X-6.285 Y30.872
X-6.215 Y30.846
X-5.85 Y30.714
X-5.814 Y30.701
X-5.777 Y30.693
X-5.632 Y30.689
X-5.267
X-5.23 Y30.692
X-5.194 Y30.699
X-4.998 Y30.769
X-4.756 Y30.857
X-4.701 Y30.879
X-4.647 Y30.915
X-4.61 Y30.944
X-4.297 Y31.207
X-4.259 Y31.243
X-4.231 Y31.28
X-4.172 Y31.378
X-4.018 Y31.645
X-3.978 Y31.718
X-3.965 Y31.755
X-3.955 Y31.791
X-3.877 Y32.229
X-3.87 Y32.302
X-3.872 Y32.339
X-3.88 Y32.39
X-3.955 Y32.813
X-3.966 Y32.85
X-3.98 Y32.886
X-4.026 Y32.969
X-4.084 Y33.068
G3 X-4.494 Y33.185 I-0.27 J-0.169
G1 X-4.535 Y33.15 Z-1.245
X-4.575 Y33.115 Z-1.231
X-4.613 Y33.083 Z-1.208
X-4.63 Y33.038 Z-1.173
X-4.645 Y32.999 Z-1.129
X-4.657 Y32.969 Z-1.078
X-4.665 Y32.948 Z-1.022
X-4.669 Y32.937 Z-0.963
Y32.935 Z-0.932
G0 Z5
X-6.098 Y30.913
Z1.25
G3 X-4.902 Y33.687 Z1.084 I0.598 J1.387 F283.3
X-6.098 Y30.913 Z0.919 I-0.598 J-1.387
X-4.902 Y33.687 Z0.753 I0.598 J1.387
X-6.098 Y30.913 Z0.587 I-0.598 J-1.387
X-4.902 Y33.687 Z0.421 I0.598 J1.387
X-6.098 Y30.913 Z0.256 I-0.598 J-1.387
X-4.902 Y33.687 Z0.09 I0.598 J1.387
X-6.098 Y30.913 Z-0.076 I-0.598 J-1.387
X-4.902 Y33.687 Z-0.241 I0.598 J1.387
X-6.098 Y30.913 Z-0.407 I-0.598 J-1.387
X-4.902 Y33.687 Z-0.573 I0.598 J1.387
X-6.098 Y30.913 Z-0.739 I-0.598 J-1.387
X-4.902 Y33.687 Z-0.904 I0.598 J1.387
X-6.098 Y30.913 Z-1.07 I-0.598 J-1.387
X-4.902 Y33.687 Z-1.236 I0.598 J1.387
X-6.098 Y30.913 Z-1.401 I-0.598 J-1.387
X-4.902 Y33.687 Z-1.567 I0.598 J1.387
X-6.098 Y30.913 Z-1.733 I-0.598 J-1.387
X-4.902 Y33.687 Z-1.899 I0.598 J1.387
X-6.098 Y30.913 Z-2.064 I-0.598 J-1.387
X-4.902 Y33.687 Z-2.23 I0.598 J1.387
X-6.098 Y30.913 Z-2.396 I-0.598 J-1.387
X-3.99 Y32.3 Z-2.5 I0.598 J1.387
X-7.011 I-1.51
X-3.99 I1.51
G1 X-3.979 Y32.683 F850
X-3.992 Y32.817
X-4.027 Y32.946
X-4.084 Y33.068
X-4.19 Y33.251
X-4.233 Y33.324
X-4.263 Y33.361
X-4.302 Y33.397
X-4.61 Y33.656
X-4.652 Y33.69
X-4.704 Y33.722
X-4.756 Y33.743
X-5.048 Y33.849
X-5.128 Y33.878
X-5.164 Y33.89
X-5.21 Y33.901
X-5.257 Y33.908
X-5.304 Y33.911
G3 X-5.279 Y33.178 I0.012 J-0.366
X-4.99 Y33.752 I-0.012 J0.366
G1 X-5.039 Y33.81
X-5.097 Y33.856
X-5.164 Y33.89
X-5.194 Y33.901
X-5.23 Y33.908
X-5.267 Y33.911
X-5.632
X-5.712 Y33.908
X-5.748 Y33.907
X-5.777
X-5.825 Y33.893
X-5.864 Y33.881
X-5.902 Y33.868
G3 X-5.663 Y33.278 I0.119 J-0.295
X-5.47 Y33.516 I-0.119 J0.295
G1 X-5.467 Y33.532
G3 X-5.777 Y33.907 I-0.313 J0.057
G1 X-5.814 Y33.899
X-5.85 Y33.886
X-6.215 Y33.754
X-6.282 Y33.729
X-6.315 Y33.712
X-6.348 Y33.69
X-6.361 Y33.679
X-6.698 Y33.397
X-6.731 Y33.366
X-6.758 Y33.334
X-6.799 Y33.271
X-6.979 Y32.959
X-7.019 Y32.886
X-7.034 Y32.85
X-7.045 Y32.813
X-7.122 Y32.375
X-7.128 Y32.339
X-7.13 Y32.302
X-7.123 Y32.229
X-7.046 Y31.791
X-7.036 Y31.755
X-7.021 Y31.718
X-6.982 Y31.645
X-6.799 Y31.329
X-6.761 Y31.268
X-6.736 Y31.237
X-6.703 Y31.207
X-6.354 Y30.915
X-6.319 Y30.891
X-6.285 Y30.872
X-6.215 Y30.846
X-5.85 Y30.714
X-5.814 Y30.701
X-5.777 Y30.693
X-5.632 Y30.689
X-5.267
X-5.23 Y30.692
X-5.194 Y30.699
X-4.998 Y30.769
X-4.756 Y30.857
X-4.701 Y30.879
X-4.647 Y30.915
X-4.61 Y30.944
X-4.297 Y31.207
X-4.259 Y31.243
X-4.231 Y31.28
X-4.172 Y31.378
X-4.018 Y31.645
X-3.978 Y31.718
X-3.965 Y31.755
X-3.955 Y31.791
X-3.877 Y32.229
X-3.87 Y32.302
X-3.872 Y32.339
X-3.88 Y32.39
X-3.955 Y32.813
X-3.966 Y32.85
X-3.98 Y32.886
X-4.026 Y32.969
X-4.084 Y33.068
G3 X-4.494 Y33.185 I-0.27 J-0.169
G1 X-4.535 Y33.15 Z-2.495
X-4.575 Y33.115 Z-2.481
X-4.613 Y33.083 Z-2.458
X-4.63 Y33.038 Z-2.423
X-4.645 Y32.999 Z-2.379
X-4.657 Y32.969 Z-2.328
X-4.665 Y32.948 Z-2.272
X-4.669 Y32.937 Z-2.213
Y32.935 Z-2.182
G0 Z5
X-6.098 Y30.913
Z0
G3 X-4.902 Y33.687 Z-0.166 I0.598 J1.387 F283.3
X-6.098 Y30.913 Z-0.331 I-0.598 J-1.387
X-4.902 Y33.687 Z-0.497 I0.598 J1.387
X-6.098 Y30.913 Z-0.663 I-0.598 J-1.387
X-4.902 Y33.687 Z-0.829 I0.598 J1.387
X-6.098 Y30.913 Z-0.994 I-0.598 J-1.387
X-4.902 Y33.687 Z-1.16 I0.598 J1.387
X-6.098 Y30.913 Z-1.326 I-0.598 J-1.387
X-4.902 Y33.687 Z-1.491 I0.598 J1.387
X-6.098 Y30.913 Z-1.657 I-0.598 J-1.387
X-4.902 Y33.687 Z-1.823 I0.598 J1.387
X-6.098 Y30.913 Z-1.989 I-0.598 J-1.387
X-4.902 Y33.687 Z-2.154 I0.598 J1.387
X-6.098 Y30.913 Z-2.32 I-0.598 J-1.387
X-4.902 Y33.687 Z-2.486 I0.598 J1.387
X-6.098 Y30.913 Z-2.651 I-0.598 J-1.387
X-4.902 Y33.687 Z-2.817 I0.598 J1.387
X-6.098 Y30.913 Z-2.983 I-0.598 J-1.387
X-4.902 Y33.687 Z-3.149 I0.598 J1.387
X-6.098 Y30.913 Z-3.314 I-0.598 J-1.387
X-4.902 Y33.687 Z-3.48 I0.598 J1.387
X-6.098 Y30.913 Z-3.646 I-0.598 J-1.387
X-3.99 Y32.3 Z-3.75 I0.598 J1.387
X-7.011 I-1.51
X-3.99 I1.51
G1 X-3.979 Y32.683 F850
X-3.992 Y32.817
X-4.027 Y32.946
X-4.084 Y33.068
X-4.19 Y33.251
X-4.233 Y33.324
X-4.263 Y33.361
X-4.302 Y33.397
X-4.61 Y33.656
X-4.652 Y33.69
X-4.704 Y33.722
X-4.756 Y33.743
X-5.048 Y33.849
X-5.128 Y33.878
X-5.164 Y33.89
X-5.21 Y33.901
X-5.257 Y33.908
X-5.304 Y33.911
G3 X-5.279 Y33.178 I0.012 J-0.366
X-4.99 Y33.752 I-0.012 J0.366
G1 X-5.039 Y33.81
X-5.097 Y33.856
X-5.164 Y33.89
X-5.194 Y33.901
X-5.23 Y33.908
X-5.267 Y33.911
X-5.632
X-5.712 Y33.908
X-5.748 Y33.907
X-5.777
X-5.825 Y33.893
X-5.864 Y33.881
X-5.902 Y33.868
G3 X-5.663 Y33.278 I0.119 J-0.295
X-5.47 Y33.516 I-0.119 J0.295
G1 X-5.467 Y33.532
G3 X-5.777 Y33.907 I-0.313 J0.057
G1 X-5.814 Y33.899
X-5.85 Y33.886
X-6.215 Y33.754
X-6.282 Y33.729
X-6.315 Y33.712
X-6.348 Y33.69
X-6.361 Y33.679
X-6.698 Y33.397
X-6.731 Y33.366
X-6.758 Y33.334
X-6.799 Y33.271
X-6.979 Y32.959
X-7.019 Y32.886
X-7.034 Y32.85
X-7.045 Y32.813
X-7.122 Y32.375
X-7.128 Y32.339
X-7.13 Y32.302
X-7.123 Y32.229
X-7.046 Y31.791
X-7.036 Y31.755
X-7.021 Y31.718
X-6.982 Y31.645
X-6.799 Y31.329
X-6.761 Y31.268
X-6.736 Y31.237
X-6.703 Y31.207
X-6.354 Y30.915
X-6.319 Y30.891
X-6.285 Y30.872
X-6.215 Y30.846
X-5.85 Y30.714
X-5.814 Y30.701
X-5.777 Y30.693
X-5.632 Y30.689
X-5.267
X-5.23 Y30.692
X-5.194 Y30.699
X-4.998 Y30.769
X-4.756 Y30.857
X-4.701 Y30.879
X-4.647 Y30.915
X-4.61 Y30.944
X-4.297 Y31.207
X-4.259 Y31.243
X-4.231 Y31.28
X-4.172 Y31.378
X-4.018 Y31.645
X-3.978 Y31.718
X-3.965 Y31.755
X-3.955 Y31.791
X-3.877 Y32.229
X-3.87 Y32.302
X-3.872 Y32.339
X-3.88 Y32.39
X-3.955 Y32.813
X-3.966 Y32.85
X-3.98 Y32.886
X-4.026 Y32.969
X-4.084 Y33.068
G3 X-4.494 Y33.185 I-0.27 J-0.169
G1 X-4.535 Y33.15 Z-3.745
X-4.575 Y33.115 Z-3.731
X-4.613 Y33.083 Z-3.708
X-4.63 Y33.038 Z-3.673
X-4.645 Y32.999 Z-3.629
X-4.657 Y32.969 Z-3.578
X-4.665 Y32.948 Z-3.522
X-4.669 Y32.937 Z-3.463
Y32.935 Z-3.432
G0 Z5
X-6.098 Y30.913
Z-1.25
G3 X-4.902 Y33.687 Z-1.416 I0.598 J1.387 F283.3
X-6.098 Y30.913 Z-1.581 I-0.598 J-1.387
X-4.902 Y33.687 Z-1.747 I0.598 J1.387
X-6.098 Y30.913 Z-1.913 I-0.598 J-1.387
X-4.902 Y33.687 Z-2.079 I0.598 J1.387
X-6.098 Y30.913 Z-2.244 I-0.598 J-1.387
X-4.902 Y33.687 Z-2.41 I0.598 J1.387
X-6.098 Y30.913 Z-2.576 I-0.598 J-1.387
X-4.902 Y33.687 Z-2.741 I0.598 J1.387
X-6.098 Y30.913 Z-2.907 I-0.598 J-1.387
X-4.902 Y33.687 Z-3.073 I0.598 J1.387
X-6.098 Y30.913 Z-3.239 I-0.598 J-1.387
X-4.902 Y33.687 Z-3.404 I0.598 J1.387
X-6.098 Y30.913 Z-3.57 I-0.598 J-1.387
X-4.902 Y33.687 Z-3.736 I0.598 J1.387
X-6.098 Y30.913 Z-3.901 I-0.598 J-1.387
X-4.902 Y33.687 Z-4.067 I0.598 J1.387
X-6.098 Y30.913 Z-4.233 I-0.598 J-1.387
X-4.902 Y33.687 Z-4.399 I0.598 J1.387
X-6.098 Y30.913 Z-4.564 I-0.598 J-1.387
X-4.902 Y33.687 Z-4.73 I0.598 J1.387
X-6.098 Y30.913 Z-4.896 I-0.598 J-1.387
X-3.989 Y32.3 Z-5 I0.598 J1.387
X-7.01 I-1.51
X-3.989 I1.51
G1 X-3.979 Y32.683 F850
X-3.992 Y32.817
X-4.027 Y32.946
X-4.083 Y33.068
X-4.19 Y33.251
X-4.233 Y33.324
X-4.263 Y33.361
X-4.302 Y33.397
X-4.61 Y33.656
X-4.652 Y33.69
X-4.704 Y33.722
X-4.756 Y33.743
X-5.048 Y33.849
X-5.128 Y33.878
X-5.164 Y33.89
X-5.21 Y33.901
X-5.257 Y33.908
X-5.304 Y33.911
G3 X-5.279 Y33.178 I0.012 J-0.366
X-4.99 Y33.752 I-0.012 J0.366
G1 X-5.039 Y33.81
X-5.097 Y33.856
X-5.164 Y33.89
X-5.194 Y33.901
X-5.23 Y33.908
X-5.267 Y33.911
X-5.632
X-5.712 Y33.908
X-5.748 Y33.907
X-5.777
X-5.825 Y33.893
X-5.864 Y33.881
X-5.902 Y33.868
G3 X-5.663 Y33.278 I0.119 J-0.295
X-5.47 Y33.516 I-0.119 J0.295
G1 X-5.467 Y33.532
G3 X-5.777 Y33.907 I-0.313 J0.057
G1 X-5.814 Y33.899
X-5.85 Y33.886
X-6.215 Y33.754
X-6.282 Y33.729
X-6.315 Y33.712
X-6.348 Y33.69
X-6.361 Y33.679
X-6.698 Y33.397
X-6.731 Y33.366
X-6.758 Y33.334
X-6.799 Y33.271
X-6.979 Y32.959
X-7.019 Y32.886
X-7.034 Y32.85
X-7.045 Y32.813
X-7.122 Y32.375
X-7.128 Y32.339
X-7.13 Y32.302
X-7.123 Y32.229
X-7.046 Y31.791
X-7.036 Y31.755
X-7.021 Y31.718
X-6.982 Y31.645
X-6.799 Y31.329
X-6.761 Y31.268
X-6.736 Y31.237
X-6.703 Y31.207
X-6.354 Y30.915
X-6.319 Y30.891
X-6.285 Y30.872
X-6.215 Y30.846
X-5.85 Y30.714
X-5.814 Y30.701
X-5.777 Y30.693
X-5.632 Y30.689
X-5.267
X-5.23 Y30.692
X-5.194 Y30.699
X-4.998 Y30.769
X-4.756 Y30.857
X-4.701 Y30.879
X-4.647 Y30.915
X-4.61 Y30.944
X-4.297 Y31.207
X-4.259 Y31.243
X-4.231 Y31.28
X-4.172 Y31.378
X-4.018 Y31.645
X-3.978 Y31.718
X-3.965 Y31.755
X-3.955 Y31.791
X-3.877 Y32.229
X-3.87 Y32.302
X-3.872 Y32.339
X-3.88 Y32.39
X-3.955 Y32.813
X-3.966 Y32.85
X-3.98 Y32.886
X-4.026 Y32.969
X-4.083 Y33.068
G3 X-4.493 Y33.184 I-0.27 J-0.169
G1 X-4.535 Y33.149 Z-4.995
X-4.575 Y33.115 Z-4.981
X-4.613 Y33.083 Z-4.958
X-4.63 Y33.037 Z-4.923
X-4.645 Y32.998 Z-4.879
X-4.657 Y32.968 Z-4.828
X-4.665 Y32.947 Z-4.772
X-4.669 Y32.937 Z-4.713
Y32.935 Z-4.682
G0 Z5
X-6.098 Y30.912
Z-2.5
G3 X-4.902 Y33.686 Z-2.666 I0.598 J1.387 F283.3
X-6.098 Y30.912 Z-2.831 I-0.598 J-1.387
X-4.902 Y33.686 Z-2.997 I0.598 J1.387
X-6.098 Y30.912 Z-3.163 I-0.598 J-1.387
X-4.902 Y33.686 Z-3.329 I0.598 J1.387
X-6.098 Y30.912 Z-3.494 I-0.598 J-1.387
X-4.902 Y33.686 Z-3.66 I0.598 J1.387
X-6.098 Y30.912 Z-3.826 I-0.598 J-1.387
X-4.902 Y33.686 Z-3.991 I0.598 J1.387
X-6.098 Y30.912 Z-4.157 I-0.598 J-1.387
X-4.902 Y33.686 Z-4.323 I0.598 J1.387
X-6.098 Y30.912 Z-4.489 I-0.598 J-1.387
X-4.902 Y33.686 Z-4.654 I0.598 J1.387
X-6.098 Y30.912 Z-4.82 I-0.598 J-1.387
X-4.902 Y33.686 Z-4.986 I0.598 J1.387
X-6.098 Y30.912 Z-5.151 I-0.598 J-1.387
X-4.902 Y33.686 Z-5.317 I0.598 J1.387
X-6.098 Y30.912 Z-5.483 I-0.598 J-1.387
X-4.902 Y33.686 Z-5.649 I0.598 J1.387
X-6.098 Y30.912 Z-5.814 I-0.598 J-1.387
X-4.902 Y33.686 Z-5.98 I0.598 J1.387
X-6.098 Y30.912 Z-6.146 I-0.598 J-1.387
X-3.989 Y32.299 Z-6.25 I0.598 J1.387
X-7.01 I-1.51
X-3.989 I1.51
G1 X-3.979 Y32.682 F850
X-3.992 Y32.816
X-4.027 Y32.946
X-4.084 Y33.068
X-4.19 Y33.251
X-4.233 Y33.324
X-4.263 Y33.361
X-4.302 Y33.397
X-4.61 Y33.656
X-4.652 Y33.69
X-4.704 Y33.722
X-4.756 Y33.743
X-5.048 Y33.849
X-5.128 Y33.878
X-5.164 Y33.89
X-5.21 Y33.901
X-5.257 Y33.908
X-5.304 Y33.911
G3 X-5.279 Y33.178 I0.012 J-0.366
X-4.99 Y33.752 I-0.012 J0.366
G1 X-5.039 Y33.81
X-5.097 Y33.856
X-5.164 Y33.89
X-5.194 Y33.901
X-5.23 Y33.908
X-5.267 Y33.911
X-5.632
X-5.712 Y33.908
X-5.748 Y33.907
X-5.777
X-5.825 Y33.893
X-5.864 Y33.881
X-5.902 Y33.868
G3 X-5.663 Y33.278 I0.119 J-0.295
X-5.47 Y33.516 I-0.119 J0.295
G1 X-5.467 Y33.532
G3 X-5.777 Y33.907 I-0.313 J0.057
G1 X-5.814 Y33.899
X-5.85 Y33.886
X-6.215 Y33.754
X-6.282 Y33.729
X-6.315 Y33.712
X-6.348 Y33.69
X-6.361 Y33.679
X-6.698 Y33.397
X-6.731 Y33.366
X-6.758 Y33.334
X-6.799 Y33.271
X-6.979 Y32.959
X-7.019 Y32.886
X-7.034 Y32.85
X-7.045 Y32.813
X-7.122 Y32.375
X-7.128 Y32.339
X-7.13 Y32.302
X-7.123 Y32.229
X-7.046 Y31.791
X-7.036 Y31.755
X-7.021 Y31.718
X-6.982 Y31.645
X-6.799 Y31.329
X-6.761 Y31.268
X-6.736 Y31.237
X-6.703 Y31.207
X-6.354 Y30.915
X-6.319 Y30.891
X-6.285 Y30.872
X-6.215 Y30.846
X-5.85 Y30.714
X-5.814 Y30.701
X-5.777 Y30.693
X-5.632 Y30.689
X-5.267
X-5.23 Y30.692
X-5.194 Y30.699
X-4.998 Y30.769
X-4.756 Y30.857
X-4.701 Y30.879
X-4.647 Y30.915
X-4.61 Y30.944
X-4.297 Y31.207
X-4.259 Y31.243
X-4.231 Y31.28
X-4.172 Y31.378
X-4.018 Y31.645
X-3.978 Y31.718
X-3.965 Y31.755
X-3.955 Y31.791
X-3.877 Y32.229
X-3.87 Y32.302
X-3.872 Y32.339
X-3.88 Y32.39
X-3.955 Y32.813
X-3.966 Y32.85
X-3.98 Y32.886
X-4.026 Y32.969
X-4.084 Y33.068
G3 X-4.494 Y33.185 I-0.27 J-0.169
G1 X-4.535 Y33.15 Z-6.245
X-4.575 Y33.116 Z-6.231
X-4.613 Y33.083 Z-6.208
X-4.631 Y33.038 Z-6.173
X-4.645 Y32.999 Z-6.129
X-4.657 Y32.969 Z-6.078
X-4.665 Y32.948 Z-6.022
X-4.669 Y32.937 Z-5.963
Y32.936 Z-5.932
G0 Z5
X-6.726 Y33.182
Z-3.75
G3 X-4.274 Y31.418 Z-3.916 I1.226 J-0.882 F283.3
X-6.726 Y33.182 Z-4.081 I-1.226 J0.882
X-4.274 Y31.418 Z-4.247 I1.226 J-0.882
X-6.726 Y33.182 Z-4.413 I-1.226 J0.882
X-4.274 Y31.418 Z-4.579 I1.226 J-0.882
X-6.726 Y33.182 Z-4.744 I-1.226 J0.882
X-4.274 Y31.418 Z-4.91 I1.226 J-0.882
X-6.726 Y33.182 Z-5.076 I-1.226 J0.882
X-4.274 Y31.418 Z-5.241 I1.226 J-0.882
X-6.726 Y33.182 Z-5.407 I-1.226 J0.882
X-4.274 Y31.418 Z-5.573 I1.226 J-0.882
X-6.726 Y33.182 Z-5.739 I-1.226 J0.882
X-4.274 Y31.418 Z-5.904 I1.226 J-0.882
X-6.726 Y33.182 Z-6.07 I-1.226 J0.882
X-4.274 Y31.418 Z-6.236 I1.226 J-0.882
X-6.726 Y33.182 Z-6.401 I-1.226 J0.882
X-4.274 Y31.418 Z-6.567 I1.226 J-0.882
X-3.99 Y32.3 Z-6.6 I-1.226 J0.882
X-7.011 I-1.51
X-3.99 I1.51
G1 X-3.979 Y32.683 F850
X-3.992 Y32.817
X-4.027 Y32.946
X-4.084 Y33.068
X-4.19 Y33.251
X-4.233 Y33.324
X-4.263 Y33.361
X-4.302 Y33.397
X-4.61 Y33.656
X-4.652 Y33.69
X-4.704 Y33.722
X-4.756 Y33.743
X-5.048 Y33.849
X-5.128 Y33.878
X-5.164 Y33.89
X-5.21 Y33.901
X-5.257 Y33.908
X-5.304 Y33.911
G3 X-5.279 Y33.178 I0.012 J-0.366
X-4.99 Y33.752 I-0.012 J0.366
G1 X-5.039 Y33.81
X-5.097 Y33.856
X-5.164 Y33.89
X-5.194 Y33.901
X-5.23 Y33.908
X-5.267 Y33.911
X-5.632
X-5.712 Y33.908
X-5.748 Y33.907
X-5.777
X-5.825 Y33.893
X-5.864 Y33.881
X-5.902 Y33.868
G3 X-5.663 Y33.278 I0.119 J-0.295
X-5.47 Y33.516 I-0.119 J0.295
G1 X-5.467 Y33.532
G3 X-5.777 Y33.907 I-0.313 J0.057
G1 X-5.814 Y33.899
X-5.85 Y33.886
X-6.215 Y33.754
X-6.282 Y33.729
X-6.315 Y33.712
X-6.348 Y33.69
X-6.361 Y33.679
X-6.698 Y33.397
X-6.731 Y33.366
X-6.758 Y33.334
X-6.799 Y33.271
X-6.979 Y32.959
X-7.019 Y32.886
X-7.034 Y32.85
X-7.045 Y32.813
X-7.122 Y32.375
X-7.128 Y32.339
X-7.13 Y32.302
X-7.123 Y32.229
X-7.046 Y31.791
X-7.036 Y31.755
X-7.021 Y31.718
X-6.982 Y31.645
X-6.799 Y31.329
X-6.761 Y31.268
X-6.736 Y31.237
X-6.703 Y31.207
X-6.354 Y30.915
X-6.319 Y30.891
X-6.285 Y30.872
X-6.215 Y30.846
X-5.85 Y30.714
X-5.814 Y30.701
X-5.777 Y30.693
X-5.632 Y30.689
X-5.267
X-5.23 Y30.692
X-5.194 Y30.699
X-4.998 Y30.769
X-4.756 Y30.857
X-4.701 Y30.879
X-4.647 Y30.915
X-4.61 Y30.944
X-4.297 Y31.207
X-4.259 Y31.243
X-4.231 Y31.28
X-4.172 Y31.378
X-4.018 Y31.645
X-3.978 Y31.718
X-3.965 Y31.755
X-3.955 Y31.791
X-3.877 Y32.229
X-3.87 Y32.302
X-3.872 Y32.339
X-3.88 Y32.39
X-3.955 Y32.813
X-3.966 Y32.85
X-3.98 Y32.886
X-4.026 Y32.969
X-4.084 Y33.068
G3 X-4.494 Y33.185 I-0.27 J-0.169
G1 X-4.535 Y33.15 Z-6.595
X-4.575 Y33.115 Z-6.581
X-4.613 Y33.083 Z-6.558
X-4.63 Y33.038 Z-6.523
X-4.645 Y32.999 Z-6.479
X-4.657 Y32.969 Z-6.428
X-4.665 Y32.948 Z-6.372
X-4.669 Y32.937 Z-6.313
Y32.935 Z-6.282
G0 Z5
X8.902 Y30.913
Z2.5
G3 X10.098 Y33.687 Z2.334 I0.598 J1.387 F283.3
X8.902 Y30.913 Z2.169 I-0.598 J-1.387
X10.098 Y33.687 Z2.003 I0.598 J1.387
X8.902 Y30.913 Z1.837 I-0.598 J-1.387
X10.098 Y33.687 Z1.671 I0.598 J1.387
X8.902 Y30.913 Z1.506 I-0.598 J-1.387
X10.098 Y33.687 Z1.34 I0.598 J1.387
X8.902 Y30.913 Z1.174 I-0.598 J-1.387
X10.098 Y33.687 Z1.009 I0.598 J1.387
X8.902 Y30.913 Z0.843 I-0.598 J-1.387
X10.098 Y33.687 Z0.677 I0.598 J1.387
X8.902 Y30.913 Z0.511 I-0.598 J-1.387
X10.098 Y33.687 Z0.346 I0.598 J1.387
X8.902 Y30.913 Z0.18 I-0.598 J-1.387
X10.098 Y33.687 Z0.014 I0.598 J1.387
X8.902 Y30.913 Z-0.151 I-0.598 J-1.387
X10.098 Y33.687 Z-0.317 I0.598 J1.387
X8.902 Y30.913 Z-0.483 I-0.598 J-1.387
X10.098 Y33.687 Z-0.649 I0.598 J1.387
X8.902 Y30.913 Z-0.814 I-0.598 J-1.387
X10.098 Y33.687 Z-0.98 I0.598 J1.387
X8.902 Y30.913 Z-1.146 I-0.598 J-1.387
X11.011 Y32.3 Z-1.25 I0.598 J1.387
X7.99 I-1.51
X11.011 I1.51
G1 X11.021 Y32.684 F850
X11.008 Y32.817
X10.973 Y32.946
X10.917 Y33.068
X10.81 Y33.251
X10.771 Y33.318
X10.744 Y33.351
X10.713 Y33.384
X10.524 Y33.544
X10.349 Y33.69
X10.312 Y33.714
X10.275 Y33.732
X9.837 Y33.891
X9.801 Y33.902
X9.764 Y33.908
X9.691 Y33.911
X9.319 Y33.91
X9.283
X9.233 Y33.907
G3 X9.006 Y33.626 I0.043 J-0.267
X9.544 Y33.655 I0.269 J0.015
X9.283 Y33.91 I-0.269 J-0.015
G1 X9.254
X9.217 Y33.905
X9.181 Y33.896
X9.108 Y33.871
X8.776 Y33.75
X8.743 Y33.738
X8.706 Y33.723
X8.67 Y33.702
X8.653 Y33.69
X8.476 Y33.544
X8.302 Y33.397
X8.264 Y33.36
X8.232 Y33.322
X8.19 Y33.251
X8.021 Y32.959
X7.98 Y32.886
X7.966 Y32.85
X7.955 Y32.813
X7.878 Y32.375
X7.872 Y32.339
X7.87 Y32.302
X7.877 Y32.229
X7.955 Y31.791
X7.964 Y31.755
X7.978 Y31.718
X8.018 Y31.645
X8.187 Y31.353
X8.232 Y31.278
X8.261 Y31.242
X8.297 Y31.207
X8.645 Y30.915
X8.67 Y30.897
X8.706 Y30.877
X8.743 Y30.862
X9.108 Y30.729
X9.181 Y30.704
X9.217 Y30.695
X9.254 Y30.69
X9.691 Y30.689
X9.764 Y30.692
X9.801 Y30.698
X9.837 Y30.709
X10.275 Y30.869
X10.315 Y30.889
X10.354 Y30.915
X10.713 Y31.216
X10.745 Y31.25
X10.772 Y31.284
X10.813 Y31.353
X11.005 Y31.685
X11.03 Y31.738
X11.045 Y31.791
X11.123 Y32.229
X11.129 Y32.266
X11.131 Y32.302
X11.122 Y32.375
X11.045 Y32.813
X11.028 Y32.864
X11.005 Y32.915
X10.917 Y33.068
G3 X10.507 Y33.184 I-0.27 J-0.169
G1 X10.465 Y33.149 Z-1.245
X10.425 Y33.115 Z-1.231
X10.387 Y33.083 Z-1.208
X10.37 Y33.037 Z-1.173
X10.355 Y32.998 Z-1.129
X10.343 Y32.968 Z-1.078
X10.335 Y32.947 Z-1.022
X10.331 Y32.936 Z-0.963
Y32.935 Z-0.932
G0 Z5
X8.902 Y30.913
Z1.25
G3 X10.098 Y33.687 Z1.084 I0.598 J1.387 F283.3
X8.902 Y30.913 Z0.919 I-0.598 J-1.387
X10.098 Y33.687 Z0.753 I0.598 J1.387
X8.902 Y30.913 Z0.587 I-0.598 J-1.387
X10.098 Y33.687 Z0.421 I0.598 J1.387
X8.902 Y30.913 Z0.256 I-0.598 J-1.387
X10.098 Y33.687 Z0.09 I0.598 J1.387
X8.902 Y30.913 Z-0.076 I-0.598 J-1.387
X10.098 Y33.687 Z-0.241 I0.598 J1.387
X8.902 Y30.913 Z-0.407 I-0.598 J-1.387
X10.098 Y33.687 Z-0.573 I0.598 J1.387
X8.902 Y30.913 Z-0.739 I-0.598 J-1.387
X10.098 Y33.687 Z-0.904 I0.598 J1.387
X8.902 Y30.913 Z-1.07 I-0.598 J-1.387
X10.098 Y33.687 Z-1.236 I0.598 J1.387
X8.902 Y30.913 Z-1.401 I-0.598 J-1.387
X10.098 Y33.687 Z-1.567 I0.598 J1.387
X8.902 Y30.913 Z-1.733 I-0.598 J-1.387
X10.098 Y33.687 Z-1.899 I0.598 J1.387
X8.902 Y30.913 Z-2.064 I-0.598 J-1.387
X10.098 Y33.687 Z-2.23 I0.598 J1.387
X8.902 Y30.913 Z-2.396 I-0.598 J-1.387
X11.011 Y32.3 Z-2.5 I0.598 J1.387
X7.99 I-1.51
X11.011 I1.51
G1 X11.021 Y32.684 F850
X11.008 Y32.817
X10.973 Y32.946
X10.917 Y33.068
X10.81 Y33.251
X10.771 Y33.318
X10.744 Y33.351
X10.713 Y33.384
X10.524 Y33.544
X10.349 Y33.69
X10.312 Y33.714
X10.275 Y33.732
X9.837 Y33.891
X9.801 Y33.902
X9.764 Y33.908
X9.691 Y33.911
X9.319 Y33.91
X9.283
X9.233 Y33.907
G3 X9.006 Y33.626 I0.043 J-0.267
X9.544 Y33.655 I0.269 J0.015
X9.283 Y33.91 I-0.269 J-0.015
G1 X9.254
X9.217 Y33.905
X9.181 Y33.896
X9.108 Y33.871
X8.776 Y33.75
X8.743 Y33.738
X8.706 Y33.723
X8.67 Y33.702
X8.653 Y33.69
X8.476 Y33.544
X8.302 Y33.397
X8.264 Y33.36
X8.232 Y33.322
X8.19 Y33.251
X8.021 Y32.959
X7.98 Y32.886
X7.966 Y32.85
X7.955 Y32.813
X7.878 Y32.375
X7.872 Y32.339
X7.87 Y32.302
X7.877 Y32.229
X7.955 Y31.791
X7.964 Y31.755
X7.978 Y31.718
X8.018 Y31.645
X8.187 Y31.353
X8.232 Y31.278
X8.261 Y31.242
X8.297 Y31.207
X8.645 Y30.915
X8.67 Y30.897
X8.706 Y30.877
X8.743 Y30.862
X9.108 Y30.729
X9.181 Y30.704
X9.217 Y30.695
X9.254 Y30.69
X9.691 Y30.689
X9.764 Y30.692
X9.801 Y30.698
X9.837 Y30.709
X10.275 Y30.869
X10.315 Y30.889
X10.354 Y30.915
X10.713 Y31.216
X10.745 Y31.25
X10.772 Y31.284
X10.813 Y31.353
X11.005 Y31.685
X11.03 Y31.738
X11.045 Y31.791
X11.123 Y32.229
X11.129 Y32.266
X11.131 Y32.302
X11.122 Y32.375
X11.045 Y32.813
X11.028 Y32.864
X11.005 Y32.915
X10.917 Y33.068
G3 X10.507 Y33.184 I-0.27 J-0.169
G1 X10.465 Y33.149 Z-2.495
X10.425 Y33.115 Z-2.481
X10.387 Y33.083 Z-2.458
X10.37 Y33.037 Z-2.423
X10.355 Y32.998 Z-2.379
X10.343 Y32.968 Z-2.328
X10.335 Y32.947 Z-2.272
X10.331 Y32.936 Z-2.213
Y32.935 Z-2.182
G0 Z5
X8.902 Y30.913
Z0
G3 X10.098 Y33.687 Z-0.166 I0.598 J1.387 F283.3
X8.902 Y30.913 Z-0.331 I-0.598 J-1.387
X10.098 Y33.687 Z-0.497 I0.598 J1.387
X8.902 Y30.913 Z-0.663 I-0.598 J-1.387
X10.098 Y33.687 Z-0.829 I0.598 J1.387
X8.902 Y30.913 Z-0.994 I-0.598 J-1.387
X10.098 Y33.687 Z-1.16 I0.598 J1.387
X8.902 Y30.913 Z-1.326 I-0.598 J-1.387
X10.098 Y33.687 Z-1.491 I0.598 J1.387
X8.902 Y30.913 Z-1.657 I-0.598 J-1.387
X10.098 Y33.687 Z-1.823 I0.598 J1.387
X8.902 Y30.913 Z-1.989 I-0.598 J-1.387
X10.098 Y33.687 Z-2.154 I0.598 J1.387
X8.902 Y30.913 Z-2.32 I-0.598 J-1.387
X10.098 Y33.687 Z-2.486 I0.598 J1.387
X8.902 Y30.913 Z-2.651 I-0.598 J-1.387
X10.098 Y33.687 Z-2.817 I0.598 J1.387
X8.902 Y30.913 Z-2.983 I-0.598 J-1.387
X10.098 Y33.687 Z-3.149 I0.598 J1.387
X8.902 Y30.913 Z-3.314 I-0.598 J-1.387
X10.098 Y33.687 Z-3.48 I0.598 J1.387
X8.902 Y30.913 Z-3.646 I-0.598 J-1.387
X11.011 Y32.3 Z-3.75 I0.598 J1.387
X7.99 I-1.51
X11.011 I1.51
G1 X11.021 Y32.684 F850
X11.008 Y32.817
X10.973 Y32.946
X10.917 Y33.068
X10.81 Y33.251
X10.771 Y33.318
X10.744 Y33.351
X10.713 Y33.384
X10.524 Y33.544
X10.349 Y33.69
X10.312 Y33.714
X10.275 Y33.732
X9.837 Y33.891
X9.801 Y33.902
X9.764 Y33.908
X9.691 Y33.911
X9.319 Y33.91
X9.283
X9.233 Y33.907
G3 X9.006 Y33.626 I0.043 J-0.267
X9.544 Y33.655 I0.269 J0.015
X9.283 Y33.91 I-0.269 J-0.015
G1 X9.254
X9.217 Y33.905
X9.181 Y33.896
X9.108 Y33.871
X8.776 Y33.75
X8.743 Y33.738
X8.706 Y33.723
X8.67 Y33.702
X8.653 Y33.69
X8.476 Y33.544
X8.302 Y33.397
X8.264 Y33.36
X8.232 Y33.322
X8.19 Y33.251
X8.021 Y32.959
X7.98 Y32.886
X7.966 Y32.85
X7.955 Y32.813
X7.878 Y32.375
X7.872 Y32.339
X7.87 Y32.302
X7.877 Y32.229
X7.955 Y31.791
X7.964 Y31.755
X7.978 Y31.718
X8.018 Y31.645
X8.187 Y31.353
X8.232 Y31.278
X8.261 Y31.242
X8.297 Y31.207
X8.645 Y30.915
X8.67 Y30.897
X8.706 Y30.877
X8.743 Y30.862
X9.108 Y30.729
X9.181 Y30.704
X9.217 Y30.695
X9.254 Y30.69
X9.691 Y30.689
X9.764 Y30.692
X9.801 Y30.698
X9.837 Y30.709
X10.275 Y30.869
X10.315 Y30.889
X10.354 Y30.915
X10.713 Y31.216
X10.745 Y31.25
X10.772 Y31.284
X10.813 Y31.353
X11.005 Y31.685
X11.03 Y31.738
X11.045 Y31.791
X11.123 Y32.229
X11.129 Y32.266
X11.131 Y32.302
X11.122 Y32.375
X11.045 Y32.813
X11.028 Y32.864
X11.005 Y32.915
X10.917 Y33.068
G3 X10.507 Y33.184 I-0.27 J-0.169
G1 X10.465 Y33.149 Z-3.745
X10.425 Y33.115 Z-3.731
X10.387 Y33.083 Z-3.708
X10.37 Y33.037 Z-3.673
X10.355 Y32.998 Z-3.629
X10.343 Y32.968 Z-3.578
X10.335 Y32.947 Z-3.522
X10.331 Y32.936 Z-3.463
Y32.935 Z-3.432
G0 Z5
X8.902 Y30.913
Z-1.25
G3 X10.098 Y33.687 Z-1.416 I0.598 J1.387 F283.3
X8.902 Y30.913 Z-1.581 I-0.598 J-1.387
X10.098 Y33.687 Z-1.747 I0.598 J1.387
X8.902 Y30.913 Z-1.913 I-0.598 J-1.387
X10.098 Y33.687 Z-2.079 I0.598 J1.387
X8.902 Y30.913 Z-2.244 I-0.598 J-1.387
X10.098 Y33.687 Z-2.41 I0.598 J1.387
X8.902 Y30.913 Z-2.576 I-0.598 J-1.387
X10.098 Y33.687 Z-2.741 I0.598 J1.387
X8.902 Y30.913 Z-2.907 I-0.598 J-1.387
X10.098 Y33.687 Z-3.073 I0.598 J1.387
X8.902 Y30.913 Z-3.239 I-0.598 J-1.387
X10.098 Y33.687 Z-3.404 I0.598 J1.387
X8.902 Y30.913 Z-3.57 I-0.598 J-1.387
X10.098 Y33.687 Z-3.736 I0.598 J1.387
X8.902 Y30.913 Z-3.901 I-0.598 J-1.387
X10.098 Y33.687 Z-4.067 I0.598 J1.387
X8.902 Y30.913 Z-4.233 I-0.598 J-1.387
X10.098 Y33.687 Z-4.399 I0.598 J1.387
X8.902 Y30.913 Z-4.564 I-0.598 J-1.387
X10.098 Y33.687 Z-4.73 I0.598 J1.387
X8.902 Y30.913 Z-4.896 I-0.598 J-1.387
X11.011 Y32.3 Z-5 I0.598 J1.387
X7.99 I-1.51
X11.011 I1.51
G1 X11.021 Y32.683 F850
X11.009 Y32.817
X10.974 Y32.946
X10.917 Y33.067
X10.81 Y33.251
X10.771 Y33.318
X10.744 Y33.351
X10.713 Y33.384
X10.524 Y33.544
X10.349 Y33.69
X10.312 Y33.714
X10.275 Y33.732
X9.837 Y33.891
X9.801 Y33.902
X9.764 Y33.908
X9.691 Y33.911
X9.319 Y33.91
X9.283
X9.233 Y33.907
G3 X9.006 Y33.626 I0.043 J-0.267
X9.544 Y33.655 I0.269 J0.015
X9.283 Y33.91 I-0.269 J-0.015
G1 X9.254
X9.217 Y33.905
X9.181 Y33.896
X9.108 Y33.871
X8.776 Y33.75
X8.743 Y33.738
X8.706 Y33.723
X8.67 Y33.702
X8.653 Y33.69
X8.476 Y33.544
X8.302 Y33.397
X8.264 Y33.36
X8.232 Y33.322
X8.19 Y33.251
X8.021 Y32.959
X7.98 Y32.886
X7.966 Y32.85
X7.955 Y32.813
X7.878 Y32.375
X7.872 Y32.339
X7.87 Y32.302
X7.877 Y32.229
X7.955 Y31.791
X7.964 Y31.755
X7.978 Y31.718
X8.018 Y31.645
X8.187 Y31.353
X8.232 Y31.278
X8.261 Y31.242
X8.297 Y31.207
X8.645 Y30.915
X8.67 Y30.897
X8.706 Y30.877
X8.743 Y30.862
X9.108 Y30.729
X9.181 Y30.704
X9.217 Y30.695
X9.254 Y30.69
X9.691 Y30.689
X9.764 Y30.692
X9.801 Y30.698
X9.837 Y30.709
X10.275 Y30.869
X10.315 Y30.889
X10.354 Y30.915
X10.713 Y31.216
X10.745 Y31.25
X10.772 Y31.284
X10.813 Y31.353
X11.005 Y31.685
X11.03 Y31.738
X11.045 Y31.791
X11.123 Y32.229
X11.129 Y32.266
X11.131 Y32.302
X11.122 Y32.375
X11.045 Y32.813
X11.028 Y32.864
X11.005 Y32.915
X10.917 Y33.067
G3 X10.507 Y33.184 I-0.27 J-0.169
G1 X10.466 Y33.148 Z-4.995
X10.425 Y33.114 Z-4.981
X10.388 Y33.082 Z-4.958
X10.37 Y33.036 Z-4.923
X10.355 Y32.998 Z-4.879
X10.344 Y32.967 Z-4.828
X10.336 Y32.946 Z-4.772
X10.332 Y32.936 Z-4.713
X10.331 Y32.934 Z-4.682
G0 Z5
X8.902 Y30.913
Z-2.5
G3 X10.098 Y33.687 Z-2.666 I0.598 J1.387 F283.3
X8.902 Y30.913 Z-2.831 I-0.598 J-1.387
X10.098 Y33.687 Z-2.997 I0.598 J1.387
X8.902 Y30.913 Z-3.163 I-0.598 J-1.387
X10.098 Y33.687 Z-3.329 I0.598 J1.387
X8.902 Y30.913 Z-3.494 I-0.598 J-1.387
X10.098 Y33.687 Z-3.66 I0.598 J1.387
X8.902 Y30.913 Z-3.826 I-0.598 J-1.387
X10.098 Y33.687 Z-3.991 I0.598 J1.387
X8.902 Y30.913 Z-4.157 I-0.598 J-1.387
X10.098 Y33.687 Z-4.323 I0.598 J1.387
X8.902 Y30.913 Z-4.489 I-0.598 J-1.387
X10.098 Y33.687 Z-4.654 I0.598 J1.387
X8.902 Y30.913 Z-4.82 I-0.598 J-1.387
X10.098 Y33.687 Z-4.986 I0.598 J1.387
X8.902 Y30.913 Z-5.151 I-0.598 J-1.387
X10.098 Y33.687 Z-5.317 I0.598 J1.387
X8.902 Y30.913 Z-5.483 I-0.598 J-1.387
X10.098 Y33.687 Z-5.649 I0.598 J1.387
X8.902 Y30.913 Z-5.814 I-0.598 J-1.387
X10.098 Y33.687 Z-5.98 I0.598 J1.387
X8.902 Y30.913 Z-6.146 I-0.598 J-1.387
X11.01 Y32.3 Z-6.25 I0.598 J1.387
X7.989 I-1.51
X11.01 I1.51
G1 X11.021 Y32.683 F850
X11.008 Y32.817
X10.973 Y32.946
X10.916 Y33.068
X10.81 Y33.251
X10.771 Y33.318
X10.744 Y33.351
X10.713 Y33.384
X10.524 Y33.544
X10.349 Y33.69
X10.312 Y33.714
X10.275 Y33.732
X9.837 Y33.891
X9.801 Y33.902
X9.764 Y33.908
X9.691 Y33.911
X9.319 Y33.91
X9.283
X9.233 Y33.907
G3 X9.006 Y33.626 I0.043 J-0.267
X9.544 Y33.655 I0.269 J0.015
X9.283 Y33.91 I-0.269 J-0.015
G1 X9.254
X9.217 Y33.905
X9.181 Y33.896
X9.108 Y33.871
X8.776 Y33.75
X8.743 Y33.738
X8.706 Y33.723
X8.67 Y33.702
X8.653 Y33.69
X8.476 Y33.544
X8.302 Y33.397
X8.264 Y33.36
X8.232 Y33.322
X8.19 Y33.251
X8.021 Y32.959
X7.98 Y32.886
X7.966 Y32.85
X7.955 Y32.813
X7.878 Y32.375
X7.872 Y32.339
X7.87 Y32.302
X7.877 Y32.229
X7.955 Y31.791
X7.964 Y31.755
X7.978 Y31.718
X8.018 Y31.645
X8.187 Y31.353
X8.232 Y31.278
X8.261 Y31.242
X8.297 Y31.207
X8.645 Y30.915
X8.67 Y30.897
X8.706 Y30.877
X8.743 Y30.862
X9.108 Y30.729
X9.181 Y30.704
X9.217 Y30.695
X9.254 Y30.69
X9.691 Y30.689
X9.764 Y30.692
X9.801 Y30.698
X9.837 Y30.709
X10.275 Y30.869
X10.315 Y30.889
X10.354 Y30.915
X10.713 Y31.216
X10.745 Y31.25
X10.772 Y31.284
X10.813 Y31.353
X11.005 Y31.685
X11.03 Y31.738
X11.045 Y31.791
X11.123 Y32.229
X11.129 Y32.266
X11.131 Y32.302
X11.122 Y32.375
X11.045 Y32.813
X11.028 Y32.864
X11.005 Y32.915
X10.916 Y33.068
G3 X10.506 Y33.185 I-0.27 J-0.169
G1 X10.465 Y33.15 Z-6.245
X10.425 Y33.115 Z-6.231
X10.387 Y33.083 Z-6.208
X10.37 Y33.038 Z-6.173
X10.355 Y32.999 Z-6.129
X10.343 Y32.969 Z-6.078
X10.335 Y32.948 Z-6.022
X10.331 Y32.937 Z-5.963
Y32.935 Z-5.932
G0 Z5
X8.274 Y33.182
Z-3.75
G3 X10.726 Y31.418 Z-3.916 I1.226 J-0.882 F283.3
X8.274 Y33.182 Z-4.081 I-1.226 J0.882
X10.726 Y31.418 Z-4.247 I1.226 J-0.882
X8.274 Y33.182 Z-4.413 I-1.226 J0.882
X10.726 Y31.418 Z-4.579 I1.226 J-0.882
X8.274 Y33.182 Z-4.744 I-1.226 J0.882
X10.726 Y31.418 Z-4.91 I1.226 J-0.882
X8.274 Y33.182 Z-5.076 I-1.226 J0.882
X10.726 Y31.418 Z-5.241 I1.226 J-0.882
X8.274 Y33.182 Z-5.407 I-1.226 J0.882
X10.726 Y31.418 Z-5.573 I1.226 J-0.882
X8.274 Y33.182 Z-5.739 I-1.226 J0.882
X10.726 Y31.418 Z-5.904 I1.226 J-0.882
X8.274 Y33.182 Z-6.07 I-1.226 J0.882
X10.726 Y31.418 Z-6.236 I1.226 J-0.882
X8.274 Y33.182 Z-6.401 I-1.226 J0.882
X10.726 Y31.418 Z-6.567 I1.226 J-0.882
X11.011 Y32.3 Z-6.6 I-1.226 J0.882
X7.99 I-1.51
X11.011 I1.51
G1 X11.021 Y32.684 F850
X11.008 Y32.817
X10.973 Y32.946
X10.917 Y33.068
X10.81 Y33.251
X10.771 Y33.318
X10.744 Y33.351
X10.713 Y33.384
X10.524 Y33.544
X10.349 Y33.69
X10.312 Y33.714
X10.275 Y33.732
X9.837 Y33.891
X9.801 Y33.902
X9.764 Y33.908
X9.691 Y33.911
X9.319 Y33.91
X9.283
X9.233 Y33.907
G3 X9.006 Y33.626 I0.043 J-0.267
X9.544 Y33.655 I0.269 J0.015
X9.283 Y33.91 I-0.269 J-0.015
G1 X9.254
X9.217 Y33.905
X9.181 Y33.896
X9.108 Y33.871
X8.776 Y33.75
X8.743 Y33.738
X8.706 Y33.723
X8.67 Y33.702
X8.653 Y33.69
X8.476 Y33.544
X8.302 Y33.397
X8.264 Y33.36
X8.232 Y33.322
X8.19 Y33.251
X8.021 Y32.959
X7.98 Y32.886
X7.966 Y32.85
X7.955 Y32.813
X7.878 Y32.375
X7.872 Y32.339
X7.87 Y32.302
X7.877 Y32.229
X7.955 Y31.791
X7.964 Y31.755
X7.978 Y31.718
X8.018 Y31.645
X8.187 Y31.353
X8.232 Y31.278
X8.261 Y31.242
X8.297 Y31.207
X8.645 Y30.915
X8.67 Y30.897
X8.706 Y30.877
X8.743 Y30.862
X9.108 Y30.729
X9.181 Y30.704
X9.217 Y30.695
X9.254 Y30.69
X9.691 Y30.689
X9.764 Y30.692
X9.801 Y30.698
X9.837 Y30.709
X10.275 Y30.869
X10.315 Y30.889
X10.354 Y30.915
X10.713 Y31.216
X10.745 Y31.25
X10.772 Y31.284
X10.813 Y31.353
X11.005 Y31.685
X11.03 Y31.738
X11.045 Y31.791
X11.123 Y32.229
X11.129 Y32.266
X11.131 Y32.302
X11.122 Y32.375
X11.045 Y32.813
X11.028 Y32.864
X11.005 Y32.915
X10.917 Y33.068
G3 X10.507 Y33.184 I-0.27 J-0.169
G1 X10.465 Y33.149 Z-6.595
X10.425 Y33.115 Z-6.581
X10.387 Y33.083 Z-6.558
X10.37 Y33.037 Z-6.523
X10.355 Y32.998 Z-6.479
X10.343 Y32.968 Z-6.428
X10.335 Y32.947 Z-6.372
X10.331 Y32.936 Z-6.313
Y32.935 Z-6.282
G0 Z5
X1.402 Y11.413
Z2.5
G3 X2.598 Y14.187 Z2.334 I0.598 J1.387 F283.3
X1.402 Y11.413 Z2.169 I-0.598 J-1.387
X2.598 Y14.187 Z2.003 I0.598 J1.387
X1.402 Y11.413 Z1.837 I-0.598 J-1.387
X2.598 Y14.187 Z1.671 I0.598 J1.387
X1.402 Y11.413 Z1.506 I-0.598 J-1.387
X2.598 Y14.187 Z1.34 I0.598 J1.387
X1.402 Y11.413 Z1.174 I-0.598 J-1.387
X2.598 Y14.187 Z1.009 I0.598 J1.387
X1.402 Y11.413 Z0.843 I-0.598 J-1.387
X2.598 Y14.187 Z0.677 I0.598 J1.387
X1.402 Y11.413 Z0.511 I-0.598 J-1.387
X2.598 Y14.187 Z0.346 I0.598 J1.387
X1.402 Y11.413 Z0.18 I-0.598 J-1.387
X2.598 Y14.187 Z0.014 I0.598 J1.387
X1.402 Y11.413 Z-0.151 I-0.598 J-1.387
X2.598 Y14.187 Z-0.317 I0.598 J1.387
X1.402 Y11.413 Z-0.483 I-0.598 J-1.387
X2.598 Y14.187 Z-0.649 I0.598 J1.387
X1.402 Y11.413 Z-0.814 I-0.598 J-1.387
X2.598 Y14.187 Z-0.98 I0.598 J1.387
X1.402 Y11.413 Z-1.146 I-0.598 J-1.387
X3.511 Y12.8 Z-1.25 I0.598 J1.387
X0.49 I-1.511
X3.511 I1.511
G1 X3.521 Y13.183 F850
X3.52 Y13.333
X3.488 Y13.48
X3.435 Y13.62
X3.364 Y13.752
X3.279 Y13.876
X3.182 Y13.99
X3.074 Y14.094
X2.956 Y14.187
X2.83 Y14.268
X2.697 Y14.337
X2.558 Y14.394
X2.414 Y14.438
X2.268 Y14.469
X2.119 Y14.487
X1.969 Y14.491
X1.819 Y14.482
X1.671 Y14.459
X1.525 Y14.423
X1.383 Y14.375
X1.246 Y14.314
X1.115 Y14.242
X0.99 Y14.158
X0.874 Y14.063
X0.767 Y13.958
X0.669 Y13.844
X0.582 Y13.722
X0.506 Y13.593
X0.441 Y13.458
X0.389 Y13.317
X0.35 Y13.172
X0.323 Y13.025
X0.31 Y12.875
Y12.725
X0.323 Y12.576
X0.349 Y12.428
X0.389 Y12.283
X0.441 Y12.143
X0.505 Y12.007
X0.581 Y11.878
X0.668 Y11.756
X0.766 Y11.642
X0.873 Y11.537
X0.99 Y11.443
X1.114 Y11.358
X1.245 Y11.286
X1.382 Y11.225
X1.524 Y11.176
X1.67 Y11.14
X1.818 Y11.118
X1.967 Y11.108
X2.117 Y11.112
X2.266 Y11.129
X2.413 Y11.159
X2.557 Y11.202
X2.696 Y11.258
X2.83 Y11.325
X2.958 Y11.405
X3.077 Y11.495
X3.189 Y11.595
X3.291 Y11.705
X3.383 Y11.824
X3.463 Y11.95
X3.533 Y12.083
X3.59 Y12.222
X3.635 Y12.365
X3.67 Y12.511
X3.698 Y12.658
X3.72 Y12.807
X3.732 Y12.956
X3.733 Y13.106
X3.72 Y13.256
X3.692 Y13.403
X3.651 Y13.547
X3.595 Y13.687
X3.527 Y13.82
X3.446 Y13.946
X3.353 Y14.064
X3.251 Y14.174
X3.139 Y14.274
X3.019 Y14.363
X2.891 Y14.442
X2.757 Y14.511
X2.619 Y14.567
X2.476 Y14.612
X2.329 Y14.646
X2.181 Y14.667
X2.031 Y14.677
X1.881 Y14.674
X1.732 Y14.659
X1.584 Y14.632
X1.439 Y14.593
X1.298 Y14.543
X1.161 Y14.481
X1.03 Y14.409
X0.905 Y14.326
X0.786 Y14.234
X0.676 Y14.133
X0.573 Y14.023
X0.48 Y13.906
X0.397 Y13.781
X0.324 Y13.65
X0.261 Y13.514
X0.21 Y13.373
X0.17 Y13.228
X0.142 Y13.081
X0.125 Y12.932
X0.121 Y12.782
X0.128 Y12.632
X0.147 Y12.483
X0.178 Y12.336
X0.221 Y12.193
X0.275 Y12.053
X0.341 Y11.918
X0.416 Y11.788
X0.502 Y11.665
X0.597 Y11.549
X0.701 Y11.441
X0.814 Y11.342
X0.934 Y11.252
X1.06 Y11.172
X1.193 Y11.102
X1.331 Y11.043
X1.474 Y10.996
X1.619 Y10.96
X1.767 Y10.935
X1.917 Y10.922
X2.067 Y10.921
X2.216 Y10.933
X2.364 Y10.956
X2.51 Y10.99
X2.653 Y11.037
X2.791 Y11.095
X2.925 Y11.164
X3.052 Y11.243
X3.173 Y11.332
X3.286 Y11.43
X3.392 Y11.537
X3.488 Y11.651
X3.575 Y11.774
X3.652 Y11.902
X3.719 Y12.037
X3.776 Y12.175
X3.826 Y12.317
X3.866 Y12.461
X3.898 Y12.608
X3.919 Y12.756
X3.931 Y12.906
Y13.056
X3.92 Y13.206
X3.897 Y13.354
X3.862 Y13.5
X3.815 Y13.642
X3.756 Y13.78
X3.687 Y13.913
X3.606 Y14.039
X3.516 Y14.159
X3.416 Y14.271
X3.308 Y14.375
X3.192 Y14.47
X3.069 Y14.556
X2.939 Y14.632
X2.805 Y14.698
X2.665 Y14.753
X2.522 Y14.798
X2.376 Y14.832
X2.228 Y14.855
X2.078 Y14.867
X1.928 Y14.868
X1.778 Y14.858
X1.63 Y14.837
X1.483 Y14.806
X1.339 Y14.764
X1.199 Y14.711
X1.063 Y14.648
X0.931 Y14.575
X0.806 Y14.493
X0.686 Y14.403
X0.574 Y14.304
X0.469 Y14.197
X0.371 Y14.082
X0.283 Y13.961
X0.203 Y13.834
X0.133 Y13.702
X0.073 Y13.564
X0.023 Y13.423
X-0.017 Y13.278
X-0.046 Y13.131
X-0.065 Y12.982
X-0.073 Y12.832
X-0.07 Y12.682
X-0.056 Y12.533
X-0.032 Y12.385
X0.004 Y12.239
X0.049 Y12.096
X0.106 Y11.957
X0.172 Y11.823
X0.247 Y11.693
X0.332 Y11.569
X0.425 Y11.452
X0.527 Y11.341
X0.636 Y11.239
X0.752 Y11.144
X0.875 Y11.058
X1.004 Y10.981
X1.138 Y10.914
X1.277 Y10.857
X1.419 Y10.81
X1.565 Y10.773
X1.712 Y10.747
X1.862 Y10.732
X2.012 Y10.727
X2.161 Y10.733
X2.31 Y10.75
X2.458 Y10.777
X2.603 Y10.816
X2.745 Y10.865
X2.883 Y10.924
X3.016 Y10.993
X3.144 Y11.071
X3.266 Y11.158
X3.381 Y11.254
X3.489 Y11.358
X3.59 Y11.469
X3.682 Y11.587
X3.766 Y11.712
X3.842 Y11.841
X3.91 Y11.975
X3.969 Y12.113
X4.019 Y12.254
X4.061 Y12.398
X4.093 Y12.545
X4.116 Y12.693
X4.129 Y12.842
X4.132 Y12.992
X4.125 Y13.142
X4.108 Y13.291
X4.08 Y13.438
X4.041 Y13.583
X3.991 Y13.725
X3.931 Y13.862
X3.862 Y13.995
X3.783 Y14.123
X3.695 Y14.244
X3.598 Y14.359
X3.494 Y14.467
X3.382 Y14.567
X3.264 Y14.659
X3.139 Y14.742
X3.009 Y14.816
X2.873 Y14.881
X2.734 Y14.937
X2.591 Y14.983
X2.446 Y15.018
X2.298 Y15.044
X2.149 Y15.06
X1.999 Y15.067
X1.849 Y15.063
X1.7 Y15.049
X1.551 Y15.025
X1.405 Y14.991
X1.262 Y14.947
X1.122 Y14.894
X0.985 Y14.832
X0.853 Y14.76
X0.726 Y14.68
X0.605 Y14.592
X0.49 Y14.496
X0.381 Y14.393
X0.279 Y14.283
X0.184 Y14.166
X0.098 Y14.044
X0.02 Y13.916
X-0.049 Y13.783
X-0.11 Y13.645
X-0.161 Y13.504
X-0.202 Y13.36
X-0.234 Y13.214
X-0.257 Y13.065
X-0.269 Y12.916
X-0.272 Y12.766
X-0.265 Y12.616
X-0.248 Y12.467
X-0.222 Y12.319
X-0.185 Y12.174
X-0.139 Y12.031
X-0.083 Y11.892
X-0.019 Y11.756
X0.055 Y11.626
X0.136 Y11.5
X0.226 Y11.38
X0.324 Y11.266
X0.428 Y11.158
X0.54 Y11.058
X0.658 Y10.965
X0.782 Y10.881
X0.911 Y10.805
X1.045 Y10.737
X1.183 Y10.679
X1.325 Y10.63
X1.47 Y10.59
X1.617 Y10.56
X1.765 Y10.54
X1.915 Y10.529
X2.065 Y10.528
X2.215 Y10.537
X2.363 Y10.556
X2.511 Y10.585
X2.655 Y10.623
X2.798 Y10.671
X2.936 Y10.729
X3.071 Y10.795
X3.2 Y10.871
X3.325 Y10.954
X3.444 Y11.045
X3.557 Y11.144
X3.663 Y11.25
X3.762 Y11.362
X3.854 Y11.481
X3.939 Y11.605
X4.016 Y11.733
X4.086 Y11.866
X4.147 Y12.003
X4.2 Y12.144
X4.245 Y12.287
X4.281 Y12.432
X4.308 Y12.58
X4.326 Y12.729
X4.336 Y12.878
Y13.028
X4.326 Y13.178
X4.307 Y13.327
X4.278 Y13.474
X4.24 Y13.619
X4.192 Y13.761
X4.134 Y13.9
X4.068 Y14.034
X3.993 Y14.164
X3.91 Y14.289
X3.819 Y14.409
X3.721 Y14.522
X3.615 Y14.628
X3.503 Y14.728
X3.384 Y14.82
X3.26 Y14.903
X3.131 Y14.979
X2.997 Y15.047
X2.859 Y15.105
X2.717 Y15.155
X2.573 Y15.196
X2.426 Y15.229
X2.278 Y15.252
X2.129 Y15.266
X1.979 Y15.27
X1.829 Y15.266
X1.68 Y15.252
X1.531 Y15.228
X1.385 Y15.196
X1.241 Y15.155
X1.099 Y15.105
X0.961 Y15.046
X0.827 Y14.979
X0.697 Y14.904
X0.572 Y14.822
X0.452 Y14.732
X0.337 Y14.635
X0.229 Y14.531
X0.127 Y14.421
X0.032 Y14.305
X-0.055 Y14.183
X-0.135 Y14.056
X-0.207 Y13.924
X-0.271 Y13.789
X-0.327 Y13.649
X-0.374 Y13.507
X-0.412 Y13.362
X-0.442 Y13.215
X-0.463 Y13.066
X-0.475 Y12.917
X-0.477 Y12.767
X-0.471 Y12.617
X-0.455 Y12.468
X-0.431 Y12.32
X-0.397 Y12.174
X-0.354 Y12.03
X-0.303 Y11.889
X-0.244 Y11.751
X-0.176 Y11.617
X-0.101 Y11.488
X-0.018 Y11.363
X0.073 Y11.243
X0.17 Y11.129
X0.275 Y11.021
X0.385 Y10.92
X0.502 Y10.826
X0.624 Y10.739
X0.752 Y10.66
X0.884 Y10.588
X1.02 Y10.525
X1.159 Y10.47
X1.302 Y10.423
X1.447 Y10.385
X1.594 Y10.356
X1.743 Y10.336
X1.892 Y10.324
X2.042 Y10.322
X2.192 Y10.329
X2.341 Y10.346
X2.489 Y10.371
X2.635 Y10.405
X2.779 Y10.448
X2.92 Y10.5
X3.057 Y10.56
X3.191 Y10.627
X3.32 Y10.703
X3.445 Y10.787
X3.564 Y10.878
X3.678 Y10.976
X3.786 Y11.08
X3.887 Y11.19
X3.982 Y11.306
X4.071 Y11.427
X4.152 Y11.553
X4.227 Y11.683
X4.294 Y11.818
X4.353 Y11.955
X4.405 Y12.096
X4.449 Y12.239
X4.486 Y12.385
X4.513 Y12.532
X4.533 Y12.681
X4.543 Y12.831
X4.545 Y12.981
X4.539 Y13.131
X4.523 Y13.28
X4.499 Y13.428
X4.466 Y13.574
X4.424 Y13.718
X4.374 Y13.86
X4.316 Y13.998
X4.249 Y14.132
X4.175 Y14.263
X4.093 Y14.388
X4.003 Y14.508
X3.907 Y14.623
X3.804 Y14.732
X3.694 Y14.834
X3.579 Y14.93
X3.458 Y15.019
X3.332 Y15.101
X3.202 Y15.175
X3.067 Y15.241
X2.929 Y15.3
X2.788 Y15.351
X2.644 Y15.393
X2.498 Y15.427
X2.35 Y15.452
X2.201 Y15.469
X2.051 Y15.477
X1.901
X1.751 Y15.468
X1.602 Y15.451
X1.455 Y15.425
X1.308 Y15.391
X1.164 Y15.349
X1.023 Y15.299
X0.885 Y15.241
X0.75 Y15.175
X0.619 Y15.102
X0.492 Y15.022
X0.371 Y14.934
X0.254 Y14.84
X0.142 Y14.74
X0.037 Y14.633
X-0.062 Y14.521
X-0.155 Y14.403
X-0.242 Y14.28
X-0.321 Y14.153
X-0.393 Y14.021
X-0.457 Y13.886
X-0.514 Y13.747
X-0.563 Y13.605
X-0.604 Y13.461
X-0.637 Y13.315
X-0.662 Y13.167
X-0.678 Y13.018
X-0.686 Y12.868
Y12.718
X-0.677 Y12.568
X-0.66 Y12.419
X-0.634 Y12.271
X-0.601 Y12.125
X-0.559 Y11.981
X-0.51 Y11.839
X-0.452 Y11.701
X-0.387 Y11.566
X-0.314 Y11.434
X-0.234 Y11.307
X-0.148 Y11.185
X-0.054 Y11.068
X0.046 Y10.956
X0.152 Y10.85
X0.263 Y10.749
X0.38 Y10.656
X0.502 Y10.569
X0.629 Y10.488
X0.76 Y10.416
X0.895 Y10.35
X1.034 Y10.292
X1.175 Y10.243
X1.319 Y10.2
X1.465 Y10.167
X1.613 Y10.141
X1.762 Y10.123
X1.912 Y10.114
X2.062 Y10.113
X2.212 Y10.121
X2.361 Y10.137
X2.509 Y10.161
X2.655 Y10.194
X2.8 Y10.234
X2.941 Y10.283
X3.08 Y10.34
X3.216 Y10.404
X3.348 Y10.475
X3.476 Y10.554
X3.599 Y10.639
X3.717 Y10.731
X3.831 Y10.83
X3.939 Y10.934
X4.041 Y11.044
X4.137 Y11.159
X4.227 Y11.279
X4.311 Y11.403
X4.387 Y11.532
X4.458 Y11.665
X4.521 Y11.801
X4.577 Y11.94
X4.626 Y12.082
X4.667 Y12.226
X4.701 Y12.372
X4.727 Y12.52
X4.746 Y12.668
X4.756 Y12.818
X4.758 Y12.968
X4.753 Y13.118
X4.739 Y13.267
X4.717 Y13.416
X4.687 Y13.563
X4.648 Y13.708
X4.603 Y13.851
X4.549 Y13.991
X4.488 Y14.128
X4.419 Y14.261
X4.343 Y14.39
X4.261 Y14.516
X4.171 Y14.636
X4.075 Y14.751
X3.973 Y14.861
X3.865 Y14.965
X3.751 Y15.063
X3.632 Y15.154
X3.509 Y15.239
X3.381 Y15.317
X3.249 Y15.389
X3.113 Y15.453
X2.974 Y15.509
X2.832 Y15.559
X2.688 Y15.6
X2.542 Y15.634
X2.394 Y15.66
X2.246 Y15.678
X2.096 Y15.689
X1.946 Y15.691
X1.796 Y15.685
X1.647 Y15.672
X1.498 Y15.65
X1.351 Y15.621
X1.206 Y15.584
X1.062 Y15.54
X0.921 Y15.488
X0.783 Y15.429
X0.649 Y15.363
X0.518 Y15.291
X0.391 Y15.211
X0.268 Y15.125
X0.15 Y15.032
X0.037 Y14.934
X-0.071 Y14.829
X-0.173 Y14.72
X-0.27 Y14.605
X-0.36 Y14.485
X-0.444 Y14.361
X-0.522 Y14.232
X-0.593 Y14.1
X-0.656 Y13.964
X-0.713 Y13.826
X-0.763 Y13.684
X-0.805 Y13.54
X-0.84 Y13.394
X-0.867 Y13.247
X-0.886 Y13.098
X-0.897 Y12.948
X-0.901 Y12.798
X-0.897 Y12.648
X-0.885 Y12.499
X-0.866 Y12.35
X-0.839 Y12.203
X-0.804 Y12.057
X-0.762 Y11.913
X-0.713 Y11.771
X-0.656 Y11.632
X-0.592 Y11.496
X-0.521 Y11.364
X-0.444 Y11.236
X-0.36 Y11.112
X-0.269 Y10.992
X-0.173 Y10.877
X-0.07 Y10.767
X0.038 Y10.663
X0.151 Y10.565
X0.269 Y10.472
X0.391 Y10.386
X0.518 Y10.306
X0.649 Y10.232
X0.783 Y10.166
X0.921 Y10.106
X1.062 Y10.054
X1.205 Y10.009
X1.35 Y9.972
X1.497 Y9.942
X1.646 Y9.92
X1.795 Y9.906
X1.945 Y9.899
X2.095 Y9.9
X2.245 Y9.909
X2.394 Y9.925
X2.542 Y9.949
X2.688 Y9.981
X2.833 Y10.02
X2.976 Y10.067
X3.116 Y10.121
X3.253 Y10.182
X3.386 Y10.251
X3.516 Y10.325
X3.642 Y10.407
X3.764 Y10.494
X3.881 Y10.588
X3.994 Y10.687
X4.101 Y10.792
X4.203 Y10.901
X4.3 Y11.016
X4.391 Y11.135
X4.476 Y11.259
X4.555 Y11.387
X4.627 Y11.518
X4.693 Y11.653
X4.753 Y11.79
X4.805 Y11.931
X4.851 Y12.074
X4.89 Y12.219
X4.921 Y12.365
X4.946 Y12.513
X4.963 Y12.662
X4.973 Y12.812
X4.975 Y12.962
X4.97 Y13.112
X4.957 Y13.261
X4.937 Y13.41
X4.909 Y13.557
X4.874 Y13.703
X4.831 Y13.847
X4.782 Y13.989
X4.725 Y14.127
X4.661 Y14.263
X4.59 Y14.395
X4.513 Y14.524
X4.43 Y14.649
X4.34 Y14.769
X4.244 Y14.884
X4.143 Y14.995
X4.036 Y15.1
X3.924 Y15.2
X3.807 Y15.293
X3.685 Y15.381
X3.559 Y15.463
X3.429 Y15.538
X3.296 Y15.606
X3.159 Y15.668
X3.019 Y15.723
X2.877 Y15.771
X2.733 Y15.812
X2.587 Y15.846
X2.439 Y15.873
X2.291 Y15.892
X2.141 Y15.904
X1.991 Y15.908
X1.841 Y15.905
X1.692 Y15.895
X1.543 Y15.877
X1.395 Y15.852
X1.248 Y15.82
X1.103 Y15.781
X0.961 Y15.735
X0.82 Y15.682
X0.683 Y15.623
X0.548 Y15.556
X0.417 Y15.484
X0.289 Y15.405
X0.165 Y15.32
X0.046 Y15.229
X-0.069 Y15.132
X-0.179 Y15.03
X-0.283 Y14.923
X-0.383 Y14.811
X-0.477 Y14.694
X-0.565 Y14.573
X-0.647 Y14.447
X-0.724 Y14.318
X-0.794 Y14.185
X-0.857 Y14.05
X-0.914 Y13.911
X-0.965 Y13.77
X-1.008 Y13.626
X-1.044 Y13.48
X-1.074 Y13.333
X-1.096 Y13.185
X-1.11 Y13.036
X-1.118 Y12.886
X-1.119 Y12.736
X-1.112 Y12.586
X-1.098 Y12.437
X-1.077 Y12.288
X-1.049 Y12.141
X-1.014 Y11.995
X-0.972 Y11.851
X-0.923 Y11.709
X-0.867 Y11.57
X-0.805 Y11.433
X-0.736 Y11.3
X-0.661 Y11.17
X-0.579 Y11.044
X-0.492 Y10.923
X-0.398 Y10.805
X-0.3 Y10.692
X-0.196 Y10.584
X-0.087 Y10.481
X0.027 Y10.384
X0.146 Y10.291
X0.268 Y10.205
X0.395 Y10.125
X0.525 Y10.051
X0.659 Y9.983
X0.796 Y9.922
X0.936 Y9.867
X1.078 Y9.819
X1.222 Y9.779
X1.369 Y9.745
X1.516 Y9.718
X1.665 Y9.698
X1.814 Y9.686
X1.964 Y9.681
X2.114 Y9.683
X2.264 Y9.692
X2.413 Y9.708
X2.561 Y9.731
X2.708 Y9.761
X2.854 Y9.799
X2.997 Y9.843
X3.138 Y9.894
X3.276 Y9.952
X3.412 Y10.017
X3.544 Y10.088
X3.673 Y10.165
X3.798 Y10.248
X3.919 Y10.336
X4.035 Y10.43
X4.148 Y10.53
X4.255 Y10.634
X4.358 Y10.744
X4.456 Y10.858
X4.548 Y10.976
X4.635 Y11.098
X4.716 Y11.224
X4.791 Y11.354
X4.86 Y11.487
X4.923 Y11.623
X4.98 Y11.762
X5.03 Y11.904
X5.074 Y12.047
X5.111 Y12.192
X5.142 Y12.339
X5.165 Y12.487
X5.182 Y12.636
X5.193 Y12.786
X5.196 Y12.936
X5.192 Y13.086
X5.181 Y13.236
X5.164 Y13.385
X5.139 Y13.532
X5.107 Y13.679
X5.068 Y13.824
X5.023 Y13.967
X4.971 Y14.108
X4.912 Y14.246
X4.847 Y14.381
X4.776 Y14.513
X4.699 Y14.641
X4.615 Y14.766
X4.526 Y14.887
X4.432 Y15.003
X4.332 Y15.115
X4.226 Y15.222
X4.116 Y15.324
X4.001 Y15.42
X3.882 Y15.511
X3.759 Y15.596
X3.631 Y15.675
X3.5 Y15.749
X3.366 Y15.816
X3.229 Y15.877
X3.09 Y15.932
X2.948 Y15.98
X2.803 Y16.022
X2.658 Y16.056
X2.51 Y16.085
X2.362 Y16.106
X2.212 Y16.12
X2.063 Y16.128
X1.913 Y16.129
X1.763 Y16.122
X1.613 Y16.109
X1.465 Y16.089
X1.317 Y16.062
X1.171 Y16.029
X1.026 Y15.989
X0.884 Y15.943
X0.743 Y15.89
X0.605 Y15.831
X0.47 Y15.766
X0.338 Y15.695
X0.209 Y15.617
X0.084 Y15.535
X-0.037 Y15.446
X-0.154 Y15.352
X-0.266 Y15.253
X-0.374 Y15.149
X-0.477 Y15.04
X-0.575 Y14.926
X-0.668 Y14.809
X-0.756 Y14.687
X-0.838 Y14.561
X-0.914 Y14.432
X-0.985 Y14.3
X-1.049 Y14.164
X-1.108 Y14.026
X-1.16 Y13.886
X-1.206 Y13.743
X-1.245 Y13.598
X-1.277 Y13.452
X-1.303 Y13.304
X-1.323 Y13.155
X-1.335 Y13.006
X-1.341 Y12.856
X-1.34 Y12.706
X-1.332 Y12.556
X-1.318 Y12.407
X-1.297 Y12.258
X-1.269 Y12.111
X-1.235 Y11.964
X-1.195 Y11.82
X-1.148 Y11.678
X-1.094 Y11.537
X-1.035 Y11.4
X-0.969 Y11.265
X-0.897 Y11.133
X-0.819 Y11.005
X-0.736 Y10.881
X-0.647 Y10.76
X-0.552 Y10.643
X-0.453 Y10.531
X-0.349 Y10.423
X-0.24 Y10.32
X-0.126 Y10.222
X-0.008 Y10.129
X0.113 Y10.041
X0.239 Y9.959
X0.368 Y9.883
X0.501 Y9.813
X0.636 Y9.749
X0.775 Y9.691
X0.915 Y9.639
X1.058 Y9.593
X1.203 Y9.555
X1.35 Y9.522
X1.497 Y9.496
X1.646 Y9.477
X1.796 Y9.465
X1.946 Y9.459
X2.096 Y9.46
X2.245 Y9.467
X2.395 Y9.481
X2.543 Y9.502
X2.691 Y9.53
X2.837 Y9.564
X2.981 Y9.605
X3.123 Y9.652
X3.264 Y9.705
X3.401 Y9.765
X3.536 Y9.831
X3.668 Y9.902
X3.796 Y9.979
X3.922 Y10.062
X4.043 Y10.15
X4.16 Y10.244
X4.274 Y10.342
X4.383 Y10.445
X4.487 Y10.553
X4.587 Y10.665
X4.682 Y10.781
X4.771 Y10.901
X4.856 Y11.025
X4.935 Y11.153
X5.008 Y11.284
X5.076 Y11.418
X5.138 Y11.554
X5.194 Y11.693
X5.244 Y11.835
X5.288 Y11.978
X5.325 Y12.123
X5.357 Y12.27
X5.382 Y12.418
X5.401 Y12.567
X5.414 Y12.716
X5.42 Y12.866
X5.419 Y13.016
X5.412 Y13.166
X5.398 Y13.315
X5.378 Y13.464
X5.351 Y13.611
X5.318 Y13.758
X5.278 Y13.902
X5.232 Y14.045
X5.18 Y14.186
X5.122 Y14.324
X5.058 Y14.46
X4.988 Y14.592
X4.912 Y14.722
X4.831 Y14.848
X4.744 Y14.97
X4.652 Y15.088
X4.554 Y15.202
X4.452 Y15.312
X4.345 Y15.417
X4.233 Y15.517
X4.117 Y15.613
X3.998 Y15.703
X3.874 Y15.787
X3.747 Y15.867
X3.616 Y15.941
X3.482 Y16.009
X3.346 Y16.071
X3.207 Y16.127
X3.065 Y16.178
X2.922 Y16.222
X2.777 Y16.26
X2.63 Y16.291
X2.482 Y16.316
X2.334 Y16.335
X2.184 Y16.347
X2.034 Y16.353
X1.884 Y16.352
X1.734 Y16.345
X1.585 Y16.332
X1.436 Y16.312
X1.289 Y16.286
X1.142 Y16.254
X0.997 Y16.215
X0.854 Y16.171
X0.713 Y16.12
X0.574 Y16.064
X0.437 Y16.001
X0.304 Y15.933
X0.173 Y15.859
X0.046 Y15.78
X-0.078 Y15.695
X-0.198 Y15.605
X-0.314 Y15.511
X-0.427 Y15.411
X-0.534 Y15.307
X-0.638 Y15.198
X-0.736 Y15.085
X-0.83 Y14.968
X-0.919 Y14.847
X-1.003 Y14.723
X-1.081 Y14.595
X-1.154 Y14.464
X-1.222 Y14.33
X-1.283 Y14.193
X-1.339 Y14.054
X-1.389 Y13.912
X-1.433 Y13.769
X-1.47 Y13.624
X-1.502 Y13.477
X-1.527 Y13.329
X-1.546 Y13.18
X-1.559 Y13.031
X-1.566 Y12.881
Y12.731
X-1.56 Y12.581
X-1.548 Y12.432
X-1.53 Y12.283
X-1.505 Y12.135
X-1.474 Y11.988
X-1.437 Y11.843
X-1.394 Y11.699
X-1.344 Y11.557
X-1.289 Y11.418
X-1.228 Y11.281
X-1.161 Y11.147
X-1.089 Y11.015
X-1.011 Y10.887
X-0.928 Y10.762
X-0.84 Y10.641
X-0.746 Y10.523
X-0.648 Y10.41
X-0.546 Y10.301
X-0.438 Y10.196
X-0.327 Y10.095
X-0.211 Y10
X-0.092 Y9.909
X0.032 Y9.824
X0.159 Y9.744
X0.289 Y9.669
X0.422 Y9.6
X0.558 Y9.537
X0.696 Y9.479
X0.837 Y9.427
X0.98 Y9.382
X1.125 Y9.342
X1.271 Y9.308
X1.418 Y9.28
X1.567 Y9.259
X1.716 Y9.244
X1.866 Y9.235
X2.016 Y9.232
X2.165 Y9.236
X2.315 Y9.246
X2.464 Y9.262
X2.613 Y9.285
X2.76 Y9.314
X2.906 Y9.349
X3.05 Y9.39
X3.192 Y9.437
X3.333 Y9.49
X3.471 Y9.548
X3.606 Y9.613
X3.739 Y9.682
X3.869 Y9.758
X3.995 Y9.838
X4.119 Y9.924
X4.238 Y10.014
X4.354 Y10.109
X4.466 Y10.209
X4.574 Y10.314
X4.677 Y10.423
X4.776 Y10.536
X4.87 Y10.652
X4.959 Y10.773
X5.043 Y10.897
X5.123 Y11.024
X5.197 Y11.155
X5.266 Y11.288
X5.329 Y11.424
X5.387 Y11.562
X5.44 Y11.703
X5.486 Y11.845
X5.527 Y11.989
X5.562 Y12.135
X5.592 Y12.282
X5.615 Y12.431
X5.632 Y12.58
X5.643 Y12.729
X5.647 Y12.879
X5.646 Y13.029
X5.639 Y13.179
X5.625 Y13.328
X5.605 Y13.477
X5.58 Y13.625
X5.548 Y13.771
X5.51 Y13.917
X5.467 Y14.06
X5.417 Y14.202
X5.362 Y14.341
X5.301 Y14.478
X5.235 Y14.613
X5.163 Y14.744
X5.085 Y14.873
X5.003 Y14.998
X4.915 Y15.12
X4.822 Y15.238
X4.725 Y15.352
X4.623 Y15.461
X4.516 Y15.567
X4.405 Y15.668
X4.29 Y15.765
X4.172 Y15.856
X4.05 Y15.943
X3.924 Y16.025
X3.795 Y16.102
X3.663 Y16.173
X3.528 Y16.239
X3.391 Y16.299
X3.251 Y16.354
X3.109 Y16.403
X2.966 Y16.446
X2.82 Y16.483
X2.674 Y16.514
X2.526 Y16.54
X2.377 Y16.559
X2.228 Y16.572
X2.078 Y16.58
X1.928 Y16.581
X1.778 Y16.576
X1.628 Y16.565
X1.479 Y16.549
X1.331 Y16.526
X1.184 Y16.498
X1.038 Y16.463
X0.893 Y16.423
X0.75 Y16.377
X0.609 Y16.325
X0.471 Y16.268
X0.335 Y16.205
X0.201 Y16.137
X0.07 Y16.064
X-0.058 Y15.985
X-0.182 Y15.901
X-0.303 Y15.813
X-0.421 Y15.72
X-0.535 Y15.622
X-0.644 Y15.52
X-0.75 Y15.413
X-0.851 Y15.303
X-0.948 Y15.188
X-1.041 Y15.07
X-1.128 Y14.948
X-1.211 Y14.823
X-1.288 Y14.695
X-1.361 Y14.563
X-1.428 Y14.429
X-1.49 Y14.292
X-1.546 Y14.153
X-1.597 Y14.012
X-1.642 Y13.869
X-1.681 Y13.724
X-1.715 Y13.578
X-1.743 Y13.431
X-1.765 Y13.283
X-1.781 Y13.133
X-1.792 Y12.984
X-1.796 Y12.834
X-1.794 Y12.684
X-1.787 Y12.534
X-1.773 Y12.385
X-1.754 Y12.236
X-1.729 Y12.088
X-1.698 Y11.941
X-1.661 Y11.796
X-1.619 Y11.652
X-1.57 Y11.51
X-1.517 Y11.37
X-1.457 Y11.232
X-1.393 Y11.097
X-1.323 Y10.964
X-1.248 Y10.834
X-1.168 Y10.707
X-1.083 Y10.584
X-0.993 Y10.464
X-0.898 Y10.347
X-0.799 Y10.235
X-0.695 Y10.126
X-0.588 Y10.022
X-0.476 Y9.922
X-0.36 Y9.826
X-0.241 Y9.735
X-0.118 Y9.649
X0.008 Y9.568
X0.137 Y9.492
X0.269 Y9.421
X0.404 Y9.355
X0.541 Y9.295
X0.681 Y9.24
X0.823 Y9.19
X0.966 Y9.147
X1.111 Y9.109
X1.258 Y9.077
X1.405 Y9.05
X1.554 Y9.03
X1.703 Y9.015
X1.853 Y9.006
X2.003 Y9.003
X2.153 Y9.006
X2.303 Y9.015
X2.452 Y9.03
X2.601 Y9.051
X2.748 Y9.077
X2.895 Y9.11
X3.04 Y9.148
X3.183 Y9.191
X3.325 Y9.241
X3.465 Y9.295
X3.602 Y9.356
X3.737 Y9.421
X3.869 Y9.492
X3.999 Y9.567
X4.125 Y9.648
X4.248 Y9.734
X4.368 Y9.824
X4.485 Y9.918
X4.597 Y10.018
X4.706 Y10.121
X4.811 Y10.228
X4.911 Y10.34
X5.008 Y10.455
X5.099 Y10.573
X5.187 Y10.695
X5.269 Y10.821
X5.347 Y10.949
X5.419 Y11.08
X5.487 Y11.214
X5.55 Y11.35
X5.607 Y11.489
X5.659 Y11.63
X5.706 Y11.772
X5.747 Y11.916
X5.783 Y12.062
X5.813 Y12.209
X5.837 Y12.357
X5.856 Y12.506
X5.869 Y12.655
X5.877 Y12.805
X5.878 Y12.955
X5.874 Y13.105
X5.864 Y13.255
X5.849 Y13.404
X5.827 Y13.552
X5.8 Y13.7
X5.767 Y13.846
X5.729 Y13.991
X5.685 Y14.135
X5.635 Y14.276
X5.58 Y14.416
X5.52 Y14.553
X5.455 Y14.688
X5.384 Y14.82
X5.308 Y14.95
X5.227 Y15.076
X5.142 Y15.199
X5.052 Y15.319
X4.957 Y15.435
X4.857 Y15.548
X4.754 Y15.656
X4.646 Y15.761
X4.535 Y15.861
X4.419 Y15.957
X4.3 Y16.048
X4.178 Y16.135
X4.052 Y16.217
X3.923 Y16.294
X3.792 Y16.366
X3.657 Y16.433
X3.521 Y16.494
X3.382 Y16.551
X3.241 Y16.602
X3.098 Y16.648
X2.953 Y16.688
X2.807 Y16.723
X2.66 Y16.752
X2.512 Y16.775
X2.363 Y16.793
X2.214 Y16.805
X2.064 Y16.811
X1.914 Y16.812
X1.764 Y16.807
X1.614 Y16.796
X1.465 Y16.78
X1.317 Y16.758
X1.169 Y16.731
X1.023 Y16.698
X0.878 Y16.659
X0.734 Y16.616
X0.593 Y16.566
X0.453 Y16.512
X0.315 Y16.452
X0.18 Y16.387
X0.047 Y16.317
X-0.082 Y16.242
X-0.21 Y16.163
X-0.334 Y16.078
X-0.454 Y15.989
X-0.572 Y15.896
X-0.685 Y15.798
X-0.795 Y15.696
X-0.902 Y15.59
X-1.004 Y15.48
X-1.102 Y15.367
X-1.195 Y15.249
X-1.284 Y15.129
X-1.369 Y15.005
X-1.449 Y14.878
X-1.524 Y14.748
X-1.595 Y14.616
X-1.66 Y14.481
X-1.72 Y14.343
X-1.775 Y14.204
X-1.825 Y14.062
X-1.869 Y13.919
X-1.908 Y13.774
X-1.942 Y13.628
X-1.97 Y13.481
X-1.992 Y13.332
X-2.009 Y13.183
X-2.021 Y13.034
X-2.027 Y12.884
Y12.734
X-2.022 Y12.584
X-2.012 Y12.434
X-1.995 Y12.285
X-1.973 Y12.137
X-1.946 Y11.989
X-1.913 Y11.843
X-1.875 Y11.698
X-1.831 Y11.554
X-1.782 Y11.413
X-1.728 Y11.273
X-1.668 Y11.135
X-1.604 Y11
X-1.534 Y10.867
X-1.46 Y10.737
X-1.381 Y10.609
X-1.297 Y10.485
X-1.208 Y10.364
X-1.115 Y10.246
X-1.018 Y10.132
X-0.917 Y10.021
X-0.811 Y9.914
X-0.702 Y9.812
X-0.589 Y9.713
X-0.472 Y9.619
X-0.352 Y9.529
X-0.229 Y9.444
X-0.102 Y9.363
X0.027 Y9.287
X0.159 Y9.216
X0.294 Y9.15
X0.431 Y9.09
X0.57 Y9.034
X0.712 Y8.983
X0.855 Y8.938
X0.999 Y8.898
X1.145 Y8.863
X1.292 Y8.834
X1.44 Y8.81
X1.589 Y8.792
X1.739 Y8.779
X1.888 Y8.773
X2.038 Y8.771
X2.188 Y8.775
X2.338 Y8.785
X2.487 Y8.801
X2.636 Y8.821
X2.784 Y8.848
X2.93 Y8.879
X3.075 Y8.917
X3.219 Y8.959
X3.362 Y9.007
X3.502 Y9.06
X3.64 Y9.118
X3.776 Y9.181
X3.91 Y9.249
X4.041 Y9.322
X4.17 Y9.399
X4.295 Y9.481
X4.417 Y9.568
X4.537 Y9.659
X4.652 Y9.755
X4.765 Y9.854
X4.873 Y9.958
X4.978 Y10.065
X5.079 Y10.176
X5.175 Y10.291
X5.268 Y10.409
X5.356 Y10.53
X5.44 Y10.654
X5.519 Y10.782
X5.594 Y10.912
X5.664 Y11.044
X5.729 Y11.179
X5.79 Y11.317
X5.845 Y11.456
X5.896 Y11.597
X5.941 Y11.741
X5.981 Y11.885
X6.015 Y12.031
X6.045 Y12.178
X6.069 Y12.326
X6.088 Y12.475
X6.101 Y12.624
X6.109 Y12.774
X6.112 Y12.924
X6.109 Y13.074
X6.101 Y13.224
X6.087 Y13.373
X6.068 Y13.522
X6.043 Y13.67
X6.014 Y13.817
X5.978 Y13.963
X5.938 Y14.107
X5.892 Y14.25
X5.841 Y14.391
X5.785 Y14.53
X5.724 Y14.667
X5.658 Y14.802
X5.587 Y14.934
X5.512 Y15.064
X5.431 Y15.19
X5.346 Y15.314
X5.257 Y15.435
X5.163 Y15.552
X5.065 Y15.665
X4.963 Y15.775
X4.857 Y15.882
X4.748 Y15.984
X4.634 Y16.082
X4.518 Y16.176
X4.397 Y16.266
X4.274 Y16.351
X4.148 Y16.432
X4.018 Y16.508
X3.886 Y16.58
X3.752 Y16.646
X3.615 Y16.708
X3.476 Y16.765
X3.336 Y16.816
X3.193 Y16.863
X3.049 Y16.904
X2.903 Y16.94
X2.757 Y16.971
X2.609 Y16.997
X2.46 Y17.017
X2.311 Y17.032
X2.161 Y17.042
X2.011 Y17.046
X1.861 Y17.045
X1.711 Y17.039
X1.562 Y17.027
X1.413 Y17.009
X1.265 Y16.987
X1.117 Y16.959
X0.971 Y16.926
X0.826 Y16.888
X0.682 Y16.845
X0.54 Y16.796
X0.4 Y16.743
X0.262 Y16.685
X0.126 Y16.622
X-0.008 Y16.554
X-0.139 Y16.481
X-0.268 Y16.404
X-0.394 Y16.322
X-0.516 Y16.236
X-0.636 Y16.145
X-0.752 Y16.051
X-0.865 Y15.952
X-0.975 Y15.849
X-1.08 Y15.743
X-1.182 Y15.633
X-1.28 Y15.519
X-1.374 Y15.402
X-1.464 Y15.282
X-1.549 Y15.158
X-1.63 Y15.032
X-1.706 Y14.903
X-1.778 Y14.771
X-1.845 Y14.637
X-1.908 Y14.501
X-1.965 Y14.362
X-2.018 Y14.222
X-2.066 Y14.08
X-2.108 Y13.936
X-2.146 Y13.791
X-2.178 Y13.644
X-2.205 Y13.497
X-2.227 Y13.348
X-2.244 Y13.199
X-2.255 Y13.05
X-2.262 Y12.9
X-2.263 Y12.75
X-2.258 Y12.6
X-2.249 Y12.45
X-2.234 Y12.301
X-2.214 Y12.152
X-2.188 Y12.004
X-2.158 Y11.858
X-2.122 Y11.712
X-2.081 Y11.567
X-2.035 Y11.425
X-1.985 Y11.284
X-1.929 Y11.144
X-1.868 Y11.007
X-1.803 Y10.872
X-1.732 Y10.74
X-1.658 Y10.61
X-1.578 Y10.482
X-1.495 Y10.358
X-1.406 Y10.236
X-1.314 Y10.118
X-1.218 Y10.003
X-1.117 Y9.892
X-1.013 Y9.784
X-0.905 Y9.68
X-0.794 Y9.579
X-0.679 Y9.483
X-0.561 Y9.391
X-0.439 Y9.303
X-0.315 Y9.219
X-0.187 Y9.14
X-0.057 Y9.065
X0.076 Y8.995
X0.211 Y8.93
X0.348 Y8.87
X0.487 Y8.814
X0.628 Y8.763
X0.771 Y8.717
X0.916 Y8.677
X1.061 Y8.641
X1.208 Y8.611
X1.356 Y8.585
X1.505 Y8.565
X1.654 Y8.55
X1.804 Y8.541
X1.954 Y8.536
X2.104 Y8.537
X2.253 Y8.543
X2.403 Y8.555
X2.552 Y8.572
X2.7 Y8.594
X2.848 Y8.621
X2.994 Y8.653
X3.14 Y8.69
X3.284 Y8.733
X3.426 Y8.78
X3.567 Y8.832
X3.705 Y8.889
X3.842 Y8.951
X3.976 Y9.018
X4.108 Y9.089
X4.238 Y9.164
X4.365 Y9.245
X4.489 Y9.329
X4.61 Y9.417
X4.728 Y9.51
X4.843 Y9.607
X4.954 Y9.707
X5.062 Y9.812
X5.166 Y9.92
X5.266 Y10.031
X5.362 Y10.146
X5.455 Y10.264
X5.543 Y10.385
X5.628 Y10.509
X5.708 Y10.636
X5.784 Y10.766
X5.855 Y10.898
X5.921 Y11.032
X5.984 Y11.169
X6.041 Y11.307
X6.094 Y11.448
X6.142 Y11.59
X6.185 Y11.733
X6.223 Y11.879
X6.256 Y12.025
X6.284 Y12.172
X6.307 Y12.32
X6.325 Y12.469
X6.338 Y12.619
X6.346 Y12.769
X6.348 Y12.919
X6.345 Y13.069
X6.338 Y13.218
X6.325 Y13.368
X6.307 Y13.517
X6.284 Y13.665
X6.256 Y13.812
X6.223 Y13.959
X6.185 Y14.104
X6.142 Y14.247
X6.094 Y14.389
X6.041 Y14.53
X5.983 Y14.668
X5.92 Y14.805
X5.853 Y14.939
X5.781 Y15.07
X5.705 Y15.2
X5.624 Y15.326
X5.539 Y15.45
X5.45 Y15.57
X5.357 Y15.688
X5.26 Y15.802
X5.158 Y15.912
X5.053 Y16.02
X4.945 Y16.123
X4.833 Y16.223
X4.718 Y16.319
X4.599 Y16.411
X4.477 Y16.498
X4.353 Y16.582
X4.225 Y16.661
X4.095 Y16.736
X3.963 Y16.806
X3.828 Y16.872
X3.691 Y16.933
X3.552 Y16.989
X3.411 Y17.04
X3.268 Y17.087
X3.124 Y17.129
X2.979 Y17.165
X2.832 Y17.197
X2.685 Y17.224
X2.536 Y17.246
X2.387 Y17.263
X2.238 Y17.275
X2.088 Y17.281
X1.938 Y17.283
X1.788 Y17.279
X1.638 Y17.271
X1.489 Y17.257
X1.34 Y17.239
X1.192 Y17.215
X1.044 Y17.186
X0.898 Y17.153
X0.753 Y17.114
X0.61 Y17.07
X0.468 Y17.022
X0.327 Y16.969
X0.189 Y16.912
X0.052 Y16.849
X-0.082 Y16.782
X-0.214 Y16.711
X-0.343 Y16.636
X-0.47 Y16.556
X-0.594 Y16.471
X-0.716 Y16.383
X-0.834 Y16.291
X-0.949 Y16.195
X-1.061 Y16.095
X-1.169 Y15.991
X-1.274 Y15.884
X-1.375 Y15.773
X-1.473 Y15.659
X-1.566 Y15.542
X-1.656 Y15.421
X-1.741 Y15.298
X-1.823 Y15.172
X-1.9 Y15.043
X-1.972 Y14.912
X-2.041 Y14.779
X-2.104 Y14.643
X-2.164 Y14.505
X-2.218 Y14.365
X-2.268 Y14.224
X-2.314 Y14.081
X-2.354 Y13.936
X-2.39 Y13.791
X-2.42 Y13.644
X-2.446 Y13.496
X-2.467 Y13.348
X-2.483 Y13.198
X-2.493 Y13.049
X-2.499 Y12.899
X-2.5 Y12.749
X-2.496 Y12.599
X-2.487 Y12.449
X-2.473 Y12.3
X-2.453 Y12.151
X-2.429 Y12.003
X-2.4 Y11.856
X-2.367 Y11.71
X-2.328 Y11.565
X-2.284 Y11.421
X-2.236 Y11.279
X-2.183 Y11.139
X-2.126 Y11
X-2.063 Y10.864
X-1.997 Y10.73
X-1.925 Y10.598
X-1.85 Y10.468
X-1.77 Y10.341
X-1.686 Y10.217
X-1.598 Y10.095
X-1.506 Y9.977
X-1.41 Y9.862
X-1.31 Y9.75
X-1.206 Y9.641
X-1.099 Y9.536
X-0.989 Y9.435
X-0.875 Y9.337
X-0.758 Y9.243
X-0.638 Y9.153
X-0.515 Y9.067
X-0.389 Y8.985
X-0.261 Y8.908
X-0.13 Y8.835
X0.003 Y8.766
X0.139 Y8.702
X0.276 Y8.642
X0.416 Y8.587
X0.557 Y8.536
X0.7 Y8.491
X0.844 Y8.45
X0.99 Y8.414
X1.137 Y8.383
X1.284 Y8.356
X1.433 Y8.335
X1.582 Y8.318
X1.732 Y8.307
X1.881 Y8.3
X2.031 Y8.299
X2.181 Y8.302
X2.331 Y8.31
X2.48 Y8.324
X2.629 Y8.342
X2.778 Y8.365
X2.925 Y8.394
X3.071 Y8.427
X3.216 Y8.465
X3.36 Y8.507
X3.502 Y8.555
X3.643 Y8.607
X3.782 Y8.663
X3.919 Y8.724
X4.054 Y8.79
X4.187 Y8.86
X4.317 Y8.934
X4.445 Y9.013
X4.57 Y9.095
X4.692 Y9.182
X4.812 Y9.272
X4.929 Y9.367
X5.042 Y9.465
X5.152 Y9.567
X5.259 Y9.672
X5.362 Y9.781
X5.462 Y9.893
X5.558 Y10.008
X5.65 Y10.126
X5.739 Y10.247
X5.823 Y10.371
X5.904 Y10.498
X5.98 Y10.627
X6.052 Y10.759
X6.12 Y10.893
X6.183 Y11.029
X6.242 Y11.167
X6.297 Y11.306
X6.347 Y11.448
X6.392 Y11.591
X6.433 Y11.735
X6.469 Y11.881
X6.5 Y12.027
X6.527 Y12.175
X6.549 Y12.323
X6.566 Y12.472
X6.578 Y12.622
X6.585 Y12.772
X6.587 Y12.922
X6.584 Y13.072
X6.577 Y13.221
X6.565 Y13.371
X6.547 Y13.52
X6.525 Y13.668
X6.499 Y13.816
X6.467 Y13.963
X6.431 Y14.108
X6.39 Y14.252
X6.344 Y14.395
X6.294 Y14.537
X6.239 Y14.676
X6.179 Y14.814
X6.115 Y14.949
X6.047 Y15.083
X5.974 Y15.214
X5.897 Y15.343
X5.816 Y15.469
X5.731 Y15.592
X5.641 Y15.713
X5.548 Y15.83
X5.451 Y15.945
X5.351 Y16.056
X5.246 Y16.164
X5.139 Y16.269
X5.028 Y16.37
X4.914 Y16.467
X4.796 Y16.56
X4.676 Y16.65
X4.553 Y16.736
X4.427 Y16.817
X4.299 Y16.895
X4.168 Y16.968
X4.035 Y17.037
X3.899 Y17.102
X3.762 Y17.162
X3.623 Y17.218
X3.482 Y17.269
X3.339 Y17.315
X3.195 Y17.357
X3.05 Y17.394
X2.903 Y17.427
X2.756 Y17.454
X2.608 Y17.478
X2.459 Y17.496
X2.309 Y17.509
X2.159 Y17.518
X2.01 Y17.522
X1.86 Y17.521
X1.71 Y17.515
X1.56 Y17.505
X1.411 Y17.489
X1.262 Y17.469
X1.114 Y17.444
X0.967 Y17.415
X0.821 Y17.38
X0.676 Y17.341
X0.533 Y17.297
X0.391 Y17.249
X0.25 Y17.196
X0.112 Y17.139
X-0.025 Y17.078
X-0.16 Y17.012
X-0.292 Y16.942
X-0.423 Y16.867
X-0.551 Y16.789
X-0.676 Y16.706
X-0.798 Y16.62
X-0.918 Y16.53
X-1.035 Y16.436
X-1.149 Y16.338
X-1.26 Y16.237
X-1.367 Y16.132
X-1.471 Y16.024
X-1.572 Y15.913
X-1.669 Y15.798
X-1.762 Y15.681
X-1.851 Y15.56
X-1.937 Y15.437
X-2.018 Y15.311
X-2.096 Y15.183
X-2.169 Y15.052
X-2.239 Y14.919
X-2.304 Y14.784
X-2.364 Y14.647
X-2.421 Y14.508
X-2.473 Y14.367
X-2.52 Y14.225
X-2.563 Y14.081
X-2.602 Y13.936
X-2.635 Y13.79
X-2.665 Y13.643
X-2.689 Y13.495
X-2.709 Y13.346
X-2.724 Y13.197
X-2.734 Y13.047
X-2.739 Y12.897
X-2.74 Y12.747
X-2.736 Y12.597
X-2.727 Y12.448
X-2.714 Y12.298
X-2.695 Y12.149
X-2.673 Y12.001
X-2.645 Y11.854
X-2.613 Y11.707
X-2.576 Y11.562
X-2.534 Y11.418
X-2.489 Y11.275
X-2.438 Y11.133
X-2.383 Y10.994
X-2.324 Y10.856
X-2.26 Y10.72
X-2.193 Y10.586
X-2.121 Y10.455
X-2.044 Y10.326
X-1.964 Y10.199
X-1.88 Y10.075
X-1.791 Y9.954
X-1.699 Y9.835
X-1.604 Y9.72
X-1.504 Y9.607
X-1.402 Y9.498
X-1.296 Y9.392
X-1.186 Y9.289
X-1.073 Y9.19
X-0.958 Y9.095
X-0.839 Y9.003
X-0.718 Y8.915
X-0.593 Y8.831
X-0.467 Y8.751
X-0.337 Y8.675
X-0.206 Y8.603
X-0.072 Y8.535
X0.064 Y8.472
X0.202 Y8.413
X0.342 Y8.358
X0.483 Y8.308
X0.626 Y8.262
X0.77 Y8.221
X0.916 Y8.185
X1.062 Y8.153
X1.21 Y8.125
X1.358 Y8.103
X1.507 Y8.085
X1.656 Y8.071
X1.806 Y8.063
X1.956 Y8.059
X2.106 Y8.06
X2.256 Y8.065
X2.406 Y8.075
X2.555 Y8.09
X2.704 Y8.11
X2.852 Y8.134
X2.999 Y8.164
X3.145 Y8.197
X3.29 Y8.235
X3.434 Y8.278
X3.576 Y8.326
X3.718 Y8.377
X3.857 Y8.434
X3.996 Y8.495
X4.132 Y8.56
X4.267 Y8.63
X4.399 Y8.703
X4.529 Y8.781
X4.657 Y8.863
X4.782 Y8.949
X4.904 Y9.039
X5.024 Y9.133
X5.14 Y9.23
X5.254 Y9.331
X5.364 Y9.436
X5.471 Y9.544
X5.575 Y9.656
X5.675 Y9.77
X5.771 Y9.888
X5.864 Y10.009
X5.953 Y10.133
X6.038 Y10.259
X6.12 Y10.388
X6.197 Y10.52
X6.27 Y10.654
X6.339 Y10.791
X6.404 Y10.93
X6.464 Y11.07
X6.52 Y11.213
X6.571 Y11.357
X6.618 Y11.502
X6.66 Y11.649
X6.697 Y11.796
X6.73 Y11.945
X6.758 Y12.095
X6.781 Y12.245
X6.8 Y12.396
X6.814 Y12.548
X6.823 Y12.7
X6.828 Y12.852
X6.827 Y13.005
X6.822 Y13.157
X6.812 Y13.309
X6.798 Y13.461
X6.778 Y13.612
X6.754 Y13.762
X6.726 Y13.911
X6.692 Y14.059
X6.655 Y14.205
X6.612 Y14.35
X6.566 Y14.493
X6.514 Y14.635
X6.478 Y14.723
X6.458 Y14.767
X6.436 Y14.811
X6.189 Y15.282
X6.186 Y15.288
X6.163 Y15.332
X6.051 Y15.522
X6.024 Y15.564
X5.983 Y15.625
X5.938 Y15.685
X5.89 Y15.741
G3 X5.394 Y15.347 I-0.231 J-0.219
G1 X5.61 Y15.019
G3 X6.163 Y15.332 I0.266 J0.175
G1 X6.043 Y15.559
X6.03 Y15.58
X5.897 Y15.734
X5.386 Y16.31
X5.364 Y16.335
X5.336 Y16.367
X5.23 Y16.476
G3 X4.807 Y16.008 I-0.181 J-0.261
G1 X4.849 Y15.958
G3 X5.336 Y16.367 I0.242 J0.207
G1 X5.255 Y16.456
X5.167 Y16.522
X4.416 Y17.041
X4.292 Y17.125
X4.146 Y17.187
X3.27 Y17.519
X3.197 Y17.546
X3.161 Y17.555
X3.124 Y17.562
X2.03 Y17.694
X1.993 Y17.695
X1.957 Y17.693
X0.862 Y17.56
X0.826 Y17.553
X0.789 Y17.541
X-0.232 Y17.154
X-0.269 Y17.138
X-0.305 Y17.117
X-1.108 Y16.563
X-1.254 Y16.456
X-1.4 Y16.296
X-1.983 Y15.637
X-2.03 Y15.58
X-2.109 Y15.434
X-2.567 Y14.561
X-2.611 Y14.412
X-2.827 Y13.536
X-2.859 Y13.397
X-2.86 Y13.39
X-2.863 Y13.244
Y12.367
X-2.861 Y12.221
X-2.859 Y12.204
X-2.829 Y12.075
X-2.613 Y11.199
X-2.573 Y11.053
X-2.567 Y11.039
X-2.115 Y10.177
X-2.036 Y10.031
X-1.983 Y9.963
X-1.266 Y9.154
X-1.254 Y9.142
X-1.108 Y9.037
X-0.305 Y8.483
X-0.269 Y8.462
X-0.232 Y8.446
X0.789 Y8.059
X0.826 Y8.048
X0.862 Y8.04
X1.957 Y7.907
X1.993 Y7.905
X2.03 Y7.906
X3.124 Y8.038
X3.161 Y8.045
X3.197 Y8.054
X3.562 Y8.192
X4.174 Y8.424
X4.292 Y8.475
X4.438 Y8.574
X5.167 Y9.078
X5.265 Y9.154
X5.313 Y9.207
X6.01 Y9.994
X6.036 Y10.031
X6.043 Y10.042
X6.191 Y10.323
X6.498 Y10.907
X6.573 Y11.053
X6.613 Y11.199
X6.829 Y12.075
X6.861 Y12.221
X6.863 Y12.367
Y13.244
X6.86 Y13.39
X6.827 Y13.536
X6.611 Y14.412
X6.568 Y14.558
X6.436 Y14.811
G3 X6.031 Y14.944 I-0.276 J-0.158
G1 X5.988 Y14.911 Z-1.245
X5.947 Y14.878 Z-1.231
X5.908 Y14.848 Z-1.208
X5.889 Y14.803 Z-1.173
X5.872 Y14.765 Z-1.129
X5.859 Y14.735 Z-1.078
X5.85 Y14.714 Z-1.022
X5.846 Y14.704 Z-0.963
Y14.702 Z-0.932
G0 Z5
X1.402 Y11.413
Z1.25
G3 X2.598 Y14.187 Z1.084 I0.598 J1.387 F283.3
X1.402 Y11.413 Z0.919 I-0.598 J-1.387
X2.598 Y14.187 Z0.753 I0.598 J1.387
X1.402 Y11.413 Z0.587 I-0.598 J-1.387
X2.598 Y14.187 Z0.421 I0.598 J1.387
X1.402 Y11.413 Z0.256 I-0.598 J-1.387
X2.598 Y14.187 Z0.09 I0.598 J1.387
X1.402 Y11.413 Z-0.076 I-0.598 J-1.387
X2.598 Y14.187 Z-0.241 I0.598 J1.387
X1.402 Y11.413 Z-0.407 I-0.598 J-1.387
X2.598 Y14.187 Z-0.573 I0.598 J1.387
X1.402 Y11.413 Z-0.739 I-0.598 J-1.387
X2.598 Y14.187 Z-0.904 I0.598 J1.387
X1.402 Y11.413 Z-1.07 I-0.598 J-1.387
X2.598 Y14.187 Z-1.236 I0.598 J1.387
X1.402 Y11.413 Z-1.401 I-0.598 J-1.387
X2.598 Y14.187 Z-1.567 I0.598 J1.387
X1.402 Y11.413 Z-1.733 I-0.598 J-1.387
X2.598 Y14.187 Z-1.899 I0.598 J1.387
X1.402 Y11.413 Z-2.064 I-0.598 J-1.387
X2.598 Y14.187 Z-2.23 I0.598 J1.387
X1.402 Y11.413 Z-2.396 I-0.598 J-1.387
X3.511 Y12.8 Z-2.5 I0.598 J1.387
X0.49 I-1.511
X3.511 I1.511
G1 X3.521 Y13.183 F850
X3.52 Y13.333
X3.488 Y13.48
X3.435 Y13.62
X3.364 Y13.752
X3.279 Y13.876
X3.182 Y13.99
X3.074 Y14.094
X2.956 Y14.187
X2.83 Y14.268
X2.697 Y14.337
X2.558 Y14.394
X2.414 Y14.438
X2.268 Y14.469
X2.119 Y14.487
X1.969 Y14.491
X1.819 Y14.482
X1.671 Y14.459
X1.525 Y14.423
X1.383 Y14.375
X1.246 Y14.314
X1.115 Y14.242
X0.99 Y14.158
X0.874 Y14.063
X0.767 Y13.958
X0.669 Y13.844
X0.582 Y13.722
X0.506 Y13.593
X0.441 Y13.458
X0.389 Y13.317
X0.35 Y13.172
X0.323 Y13.025
X0.31 Y12.875
Y12.725
X0.323 Y12.576
X0.349 Y12.428
X0.389 Y12.283
X0.441 Y12.143
X0.505 Y12.007
X0.581 Y11.878
X0.668 Y11.756
X0.766 Y11.642
X0.873 Y11.537
X0.99 Y11.443
X1.114 Y11.358
X1.245 Y11.286
X1.382 Y11.225
X1.524 Y11.176
X1.67 Y11.14
X1.818 Y11.118
X1.967 Y11.108
X2.117 Y11.112
X2.266 Y11.129
X2.413 Y11.159
X2.557 Y11.202
X2.696 Y11.258
X2.83 Y11.325
X2.958 Y11.405
X3.077 Y11.495
X3.189 Y11.595
X3.291 Y11.705
X3.383 Y11.824
X3.463 Y11.95
X3.533 Y12.083
X3.59 Y12.222
X3.635 Y12.365
X3.67 Y12.511
X3.698 Y12.658
X3.72 Y12.807
X3.732 Y12.956
X3.733 Y13.106
X3.72 Y13.256
X3.692 Y13.403
X3.651 Y13.547
X3.595 Y13.687
X3.527 Y13.82
X3.446 Y13.946
X3.353 Y14.064
X3.251 Y14.174
X3.139 Y14.274
X3.019 Y14.363
X2.891 Y14.442
X2.757 Y14.511
X2.619 Y14.567
X2.476 Y14.612
X2.329 Y14.646
X2.181 Y14.667
X2.031 Y14.677
X1.881 Y14.674
X1.732 Y14.659
X1.584 Y14.632
X1.439 Y14.593
X1.298 Y14.543
X1.161 Y14.481
X1.03 Y14.409
X0.905 Y14.326
X0.786 Y14.234
X0.676 Y14.133
X0.573 Y14.023
X0.48 Y13.906
X0.397 Y13.781
X0.324 Y13.65
X0.261 Y13.514
X0.21 Y13.373
X0.17 Y13.228
X0.142 Y13.081
X0.125 Y12.932
X0.121 Y12.782
X0.128 Y12.632
X0.147 Y12.483
X0.178 Y12.336
X0.221 Y12.193
X0.275 Y12.053
X0.341 Y11.918
X0.416 Y11.788
X0.502 Y11.665
X0.597 Y11.549
X0.701 Y11.441
X0.814 Y11.342
X0.934 Y11.252
X1.06 Y11.172
X1.193 Y11.102
X1.331 Y11.043
X1.474 Y10.996
X1.619 Y10.96
X1.767 Y10.935
X1.917 Y10.922
X2.067 Y10.921
X2.216 Y10.933
X2.364 Y10.956
X2.51 Y10.99
X2.653 Y11.037
X2.791 Y11.095
X2.925 Y11.164
X3.052 Y11.243
X3.173 Y11.332
X3.286 Y11.43
X3.392 Y11.537
X3.488 Y11.651
X3.575 Y11.774
X3.652 Y11.902
X3.719 Y12.037
X3.776 Y12.175
X3.826 Y12.317
X3.866 Y12.461
X3.898 Y12.608
X3.919 Y12.756
X3.931 Y12.906
Y13.056
X3.92 Y13.206
X3.897 Y13.354
X3.862 Y13.5
X3.815 Y13.642
X3.756 Y13.78
X3.687 Y13.913
X3.606 Y14.039
X3.516 Y14.159
X3.416 Y14.271
X3.308 Y14.375
X3.192 Y14.47
X3.069 Y14.556
X2.939 Y14.632
X2.805 Y14.698
X2.665 Y14.753
X2.522 Y14.798
X2.376 Y14.832
X2.228 Y14.855
X2.078 Y14.867
X1.928 Y14.868
X1.778 Y14.858
X1.63 Y14.837
X1.483 Y14.806
X1.339 Y14.764
X1.199 Y14.711
X1.063 Y14.648
X0.931 Y14.575
X0.806 Y14.493
X0.686 Y14.403
X0.574 Y14.304
X0.469 Y14.197
X0.371 Y14.082
X0.283 Y13.961
X0.203 Y13.834
X0.133 Y13.702
X0.073 Y13.564
X0.023 Y13.423
X-0.017 Y13.278
X-0.046 Y13.131
X-0.065 Y12.982
X-0.073 Y12.832
X-0.07 Y12.682
X-0.056 Y12.533
X-0.032 Y12.385
X0.004 Y12.239
X0.049 Y12.096
X0.106 Y11.957
X0.172 Y11.823
X0.247 Y11.693
X0.332 Y11.569
X0.425 Y11.452
X0.527 Y11.341
X0.636 Y11.239
X0.752 Y11.144
X0.875 Y11.058
X1.004 Y10.981
X1.138 Y10.914
X1.277 Y10.857
X1.419 Y10.81
X1.565 Y10.773
X1.712 Y10.747
X1.862 Y10.732
X2.012 Y10.727
X2.161 Y10.733
X2.31 Y10.75
X2.458 Y10.777
X2.603 Y10.816
X2.745 Y10.865
X2.883 Y10.924
X3.016 Y10.993
X3.144 Y11.071
X3.266 Y11.158
X3.381 Y11.254
X3.489 Y11.358
X3.59 Y11.469
X3.682 Y11.587
X3.766 Y11.712
X3.842 Y11.841
X3.91 Y11.975
X3.969 Y12.113
X4.019 Y12.254
X4.061 Y12.398
X4.093 Y12.545
X4.116 Y12.693
X4.129 Y12.842
X4.132 Y12.992
X4.125 Y13.142
X4.108 Y13.291
X4.08 Y13.438
X4.041 Y13.583
X3.991 Y13.725
X3.931 Y13.862
X3.862 Y13.995
X3.783 Y14.123
X3.695 Y14.244
X3.598 Y14.359
X3.494 Y14.467
X3.382 Y14.567
X3.264 Y14.659
X3.139 Y14.742
X3.009 Y14.816
X2.873 Y14.881
X2.734 Y14.937
X2.591 Y14.983
X2.446 Y15.018
X2.298 Y15.044
X2.149 Y15.06
X1.999 Y15.067
X1.849 Y15.063
X1.7 Y15.049
X1.551 Y15.025
X1.405 Y14.991
X1.262 Y14.947
X1.122 Y14.894
X0.985 Y14.832
X0.853 Y14.76
X0.726 Y14.68
X0.605 Y14.592
X0.49 Y14.496
X0.381 Y14.393
X0.279 Y14.283
X0.184 Y14.166
X0.098 Y14.044
X0.02 Y13.916
X-0.049 Y13.783
X-0.11 Y13.645
X-0.161 Y13.504
X-0.202 Y13.36
X-0.234 Y13.214
X-0.257 Y13.065
X-0.269 Y12.916
X-0.272 Y12.766
X-0.265 Y12.616
X-0.248 Y12.467
X-0.222 Y12.319
X-0.185 Y12.174
X-0.139 Y12.031
X-0.083 Y11.892
X-0.019 Y11.756
X0.055 Y11.626
X0.136 Y11.5
X0.226 Y11.38
X0.324 Y11.266
X0.428 Y11.158
X0.54 Y11.058
X0.658 Y10.965
X0.782 Y10.881
X0.911 Y10.805
X1.045 Y10.737
X1.183 Y10.679
X1.325 Y10.63
X1.47 Y10.59
X1.617 Y10.56
X1.765 Y10.54
X1.915 Y10.529
X2.065 Y10.528
X2.215 Y10.537
X2.363 Y10.556
X2.511 Y10.585
X2.655 Y10.623
X2.798 Y10.671
X2.936 Y10.729
X3.071 Y10.795
X3.2 Y10.871
X3.325 Y10.954
X3.444 Y11.045
X3.557 Y11.144
X3.663 Y11.25
X3.762 Y11.362
X3.854 Y11.481
X3.939 Y11.605
X4.016 Y11.733
X4.086 Y11.866
X4.147 Y12.003
X4.2 Y12.144
X4.245 Y12.287
X4.281 Y12.432
X4.308 Y12.58
X4.326 Y12.729
X4.336 Y12.878
Y13.028
X4.326 Y13.178
X4.307 Y13.327
X4.278 Y13.474
X4.24 Y13.619
X4.192 Y13.761
X4.134 Y13.9
X4.068 Y14.034
X3.993 Y14.164
X3.91 Y14.289
X3.819 Y14.409
X3.721 Y14.522
X3.615 Y14.628
X3.503 Y14.728
X3.384 Y14.82
X3.26 Y14.903
X3.131 Y14.979
X2.997 Y15.047
X2.859 Y15.105
X2.717 Y15.155
X2.573 Y15.196
X2.426 Y15.229
X2.278 Y15.252
X2.129 Y15.266
X1.979 Y15.27
X1.829 Y15.266
X1.68 Y15.252
X1.531 Y15.228
X1.385 Y15.196
X1.241 Y15.155
X1.099 Y15.105
X0.961 Y15.046
X0.827 Y14.979
X0.697 Y14.904
X0.572 Y14.822
X0.452 Y14.732
X0.337 Y14.635
X0.229 Y14.531
X0.127 Y14.421
X0.032 Y14.305
X-0.055 Y14.183
X-0.135 Y14.056
X-0.207 Y13.924
X-0.271 Y13.789
X-0.327 Y13.649
X-0.374 Y13.507
X-0.412 Y13.362
X-0.442 Y13.215
X-0.463 Y13.066
X-0.475 Y12.917
X-0.477 Y12.767
X-0.471 Y12.617
X-0.455 Y12.468
X-0.431 Y12.32
X-0.397 Y12.174
X-0.354 Y12.03
X-0.303 Y11.889
X-0.244 Y11.751
X-0.176 Y11.617
X-0.101 Y11.488
X-0.018 Y11.363
X0.073 Y11.243
X0.17 Y11.129
X0.275 Y11.021
X0.385 Y10.92
X0.502 Y10.826
X0.624 Y10.739
X0.752 Y10.66
X0.884 Y10.588
X1.02 Y10.525
X1.159 Y10.47
X1.302 Y10.423
X1.447 Y10.385
X1.594 Y10.356
X1.743 Y10.336
X1.892 Y10.324
X2.042 Y10.322
X2.192 Y10.329
X2.341 Y10.346
X2.489 Y10.371
X2.635 Y10.405
X2.779 Y10.448
X2.92 Y10.5
X3.057 Y10.56
X3.191 Y10.627
X3.32 Y10.703
X3.445 Y10.787
X3.564 Y10.878
X3.678 Y10.976
X3.786 Y11.08
X3.887 Y11.19
X3.982 Y11.306
X4.071 Y11.427
X4.152 Y11.553
X4.227 Y11.683
X4.294 Y11.818
X4.353 Y11.955
X4.405 Y12.096
X4.449 Y12.239
X4.486 Y12.385
X4.513 Y12.532
X4.533 Y12.681
X4.543 Y12.831
X4.545 Y12.981
X4.539 Y13.131
X4.523 Y13.28
X4.499 Y13.428
X4.466 Y13.574
X4.424 Y13.718
X4.374 Y13.86
X4.316 Y13.998
X4.249 Y14.132
X4.175 Y14.263
X4.093 Y14.388
X4.003 Y14.508
X3.907 Y14.623
X3.804 Y14.732
X3.694 Y14.834
X3.579 Y14.93
X3.458 Y15.019
X3.332 Y15.101
X3.202 Y15.175
X3.067 Y15.241
X2.929 Y15.3
X2.788 Y15.351
X2.644 Y15.393
X2.498 Y15.427
X2.35 Y15.452
X2.201 Y15.469
X2.051 Y15.477
X1.901
X1.751 Y15.468
X1.602 Y15.451
X1.455 Y15.425
X1.308 Y15.391
X1.164 Y15.349
X1.023 Y15.299
X0.885 Y15.241
X0.75 Y15.175
X0.619 Y15.102
X0.492 Y15.022
X0.371 Y14.934
X0.254 Y14.84
X0.142 Y14.74
X0.037 Y14.633
X-0.062 Y14.521
X-0.155 Y14.403
X-0.242 Y14.28
X-0.321 Y14.153
X-0.393 Y14.021
X-0.457 Y13.886
X-0.514 Y13.747
X-0.563 Y13.605
X-0.604 Y13.461
X-0.637 Y13.315
X-0.662 Y13.167
X-0.678 Y13.018
X-0.686 Y12.868
Y12.718
X-0.677 Y12.568
X-0.66 Y12.419
X-0.634 Y12.271
X-0.601 Y12.125
X-0.559 Y11.981
X-0.51 Y11.839
X-0.452 Y11.701
X-0.387 Y11.566
X-0.314 Y11.434
X-0.234 Y11.307
X-0.148 Y11.185
X-0.054 Y11.068
X0.046 Y10.956
X0.152 Y10.85
X0.263 Y10.749
X0.38 Y10.656
X0.502 Y10.569
X0.629 Y10.488
X0.76 Y10.416
X0.895 Y10.35
X1.034 Y10.292
X1.175 Y10.243
X1.319 Y10.2
X1.465 Y10.167
X1.613 Y10.141
X1.762 Y10.123
X1.912 Y10.114
X2.062 Y10.113
X2.212 Y10.121
X2.361 Y10.137
X2.509 Y10.161
X2.655 Y10.194
X2.8 Y10.234
X2.941 Y10.283
X3.08 Y10.34
X3.216 Y10.404
X3.348 Y10.475
X3.476 Y10.554
X3.599 Y10.639
X3.717 Y10.731
X3.831 Y10.83
X3.939 Y10.934
X4.041 Y11.044
X4.137 Y11.159
X4.227 Y11.279
X4.311 Y11.403
X4.387 Y11.532
X4.458 Y11.665
X4.521 Y11.801
X4.577 Y11.94
X4.626 Y12.082
X4.667 Y12.226
X4.701 Y12.372
X4.727 Y12.52
X4.746 Y12.668
X4.756 Y12.818
X4.758 Y12.968
X4.753 Y13.118
X4.739 Y13.267
X4.717 Y13.416
X4.687 Y13.563
X4.648 Y13.708
X4.603 Y13.851
X4.549 Y13.991
X4.488 Y14.128
X4.419 Y14.261
X4.343 Y14.39
X4.261 Y14.516
X4.171 Y14.636
X4.075 Y14.751
X3.973 Y14.861
X3.865 Y14.965
X3.751 Y15.063
X3.632 Y15.154
X3.509 Y15.239
X3.381 Y15.317
X3.249 Y15.389
X3.113 Y15.453
X2.974 Y15.509
X2.832 Y15.559
X2.688 Y15.6
X2.542 Y15.634
X2.394 Y15.66
X2.246 Y15.678
X2.096 Y15.689
X1.946 Y15.691
X1.796 Y15.685
X1.647 Y15.672
X1.498 Y15.65
X1.351 Y15.621
X1.206 Y15.584
X1.062 Y15.54
X0.921 Y15.488
X0.783 Y15.429
X0.649 Y15.363
X0.518 Y15.291
X0.391 Y15.211
X0.268 Y15.125
X0.15 Y15.032
X0.037 Y14.934
X-0.071 Y14.829
X-0.173 Y14.72
X-0.27 Y14.605
X-0.36 Y14.485
X-0.444 Y14.361
X-0.522 Y14.232
X-0.593 Y14.1
X-0.656 Y13.964
X-0.713 Y13.826
X-0.763 Y13.684
X-0.805 Y13.54
X-0.84 Y13.394
X-0.867 Y13.247
X-0.886 Y13.098
X-0.897 Y12.948
X-0.901 Y12.798
X-0.897 Y12.648
X-0.885 Y12.499
X-0.866 Y12.35
X-0.839 Y12.203
X-0.804 Y12.057
X-0.762 Y11.913
X-0.713 Y11.771
X-0.656 Y11.632
X-0.592 Y11.496
X-0.521 Y11.364
X-0.444 Y11.236
X-0.36 Y11.112
X-0.269 Y10.992
X-0.173 Y10.877
X-0.07 Y10.767
X0.038 Y10.663
X0.151 Y10.565
X0.269 Y10.472
X0.391 Y10.386
X0.518 Y10.306
X0.649 Y10.232
X0.783 Y10.166
X0.921 Y10.106
X1.062 Y10.054
X1.205 Y10.009
X1.35 Y9.972
X1.497 Y9.942
X1.646 Y9.92
X1.795 Y9.906
X1.945 Y9.899
X2.095 Y9.9
X2.245 Y9.909
X2.394 Y9.925
X2.542 Y9.949
X2.688 Y9.981
X2.833 Y10.02
X2.976 Y10.067
X3.116 Y10.121
X3.253 Y10.182
X3.386 Y10.251
X3.516 Y10.325
X3.642 Y10.407
X3.764 Y10.494
X3.881 Y10.588
X3.994 Y10.687
X4.101 Y10.792
X4.203 Y10.901
X4.3 Y11.016
X4.391 Y11.135
X4.476 Y11.259
X4.555 Y11.387
X4.627 Y11.518
X4.693 Y11.653
X4.753 Y11.79
X4.805 Y11.931
X4.851 Y12.074
X4.89 Y12.219
X4.921 Y12.365
X4.946 Y12.513
X4.963 Y12.662
X4.973 Y12.812
X4.975 Y12.962
X4.97 Y13.112
X4.957 Y13.261
X4.937 Y13.41
X4.909 Y13.557
X4.874 Y13.703
X4.831 Y13.847
X4.782 Y13.989
X4.725 Y14.127
X4.661 Y14.263
X4.59 Y14.395
X4.513 Y14.524
X4.43 Y14.649
X4.34 Y14.769
X4.244 Y14.884
X4.143 Y14.995
X4.036 Y15.1
X3.924 Y15.2
X3.807 Y15.293
X3.685 Y15.381
X3.559 Y15.463
X3.429 Y15.538
X3.296 Y15.606
X3.159 Y15.668
X3.019 Y15.723
X2.877 Y15.771
X2.733 Y15.812
X2.587 Y15.846
X2.439 Y15.873
X2.291 Y15.892
X2.141 Y15.904
X1.991 Y15.908
X1.841 Y15.905
X1.692 Y15.895
X1.543 Y15.877
X1.395 Y15.852
X1.248 Y15.82
X1.103 Y15.781
X0.961 Y15.735
X0.82 Y15.682
X0.683 Y15.623
X0.548 Y15.556
X0.417 Y15.484
X0.289 Y15.405
X0.165 Y15.32
X0.046 Y15.229
X-0.069 Y15.132
X-0.179 Y15.03
X-0.283 Y14.923
X-0.383 Y14.811
X-0.477 Y14.694
X-0.565 Y14.573
X-0.647 Y14.447
X-0.724 Y14.318
X-0.794 Y14.185
X-0.857 Y14.05
X-0.914 Y13.911
X-0.965 Y13.77
X-1.008 Y13.626
X-1.044 Y13.48
X-1.074 Y13.333
X-1.096 Y13.185
X-1.11 Y13.036
X-1.118 Y12.886
X-1.119 Y12.736
X-1.112 Y12.586
X-1.098 Y12.437
X-1.077 Y12.288
X-1.049 Y12.141
X-1.014 Y11.995
X-0.972 Y11.851
X-0.923 Y11.709
X-0.867 Y11.57
X-0.805 Y11.433
X-0.736 Y11.3
X-0.661 Y11.17
X-0.579 Y11.044
X-0.492 Y10.923
X-0.398 Y10.805
X-0.3 Y10.692
X-0.196 Y10.584
X-0.087 Y10.481
X0.027 Y10.384
X0.146 Y10.291
X0.268 Y10.205
X0.395 Y10.125
X0.525 Y10.051
X0.659 Y9.983
X0.796 Y9.922
X0.936 Y9.867
X1.078 Y9.819
X1.222 Y9.779
X1.369 Y9.745
X1.516 Y9.718
X1.665 Y9.698
X1.814 Y9.686
X1.964 Y9.681
X2.114 Y9.683
X2.264 Y9.692
X2.413 Y9.708
X2.561 Y9.731
X2.708 Y9.761
X2.854 Y9.799
X2.997 Y9.843
X3.138 Y9.894
X3.276 Y9.952
X3.412 Y10.017
X3.544 Y10.088
X3.673 Y10.165
X3.798 Y10.248
X3.919 Y10.336
X4.035 Y10.43
X4.148 Y10.53
X4.255 Y10.634
X4.358 Y10.744
X4.456 Y10.858
X4.548 Y10.976
X4.635 Y11.098
X4.716 Y11.224
X4.791 Y11.354
X4.86 Y11.487
X4.923 Y11.623
X4.98 Y11.762
X5.03 Y11.904
X5.074 Y12.047
X5.111 Y12.192
X5.142 Y12.339
X5.165 Y12.487
X5.182 Y12.636
X5.193 Y12.786
X5.196 Y12.936
X5.192 Y13.086
X5.181 Y13.236
X5.164 Y13.385
X5.139 Y13.532
X5.107 Y13.679
X5.068 Y13.824
X5.023 Y13.967
X4.971 Y14.108
X4.912 Y14.246
X4.847 Y14.381
X4.776 Y14.513
X4.699 Y14.641
X4.615 Y14.766
X4.526 Y14.887
X4.432 Y15.003
X4.332 Y15.115
X4.226 Y15.222
X4.116 Y15.324
X4.001 Y15.42
X3.882 Y15.511
X3.759 Y15.596
X3.631 Y15.675
X3.5 Y15.749
X3.366 Y15.816
X3.229 Y15.877
X3.09 Y15.932
X2.948 Y15.98
X2.803 Y16.022
X2.658 Y16.056
X2.51 Y16.085
X2.362 Y16.106
X2.212 Y16.12
X2.063 Y16.128
X1.913 Y16.129
X1.763 Y16.122
X1.613 Y16.109
X1.465 Y16.089
X1.317 Y16.062
X1.171 Y16.029
X1.026 Y15.989
X0.884 Y15.943
X0.743 Y15.89
X0.605 Y15.831
X0.47 Y15.766
X0.338 Y15.695
X0.209 Y15.617
X0.084 Y15.535
X-0.037 Y15.446
X-0.154 Y15.352
X-0.266 Y15.253
X-0.374 Y15.149
X-0.477 Y15.04
X-0.575 Y14.926
X-0.668 Y14.809
X-0.756 Y14.687
X-0.838 Y14.561
X-0.914 Y14.432
X-0.985 Y14.3
X-1.049 Y14.164
X-1.108 Y14.026
X-1.16 Y13.886
X-1.206 Y13.743
X-1.245 Y13.598
X-1.277 Y13.452
X-1.303 Y13.304
X-1.323 Y13.155
X-1.335 Y13.006
X-1.341 Y12.856
X-1.34 Y12.706
X-1.332 Y12.556
X-1.318 Y12.407
X-1.297 Y12.258
X-1.269 Y12.111
X-1.235 Y11.964
X-1.195 Y11.82
X-1.148 Y11.678
X-1.094 Y11.537
X-1.035 Y11.4
X-0.969 Y11.265
X-0.897 Y11.133
X-0.819 Y11.005
X-0.736 Y10.881
X-0.647 Y10.76
X-0.552 Y10.643
X-0.453 Y10.531
X-0.349 Y10.423
X-0.24 Y10.32
X-0.126 Y10.222
X-0.008 Y10.129
X0.113 Y10.041
X0.239 Y9.959
X0.368 Y9.883
X0.501 Y9.813
X0.636 Y9.749
X0.775 Y9.691
X0.915 Y9.639
X1.058 Y9.593
X1.203 Y9.555
X1.35 Y9.522
X1.497 Y9.496
X1.646 Y9.477
X1.796 Y9.465
X1.946 Y9.459
X2.096 Y9.46
X2.245 Y9.467
X2.395 Y9.481
X2.543 Y9.502
X2.691 Y9.53
X2.837 Y9.564
X2.981 Y9.605
X3.123 Y9.652
X3.264 Y9.705
X3.401 Y9.765
X3.536 Y9.831
X3.668 Y9.902
X3.796 Y9.979
X3.922 Y10.062
X4.043 Y10.15
X4.16 Y10.244
X4.274 Y10.342
X4.383 Y10.445
X4.487 Y10.553
X4.587 Y10.665
X4.682 Y10.781
X4.771 Y10.901
X4.856 Y11.025
X4.935 Y11.153
X5.008 Y11.284
X5.076 Y11.418
X5.138 Y11.554
X5.194 Y11.693
X5.244 Y11.835
X5.288 Y11.978
X5.325 Y12.123
X5.357 Y12.27
X5.382 Y12.418
X5.401 Y12.567
X5.414 Y12.716
X5.42 Y12.866
X5.419 Y13.016
X5.412 Y13.166
X5.398 Y13.315
X5.378 Y13.464
X5.351 Y13.611
X5.318 Y13.758
X5.278 Y13.902
X5.232 Y14.045
X5.18 Y14.186
X5.122 Y14.324
X5.058 Y14.46
X4.988 Y14.592
X4.912 Y14.722
X4.831 Y14.848
X4.744 Y14.97
X4.652 Y15.088
X4.554 Y15.202
X4.452 Y15.312
X4.345 Y15.417
X4.233 Y15.517
X4.117 Y15.613
X3.998 Y15.703
X3.874 Y15.787
X3.747 Y15.867
X3.616 Y15.941
X3.482 Y16.009
X3.346 Y16.071
X3.207 Y16.127
X3.065 Y16.178
X2.922 Y16.222
X2.777 Y16.26
X2.63 Y16.291
X2.482 Y16.316
X2.334 Y16.335
X2.184 Y16.347
X2.034 Y16.353
X1.884 Y16.352
X1.734 Y16.345
X1.585 Y16.332
X1.436 Y16.312
X1.289 Y16.286
X1.142 Y16.254
X0.997 Y16.215
X0.854 Y16.171
X0.713 Y16.12
X0.574 Y16.064
X0.437 Y16.001
X0.304 Y15.933
X0.173 Y15.859
X0.046 Y15.78
X-0.078 Y15.695
X-0.198 Y15.605
X-0.314 Y15.511
X-0.427 Y15.411
X-0.534 Y15.307
X-0.638 Y15.198
X-0.736 Y15.085
X-0.83 Y14.968
X-0.919 Y14.847
X-1.003 Y14.723
X-1.081 Y14.595
X-1.154 Y14.464
X-1.222 Y14.33
X-1.283 Y14.193
X-1.339 Y14.054
X-1.389 Y13.912
X-1.433 Y13.769
X-1.47 Y13.624
X-1.502 Y13.477
X-1.527 Y13.329
X-1.546 Y13.18
X-1.559 Y13.031
X-1.566 Y12.881
Y12.731
X-1.56 Y12.581
X-1.548 Y12.432
X-1.53 Y12.283
X-1.505 Y12.135
X-1.474 Y11.988
X-1.437 Y11.843
X-1.394 Y11.699
X-1.344 Y11.557
X-1.289 Y11.418
X-1.228 Y11.281
X-1.161 Y11.147
X-1.089 Y11.015
X-1.011 Y10.887
X-0.928 Y10.762
X-0.84 Y10.641
X-0.746 Y10.523
X-0.648 Y10.41
X-0.546 Y10.301
X-0.438 Y10.196
X-0.327 Y10.095
X-0.211 Y10
X-0.092 Y9.909
X0.032 Y9.824
X0.159 Y9.744
X0.289 Y9.669
X0.422 Y9.6
X0.558 Y9.537
X0.696 Y9.479
X0.837 Y9.427
X0.98 Y9.382
X1.125 Y9.342
X1.271 Y9.308
X1.418 Y9.28
X1.567 Y9.259
X1.716 Y9.244
X1.866 Y9.235
X2.016 Y9.232
X2.165 Y9.236
X2.315 Y9.246
X2.464 Y9.262
X2.613 Y9.285
X2.76 Y9.314
X2.906 Y9.349
X3.05 Y9.39
X3.192 Y9.437
X3.333 Y9.49
X3.471 Y9.548
X3.606 Y9.613
X3.739 Y9.682
X3.869 Y9.758
X3.995 Y9.838
X4.119 Y9.924
X4.238 Y10.014
X4.354 Y10.109
X4.466 Y10.209
X4.574 Y10.314
X4.677 Y10.423
X4.776 Y10.536
X4.87 Y10.652
X4.959 Y10.773
X5.043 Y10.897
X5.123 Y11.024
X5.197 Y11.155
X5.266 Y11.288
X5.329 Y11.424
X5.387 Y11.562
X5.44 Y11.703
X5.486 Y11.845
X5.527 Y11.989
X5.562 Y12.135
X5.592 Y12.282
X5.615 Y12.431
X5.632 Y12.58
X5.643 Y12.729
X5.647 Y12.879
X5.646 Y13.029
X5.639 Y13.179
X5.625 Y13.328
X5.605 Y13.477
X5.58 Y13.625
X5.548 Y13.771
X5.51 Y13.917
X5.467 Y14.06
X5.417 Y14.202
X5.362 Y14.341
X5.301 Y14.478
X5.235 Y14.613
X5.163 Y14.744
X5.085 Y14.873
X5.003 Y14.998
X4.915 Y15.12
X4.822 Y15.238
X4.725 Y15.352
X4.623 Y15.461
X4.516 Y15.567
X4.405 Y15.668
X4.29 Y15.765
X4.172 Y15.856
X4.05 Y15.943
X3.924 Y16.025
X3.795 Y16.102
X3.663 Y16.173
X3.528 Y16.239
X3.391 Y16.299
X3.251 Y16.354
X3.109 Y16.403
X2.966 Y16.446
X2.82 Y16.483
X2.674 Y16.514
X2.526 Y16.54
X2.377 Y16.559
X2.228 Y16.572
X2.078 Y16.58
X1.928 Y16.581
X1.778 Y16.576
X1.628 Y16.565
X1.479 Y16.549
X1.331 Y16.526
X1.184 Y16.498
X1.038 Y16.463
X0.893 Y16.423
X0.75 Y16.377
X0.609 Y16.325
X0.471 Y16.268
X0.335 Y16.205
X0.201 Y16.137
X0.07 Y16.064
X-0.058 Y15.985
X-0.182 Y15.901
X-0.303 Y15.813
X-0.421 Y15.72
X-0.535 Y15.622
X-0.644 Y15.52
X-0.75 Y15.413
X-0.851 Y15.303
X-0.948 Y15.188
X-1.041 Y15.07
X-1.128 Y14.948
X-1.211 Y14.823
X-1.288 Y14.695
X-1.361 Y14.563
X-1.428 Y14.429
X-1.49 Y14.292
X-1.546 Y14.153
X-1.597 Y14.012
X-1.642 Y13.869
X-1.681 Y13.724
X-1.715 Y13.578
X-1.743 Y13.431
X-1.765 Y13.283
X-1.781 Y13.133
X-1.792 Y12.984
X-1.796 Y12.834
X-1.794 Y12.684
X-1.787 Y12.534
X-1.773 Y12.385
X-1.754 Y12.236
X-1.729 Y12.088
X-1.698 Y11.941
X-1.661 Y11.796
X-1.619 Y11.652
X-1.57 Y11.51
X-1.517 Y11.37
X-1.457 Y11.232
X-1.393 Y11.097
X-1.323 Y10.964
X-1.248 Y10.834
X-1.168 Y10.707
X-1.083 Y10.584
X-0.993 Y10.464
X-0.898 Y10.347
X-0.799 Y10.235
X-0.695 Y10.126
X-0.588 Y10.022
X-0.476 Y9.922
X-0.36 Y9.826
X-0.241 Y9.735
X-0.118 Y9.649
X0.008 Y9.568
X0.137 Y9.492
X0.269 Y9.421
X0.404 Y9.355
X0.541 Y9.295
X0.681 Y9.24
X0.823 Y9.19
X0.966 Y9.147
X1.111 Y9.109
X1.258 Y9.077
X1.405 Y9.05
X1.554 Y9.03
X1.703 Y9.015
X1.853 Y9.006
X2.003 Y9.003
X2.153 Y9.006
X2.303 Y9.015
X2.452 Y9.03
X2.601 Y9.051
X2.748 Y9.077
X2.895 Y9.11
X3.04 Y9.148
X3.183 Y9.191
X3.325 Y9.241
X3.465 Y9.295
X3.602 Y9.356
X3.737 Y9.421
X3.869 Y9.492
X3.999 Y9.567
X4.125 Y9.648
X4.248 Y9.734
X4.368 Y9.824
X4.485 Y9.918
X4.597 Y10.018
X4.706 Y10.121
X4.811 Y10.228
X4.911 Y10.34
X5.008 Y10.455
X5.099 Y10.573
X5.187 Y10.695
X5.269 Y10.821
X5.347 Y10.949
X5.419 Y11.08
X5.487 Y11.214
X5.55 Y11.35
X5.607 Y11.489
X5.659 Y11.63
X5.706 Y11.772
X5.747 Y11.916
X5.783 Y12.062
X5.813 Y12.209
X5.837 Y12.357
X5.856 Y12.506
X5.869 Y12.655
X5.877 Y12.805
X5.878 Y12.955
X5.874 Y13.105
X5.864 Y13.255
X5.849 Y13.404
X5.827 Y13.552
X5.8 Y13.7
X5.767 Y13.846
X5.729 Y13.991
X5.685 Y14.135
X5.635 Y14.276
X5.58 Y14.416
X5.52 Y14.553
X5.455 Y14.688
X5.384 Y14.82
X5.308 Y14.95
X5.227 Y15.076
X5.142 Y15.199
X5.052 Y15.319
X4.957 Y15.435
X4.857 Y15.548
X4.754 Y15.656
X4.646 Y15.761
X4.535 Y15.861
X4.419 Y15.957
X4.3 Y16.048
X4.178 Y16.135
X4.052 Y16.217
X3.923 Y16.294
X3.792 Y16.366
X3.657 Y16.433
X3.521 Y16.494
X3.382 Y16.551
X3.241 Y16.602
X3.098 Y16.648
X2.953 Y16.688
X2.807 Y16.723
X2.66 Y16.752
X2.512 Y16.775
X2.363 Y16.793
X2.214 Y16.805
X2.064 Y16.811
X1.914 Y16.812
X1.764 Y16.807
X1.614 Y16.796
X1.465 Y16.78
X1.317 Y16.758
X1.169 Y16.731
X1.023 Y16.698
X0.878 Y16.659
X0.734 Y16.616
X0.593 Y16.566
X0.453 Y16.512
X0.315 Y16.452
X0.18 Y16.387
X0.047 Y16.317
X-0.082 Y16.242
X-0.21 Y16.163
X-0.334 Y16.078
X-0.454 Y15.989
X-0.572 Y15.896
X-0.685 Y15.798
X-0.795 Y15.696
X-0.902 Y15.59
X-1.004 Y15.48
X-1.102 Y15.367
X-1.195 Y15.249
X-1.284 Y15.129
X-1.369 Y15.005
X-1.449 Y14.878
X-1.524 Y14.748
X-1.595 Y14.616
X-1.66 Y14.481
X-1.72 Y14.343
X-1.775 Y14.204
X-1.825 Y14.062
X-1.869 Y13.919
X-1.908 Y13.774
X-1.942 Y13.628
X-1.97 Y13.481
X-1.992 Y13.332
X-2.009 Y13.183
X-2.021 Y13.034
X-2.027 Y12.884
Y12.734
X-2.022 Y12.584
X-2.012 Y12.434
X-1.995 Y12.285
X-1.973 Y12.137
X-1.946 Y11.989
X-1.913 Y11.843
X-1.875 Y11.698
X-1.831 Y11.554
X-1.782 Y11.413
X-1.728 Y11.273
X-1.668 Y11.135
X-1.604 Y11
X-1.534 Y10.867
X-1.46 Y10.737
X-1.381 Y10.609
X-1.297 Y10.485
X-1.208 Y10.364
X-1.115 Y10.246
X-1.018 Y10.132
X-0.917 Y10.021
X-0.811 Y9.914
X-0.702 Y9.812
X-0.589 Y9.713
X-0.472 Y9.619
X-0.352 Y9.529
X-0.229 Y9.444
X-0.102 Y9.363
X0.027 Y9.287
X0.159 Y9.216
X0.294 Y9.15
X0.431 Y9.09
X0.57 Y9.034
X0.712 Y8.983
X0.855 Y8.938
X0.999 Y8.898
X1.145 Y8.863
X1.292 Y8.834
X1.44 Y8.81
X1.589 Y8.792
X1.739 Y8.779
X1.888 Y8.773
X2.038 Y8.771
X2.188 Y8.775
X2.338 Y8.785
X2.487 Y8.801
X2.636 Y8.821
X2.784 Y8.848
X2.93 Y8.879
X3.075 Y8.917
X3.219 Y8.959
X3.362 Y9.007
X3.502 Y9.06
X3.64 Y9.118
X3.776 Y9.181
X3.91 Y9.249
X4.041 Y9.322
X4.17 Y9.399
X4.295 Y9.481
X4.417 Y9.568
X4.537 Y9.659
X4.652 Y9.755
X4.765 Y9.854
X4.873 Y9.958
X4.978 Y10.065
X5.079 Y10.176
X5.175 Y10.291
X5.268 Y10.409
X5.356 Y10.53
X5.44 Y10.654
X5.519 Y10.782
X5.594 Y10.912
X5.664 Y11.044
X5.729 Y11.179
X5.79 Y11.317
X5.845 Y11.456
X5.896 Y11.597
X5.941 Y11.741
X5.981 Y11.885
X6.015 Y12.031
X6.045 Y12.178
X6.069 Y12.326
X6.088 Y12.475
X6.101 Y12.624
X6.109 Y12.774
X6.112 Y12.924
X6.109 Y13.074
X6.101 Y13.224
X6.087 Y13.373
X6.068 Y13.522
X6.043 Y13.67
X6.014 Y13.817
X5.978 Y13.963
X5.938 Y14.107
X5.892 Y14.25
X5.841 Y14.391
X5.785 Y14.53
X5.724 Y14.667
X5.658 Y14.802
X5.587 Y14.934
X5.512 Y15.064
X5.431 Y15.19
X5.346 Y15.314
X5.257 Y15.435
X5.163 Y15.552
X5.065 Y15.665
X4.963 Y15.775
X4.857 Y15.882
X4.748 Y15.984
X4.634 Y16.082
X4.518 Y16.176
X4.397 Y16.266
X4.274 Y16.351
X4.148 Y16.432
X4.018 Y16.508
X3.886 Y16.58
X3.752 Y16.646
X3.615 Y16.708
X3.476 Y16.765
X3.336 Y16.816
X3.193 Y16.863
X3.049 Y16.904
X2.903 Y16.94
X2.757 Y16.971
X2.609 Y16.997
X2.46 Y17.017
X2.311 Y17.032
X2.161 Y17.042
X2.011 Y17.046
X1.861 Y17.045
X1.711 Y17.039
X1.562 Y17.027
X1.413 Y17.009
X1.265 Y16.987
X1.117 Y16.959
X0.971 Y16.926
X0.826 Y16.888
X0.682 Y16.845
X0.54 Y16.796
X0.4 Y16.743
X0.262 Y16.685
X0.126 Y16.622
X-0.008 Y16.554
X-0.139 Y16.481
X-0.268 Y16.404
X-0.394 Y16.322
X-0.516 Y16.236
X-0.636 Y16.145
X-0.752 Y16.051
X-0.865 Y15.952
X-0.975 Y15.849
X-1.08 Y15.743
X-1.182 Y15.633
X-1.28 Y15.519
X-1.374 Y15.402
X-1.464 Y15.282
X-1.549 Y15.158
X-1.63 Y15.032
X-1.706 Y14.903
X-1.778 Y14.771
X-1.845 Y14.637
X-1.908 Y14.501
X-1.965 Y14.362
X-2.018 Y14.222
X-2.066 Y14.08
X-2.108 Y13.936
X-2.146 Y13.791
X-2.178 Y13.644
X-2.205 Y13.497
X-2.227 Y13.348
X-2.244 Y13.199
X-2.255 Y13.05
X-2.262 Y12.9
X-2.263 Y12.75
X-2.258 Y12.6
X-2.249 Y12.45
X-2.234 Y12.301
X-2.214 Y12.152
X-2.188 Y12.004
X-2.158 Y11.858
X-2.122 Y11.712
X-2.081 Y11.567
X-2.035 Y11.425
X-1.985 Y11.284
X-1.929 Y11.144
X-1.868 Y11.007
X-1.803 Y10.872
X-1.732 Y10.74
X-1.658 Y10.61
X-1.578 Y10.482
X-1.495 Y10.358
X-1.406 Y10.236
X-1.314 Y10.118
X-1.218 Y10.003
X-1.117 Y9.892
X-1.013 Y9.784
X-0.905 Y9.68
X-0.794 Y9.579
X-0.679 Y9.483
X-0.561 Y9.391
X-0.439 Y9.303
X-0.315 Y9.219
X-0.187 Y9.14
X-0.057 Y9.065
X0.076 Y8.995
X0.211 Y8.93
X0.348 Y8.87
X0.487 Y8.814
X0.628 Y8.763
X0.771 Y8.717
X0.916 Y8.677
X1.061 Y8.641
X1.208 Y8.611
X1.356 Y8.585
X1.505 Y8.565
X1.654 Y8.55
X1.804 Y8.541
X1.954 Y8.536
X2.104 Y8.537
X2.253 Y8.543
X2.403 Y8.555
X2.552 Y8.572
X2.7 Y8.594
X2.848 Y8.621
X2.994 Y8.653
X3.14 Y8.69
X3.284 Y8.733
X3.426 Y8.78
X3.567 Y8.832
X3.705 Y8.889
X3.842 Y8.951
X3.976 Y9.018
X4.108 Y9.089
X4.238 Y9.164
X4.365 Y9.245
X4.489 Y9.329
X4.61 Y9.417
X4.728 Y9.51
X4.843 Y9.607
X4.954 Y9.707
X5.062 Y9.812
X5.166 Y9.92
X5.266 Y10.031
X5.362 Y10.146
X5.455 Y10.264
X5.543 Y10.385
X5.628 Y10.509
X5.708 Y10.636
X5.784 Y10.766
X5.855 Y10.898
X5.921 Y11.032
X5.984 Y11.169
X6.041 Y11.307
X6.094 Y11.448
X6.142 Y11.59
X6.185 Y11.733
X6.223 Y11.879
X6.256 Y12.025
X6.284 Y12.172
X6.307 Y12.32
X6.325 Y12.469
X6.338 Y12.619
X6.346 Y12.769
X6.348 Y12.919
X6.345 Y13.069
X6.338 Y13.218
X6.325 Y13.368
X6.307 Y13.517
X6.284 Y13.665
X6.256 Y13.812
X6.223 Y13.959
X6.185 Y14.104
X6.142 Y14.247
X6.094 Y14.389
X6.041 Y14.53
X5.983 Y14.668
X5.92 Y14.805
X5.853 Y14.939
X5.781 Y15.07
X5.705 Y15.2
X5.624 Y15.326
X5.539 Y15.45
X5.45 Y15.57
X5.357 Y15.688
X5.26 Y15.802
X5.158 Y15.912
X5.053 Y16.02
X4.945 Y16.123
X4.833 Y16.223
X4.718 Y16.319
X4.599 Y16.411
X4.477 Y16.498
X4.353 Y16.582
X4.225 Y16.661
X4.095 Y16.736
X3.963 Y16.806
X3.828 Y16.872
X3.691 Y16.933
X3.552 Y16.989
X3.411 Y17.04
X3.268 Y17.087
X3.124 Y17.129
X2.979 Y17.165
X2.832 Y17.197
X2.685 Y17.224
X2.536 Y17.246
X2.387 Y17.263
X2.238 Y17.275
X2.088 Y17.281
X1.938 Y17.283
X1.788 Y17.279
X1.638 Y17.271
X1.489 Y17.257
X1.34 Y17.239
X1.192 Y17.215
X1.044 Y17.186
X0.898 Y17.153
X0.753 Y17.114
X0.61 Y17.07
X0.468 Y17.022
X0.327 Y16.969
X0.189 Y16.912
X0.052 Y16.849
X-0.082 Y16.782
X-0.214 Y16.711
X-0.343 Y16.636
X-0.47 Y16.556
X-0.594 Y16.471
X-0.716 Y16.383
X-0.834 Y16.291
X-0.949 Y16.195
X-1.061 Y16.095
X-1.169 Y15.991
X-1.274 Y15.884
X-1.375 Y15.773
X-1.473 Y15.659
X-1.566 Y15.542
X-1.656 Y15.421
X-1.741 Y15.298
X-1.823 Y15.172
X-1.9 Y15.043
X-1.972 Y14.912
X-2.041 Y14.779
X-2.104 Y14.643
X-2.164 Y14.505
X-2.218 Y14.365
X-2.268 Y14.224
X-2.314 Y14.081
X-2.354 Y13.936
X-2.39 Y13.791
X-2.42 Y13.644
X-2.446 Y13.496
X-2.467 Y13.348
X-2.483 Y13.198
X-2.493 Y13.049
X-2.499 Y12.899
X-2.5 Y12.749
X-2.496 Y12.599
X-2.487 Y12.449
X-2.473 Y12.3
X-2.453 Y12.151
X-2.429 Y12.003
X-2.4 Y11.856
X-2.367 Y11.71
X-2.328 Y11.565
X-2.284 Y11.421
X-2.236 Y11.279
X-2.183 Y11.139
X-2.126 Y11
X-2.063 Y10.864
X-1.997 Y10.73
X-1.925 Y10.598
X-1.85 Y10.468
X-1.77 Y10.341
X-1.686 Y10.217
X-1.598 Y10.095
X-1.506 Y9.977
X-1.41 Y9.862
X-1.31 Y9.75
X-1.206 Y9.641
X-1.099 Y9.536
X-0.989 Y9.435
X-0.875 Y9.337
X-0.758 Y9.243
X-0.638 Y9.153
X-0.515 Y9.067
X-0.389 Y8.985
X-0.261 Y8.908
X-0.13 Y8.835
X0.003 Y8.766
X0.139 Y8.702
X0.276 Y8.642
X0.416 Y8.587
X0.557 Y8.536
X0.7 Y8.491
X0.844 Y8.45
X0.99 Y8.414
X1.137 Y8.383
X1.284 Y8.356
X1.433 Y8.335
X1.582 Y8.318
X1.732 Y8.307
X1.881 Y8.3
X2.031 Y8.299
X2.181 Y8.302
X2.331 Y8.31
X2.48 Y8.324
X2.629 Y8.342
X2.778 Y8.365
X2.925 Y8.394
X3.071 Y8.427
X3.216 Y8.465
X3.36 Y8.507
X3.502 Y8.555
X3.643 Y8.607
X3.782 Y8.663
X3.919 Y8.724
X4.054 Y8.79
X4.187 Y8.86
X4.317 Y8.934
X4.445 Y9.013
X4.57 Y9.095
X4.692 Y9.182
X4.812 Y9.272
X4.929 Y9.367
X5.042 Y9.465
X5.152 Y9.567
X5.259 Y9.672
X5.362 Y9.781
X5.462 Y9.893
X5.558 Y10.008
X5.65 Y10.126
X5.739 Y10.247
X5.823 Y10.371
X5.904 Y10.498
X5.98 Y10.627
X6.052 Y10.759
X6.12 Y10.893
X6.183 Y11.029
X6.242 Y11.167
X6.297 Y11.306
X6.347 Y11.448
X6.392 Y11.591
X6.433 Y11.735
X6.469 Y11.881
X6.5 Y12.027
X6.527 Y12.175
X6.549 Y12.323
X6.566 Y12.472
X6.578 Y12.622
X6.585 Y12.772
X6.587 Y12.922
X6.584 Y13.072
X6.577 Y13.221
X6.565 Y13.371
X6.547 Y13.52
X6.525 Y13.668
X6.499 Y13.816
X6.467 Y13.963
X6.431 Y14.108
X6.39 Y14.252
X6.344 Y14.395
X6.294 Y14.537
X6.239 Y14.676
X6.179 Y14.814
X6.115 Y14.949
X6.047 Y15.083
X5.974 Y15.214
X5.897 Y15.343
X5.816 Y15.469
X5.731 Y15.592
X5.641 Y15.713
X5.548 Y15.83
X5.451 Y15.945
X5.351 Y16.056
X5.246 Y16.164
X5.139 Y16.269
X5.028 Y16.37
X4.914 Y16.467
X4.796 Y16.56
X4.676 Y16.65
X4.553 Y16.736
X4.427 Y16.817
X4.299 Y16.895
X4.168 Y16.968
X4.035 Y17.037
X3.899 Y17.102
X3.762 Y17.162
X3.623 Y17.218
X3.482 Y17.269
X3.339 Y17.315
X3.195 Y17.357
X3.05 Y17.394
X2.903 Y17.427
X2.756 Y17.454
X2.608 Y17.478
X2.459 Y17.496
X2.309 Y17.509
X2.159 Y17.518
X2.01 Y17.522
X1.86 Y17.521
X1.71 Y17.515
X1.56 Y17.505
X1.411 Y17.489
X1.262 Y17.469
X1.114 Y17.444
X0.967 Y17.415
X0.821 Y17.38
X0.676 Y17.341
X0.533 Y17.297
X0.391 Y17.249
X0.25 Y17.196
X0.112 Y17.139
X-0.025 Y17.078
X-0.16 Y17.012
X-0.292 Y16.942
X-0.423 Y16.867
X-0.551 Y16.789
X-0.676 Y16.706
X-0.798 Y16.62
X-0.918 Y16.53
X-1.035 Y16.436
X-1.149 Y16.338
X-1.26 Y16.237
X-1.367 Y16.132
X-1.471 Y16.024
X-1.572 Y15.913
X-1.669 Y15.798
X-1.762 Y15.681
X-1.851 Y15.56
X-1.937 Y15.437
X-2.018 Y15.311
X-2.096 Y15.183
X-2.169 Y15.052
X-2.239 Y14.919
X-2.304 Y14.784
X-2.364 Y14.647
X-2.421 Y14.508
X-2.473 Y14.367
X-2.52 Y14.225
X-2.563 Y14.081
X-2.602 Y13.936
X-2.635 Y13.79
X-2.665 Y13.643
X-2.689 Y13.495
X-2.709 Y13.346
X-2.724 Y13.197
X-2.734 Y13.047
X-2.739 Y12.897
X-2.74 Y12.747
X-2.736 Y12.597
X-2.727 Y12.448
X-2.714 Y12.298
X-2.695 Y12.149
X-2.673 Y12.001
X-2.645 Y11.854
X-2.613 Y11.707
X-2.576 Y11.562
X-2.534 Y11.418
X-2.489 Y11.275
X-2.438 Y11.133
X-2.383 Y10.994
X-2.324 Y10.856
X-2.26 Y10.72
X-2.193 Y10.586
X-2.121 Y10.455
X-2.044 Y10.326
X-1.964 Y10.199
X-1.88 Y10.075
X-1.791 Y9.954
X-1.699 Y9.835
X-1.604 Y9.72
X-1.504 Y9.607
X-1.402 Y9.498
X-1.296 Y9.392
X-1.186 Y9.289
X-1.073 Y9.19
X-0.958 Y9.095
X-0.839 Y9.003
X-0.718 Y8.915
X-0.593 Y8.831
X-0.467 Y8.751
X-0.337 Y8.675
X-0.206 Y8.603
X-0.072 Y8.535
X0.064 Y8.472
X0.202 Y8.413
X0.342 Y8.358
X0.483 Y8.308
X0.626 Y8.262
X0.77 Y8.221
X0.916 Y8.185
X1.062 Y8.153
X1.21 Y8.125
X1.358 Y8.103
X1.507 Y8.085
X1.656 Y8.071
X1.806 Y8.063
X1.956 Y8.059
X2.106 Y8.06
X2.256 Y8.065
X2.406 Y8.075
X2.555 Y8.09
X2.704 Y8.11
X2.852 Y8.134
X2.999 Y8.164
X3.145 Y8.197
X3.29 Y8.235
X3.434 Y8.278
X3.576 Y8.326
X3.718 Y8.377
X3.857 Y8.434
X3.996 Y8.495
X4.132 Y8.56
X4.267 Y8.63
X4.399 Y8.703
X4.529 Y8.781
X4.657 Y8.863
X4.782 Y8.949
X4.904 Y9.039
X5.024 Y9.133
X5.14 Y9.23
X5.254 Y9.331
X5.364 Y9.436
X5.471 Y9.544
X5.575 Y9.656
X5.675 Y9.77
X5.771 Y9.888
X5.864 Y10.009
X5.953 Y10.133
X6.038 Y10.259
X6.12 Y10.388
X6.197 Y10.52
X6.27 Y10.654
X6.339 Y10.791
X6.404 Y10.93
X6.464 Y11.07
X6.52 Y11.213
X6.571 Y11.357
X6.618 Y11.502
X6.66 Y11.649
X6.697 Y11.796
X6.73 Y11.945
X6.758 Y12.095
X6.781 Y12.245
X6.8 Y12.396
X6.814 Y12.548
X6.823 Y12.7
X6.828 Y12.852
X6.827 Y13.005
X6.822 Y13.157
X6.812 Y13.309
X6.798 Y13.461
X6.778 Y13.612
X6.754 Y13.762
X6.726 Y13.911
X6.692 Y14.059
X6.655 Y14.205
X6.612 Y14.35
X6.566 Y14.493
X6.514 Y14.635
X6.478 Y14.723
X6.458 Y14.767
X6.436 Y14.811
X6.189 Y15.282
X6.186 Y15.288
X6.163 Y15.332
X6.051 Y15.522
X6.024 Y15.564
X5.983 Y15.625
X5.938 Y15.685
X5.89 Y15.741
G3 X5.394 Y15.347 I-0.231 J-0.219
G1 X5.61 Y15.019
G3 X6.163 Y15.332 I0.266 J0.175
G1 X6.043 Y15.559
X6.03 Y15.58
X5.897 Y15.734
X5.386 Y16.31
X5.364 Y16.335
X5.336 Y16.367
X5.23 Y16.476
G3 X4.807 Y16.008 I-0.181 J-0.261
G1 X4.849 Y15.958
G3 X5.336 Y16.367 I0.242 J0.207
G1 X5.255 Y16.456
X5.167 Y16.522
X4.416 Y17.041
X4.292 Y17.125
X4.146 Y17.187
X3.27 Y17.519
X3.197 Y17.546
X3.161 Y17.555
X3.124 Y17.562
X2.03 Y17.694
X1.993 Y17.695
X1.957 Y17.693
X0.862 Y17.56
X0.826 Y17.553
X0.789 Y17.541
X-0.232 Y17.154
X-0.269 Y17.138
X-0.305 Y17.117
X-1.108 Y16.563
X-1.254 Y16.456
X-1.4 Y16.296
X-1.983 Y15.637
X-2.03 Y15.58
X-2.109 Y15.434
X-2.567 Y14.561
X-2.611 Y14.412
X-2.827 Y13.536
X-2.859 Y13.397
X-2.86 Y13.39
X-2.863 Y13.244
Y12.367
X-2.861 Y12.221
X-2.859 Y12.204
X-2.829 Y12.075
X-2.613 Y11.199
X-2.573 Y11.053
X-2.567 Y11.039
X-2.115 Y10.177
X-2.036 Y10.031
X-1.983 Y9.963
X-1.266 Y9.154
X-1.254 Y9.142
X-1.108 Y9.037
X-0.305 Y8.483
X-0.269 Y8.462
X-0.232 Y8.446
X0.789 Y8.059
X0.826 Y8.048
X0.862 Y8.04
X1.957 Y7.907
X1.993 Y7.905
X2.03 Y7.906
X3.124 Y8.038
X3.161 Y8.045
X3.197 Y8.054
X3.562 Y8.192
X4.174 Y8.424
X4.292 Y8.475
X4.438 Y8.574
X5.167 Y9.078
X5.265 Y9.154
X5.313 Y9.207
X6.01 Y9.994
X6.036 Y10.031
X6.043 Y10.042
X6.191 Y10.323
X6.498 Y10.907
X6.573 Y11.053
X6.613 Y11.199
X6.829 Y12.075
X6.861 Y12.221
X6.863 Y12.367
Y13.244
X6.86 Y13.39
X6.827 Y13.536
X6.611 Y14.412
X6.568 Y14.558
X6.436 Y14.811
G3 X6.031 Y14.944 I-0.276 J-0.158
G1 X5.988 Y14.911 Z-2.495
X5.947 Y14.878 Z-2.481
X5.908 Y14.848 Z-2.458
X5.889 Y14.803 Z-2.423
X5.872 Y14.765 Z-2.379
X5.859 Y14.735 Z-2.328
X5.85 Y14.714 Z-2.272
X5.846 Y14.704 Z-2.213
Y14.702 Z-2.182
G0 Z5
X1.402 Y11.413
Z0
G3 X2.598 Y14.187 Z-0.166 I0.598 J1.387 F283.3
X1.402 Y11.413 Z-0.331 I-0.598 J-1.387
X2.598 Y14.187 Z-0.497 I0.598 J1.387
X1.402 Y11.413 Z-0.663 I-0.598 J-1.387
X2.598 Y14.187 Z-0.829 I0.598 J1.387
X1.402 Y11.413 Z-0.994 I-0.598 J-1.387
X2.598 Y14.187 Z-1.16 I0.598 J1.387
X1.402 Y11.413 Z-1.326 I-0.598 J-1.387
X2.598 Y14.187 Z-1.491 I0.598 J1.387
X1.402 Y11.413 Z-1.657 I-0.598 J-1.387
X2.598 Y14.187 Z-1.823 I0.598 J1.387
X1.402 Y11.413 Z-1.989 I-0.598 J-1.387
X2.598 Y14.187 Z-2.154 I0.598 J1.387
X1.402 Y11.413 Z-2.32 I-0.598 J-1.387
X2.598 Y14.187 Z-2.486 I0.598 J1.387
X1.402 Y11.413 Z-2.651 I-0.598 J-1.387
X2.598 Y14.187 Z-2.817 I0.598 J1.387
X1.402 Y11.413 Z-2.983 I-0.598 J-1.387
X2.598 Y14.187 Z-3.149 I0.598 J1.387
X1.402 Y11.413 Z-3.314 I-0.598 J-1.387
X2.598 Y14.187 Z-3.48 I0.598 J1.387
X1.402 Y11.413 Z-3.646 I-0.598 J-1.387
X3.511 Y12.8 Z-3.75 I0.598 J1.387
X0.49 I-1.511
X3.511 I1.511
G1 X3.521 Y13.183 F850
X3.52 Y13.333
X3.488 Y13.48
X3.435 Y13.62
X3.364 Y13.752
X3.279 Y13.876
X3.182 Y13.99
X3.074 Y14.094
X2.956 Y14.187
X2.83 Y14.268
X2.697 Y14.337
X2.558 Y14.394
X2.414 Y14.438
X2.268 Y14.469
X2.119 Y14.487
X1.969 Y14.491
X1.819 Y14.482
X1.671 Y14.459
X1.525 Y14.423
X1.383 Y14.375
X1.246 Y14.314
X1.115 Y14.242
X0.99 Y14.158
X0.874 Y14.063
X0.767 Y13.958
X0.669 Y13.844
X0.582 Y13.722
X0.506 Y13.593
X0.441 Y13.458
X0.389 Y13.317
X0.35 Y13.172
X0.323 Y13.025
X0.31 Y12.875
Y12.725
X0.323 Y12.576
X0.349 Y12.428
X0.389 Y12.283
X0.441 Y12.143
X0.505 Y12.007
X0.581 Y11.878
X0.668 Y11.756
X0.766 Y11.642
X0.873 Y11.537
X0.99 Y11.443
X1.114 Y11.358
X1.245 Y11.286
X1.382 Y11.225
X1.524 Y11.176
X1.67 Y11.14
X1.818 Y11.118
X1.967 Y11.108
X2.117 Y11.112
X2.266 Y11.129
X2.413 Y11.159
X2.557 Y11.202
X2.696 Y11.258
X2.83 Y11.325
X2.958 Y11.405
X3.077 Y11.495
X3.189 Y11.595
X3.291 Y11.705
X3.383 Y11.824
X3.463 Y11.95
X3.533 Y12.083
X3.59 Y12.222
X3.635 Y12.365
X3.67 Y12.511
X3.698 Y12.658
X3.72 Y12.807
X3.732 Y12.956
X3.733 Y13.106
X3.72 Y13.256
X3.692 Y13.403
X3.651 Y13.547
X3.595 Y13.687
X3.527 Y13.82
X3.446 Y13.946
X3.353 Y14.064
X3.251 Y14.174
X3.139 Y14.274
X3.019 Y14.363
X2.891 Y14.442
X2.757 Y14.511
X2.619 Y14.567
X2.476 Y14.612
X2.329 Y14.646
X2.181 Y14.667
X2.031 Y14.677
X1.881 Y14.674
X1.732 Y14.659
X1.584 Y14.632
X1.439 Y14.593
X1.298 Y14.543
X1.161 Y14.481
X1.03 Y14.409
X0.905 Y14.326
X0.786 Y14.234
X0.676 Y14.133
X0.573 Y14.023
X0.48 Y13.906
X0.397 Y13.781
X0.324 Y13.65
X0.261 Y13.514
X0.21 Y13.373
X0.17 Y13.228
X0.142 Y13.081
X0.125 Y12.932
X0.121 Y12.782
X0.128 Y12.632
X0.147 Y12.483
X0.178 Y12.336
X0.221 Y12.193
X0.275 Y12.053
X0.341 Y11.918
X0.416 Y11.788
X0.502 Y11.665
X0.597 Y11.549
X0.701 Y11.441
X0.814 Y11.342
X0.934 Y11.252
X1.06 Y11.172
X1.193 Y11.102
X1.331 Y11.043
X1.474 Y10.996
X1.619 Y10.96
X1.767 Y10.935
X1.917 Y10.922
X2.067 Y10.921
X2.216 Y10.933
X2.364 Y10.956
X2.51 Y10.99
X2.653 Y11.037
X2.791 Y11.095
X2.925 Y11.164
X3.052 Y11.243
X3.173 Y11.332
X3.286 Y11.43
X3.392 Y11.537
X3.488 Y11.651
X3.575 Y11.774
X3.652 Y11.902
X3.719 Y12.037
X3.776 Y12.175
X3.826 Y12.317
X3.866 Y12.461
X3.898 Y12.608
X3.919 Y12.756
X3.931 Y12.906
Y13.056
X3.92 Y13.206
X3.897 Y13.354
X3.862 Y13.5
X3.815 Y13.642
X3.756 Y13.78
X3.687 Y13.913
X3.606 Y14.039
X3.516 Y14.159
X3.416 Y14.271
X3.308 Y14.375
X3.192 Y14.47
X3.069 Y14.556
X2.939 Y14.632
X2.805 Y14.698
X2.665 Y14.753
X2.522 Y14.798
X2.376 Y14.832
X2.228 Y14.855
X2.078 Y14.867
X1.928 Y14.868
X1.778 Y14.858
X1.63 Y14.837
X1.483 Y14.806
X1.339 Y14.764
X1.199 Y14.711
X1.063 Y14.648
X0.931 Y14.575
X0.806 Y14.493
X0.686 Y14.403
X0.574 Y14.304
X0.469 Y14.197
X0.371 Y14.082
X0.283 Y13.961
X0.203 Y13.834
X0.133 Y13.702
X0.073 Y13.564
X0.023 Y13.423
X-0.017 Y13.278
X-0.046 Y13.131
X-0.065 Y12.982
X-0.073 Y12.832
X-0.07 Y12.682
X-0.056 Y12.533
X-0.032 Y12.385
X0.004 Y12.239
X0.049 Y12.096
X0.106 Y11.957
X0.172 Y11.823
X0.247 Y11.693
X0.332 Y11.569
X0.425 Y11.452
X0.527 Y11.341
X0.636 Y11.239
X0.752 Y11.144
X0.875 Y11.058
X1.004 Y10.981
X1.138 Y10.914
X1.277 Y10.857
X1.419 Y10.81
X1.565 Y10.773
X1.712 Y10.747
X1.862 Y10.732
X2.012 Y10.727
