%
(1001)
(origin stock top outer edge centre)
(T1  D=3.18 CR=0 - ZMIN=-6.6 - flat end mill)
G90 G94
G17
G21

(adaptive_roughing 3)
M9
T1 M6
S6000 M3
G54
M8
G0 X-10.098 Y30.913
Z15
Z5
Z2.5
G3 X-8.902 Y33.687 Z2.334 I0.598 J1.387 F283.3
X-10.098 Y30.913 Z2.169 I-0.598 J-1.387
X-8.902 Y33.687 Z2.003 I0.598 J1.387
X-10.098 Y30.913 Z1.837 I-0.598 J-1.387
X-8.902 Y33.687 Z1.671 I0.598 J1.387
X-10.098 Y30.913 Z1.506 I-0.598 J-1.387
X-8.902 Y33.687 Z1.34 I0.598 J1.387
X-10.098 Y30.913 Z1.174 I-0.598 J-1.387
X-8.902 Y33.687 Z1.009 I0.598 J1.387
X-10.098 Y30.913 Z0.843 I-0.598 J-1.387
X-8.902 Y33.687 Z0.677 I0.598 J1.387
X-10.098 Y30.913 Z0.511 I-0.598 J-1.387
X-8.902 Y33.687 Z0.346 I0.598 J1.387
X-10.098 Y30.913 Z0.18 I-0.598 J-1.387
X-8.902 Y33.687 Z0.014 I0.598 J1.387
X-10.098 Y30.913 Z-0.151 I-0.598 J-1.387
X-8.902 Y33.687 Z-0.317 I0.598 J1.387
X-10.098 Y30.913 Z-0.483 I-0.598 J-1.387
X-8.902 Y33.687 Z-0.649 I0.598 J1.387
X-10.098 Y30.913 Z-0.814 I-0.598 J-1.387
X-8.902 Y33.687 Z-0.98 I0.598 J1.387
X-10.098 Y30.913 Z-1.146 I-0.598 J-1.387
X-7.99 Y32.3 Z-1.25 I0.598 J1.387
X-11.011 I-1.51
X-7.99 I1.51
G1 X-7.979 Y32.683 F850
X-7.992 Y32.817
X-8.027 Y32.946
X-8.084 Y33.068
X-8.19 Y33.251
X-8.233 Y33.324
X-8.263 Y33.361
X-8.302 Y33.397
X-8.61 Y33.656
X-8.652 Y33.69
X-8.704 Y33.722
X-8.756 Y33.743
X-9.048 Y33.849
X-9.128 Y33.878
X-9.164 Y33.89
X-9.21 Y33.901
X-9.257 Y33.908
X-9.304 Y33.911
G3 X-9.279 Y33.178 I0.012 J-0.366
X-8.99 Y33.752 I-0.012 J0.366
G1 X-9.039 Y33.81
X-9.097 Y33.856
X-9.164 Y33.89
X-9.194 Y33.901
X-9.23 Y33.908
X-9.267 Y33.911
X-9.632
X-9.712 Y33.908
X-9.748 Y33.907
X-9.777
X-9.825 Y33.893
X-9.864 Y33.881
X-9.902 Y33.868
G3 X-9.663 Y33.278 I0.119 J-0.295
X-9.47 Y33.516 I-0.119 J0.295
G1 X-9.467 Y33.532
G3 X-9.777 Y33.907 I-0.313 J0.057
G1 X-9.814 Y33.899
X-9.85 Y33.886
X-10.215 Y33.754
X-10.282 Y33.729
X-10.315 Y33.712
X-10.348 Y33.69
X-10.507 Y33.557
X-10.698 Y33.397
X-10.731 Y33.366
X-10.758 Y33.334
X-10.799 Y33.271
X-10.979 Y32.959
X-11.019 Y32.886
X-11.034 Y32.85
X-11.045 Y32.813
X-11.122 Y32.375
X-11.128 Y32.339
X-11.13 Y32.302
X-11.123 Y32.229
X-11.046 Y31.791
X-11.036 Y31.755
X-11.021 Y31.718
X-10.982 Y31.645
X-10.799 Y31.329
X-10.761 Y31.268
X-10.736 Y31.237
X-10.703 Y31.207
X-10.354 Y30.915
X-10.319 Y30.891
X-10.285 Y30.872
X-10.215 Y30.846
X-9.85 Y30.714
X-9.814 Y30.701
X-9.777 Y30.693
X-9.632 Y30.689
X-9.267
X-9.23 Y30.692
X-9.194 Y30.699
X-8.998 Y30.769
X-8.756 Y30.857
X-8.701 Y30.879
X-8.647 Y30.915
X-8.61 Y30.944
X-8.297 Y31.207
X-8.259 Y31.243
X-8.231 Y31.28
X-8.172 Y31.378
X-8.018 Y31.645
X-7.978 Y31.718
X-7.965 Y31.755
X-7.955 Y31.791
X-7.877 Y32.229
X-7.87 Y32.302
X-7.872 Y32.339
X-7.88 Y32.39
X-7.955 Y32.813
X-7.966 Y32.85
X-7.98 Y32.886
X-8.026 Y32.969
X-8.084 Y33.068
G3 X-8.494 Y33.185 I-0.27 J-0.169
G1 X-8.535 Y33.15 Z-1.245
X-8.575 Y33.115 Z-1.231
X-8.613 Y33.083 Z-1.208
X-8.63 Y33.038 Z-1.173
X-8.645 Y32.999 Z-1.129
X-8.657 Y32.969 Z-1.078
X-8.665 Y32.948 Z-1.022
X-8.669 Y32.937 Z-0.963
Y32.935 Z-0.932
G0 Z5
X-10.098 Y30.913
Z1.25
G3 X-8.902 Y33.687 Z1.084 I0.598 J1.387 F283.3
X-10.098 Y30.913 Z0.919 I-0.598 J-1.387
X-8.902 Y33.687 Z0.753 I0.598 J1.387
X-10.098 Y30.913 Z0.587 I-0.598 J-1.387
X-8.902 Y33.687 Z0.421 I0.598 J1.387
X-10.098 Y30.913 Z0.256 I-0.598 J-1.387
X-8.902 Y33.687 Z0.09 I0.598 J1.387
X-10.098 Y30.913 Z-0.076 I-0.598 J-1.387
X-8.902 Y33.687 Z-0.241 I0.598 J1.387
X-10.098 Y30.913 Z-0.407 I-0.598 J-1.387
X-8.902 Y33.687 Z-0.573 I0.598 J1.387
X-10.098 Y30.913 Z-0.739 I-0.598 J-1.387
X-8.902 Y33.687 Z-0.904 I0.598 J1.387
X-10.098 Y30.913 Z-1.07 I-0.598 J-1.387
X-8.902 Y33.687 Z-1.236 I0.598 J1.387
X-10.098 Y30.913 Z-1.401 I-0.598 J-1.387
X-8.902 Y33.687 Z-1.567 I0.598 J1.387
X-10.098 Y30.913 Z-1.733 I-0.598 J-1.387
X-8.902 Y33.687 Z-1.899 I0.598 J1.387
X-10.098 Y30.913 Z-2.064 I-0.598 J-1.387
X-8.902 Y33.687 Z-2.23 I0.598 J1.387
X-10.098 Y30.913 Z-2.396 I-0.598 J-1.387
X-7.99 Y32.3 Z-2.5 I0.598 J1.387
X-11.011 I-1.51
X-7.99 I1.51
G1 X-7.979 Y32.683 F850
X-7.992 Y32.817
X-8.027 Y32.946
X-8.084 Y33.068
X-8.19 Y33.251
X-8.233 Y33.324
X-8.263 Y33.361
X-8.302 Y33.397
X-8.61 Y33.656
X-8.652 Y33.69
X-8.704 Y33.722
X-8.756 Y33.743
X-9.048 Y33.849
X-9.128 Y33.878
X-9.164 Y33.89
X-9.21 Y33.901
X-9.257 Y33.908
X-9.304 Y33.911
G3 X-9.279 Y33.178 I0.012 J-0.366
X-8.99 Y33.752 I-0.012 J0.366
G1 X-9.039 Y33.81
X-9.097 Y33.856
X-9.164 Y33.89
X-9.194 Y33.901
X-9.23 Y33.908
X-9.267 Y33.911
X-9.632
X-9.712 Y33.908
X-9.748 Y33.907
X-9.777
X-9.825 Y33.893
X-9.864 Y33.881
X-9.902 Y33.868
G3 X-9.663 Y33.278 I0.119 J-0.295
X-9.47 Y33.516 I-0.119 J0.295
G1 X-9.467 Y33.532
G3 X-9.777 Y33.907 I-0.313 J0.057
G1 X-9.814 Y33.899
X-9.85 Y33.886
X-10.215 Y33.754
X-10.282 Y33.729
X-10.315 Y33.712
X-10.348 Y33.69
X-10.507 Y33.557
X-10.698 Y33.397
X-10.731 Y33.366
X-10.758 Y33.334
X-10.799 Y33.271
X-10.979 Y32.959
X-11.019 Y32.886
X-11.034 Y32.85
X-11.045 Y32.813
X-11.122 Y32.375
X-11.128 Y32.339
X-11.13 Y32.302
X-11.123 Y32.229
X-11.046 Y31.791
X-11.036 Y31.755
X-11.021 Y31.718
X-10.982 Y31.645
X-10.799 Y31.329
X-10.761 Y31.268
X-10.736 Y31.237
X-10.703 Y31.207
X-10.354 Y30.915
X-10.319 Y30.891
X-10.285 Y30.872
X-10.215 Y30.846
X-9.85 Y30.714
X-9.814 Y30.701
X-9.777 Y30.693
X-9.632 Y30.689
X-9.267
X-9.23 Y30.692
X-9.194 Y30.699
X-8.998 Y30.769
X-8.756 Y30.857
X-8.701 Y30.879
X-8.647 Y30.915
X-8.61 Y30.944
X-8.297 Y31.207
X-8.259 Y31.243
X-8.231 Y31.28
X-8.172 Y31.378
X-8.018 Y31.645
X-7.978 Y31.718
X-7.965 Y31.755
X-7.955 Y31.791
X-7.877 Y32.229
X-7.87 Y32.302
X-7.872 Y32.339
X-7.88 Y32.39
X-7.955 Y32.813
X-7.966 Y32.85
X-7.98 Y32.886
X-8.026 Y32.969
X-8.084 Y33.068
G3 X-8.494 Y33.185 I-0.27 J-0.169
G1 X-8.535 Y33.15 Z-2.495
X-8.575 Y33.115 Z-2.481
X-8.613 Y33.083 Z-2.458
X-8.63 Y33.038 Z-2.423
X-8.645 Y32.999 Z-2.379
X-8.657 Y32.969 Z-2.328
X-8.665 Y32.948 Z-2.272
X-8.669 Y32.937 Z-2.213
Y32.935 Z-2.182
G0 Z5
X-10.098 Y30.913
Z0
G3 X-8.902 Y33.687 Z-0.166 I0.598 J1.387 F283.3
X-10.098 Y30.913 Z-0.331 I-0.598 J-1.387
X-8.902 Y33.687 Z-0.497 I0.598 J1.387
X-10.098 Y30.913 Z-0.663 I-0.598 J-1.387
X-8.902 Y33.687 Z-0.829 I0.598 J1.387
X-10.098 Y30.913 Z-0.994 I-0.598 J-1.387
X-8.902 Y33.687 Z-1.16 I0.598 J1.387
X-10.098 Y30.913 Z-1.326 I-0.598 J-1.387
X-8.902 Y33.687 Z-1.491 I0.598 J1.387
X-10.098 Y30.913 Z-1.657 I-0.598 J-1.387
X-8.902 Y33.687 Z-1.823 I0.598 J1.387
X-10.098 Y30.913 Z-1.989 I-0.598 J-1.387
X-8.902 Y33.687 Z-2.154 I0.598 J1.387
X-10.098 Y30.913 Z-2.32 I-0.598 J-1.387
X-8.902 Y33.687 Z-2.486 I0.598 J1.387
X-10.098 Y30.913 Z-2.651 I-0.598 J-1.387
X-8.902 Y33.687 Z-2.817 I0.598 J1.387
X-10.098 Y30.913 Z-2.983 I-0.598 J-1.387
X-8.902 Y33.687 Z-3.149 I0.598 J1.387
X-10.098 Y30.913 Z-3.314 I-0.598 J-1.387
X-8.902 Y33.687 Z-3.48 I0.598 J1.387
X-10.098 Y30.913 Z-3.646 I-0.598 J-1.387
X-7.99 Y32.3 Z-3.75 I0.598 J1.387
X-11.011 I-1.51
X-7.99 I1.51
G1 X-7.979 Y32.683 F850
X-7.992 Y32.817
X-8.027 Y32.946
X-8.084 Y33.068
X-8.19 Y33.251
X-8.233 Y33.324
X-8.263 Y33.361
X-8.302 Y33.397
X-8.61 Y33.656
X-8.652 Y33.69
X-8.704 Y33.722
X-8.756 Y33.743
X-9.048 Y33.849
X-9.128 Y33.878
X-9.164 Y33.89
X-9.21 Y33.901
X-9.257 Y33.908
X-9.304 Y33.911
G3 X-9.279 Y33.178 I0.012 J-0.366
X-8.99 Y33.752 I-0.012 J0.366
G1 X-9.039 Y33.81
X-9.097 Y33.856
X-9.164 Y33.89
X-9.194 Y33.901
X-9.23 Y33.908
X-9.267 Y33.911
X-9.632
X-9.712 Y33.908
X-9.748 Y33.907
X-9.777
X-9.825 Y33.893
X-9.864 Y33.881
X-9.902 Y33.868
G3 X-9.663 Y33.278 I0.119 J-0.295
X-9.47 Y33.516 I-0.119 J0.295
G1 X-9.467 Y33.532
G3 X-9.777 Y33.907 I-0.313 J0.057
G1 X-9.814 Y33.899
X-9.85 Y33.886
X-10.215 Y33.754
X-10.282 Y33.729
X-10.315 Y33.712
X-10.348 Y33.69
X-10.507 Y33.557
X-10.698 Y33.397
X-10.731 Y33.366
X-10.758 Y33.334
X-10.799 Y33.271
X-10.979 Y32.959
X-11.019 Y32.886
X-11.034 Y32.85
X-11.045 Y32.813
X-11.122 Y32.375
X-11.128 Y32.339
X-11.13 Y32.302
X-11.123 Y32.229
X-11.046 Y31.791
X-11.036 Y31.755
X-11.021 Y31.718
X-10.982 Y31.645
X-10.799 Y31.329
X-10.761 Y31.268
X-10.736 Y31.237
X-10.703 Y31.207
X-10.354 Y30.915
X-10.319 Y30.891
X-10.285 Y30.872
X-10.215 Y30.846
X-9.85 Y30.714
X-9.814 Y30.701
X-9.777 Y30.693
X-9.632 Y30.689
X-9.267
X-9.23 Y30.692
X-9.194 Y30.699
X-8.998 Y30.769
X-8.756 Y30.857
X-8.701 Y30.879
X-8.647 Y30.915
X-8.61 Y30.944
X-8.297 Y31.207
X-8.259 Y31.243
X-8.231 Y31.28
X-8.172 Y31.378
X-8.018 Y31.645
X-7.978 Y31.718
X-7.965 Y31.755
X-7.955 Y31.791
X-7.877 Y32.229
X-7.87 Y32.302
X-7.872 Y32.339
X-7.88 Y32.39
X-7.955 Y32.813
X-7.966 Y32.85
X-7.98 Y32.886
X-8.026 Y32.969
X-8.084 Y33.068
G3 X-8.494 Y33.185 I-0.27 J-0.169
G1 X-8.535 Y33.15 Z-3.745
X-8.575 Y33.115 Z-3.731
X-8.613 Y33.083 Z-3.708
X-8.63 Y33.038 Z-3.673
X-8.645 Y32.999 Z-3.629
X-8.657 Y32.969 Z-3.578
X-8.665 Y32.948 Z-3.522
X-8.669 Y32.937 Z-3.463
Y32.935 Z-3.432
G0 Z5
X-10.098 Y30.913
Z-1.25
G3 X-8.902 Y33.687 Z-1.416 I0.598 J1.387 F283.3
X-10.098 Y30.913 Z-1.581 I-0.598 J-1.387
X-8.902 Y33.687 Z-1.747 I0.598 J1.387
X-10.098 Y30.913 Z-1.913 I-0.598 J-1.387
X-8.902 Y33.687 Z-2.079 I0.598 J1.387
X-10.098 Y30.913 Z-2.244 I-0.598 J-1.387
X-8.902 Y33.687 Z-2.41 I0.598 J1.387
X-10.098 Y30.913 Z-2.576 I-0.598 J-1.387
X-8.902 Y33.687 Z-2.741 I0.598 J1.387
X-10.098 Y30.913 Z-2.907 I-0.598 J-1.387
X-8.902 Y33.687 Z-3.073 I0.598 J1.387
X-10.098 Y30.913 Z-3.239 I-0.598 J-1.387
X-8.902 Y33.687 Z-3.404 I0.598 J1.387
X-10.098 Y30.913 Z-3.57 I-0.598 J-1.387
X-8.902 Y33.687 Z-3.736 I0.598 J1.387
X-10.098 Y30.913 Z-3.901 I-0.598 J-1.387
X-8.902 Y33.687 Z-4.067 I0.598 J1.387
X-10.098 Y30.913 Z-4.233 I-0.598 J-1.387
X-8.902 Y33.687 Z-4.399 I0.598 J1.387
X-10.098 Y30.913 Z-4.564 I-0.598 J-1.387
X-8.902 Y33.687 Z-4.73 I0.598 J1.387
X-10.098 Y30.913 Z-4.896 I-0.598 J-1.387
X-7.989 Y32.3 Z-5 I0.598 J1.387
X-11.01 I-1.511
X-7.989 I1.511
G1 X-7.979 Y32.683 F850
X-7.992 Y32.817
X-8.027 Y32.946
X-8.083 Y33.068
X-8.19 Y33.251
X-8.233 Y33.324
X-8.263 Y33.361
X-8.302 Y33.397
X-8.61 Y33.656
X-8.652 Y33.69
X-8.704 Y33.722
X-8.756 Y33.743
X-9.048 Y33.849
X-9.128 Y33.878
X-9.164 Y33.89
X-9.21 Y33.901
X-9.257 Y33.908
X-9.304 Y33.911
G3 X-9.279 Y33.178 I0.012 J-0.366
X-8.99 Y33.752 I-0.012 J0.366
G1 X-9.039 Y33.81
X-9.097 Y33.856
X-9.164 Y33.89
X-9.194 Y33.901
X-9.23 Y33.908
X-9.267 Y33.911
X-9.632
X-9.712 Y33.908
X-9.748 Y33.907
X-9.777
X-9.825 Y33.893
X-9.864 Y33.881
X-9.902 Y33.868
G3 X-9.663 Y33.278 I0.119 J-0.295
X-9.47 Y33.516 I-0.119 J0.295
G1 X-9.467 Y33.532
G3 X-9.777 Y33.907 I-0.313 J0.057
G1 X-9.814 Y33.899
X-9.85 Y33.886
X-10.215 Y33.754
X-10.282 Y33.729
X-10.315 Y33.712
X-10.348 Y33.69
X-10.507 Y33.557
X-10.698 Y33.397
X-10.731 Y33.366
X-10.758 Y33.334
X-10.799 Y33.271
X-10.979 Y32.959
X-11.019 Y32.886
X-11.034 Y32.85
X-11.045 Y32.813
X-11.122 Y32.375
X-11.128 Y32.339
X-11.13 Y32.302
X-11.123 Y32.229
X-11.046 Y31.791
X-11.036 Y31.755
X-11.021 Y31.718
X-10.982 Y31.645
X-10.799 Y31.329
X-10.761 Y31.268
X-10.736 Y31.237
X-10.703 Y31.207
X-10.354 Y30.915
X-10.319 Y30.891
X-10.285 Y30.872
X-10.215 Y30.846
X-9.85 Y30.714
X-9.814 Y30.701
X-9.777 Y30.693
X-9.632 Y30.689
X-9.267
X-9.23 Y30.692
X-9.194 Y30.699
X-8.998 Y30.769
X-8.756 Y30.857
X-8.701 Y30.879
X-8.647 Y30.915
X-8.61 Y30.944
X-8.297 Y31.207
X-8.259 Y31.243
X-8.231 Y31.28
X-8.172 Y31.378
X-8.018 Y31.645
X-7.978 Y31.718
X-7.965 Y31.755
X-7.955 Y31.791
X-7.877 Y32.229
X-7.87 Y32.302
X-7.872 Y32.339
X-7.88 Y32.39
X-7.955 Y32.813
X-7.966 Y32.85
X-7.98 Y32.886
X-8.026 Y32.969
X-8.083 Y33.068
G3 X-8.493 Y33.184 I-0.27 J-0.169
G1 X-8.535 Y33.149 Z-4.995
X-8.575 Y33.115 Z-4.981
X-8.613 Y33.083 Z-4.958
X-8.63 Y33.037 Z-4.923
X-8.645 Y32.998 Z-4.879
X-8.657 Y32.968 Z-4.828
X-8.665 Y32.947 Z-4.772
X-8.669 Y32.937 Z-4.713
Y32.935 Z-4.682
G0 Z5
X-10.098 Y30.912
Z-2.5
G3 X-8.902 Y33.686 Z-2.666 I0.598 J1.387 F283.3
X-10.098 Y30.912 Z-2.831 I-0.598 J-1.387
X-8.902 Y33.686 Z-2.997 I0.598 J1.387
X-10.098 Y30.912 Z-3.163 I-0.598 J-1.387
X-8.902 Y33.686 Z-3.329 I0.598 J1.387
X-10.098 Y30.912 Z-3.494 I-0.598 J-1.387
X-8.902 Y33.686 Z-3.66 I0.598 J1.387
X-10.098 Y30.912 Z-3.826 I-0.598 J-1.387
X-8.902 Y33.686 Z-3.991 I0.598 J1.387
X-10.098 Y30.912 Z-4.157 I-0.598 J-1.387
X-8.902 Y33.686 Z-4.323 I0.598 J1.387
X-10.098 Y30.912 Z-4.489 I-0.598 J-1.387
X-8.902 Y33.686 Z-4.654 I0.598 J1.387
X-10.098 Y30.912 Z-4.82 I-0.598 J-1.387
X-8.902 Y33.686 Z-4.986 I0.598 J1.387
X-10.098 Y30.912 Z-5.151 I-0.598 J-1.387
X-8.902 Y33.686 Z-5.317 I0.598 J1.387
X-10.098 Y30.912 Z-5.483 I-0.598 J-1.387
X-8.902 Y33.686 Z-5.649 I0.598 J1.387
X-10.098 Y30.912 Z-5.814 I-0.598 J-1.387
X-8.902 Y33.686 Z-5.98 I0.598 J1.387
X-10.098 Y30.912 Z-6.146 I-0.598 J-1.387
X-7.989 Y32.299 Z-6.25 I0.598 J1.387
X-11.01 I-1.51
X-7.989 I1.51
G1 X-7.979 Y32.682 F850
X-7.992 Y32.816
X-8.027 Y32.946
X-8.084 Y33.068
X-8.19 Y33.251
X-8.233 Y33.324
X-8.263 Y33.361
X-8.302 Y33.397
X-8.61 Y33.656
X-8.652 Y33.69
X-8.704 Y33.722
X-8.756 Y33.743
X-9.048 Y33.849
X-9.128 Y33.878
X-9.164 Y33.89
X-9.21 Y33.901
X-9.257 Y33.908
X-9.304 Y33.911
G3 X-9.279 Y33.178 I0.012 J-0.366
X-8.99 Y33.752 I-0.012 J0.366
G1 X-9.039 Y33.81
X-9.097 Y33.856
X-9.164 Y33.89
X-9.194 Y33.901
X-9.23 Y33.908
X-9.267 Y33.911
X-9.632
X-9.712 Y33.908
X-9.748 Y33.907
X-9.777
X-9.825 Y33.893
X-9.864 Y33.881
X-9.902 Y33.868
G3 X-9.663 Y33.278 I0.119 J-0.295
X-9.47 Y33.516 I-0.119 J0.295
G1 X-9.467 Y33.532
G3 X-9.777 Y33.907 I-0.313 J0.057
G1 X-9.814 Y33.899
X-9.85 Y33.886
X-10.215 Y33.754
X-10.282 Y33.729
X-10.315 Y33.712
X-10.348 Y33.69
X-10.507 Y33.557
X-10.698 Y33.397
X-10.731 Y33.366
X-10.758 Y33.334
X-10.799 Y33.271
X-10.979 Y32.959
X-11.019 Y32.886
X-11.034 Y32.85
X-11.045 Y32.813
X-11.122 Y32.375
X-11.128 Y32.339
X-11.13 Y32.302
X-11.123 Y32.229
X-11.046 Y31.791
X-11.036 Y31.755
X-11.021 Y31.718
X-10.982 Y31.645
X-10.799 Y31.329
X-10.761 Y31.268
X-10.736 Y31.237
X-10.703 Y31.207
X-10.354 Y30.915
X-10.319 Y30.891
X-10.285 Y30.872
X-10.215 Y30.846
X-9.85 Y30.714
X-9.814 Y30.701
X-9.777 Y30.693
X-9.632 Y30.689
X-9.267
X-9.23 Y30.692
X-9.194 Y30.699
X-8.998 Y30.769
X-8.756 Y30.857
X-8.701 Y30.879
X-8.647 Y30.915
X-8.61 Y30.944
X-8.297 Y31.207
X-8.259 Y31.243
X-8.231 Y31.28
X-8.172 Y31.378
X-8.018 Y31.645
X-7.978 Y31.718
X-7.965 Y31.755
X-7.955 Y31.791
X-7.877 Y32.229
X-7.87 Y32.302
X-7.872 Y32.339
X-7.88 Y32.39
X-7.955 Y32.813
X-7.966 Y32.85
X-7.98 Y32.886
X-8.026 Y32.969
X-8.084 Y33.068
G3 X-8.494 Y33.185 I-0.27 J-0.169
G1 X-8.535 Y33.15 Z-6.245
X-8.575 Y33.116 Z-6.231
X-8.613 Y33.083 Z-6.208
X-8.631 Y33.038 Z-6.173
X-8.645 Y32.999 Z-6.129
X-8.657 Y32.969 Z-6.078
X-8.665 Y32.948 Z-6.022
X-8.669 Y32.937 Z-5.963
Y32.936 Z-5.932
G0 Z5
X-10.726 Y33.182
Z-3.75
G3 X-8.274 Y31.418 Z-3.916 I1.226 J-0.882 F283.3
X-10.726 Y33.182 Z-4.081 I-1.226 J0.882
X-8.274 Y31.418 Z-4.247 I1.226 J-0.882
X-10.726 Y33.182 Z-4.413 I-1.226 J0.882
X-8.274 Y31.418 Z-4.579 I1.226 J-0.882
X-10.726 Y33.182 Z-4.744 I-1.226 J0.882
X-8.274 Y31.418 Z-4.91 I1.226 J-0.882
X-10.726 Y33.182 Z-5.076 I-1.226 J0.882
X-8.274 Y31.418 Z-5.241 I1.226 J-0.882
X-10.726 Y33.182 Z-5.407 I-1.226 J0.882
X-8.274 Y31.418 Z-5.573 I1.226 J-0.882
X-10.726 Y33.182 Z-5.739 I-1.226 J0.882
X-8.274 Y31.418 Z-5.904 I1.226 J-0.882
X-10.726 Y33.182 Z-6.07 I-1.226 J0.882
X-8.274 Y31.418 Z-6.236 I1.226 J-0.882
X-10.726 Y33.182 Z-6.401 I-1.226 J0.882
X-8.274 Y31.418 Z-6.567 I1.226 J-0.882
X-7.99 Y32.3 Z-6.6 I-1.226 J0.882
X-11.011 I-1.51
X-7.99 I1.51
G1 X-7.979 Y32.683 F850
X-7.992 Y32.817
X-8.027 Y32.946
X-8.084 Y33.068
X-8.19 Y33.251
X-8.233 Y33.324
X-8.263 Y33.361
X-8.302 Y33.397
X-8.61 Y33.656
X-8.652 Y33.69
X-8.704 Y33.722
X-8.756 Y33.743
X-9.048 Y33.849
X-9.128 Y33.878
X-9.164 Y33.89
X-9.21 Y33.901
X-9.257 Y33.908
X-9.304 Y33.911
G3 X-9.279 Y33.178 I0.012 J-0.366
X-8.99 Y33.752 I-0.012 J0.366
G1 X-9.039 Y33.81
X-9.097 Y33.856
X-9.164 Y33.89
X-9.194 Y33.901
X-9.23 Y33.908
X-9.267 Y33.911
X-9.632
X-9.712 Y33.908
X-9.748 Y33.907
X-9.777
X-9.825 Y33.893
X-9.864 Y33.881
X-9.902 Y33.868
G3 X-9.663 Y33.278 I0.119 J-0.295
X-9.47 Y33.516 I-0.119 J0.295
G1 X-9.467 Y33.532
G3 X-9.777 Y33.907 I-0.313 J0.057
G1 X-9.814 Y33.899
X-9.85 Y33.886
X-10.215 Y33.754
X-10.282 Y33.729
X-10.315 Y33.712
X-10.348 Y33.69
X-10.507 Y33.557
X-10.698 Y33.397
X-10.731 Y33.366
X-10.758 Y33.334
X-10.799 Y33.271
X-10.979 Y32.959
X-11.019 Y32.886
X-11.034 Y32.85
X-11.045 Y32.813
X-11.122 Y32.375
X-11.128 Y32.339
X-11.13 Y32.302
X-11.123 Y32.229
X-11.046 Y31.791
X-11.036 Y31.755
X-11.021 Y31.718
X-10.982 Y31.645
X-10.799 Y31.329
X-10.761 Y31.268
X-10.736 Y31.237
X-10.703 Y31.207
X-10.354 Y30.915
X-10.319 Y30.891
X-10.285 Y30.872
X-10.215 Y30.846
X-9.85 Y30.714
X-9.814 Y30.701
X-9.777 Y30.693
X-9.632 Y30.689
X-9.267
X-9.23 Y30.692
X-9.194 Y30.699
X-8.998 Y30.769
X-8.756 Y30.857
X-8.701 Y30.879
X-8.647 Y30.915
X-8.61 Y30.944
X-8.297 Y31.207
X-8.259 Y31.243
X-8.231 Y31.28
X-8.172 Y31.378
X-8.018 Y31.645
X-7.978 Y31.718
X-7.965 Y31.755
X-7.955 Y31.791
X-7.877 Y32.229
X-7.87 Y32.302
X-7.872 Y32.339
X-7.88 Y32.39
X-7.955 Y32.813
X-7.966 Y32.85
X-7.98 Y32.886
X-8.026 Y32.969
X-8.084 Y33.068
G3 X-8.494 Y33.185 I-0.27 J-0.169
G1 X-8.535 Y33.15 Z-6.595
X-8.575 Y33.115 Z-6.581
X-8.613 Y33.083 Z-6.558
X-8.63 Y33.038 Z-6.523
X-8.645 Y32.999 Z-6.479
X-8.657 Y32.969 Z-6.428
X-8.665 Y32.948 Z-6.372
X-8.669 Y32.937 Z-6.313
Y32.935 Z-6.282
G0 Z5
X4.902 Y30.913
Z2.5
G3 X6.098 Y33.687 Z2.334 I0.598 J1.387 F283.3
X4.902 Y30.913 Z2.169 I-0.598 J-1.387
X6.098 Y33.687 Z2.003 I0.598 J1.387
X4.902 Y30.913 Z1.837 I-0.598 J-1.387
X6.098 Y33.687 Z1.671 I0.598 J1.387
X4.902 Y30.913 Z1.506 I-0.598 J-1.387
X6.098 Y33.687 Z1.34 I0.598 J1.387
X4.902 Y30.913 Z1.174 I-0.598 J-1.387
X6.098 Y33.687 Z1.009 I0.598 J1.387
X4.902 Y30.913 Z0.843 I-0.598 J-1.387
X6.098 Y33.687 Z0.677 I0.598 J1.387
X4.902 Y30.913 Z0.511 I-0.598 J-1.387
X6.098 Y33.687 Z0.346 I0.598 J1.387
X4.902 Y30.913 Z0.18 I-0.598 J-1.387
X6.098 Y33.687 Z0.014 I0.598 J1.387
X4.902 Y30.913 Z-0.151 I-0.598 J-1.387
X6.098 Y33.687 Z-0.317 I0.598 J1.387
X4.902 Y30.913 Z-0.483 I-0.598 J-1.387
X6.098 Y33.687 Z-0.649 I0.598 J1.387
X4.902 Y30.913 Z-0.814 I-0.598 J-1.387
X6.098 Y33.687 Z-0.98 I0.598 J1.387
X4.902 Y30.913 Z-1.146 I-0.598 J-1.387
X7.011 Y32.3 Z-1.25 I0.598 J1.387
X3.99 I-1.51
X7.011 I1.51
G1 X7.021 Y32.684 F850
X7.008 Y32.817
X6.973 Y32.946
X6.917 Y33.068
X6.81 Y33.251
X6.771 Y33.318
X6.744 Y33.351
X6.713 Y33.384
X6.421 Y33.63
X6.349 Y33.69
X6.312 Y33.714
X6.275 Y33.732
X5.837 Y33.891
X5.801 Y33.902
X5.764 Y33.908
X5.691 Y33.911
X5.319 Y33.91
X5.283
X5.234 Y33.905
X5.185 Y33.896
X5.138 Y33.882
G3 X5.355 Y33.284 I0.114 J-0.297
G1 X5.377 Y33.291
G3 X5.283 Y33.91 I-0.103 J0.301
G1 X5.254
X5.217 Y33.905
X5.181 Y33.896
X5.108 Y33.871
X4.776 Y33.75
X4.743 Y33.738
X4.706 Y33.723
X4.67 Y33.702
X4.653 Y33.69
X4.476 Y33.544
X4.302 Y33.397
X4.264 Y33.36
X4.232 Y33.322
X4.19 Y33.251
X4.021 Y32.959
X3.98 Y32.886
X3.966 Y32.85
X3.955 Y32.813
X3.878 Y32.375
X3.872 Y32.339
X3.87 Y32.302
X3.877 Y32.229
X3.955 Y31.791
X3.964 Y31.755
X3.978 Y31.718
X4.018 Y31.645
X4.187 Y31.353
X4.232 Y31.278
X4.261 Y31.242
X4.297 Y31.207
X4.645 Y30.915
X4.67 Y30.897
X4.706 Y30.877
X4.743 Y30.862
X5.108 Y30.729
X5.181 Y30.704
X5.217 Y30.695
X5.254 Y30.69
X5.691 Y30.689
X5.764 Y30.692
X5.801 Y30.698
X5.837 Y30.709
X6.275 Y30.869
X6.315 Y30.889
X6.354 Y30.915
X6.713 Y31.216
X6.745 Y31.25
X6.772 Y31.284
X6.813 Y31.353
X7.005 Y31.685
X7.03 Y31.738
X7.045 Y31.791
X7.123 Y32.229
X7.129 Y32.266
X7.131 Y32.302
X7.122 Y32.375
X7.045 Y32.813
X7.028 Y32.864
X7.005 Y32.915
X6.917 Y33.068
G3 X6.507 Y33.184 I-0.27 J-0.169
G1 X6.465 Y33.149 Z-1.245
X6.425 Y33.115 Z-1.231
X6.387 Y33.083 Z-1.208
X6.37 Y33.037 Z-1.173
X6.355 Y32.998 Z-1.129
X6.343 Y32.968 Z-1.078
X6.335 Y32.947 Z-1.022
X6.331 Y32.937 Z-0.963
Y32.935 Z-0.932
G0 Z5
X4.902 Y30.913
Z1.25
G3 X6.098 Y33.687 Z1.084 I0.598 J1.387 F283.3
X4.902 Y30.913 Z0.919 I-0.598 J-1.387
X6.098 Y33.687 Z0.753 I0.598 J1.387
X4.902 Y30.913 Z0.587 I-0.598 J-1.387
X6.098 Y33.687 Z0.421 I0.598 J1.387
X4.902 Y30.913 Z0.256 I-0.598 J-1.387
X6.098 Y33.687 Z0.09 I0.598 J1.387
X4.902 Y30.913 Z-0.076 I-0.598 J-1.387
X6.098 Y33.687 Z-0.241 I0.598 J1.387
X4.902 Y30.913 Z-0.407 I-0.598 J-1.387
X6.098 Y33.687 Z-0.573 I0.598 J1.387
X4.902 Y30.913 Z-0.739 I-0.598 J-1.387
X6.098 Y33.687 Z-0.904 I0.598 J1.387
X4.902 Y30.913 Z-1.07 I-0.598 J-1.387
X6.098 Y33.687 Z-1.236 I0.598 J1.387
X4.902 Y30.913 Z-1.401 I-0.598 J-1.387
X6.098 Y33.687 Z-1.567 I0.598 J1.387
X4.902 Y30.913 Z-1.733 I-0.598 J-1.387
X6.098 Y33.687 Z-1.899 I0.598 J1.387
X4.902 Y30.913 Z-2.064 I-0.598 J-1.387
X6.098 Y33.687 Z-2.23 I0.598 J1.387
X4.902 Y30.913 Z-2.396 I-0.598 J-1.387
X7.011 Y32.3 Z-2.5 I0.598 J1.387
X3.99 I-1.51
X7.011 I1.51
G1 X7.021 Y32.684 F850
X7.008 Y32.817
X6.973 Y32.946
X6.917 Y33.068
X6.81 Y33.251
X6.771 Y33.318
X6.744 Y33.351
X6.713 Y33.384
X6.421 Y33.63
X6.349 Y33.69
X6.312 Y33.714
X6.275 Y33.732
X5.837 Y33.891
X5.801 Y33.902
X5.764 Y33.908
X5.691 Y33.911
X5.319 Y33.91
X5.283
X5.234 Y33.905
X5.185 Y33.896
X5.138 Y33.882
G3 X5.355 Y33.284 I0.114 J-0.297
G1 X5.377 Y33.291
G3 X5.283 Y33.91 I-0.103 J0.301
G1 X5.254
X5.217 Y33.905
X5.181 Y33.896
X5.108 Y33.871
X4.776 Y33.75
X4.743 Y33.738
X4.706 Y33.723
X4.67 Y33.702
X4.653 Y33.69
X4.476 Y33.544
X4.302 Y33.397
X4.264 Y33.36
X4.232 Y33.322
X4.19 Y33.251
X4.021 Y32.959
X3.98 Y32.886
X3.966 Y32.85
X3.955 Y32.813
X3.878 Y32.375
X3.872 Y32.339
X3.87 Y32.302
X3.877 Y32.229
X3.955 Y31.791
X3.964 Y31.755
X3.978 Y31.718
X4.018 Y31.645
X4.187 Y31.353
X4.232 Y31.278
X4.261 Y31.242
X4.297 Y31.207
X4.645 Y30.915
X4.67 Y30.897
X4.706 Y30.877
X4.743 Y30.862
X5.108 Y30.729
X5.181 Y30.704
X5.217 Y30.695
X5.254 Y30.69
X5.691 Y30.689
X5.764 Y30.692
X5.801 Y30.698
X5.837 Y30.709
X6.275 Y30.869
X6.315 Y30.889
X6.354 Y30.915
X6.713 Y31.216
X6.745 Y31.25
X6.772 Y31.284
X6.813 Y31.353
X7.005 Y31.685
X7.03 Y31.738
X7.045 Y31.791
X7.123 Y32.229
X7.129 Y32.266
X7.131 Y32.302
X7.122 Y32.375
X7.045 Y32.813
X7.028 Y32.864
X7.005 Y32.915
X6.917 Y33.068
G3 X6.507 Y33.184 I-0.27 J-0.169
G1 X6.465 Y33.149 Z-2.495
X6.425 Y33.115 Z-2.481
X6.387 Y33.083 Z-2.458
X6.37 Y33.037 Z-2.423
X6.355 Y32.998 Z-2.379
X6.343 Y32.968 Z-2.328
X6.335 Y32.947 Z-2.272
X6.331 Y32.937 Z-2.213
Y32.935 Z-2.182
G0 Z5
X4.902 Y30.913
Z0
G3 X6.098 Y33.687 Z-0.166 I0.598 J1.387 F283.3
X4.902 Y30.913 Z-0.331 I-0.598 J-1.387
X6.098 Y33.687 Z-0.497 I0.598 J1.387
X4.902 Y30.913 Z-0.663 I-0.598 J-1.387
X6.098 Y33.687 Z-0.829 I0.598 J1.387
X4.902 Y30.913 Z-0.994 I-0.598 J-1.387
X6.098 Y33.687 Z-1.16 I0.598 J1.387
X4.902 Y30.913 Z-1.326 I-0.598 J-1.387
X6.098 Y33.687 Z-1.491 I0.598 J1.387
X4.902 Y30.913 Z-1.657 I-0.598 J-1.387
X6.098 Y33.687 Z-1.823 I0.598 J1.387
X4.902 Y30.913 Z-1.989 I-0.598 J-1.387
X6.098 Y33.687 Z-2.154 I0.598 J1.387
X4.902 Y30.913 Z-2.32 I-0.598 J-1.387
X6.098 Y33.687 Z-2.486 I0.598 J1.387
X4.902 Y30.913 Z-2.651 I-0.598 J-1.387
X6.098 Y33.687 Z-2.817 I0.598 J1.387
X4.902 Y30.913 Z-2.983 I-0.598 J-1.387
X6.098 Y33.687 Z-3.149 I0.598 J1.387
X4.902 Y30.913 Z-3.314 I-0.598 J-1.387
X6.098 Y33.687 Z-3.48 I0.598 J1.387
X4.902 Y30.913 Z-3.646 I-0.598 J-1.387
X7.011 Y32.3 Z-3.75 I0.598 J1.387
X3.99 I-1.51
X7.011 I1.51
G1 X7.021 Y32.684 F850
X7.008 Y32.817
X6.973 Y32.946
X6.917 Y33.068
X6.81 Y33.251
X6.771 Y33.318
X6.744 Y33.351
X6.713 Y33.384
X6.421 Y33.63
X6.349 Y33.69
X6.312 Y33.714
X6.275 Y33.732
X5.837 Y33.891
X5.801 Y33.902
X5.764 Y33.908
X5.691 Y33.911
X5.319 Y33.91
X5.283
X5.234 Y33.905
X5.185 Y33.896
X5.138 Y33.882
G3 X5.355 Y33.284 I0.114 J-0.297
G1 X5.377 Y33.291
G3 X5.283 Y33.91 I-0.103 J0.301
G1 X5.254
X5.217 Y33.905
X5.181 Y33.896
X5.108 Y33.871
X4.776 Y33.75
X4.743 Y33.738
X4.706 Y33.723
X4.67 Y33.702
X4.653 Y33.69
X4.476 Y33.544
X4.302 Y33.397
X4.264 Y33.36
X4.232 Y33.322
X4.19 Y33.251
X4.021 Y32.959
X3.98 Y32.886
X3.966 Y32.85
X3.955 Y32.813
X3.878 Y32.375
X3.872 Y32.339
X3.87 Y32.302
X3.877 Y32.229
X3.955 Y31.791
X3.964 Y31.755
X3.978 Y31.718
X4.018 Y31.645
X4.187 Y31.353
X4.232 Y31.278
X4.261 Y31.242
X4.297 Y31.207
X4.645 Y30.915
X4.67 Y30.897
X4.706 Y30.877
X4.743 Y30.862
X5.108 Y30.729
X5.181 Y30.704
X5.217 Y30.695
X5.254 Y30.69
X5.691 Y30.689
X5.764 Y30.692
X5.801 Y30.698
X5.837 Y30.709
X6.275 Y30.869
X6.315 Y30.889
X6.354 Y30.915
X6.713 Y31.216
X6.745 Y31.25
X6.772 Y31.284
X6.813 Y31.353
X7.005 Y31.685
X7.03 Y31.738
X7.045 Y31.791
X7.123 Y32.229
X7.129 Y32.266
X7.131 Y32.302
X7.122 Y32.375
X7.045 Y32.813
X7.028 Y32.864
X7.005 Y32.915
X6.917 Y33.068
G3 X6.507 Y33.184 I-0.27 J-0.169
G1 X6.465 Y33.149 Z-3.745
X6.425 Y33.115 Z-3.731
X6.387 Y33.083 Z-3.708
X6.37 Y33.037 Z-3.673
X6.355 Y32.998 Z-3.629
X6.343 Y32.968 Z-3.578
X6.335 Y32.947 Z-3.522
X6.331 Y32.937 Z-3.463
Y32.935 Z-3.432
G0 Z5
X4.902 Y30.913
Z-1.25
G3 X6.098 Y33.687 Z-1.416 I0.598 J1.387 F283.3
X4.902 Y30.913 Z-1.581 I-0.598 J-1.387
X6.098 Y33.687 Z-1.747 I0.598 J1.387
X4.902 Y30.913 Z-1.913 I-0.598 J-1.387
X6.098 Y33.687 Z-2.079 I0.598 J1.387
X4.902 Y30.913 Z-2.244 I-0.598 J-1.387
X6.098 Y33.687 Z-2.41 I0.598 J1.387
X4.902 Y30.913 Z-2.576 I-0.598 J-1.387
X6.098 Y33.687 Z-2.741 I0.598 J1.387
X4.902 Y30.913 Z-2.907 I-0.598 J-1.387
X6.098 Y33.687 Z-3.073 I0.598 J1.387
X4.902 Y30.913 Z-3.239 I-0.598 J-1.387
X6.098 Y33.687 Z-3.404 I0.598 J1.387
X4.902 Y30.913 Z-3.57 I-0.598 J-1.387
X6.098 Y33.687 Z-3.736 I0.598 J1.387
X4.902 Y30.913 Z-3.901 I-0.598 J-1.387
X6.098 Y33.687 Z-4.067 I0.598 J1.387
X4.902 Y30.913 Z-4.233 I-0.598 J-1.387
X6.098 Y33.687 Z-4.399 I0.598 J1.387
X4.902 Y30.913 Z-4.564 I-0.598 J-1.387
X6.098 Y33.687 Z-4.73 I0.598 J1.387
X4.902 Y30.913 Z-4.896 I-0.598 J-1.387
X7.011 Y32.3 Z-5 I0.598 J1.387
X3.99 I-1.51
X7.011 I1.51
G1 X7.021 Y32.683 F850
X7.009 Y32.817
X6.974 Y32.946
X6.917 Y33.067
X6.81 Y33.251
X6.771 Y33.318
X6.744 Y33.351
X6.713 Y33.384
X6.421 Y33.63
X6.349 Y33.69
X6.312 Y33.714
X6.275 Y33.732
X5.837 Y33.891
X5.801 Y33.902
X5.764 Y33.908
X5.691 Y33.911
X5.319 Y33.91
X5.283
X5.234 Y33.905
X5.185 Y33.896
X5.138 Y33.882
G3 X5.355 Y33.284 I0.114 J-0.297
G1 X5.377 Y33.291
G3 X5.283 Y33.91 I-0.103 J0.301
G1 X5.254
X5.217 Y33.905
X5.181 Y33.896
X5.108 Y33.871
X4.776 Y33.75
X4.743 Y33.738
X4.706 Y33.723
X4.67 Y33.702
X4.653 Y33.69
X4.476 Y33.544
X4.302 Y33.397
X4.264 Y33.36
X4.232 Y33.322
X4.19 Y33.251
X4.021 Y32.959
X3.98 Y32.886
X3.966 Y32.85
X3.955 Y32.813
X3.878 Y32.375
X3.872 Y32.339
X3.87 Y32.302
X3.877 Y32.229
X3.955 Y31.791
X3.964 Y31.755
X3.978 Y31.718
X4.018 Y31.645
X4.187 Y31.353
X4.232 Y31.278
X4.261 Y31.242
X4.297 Y31.207
X4.645 Y30.915
X4.67 Y30.897
X4.706 Y30.877
X4.743 Y30.862
X5.108 Y30.729
X5.181 Y30.704
X5.217 Y30.695
X5.254 Y30.69
X5.691 Y30.689
X5.764 Y30.692
X5.801 Y30.698
X5.837 Y30.709
X6.275 Y30.869
X6.315 Y30.889
X6.354 Y30.915
X6.713 Y31.216
X6.745 Y31.25
X6.772 Y31.284
X6.813 Y31.353
X7.005 Y31.685
X7.03 Y31.738
X7.045 Y31.791
X7.123 Y32.229
X7.129 Y32.266
X7.131 Y32.302
X7.122 Y32.375
X7.045 Y32.813
X7.028 Y32.864
X7.005 Y32.915
X6.917 Y33.067
G3 X6.507 Y33.184 I-0.27 J-0.169
G1 X6.466 Y33.148 Z-4.995
X6.425 Y33.114 Z-4.981
X6.388 Y33.082 Z-4.958
X6.37 Y33.036 Z-4.923
X6.355 Y32.998 Z-4.879
X6.344 Y32.967 Z-4.828
X6.336 Y32.947 Z-4.772
X6.332 Y32.936 Z-4.713
X6.331 Y32.934 Z-4.682
G0 Z5
X4.902 Y30.913
Z-2.5
G3 X6.098 Y33.687 Z-2.666 I0.598 J1.387 F283.3
X4.902 Y30.913 Z-2.831 I-0.598 J-1.387
X6.098 Y33.687 Z-2.997 I0.598 J1.387
X4.902 Y30.913 Z-3.163 I-0.598 J-1.387
X6.098 Y33.687 Z-3.329 I0.598 J1.387
X4.902 Y30.913 Z-3.494 I-0.598 J-1.387
X6.098 Y33.687 Z-3.66 I0.598 J1.387
X4.902 Y30.913 Z-3.826 I-0.598 J-1.387
X6.098 Y33.687 Z-3.991 I0.598 J1.387
X4.902 Y30.913 Z-4.157 I-0.598 J-1.387
X6.098 Y33.687 Z-4.323 I0.598 J1.387
X4.902 Y30.913 Z-4.489 I-0.598 J-1.387
X6.098 Y33.687 Z-4.654 I0.598 J1.387
X4.902 Y30.913 Z-4.82 I-0.598 J-1.387
X6.098 Y33.687 Z-4.986 I0.598 J1.387
X4.902 Y30.913 Z-5.151 I-0.598 J-1.387
X6.098 Y33.687 Z-5.317 I0.598 J1.387
X4.902 Y30.913 Z-5.483 I-0.598 J-1.387
X6.098 Y33.687 Z-5.649 I0.598 J1.387
X4.902 Y30.913 Z-5.814 I-0.598 J-1.387
X6.098 Y33.687 Z-5.98 I0.598 J1.387
X4.902 Y30.913 Z-6.146 I-0.598 J-1.387
X7.01 Y32.3 Z-6.25 I0.598 J1.387
X3.989 I-1.51
X7.01 I1.51
G1 X7.021 Y32.683 F850
X7.008 Y32.817
X6.973 Y32.946
X6.916 Y33.068
X6.81 Y33.251
X6.771 Y33.318
X6.744 Y33.351
X6.713 Y33.384
X6.421 Y33.63
X6.349 Y33.69
X6.312 Y33.714
X6.275 Y33.732
X5.837 Y33.891
X5.801 Y33.902
X5.764 Y33.908
X5.691 Y33.911
X5.319 Y33.91
X5.283
X5.234 Y33.905
X5.185 Y33.896
X5.138 Y33.882
G3 X5.355 Y33.284 I0.114 J-0.297
G1 X5.377 Y33.291
G3 X5.283 Y33.91 I-0.103 J0.301
G1 X5.254
X5.217 Y33.905
X5.181 Y33.896
X5.108 Y33.871
X4.776 Y33.75
X4.743 Y33.738
X4.706 Y33.723
X4.67 Y33.702
X4.653 Y33.69
X4.476 Y33.544
X4.302 Y33.397
X4.264 Y33.36
X4.232 Y33.322
X4.19 Y33.251
X4.021 Y32.959
X3.98 Y32.886
X3.966 Y32.85
X3.955 Y32.813
X3.878 Y32.375
X3.872 Y32.339
X3.87 Y32.302
X3.877 Y32.229
X3.955 Y31.791
X3.964 Y31.755
X3.978 Y31.718
X4.018 Y31.645
X4.187 Y31.353
X4.232 Y31.278
X4.261 Y31.242
X4.297 Y31.207
X4.645 Y30.915
X4.67 Y30.897
X4.706 Y30.877
X4.743 Y30.862
X5.108 Y30.729
X5.181 Y30.704
X5.217 Y30.695
X5.254 Y30.69
X5.691 Y30.689
X5.764 Y30.692
X5.801 Y30.698
X5.837 Y30.709
X6.275 Y30.869
X6.315 Y30.889
X6.354 Y30.915
X6.713 Y31.216
X6.745 Y31.25
X6.772 Y31.284
X6.813 Y31.353
X7.005 Y31.685
X7.03 Y31.738
X7.045 Y31.791
X7.123 Y32.229
X7.129 Y32.266
X7.131 Y32.302
X7.122 Y32.375
X7.045 Y32.813
X7.028 Y32.864
X7.005 Y32.915
X6.916 Y33.068
G3 X6.506 Y33.185 I-0.27 J-0.169
G1 X6.465 Y33.15 Z-6.245
X6.425 Y33.115 Z-6.231
X6.387 Y33.083 Z-6.208
X6.37 Y33.038 Z-6.173
X6.355 Y32.999 Z-6.129
X6.343 Y32.969 Z-6.078
X6.335 Y32.948 Z-6.022
X6.331 Y32.937 Z-5.963
Y32.936 Z-5.932
G0 Z5
X4.274 Y33.182
Z-3.75
G3 X6.726 Y31.418 Z-3.916 I1.226 J-0.882 F283.3
X4.274 Y33.182 Z-4.081 I-1.226 J0.882
X6.726 Y31.418 Z-4.247 I1.226 J-0.882
X4.274 Y33.182 Z-4.413 I-1.226 J0.882
X6.726 Y31.418 Z-4.579 I1.226 J-0.882
X4.274 Y33.182 Z-4.744 I-1.226 J0.882
X6.726 Y31.418 Z-4.91 I1.226 J-0.882
X4.274 Y33.182 Z-5.076 I-1.226 J0.882
X6.726 Y31.418 Z-5.241 I1.226 J-0.882
X4.274 Y33.182 Z-5.407 I-1.226 J0.882
X6.726 Y31.418 Z-5.573 I1.226 J-0.882
X4.274 Y33.182 Z-5.739 I-1.226 J0.882
X6.726 Y31.418 Z-5.904 I1.226 J-0.882
X4.274 Y33.182 Z-6.07 I-1.226 J0.882
X6.726 Y31.418 Z-6.236 I1.226 J-0.882
X4.274 Y33.182 Z-6.401 I-1.226 J0.882
X6.726 Y31.418 Z-6.567 I1.226 J-0.882
X7.011 Y32.3 Z-6.6 I-1.226 J0.882
X3.99 I-1.51
X7.011 I1.51
G1 X7.021 Y32.684 F850
X7.008 Y32.817
X6.973 Y32.946
X6.917 Y33.068
X6.81 Y33.251
X6.771 Y33.318
X6.744 Y33.351
X6.713 Y33.384
X6.421 Y33.63
X6.349 Y33.69
X6.312 Y33.714
X6.275 Y33.732
X5.837 Y33.891
X5.801 Y33.902
X5.764 Y33.908
X5.691 Y33.911
X5.319 Y33.91
X5.283
X5.234 Y33.905
X5.185 Y33.896
X5.138 Y33.882
G3 X5.355 Y33.284 I0.114 J-0.297
G1 X5.377 Y33.291
G3 X5.283 Y33.91 I-0.103 J0.301
G1 X5.254
X5.217 Y33.905
X5.181 Y33.896
X5.108 Y33.871
X4.776 Y33.75
X4.743 Y33.738
X4.706 Y33.723
X4.67 Y33.702
X4.653 Y33.69
X4.476 Y33.544
X4.302 Y33.397
X4.264 Y33.36
X4.232 Y33.322
X4.19 Y33.251
X4.021 Y32.959
X3.98 Y32.886
X3.966 Y32.85
X3.955 Y32.813
X3.878 Y32.375
X3.872 Y32.339
X3.87 Y32.302
X3.877 Y32.229
X3.955 Y31.791
X3.964 Y31.755
X3.978 Y31.718
X4.018 Y31.645
X4.187 Y31.353
X4.232 Y31.278
X4.261 Y31.242
X4.297 Y31.207
X4.645 Y30.915
X4.67 Y30.897
X4.706 Y30.877
X4.743 Y30.862
X5.108 Y30.729
X5.181 Y30.704
X5.217 Y30.695
X5.254 Y30.69
X5.691 Y30.689
X5.764 Y30.692
X5.801 Y30.698
X5.837 Y30.709
X6.275 Y30.869
X6.315 Y30.889
X6.354 Y30.915
X6.713 Y31.216
X6.745 Y31.25
X6.772 Y31.284
X6.813 Y31.353
X7.005 Y31.685
X7.03 Y31.738
X7.045 Y31.791
X7.123 Y32.229
X7.129 Y32.266
X7.131 Y32.302
X7.122 Y32.375
X7.045 Y32.813
X7.028 Y32.864
X7.005 Y32.915
X6.917 Y33.068
G3 X6.507 Y33.184 I-0.27 J-0.169
G1 X6.465 Y33.149 Z-6.595
X6.425 Y33.115 Z-6.581
X6.387 Y33.083 Z-6.558
X6.37 Y33.037 Z-6.523
X6.355 Y32.998 Z-6.479
X6.343 Y32.968 Z-6.428
X6.335 Y32.947 Z-6.372
X6.331 Y32.937 Z-6.313
Y32.935 Z-6.282
G0 Z5
X-2.598 Y11.413
Z2.5
G3 X-1.402 Y14.187 Z2.334 I0.598 J1.387 F283.3
X-2.598 Y11.413 Z2.169 I-0.598 J-1.387
X-1.402 Y14.187 Z2.003 I0.598 J1.387
X-2.598 Y11.413 Z1.837 I-0.598 J-1.387
X-1.402 Y14.187 Z1.671 I0.598 J1.387
X-2.598 Y11.413 Z1.506 I-0.598 J-1.387
X-1.402 Y14.187 Z1.34 I0.598 J1.387
X-2.598 Y11.413 Z1.174 I-0.598 J-1.387
X-1.402 Y14.187 Z1.009 I0.598 J1.387
X-2.598 Y11.413 Z0.843 I-0.598 J-1.387
X-1.402 Y14.187 Z0.677 I0.598 J1.387
X-2.598 Y11.413 Z0.511 I-0.598 J-1.387
X-1.402 Y14.187 Z0.346 I0.598 J1.387
X-2.598 Y11.413 Z0.18 I-0.598 J-1.387
X-1.402 Y14.187 Z0.014 I0.598 J1.387
X-2.598 Y11.413 Z-0.151 I-0.598 J-1.387
X-1.402 Y14.187 Z-0.317 I0.598 J1.387
X-2.598 Y11.413 Z-0.483 I-0.598 J-1.387
X-1.402 Y14.187 Z-0.649 I0.598 J1.387
X-2.598 Y11.413 Z-0.814 I-0.598 J-1.387
X-1.402 Y14.187 Z-0.98 I0.598 J1.387
X-2.598 Y11.413 Z-1.146 I-0.598 J-1.387
X-0.489 Y12.8 Z-1.25 I0.598 J1.387
X-3.51 I-1.51
X-0.489 I1.51
G1 X-0.479 Y13.183 F850
X-0.48 Y13.333
X-0.512 Y13.48
X-0.565 Y13.62
X-0.636 Y13.752
X-0.721 Y13.876
X-0.818 Y13.99
X-0.926 Y14.094
X-1.044 Y14.187
X-1.17 Y14.268
X-1.303 Y14.337
X-1.442 Y14.394
X-1.586 Y14.438
X-1.732 Y14.469
X-1.881 Y14.487
X-2.031 Y14.491
X-2.181 Y14.482
X-2.329 Y14.459
X-2.475 Y14.423
X-2.617 Y14.375
X-2.754 Y14.314
X-2.885 Y14.242
X-3.01 Y14.158
X-3.126 Y14.063
X-3.233 Y13.958
X-3.331 Y13.844
X-3.418 Y13.722
X-3.494 Y13.593
X-3.559 Y13.458
X-3.611 Y13.317
X-3.65 Y13.172
X-3.677 Y13.025
X-3.69 Y12.875
Y12.725
X-3.677 Y12.576
X-3.651 Y12.428
X-3.611 Y12.283
X-3.559 Y12.143
X-3.495 Y12.007
X-3.419 Y11.878
X-3.332 Y11.756
X-3.234 Y11.642
X-3.127 Y11.537
X-3.01 Y11.443
X-2.886 Y11.358
X-2.755 Y11.286
X-2.618 Y11.225
X-2.476 Y11.176
X-2.33 Y11.14
X-2.182 Y11.118
X-2.033 Y11.108
X-1.883 Y11.112
X-1.734 Y11.129
X-1.587 Y11.159
X-1.443 Y11.202
X-1.304 Y11.258
X-1.17 Y11.325
X-1.042 Y11.405
X-0.923 Y11.495
X-0.811 Y11.595
X-0.709 Y11.705
X-0.617 Y11.824
X-0.537 Y11.95
X-0.467 Y12.083
X-0.41 Y12.222
X-0.365 Y12.365
X-0.33 Y12.511
X-0.302 Y12.658
X-0.28 Y12.807
X-0.268 Y12.956
X-0.267 Y13.106
X-0.28 Y13.256
X-0.308 Y13.403
X-0.349 Y13.547
X-0.405 Y13.687
X-0.473 Y13.82
X-0.554 Y13.946
X-0.647 Y14.064
X-0.749 Y14.174
X-0.861 Y14.274
X-0.981 Y14.363
X-1.109 Y14.442
X-1.243 Y14.511
X-1.381 Y14.567
X-1.524 Y14.612
X-1.671 Y14.646
X-1.819 Y14.667
X-1.969 Y14.677
X-2.119 Y14.674
X-2.268 Y14.659
X-2.416 Y14.632
X-2.561 Y14.593
X-2.702 Y14.543
X-2.839 Y14.481
X-2.97 Y14.409
X-3.095 Y14.326
X-3.214 Y14.234
X-3.324 Y14.133
X-3.427 Y14.023
X-3.52 Y13.906
X-3.603 Y13.781
X-3.676 Y13.65
X-3.739 Y13.514
X-3.79 Y13.373
X-3.83 Y13.228
X-3.858 Y13.081
X-3.875 Y12.932
X-3.879 Y12.782
X-3.872 Y12.632
X-3.853 Y12.483
X-3.822 Y12.336
X-3.779 Y12.193
X-3.725 Y12.053
X-3.659 Y11.918
X-3.584 Y11.788
X-3.498 Y11.665
X-3.403 Y11.549
X-3.299 Y11.441
X-3.186 Y11.342
X-3.066 Y11.252
X-2.94 Y11.172
X-2.807 Y11.102
X-2.669 Y11.043
X-2.526 Y10.996
X-2.381 Y10.96
X-2.233 Y10.935
X-2.083 Y10.922
X-1.933 Y10.921
X-1.784 Y10.933
X-1.636 Y10.956
X-1.49 Y10.99
X-1.347 Y11.037
X-1.209 Y11.095
X-1.075 Y11.164
X-0.948 Y11.243
X-0.827 Y11.332
X-0.714 Y11.43
X-0.608 Y11.537
X-0.512 Y11.651
X-0.425 Y11.774
X-0.348 Y11.902
X-0.281 Y12.037
X-0.224 Y12.175
X-0.174 Y12.317
X-0.134 Y12.461
X-0.102 Y12.608
X-0.081 Y12.756
X-0.069 Y12.906
Y13.056
X-0.08 Y13.206
X-0.103 Y13.354
X-0.138 Y13.5
X-0.185 Y13.642
X-0.244 Y13.78
X-0.313 Y13.913
X-0.394 Y14.039
X-0.484 Y14.159
X-0.584 Y14.271
X-0.692 Y14.375
X-0.808 Y14.47
X-0.931 Y14.556
X-1.061 Y14.632
X-1.195 Y14.698
X-1.335 Y14.753
X-1.478 Y14.798
X-1.624 Y14.832
X-1.772 Y14.855
X-1.922 Y14.867
X-2.072 Y14.868
X-2.222 Y14.858
X-2.37 Y14.837
X-2.517 Y14.806
X-2.661 Y14.764
X-2.801 Y14.711
X-2.937 Y14.648
X-3.069 Y14.575
X-3.194 Y14.493
X-3.314 Y14.403
X-3.426 Y14.304
X-3.531 Y14.197
X-3.629 Y14.082
X-3.717 Y13.961
X-3.797 Y13.834
X-3.867 Y13.702
X-3.927 Y13.564
X-3.977 Y13.423
X-4.017 Y13.278
X-4.046 Y13.131
X-4.065 Y12.982
X-4.073 Y12.832
X-4.07 Y12.682
X-4.056 Y12.533
X-4.032 Y12.385
X-3.996 Y12.239
X-3.951 Y12.096
X-3.894 Y11.957
X-3.828 Y11.823
X-3.753 Y11.693
X-3.668 Y11.569
X-3.575 Y11.452
X-3.473 Y11.341
X-3.364 Y11.239
X-3.248 Y11.144
X-3.125 Y11.058
X-2.996 Y10.981
X-2.862 Y10.914
X-2.723 Y10.857
X-2.581 Y10.81
X-2.435 Y10.773
X-2.288 Y10.747
X-2.138 Y10.732
X-1.988 Y10.727
X-1.839 Y10.733
X-1.69 Y10.75
X-1.542 Y10.777
X-1.397 Y10.816
X-1.255 Y10.865
X-1.117 Y10.924
X-0.984 Y10.993
X-0.856 Y11.071
X-0.734 Y11.158
X-0.619 Y11.254
X-0.511 Y11.358
X-0.41 Y11.469
X-0.318 Y11.587
X-0.234 Y11.712
X-0.158 Y11.841
X-0.09 Y11.975
X-0.031 Y12.113
X0.019 Y12.254
X0.061 Y12.398
X0.093 Y12.545
X0.116 Y12.693
X0.129 Y12.842
X0.132 Y12.992
X0.125 Y13.142
X0.108 Y13.291
X0.08 Y13.438
X0.041 Y13.583
X-0.009 Y13.725
X-0.069 Y13.862
X-0.138 Y13.995
X-0.217 Y14.123
X-0.305 Y14.244
X-0.402 Y14.359
X-0.506 Y14.467
X-0.618 Y14.567
X-0.736 Y14.659
X-0.861 Y14.742
X-0.991 Y14.816
X-1.127 Y14.881
X-1.266 Y14.937
X-1.409 Y14.983
X-1.554 Y15.018
X-1.702 Y15.044
X-1.851 Y15.06
X-2.001 Y15.067
X-2.151 Y15.063
X-2.3 Y15.049
X-2.449 Y15.025
X-2.595 Y14.991
X-2.738 Y14.947
X-2.878 Y14.894
X-3.015 Y14.832
X-3.147 Y14.76
X-3.274 Y14.68
X-3.395 Y14.592
X-3.51 Y14.496
X-3.619 Y14.393
X-3.721 Y14.283
X-3.816 Y14.166
X-3.902 Y14.044
X-3.98 Y13.916
X-4.049 Y13.783
X-4.11 Y13.645
X-4.161 Y13.504
X-4.202 Y13.36
X-4.234 Y13.214
X-4.257 Y13.065
X-4.269 Y12.916
X-4.272 Y12.766
X-4.265 Y12.616
X-4.248 Y12.467
X-4.222 Y12.319
X-4.185 Y12.174
X-4.139 Y12.031
X-4.083 Y11.892
X-4.019 Y11.756
X-3.945 Y11.626
X-3.864 Y11.5
X-3.774 Y11.38
X-3.676 Y11.266
X-3.572 Y11.158
X-3.46 Y11.058
X-3.342 Y10.965
X-3.218 Y10.881
X-3.089 Y10.805
X-2.955 Y10.737
X-2.817 Y10.679
X-2.675 Y10.63
X-2.53 Y10.59
X-2.383 Y10.56
X-2.235 Y10.54
X-2.085 Y10.529
X-1.935 Y10.528
X-1.785 Y10.537
X-1.637 Y10.556
X-1.489 Y10.585
X-1.345 Y10.623
X-1.202 Y10.671
X-1.064 Y10.729
X-0.929 Y10.795
X-0.8 Y10.871
X-0.675 Y10.954
X-0.556 Y11.045
X-0.443 Y11.144
X-0.337 Y11.25
X-0.238 Y11.362
X-0.146 Y11.481
X-0.061 Y11.605
X0.016 Y11.733
X0.086 Y11.866
X0.147 Y12.003
X0.2 Y12.144
X0.245 Y12.287
X0.281 Y12.432
X0.308 Y12.58
X0.326 Y12.729
X0.336 Y12.878
Y13.028
X0.326 Y13.178
X0.307 Y13.327
X0.278 Y13.474
X0.24 Y13.619
X0.192 Y13.761
X0.134 Y13.9
X0.068 Y14.034
X-0.007 Y14.164
X-0.09 Y14.289
X-0.181 Y14.409
X-0.279 Y14.522
X-0.385 Y14.628
X-0.497 Y14.728
X-0.616 Y14.82
X-0.74 Y14.903
X-0.869 Y14.979
X-1.003 Y15.047
X-1.141 Y15.105
X-1.283 Y15.155
X-1.427 Y15.196
X-1.574 Y15.229
X-1.722 Y15.252
X-1.871 Y15.266
X-2.021 Y15.27
X-2.171 Y15.266
X-2.32 Y15.252
X-2.469 Y15.228
X-2.615 Y15.196
X-2.759 Y15.155
X-2.901 Y15.105
X-3.039 Y15.046
X-3.173 Y14.979
X-3.303 Y14.904
X-3.428 Y14.822
X-3.548 Y14.732
X-3.663 Y14.635
X-3.771 Y14.531
X-3.873 Y14.421
X-3.968 Y14.305
X-4.055 Y14.183
X-4.135 Y14.056
X-4.207 Y13.924
X-4.271 Y13.789
X-4.327 Y13.649
X-4.374 Y13.507
X-4.412 Y13.362
X-4.442 Y13.215
X-4.463 Y13.066
X-4.475 Y12.917
X-4.477 Y12.767
X-4.471 Y12.617
X-4.455 Y12.468
X-4.431 Y12.32
X-4.397 Y12.174
X-4.354 Y12.03
X-4.303 Y11.889
X-4.244 Y11.751
X-4.176 Y11.617
X-4.101 Y11.488
X-4.018 Y11.363
X-3.927 Y11.243
X-3.83 Y11.129
X-3.725 Y11.021
X-3.615 Y10.92
X-3.498 Y10.826
X-3.376 Y10.739
X-3.248 Y10.66
X-3.116 Y10.588
X-2.98 Y10.525
X-2.841 Y10.47
X-2.698 Y10.423
X-2.553 Y10.385
X-2.406 Y10.356
X-2.257 Y10.336
X-2.108 Y10.324
X-1.958 Y10.322
X-1.808 Y10.329
X-1.659 Y10.346
X-1.511 Y10.371
X-1.365 Y10.405
X-1.221 Y10.448
X-1.08 Y10.5
X-0.943 Y10.56
X-0.809 Y10.627
X-0.68 Y10.703
X-0.555 Y10.787
X-0.436 Y10.878
X-0.322 Y10.976
X-0.214 Y11.08
X-0.113 Y11.19
X-0.018 Y11.306
X0.071 Y11.427
X0.152 Y11.553
X0.227 Y11.683
X0.294 Y11.818
X0.353 Y11.955
X0.405 Y12.096
X0.449 Y12.239
X0.486 Y12.385
X0.513 Y12.532
X0.533 Y12.681
X0.543 Y12.831
X0.545 Y12.981
X0.539 Y13.131
X0.523 Y13.28
X0.499 Y13.428
X0.466 Y13.574
X0.424 Y13.718
X0.374 Y13.86
X0.316 Y13.998
X0.249 Y14.132
X0.175 Y14.263
X0.093 Y14.388
X0.003 Y14.508
X-0.093 Y14.623
X-0.196 Y14.732
X-0.306 Y14.834
X-0.421 Y14.93
X-0.542 Y15.019
X-0.668 Y15.101
X-0.798 Y15.175
X-0.933 Y15.241
X-1.071 Y15.3
X-1.212 Y15.351
X-1.356 Y15.393
X-1.502 Y15.427
X-1.65 Y15.452
X-1.799 Y15.469
X-1.949 Y15.477
X-2.099
X-2.249 Y15.468
X-2.398 Y15.451
X-2.545 Y15.425
X-2.692 Y15.391
X-2.836 Y15.349
X-2.977 Y15.299
X-3.115 Y15.241
X-3.25 Y15.175
X-3.381 Y15.102
X-3.508 Y15.022
X-3.629 Y14.934
X-3.746 Y14.84
X-3.858 Y14.74
X-3.963 Y14.633
X-4.062 Y14.521
X-4.155 Y14.403
X-4.242 Y14.28
X-4.321 Y14.153
X-4.393 Y14.021
X-4.457 Y13.886
X-4.514 Y13.747
X-4.563 Y13.605
X-4.604 Y13.461
X-4.637 Y13.315
X-4.662 Y13.167
X-4.678 Y13.018
X-4.686 Y12.868
Y12.718
X-4.677 Y12.568
X-4.66 Y12.419
X-4.634 Y12.271
X-4.601 Y12.125
X-4.559 Y11.981
X-4.51 Y11.839
X-4.452 Y11.701
X-4.387 Y11.566
X-4.314 Y11.434
X-4.234 Y11.307
X-4.148 Y11.185
X-4.054 Y11.068
X-3.954 Y10.956
X-3.848 Y10.85
X-3.737 Y10.749
X-3.62 Y10.656
X-3.498 Y10.569
X-3.371 Y10.488
X-3.24 Y10.416
X-3.105 Y10.35
X-2.966 Y10.292
X-2.825 Y10.243
X-2.681 Y10.2
X-2.535 Y10.167
X-2.387 Y10.141
X-2.238 Y10.123
X-2.088 Y10.114
X-1.938 Y10.113
X-1.788 Y10.121
X-1.639 Y10.137
X-1.491 Y10.161
X-1.345 Y10.194
X-1.2 Y10.234
X-1.059 Y10.283
X-0.92 Y10.34
X-0.784 Y10.404
X-0.652 Y10.475
X-0.524 Y10.554
X-0.401 Y10.639
X-0.283 Y10.731
X-0.169 Y10.83
X-0.061 Y10.934
X0.041 Y11.044
X0.137 Y11.159
X0.227 Y11.279
X0.311 Y11.403
X0.387 Y11.532
X0.458 Y11.665
X0.521 Y11.801
X0.577 Y11.94
X0.626 Y12.082
X0.667 Y12.226
X0.701 Y12.372
X0.727 Y12.52
X0.746 Y12.668
X0.756 Y12.818
X0.758 Y12.968
X0.753 Y13.118
X0.739 Y13.267
X0.717 Y13.416
X0.687 Y13.563
X0.648 Y13.708
X0.603 Y13.851
X0.549 Y13.991
X0.488 Y14.128
X0.419 Y14.261
X0.343 Y14.39
X0.261 Y14.516
X0.171 Y14.636
X0.075 Y14.751
X-0.027 Y14.861
X-0.135 Y14.965
X-0.249 Y15.063
X-0.368 Y15.154
X-0.491 Y15.239
X-0.619 Y15.317
X-0.751 Y15.389
X-0.887 Y15.453
X-1.026 Y15.509
X-1.168 Y15.559
X-1.312 Y15.6
X-1.458 Y15.634
X-1.606 Y15.66
X-1.754 Y15.678
X-1.904 Y15.689
X-2.054 Y15.691
X-2.204 Y15.685
X-2.353 Y15.672
X-2.502 Y15.65
X-2.649 Y15.621
X-2.794 Y15.584
X-2.938 Y15.54
X-3.079 Y15.488
X-3.217 Y15.429
X-3.351 Y15.363
X-3.482 Y15.291
X-3.609 Y15.211
X-3.732 Y15.125
X-3.85 Y15.032
X-3.963 Y14.934
X-4.071 Y14.829
X-4.173 Y14.72
X-4.27 Y14.605
X-4.36 Y14.485
X-4.444 Y14.361
X-4.522 Y14.232
X-4.593 Y14.1
X-4.656 Y13.964
X-4.713 Y13.826
X-4.763 Y13.684
X-4.805 Y13.54
X-4.84 Y13.394
X-4.867 Y13.247
X-4.886 Y13.098
X-4.897 Y12.948
X-4.901 Y12.798
X-4.897 Y12.648
X-4.885 Y12.499
X-4.866 Y12.35
X-4.839 Y12.203
X-4.804 Y12.057
X-4.762 Y11.913
X-4.713 Y11.771
X-4.656 Y11.632
X-4.592 Y11.496
X-4.521 Y11.364
X-4.444 Y11.236
X-4.36 Y11.112
X-4.269 Y10.992
X-4.173 Y10.877
X-4.07 Y10.767
X-3.962 Y10.663
X-3.849 Y10.565
X-3.731 Y10.472
X-3.609 Y10.386
X-3.482 Y10.306
X-3.351 Y10.232
X-3.217 Y10.166
X-3.079 Y10.106
X-2.938 Y10.054
X-2.795 Y10.009
X-2.65 Y9.972
X-2.503 Y9.942
X-2.354 Y9.92
X-2.205 Y9.906
X-2.055 Y9.899
X-1.905 Y9.9
X-1.755 Y9.909
X-1.606 Y9.925
X-1.458 Y9.949
X-1.312 Y9.981
X-1.167 Y10.02
X-1.024 Y10.067
X-0.884 Y10.121
X-0.747 Y10.182
X-0.614 Y10.251
X-0.484 Y10.325
X-0.358 Y10.407
X-0.236 Y10.494
X-0.119 Y10.588
X-0.006 Y10.687
X0.101 Y10.792
X0.203 Y10.901
X0.3 Y11.016
X0.391 Y11.135
X0.476 Y11.259
X0.555 Y11.387
X0.627 Y11.518
X0.693 Y11.653
X0.753 Y11.79
X0.805 Y11.931
X0.851 Y12.074
X0.89 Y12.219
X0.921 Y12.365
X0.946 Y12.513
X0.963 Y12.662
X0.973 Y12.812
X0.975 Y12.962
X0.97 Y13.112
X0.957 Y13.261
X0.937 Y13.41
X0.909 Y13.557
X0.874 Y13.703
X0.831 Y13.847
X0.782 Y13.989
X0.725 Y14.127
X0.661 Y14.263
X0.59 Y14.395
X0.513 Y14.524
X0.43 Y14.649
X0.34 Y14.769
X0.244 Y14.884
X0.143 Y14.995
X0.036 Y15.1
X-0.076 Y15.2
X-0.193 Y15.293
X-0.315 Y15.381
X-0.441 Y15.463
X-0.571 Y15.538
X-0.704 Y15.606
X-0.841 Y15.668
X-0.981 Y15.723
X-1.123 Y15.771
X-1.267 Y15.812
X-1.413 Y15.846
X-1.561 Y15.873
X-1.709 Y15.892
X-1.859 Y15.904
X-2.009 Y15.908
X-2.159 Y15.905
X-2.308 Y15.895
X-2.457 Y15.877
X-2.605 Y15.852
X-2.752 Y15.82
X-2.897 Y15.781
X-3.039 Y15.735
X-3.18 Y15.682
X-3.317 Y15.623
X-3.452 Y15.556
X-3.583 Y15.484
X-3.711 Y15.405
X-3.835 Y15.32
X-3.954 Y15.229
X-4.069 Y15.132
X-4.179 Y15.03
X-4.283 Y14.923
X-4.383 Y14.811
X-4.477 Y14.694
X-4.565 Y14.573
X-4.647 Y14.447
X-4.724 Y14.318
X-4.794 Y14.185
X-4.857 Y14.05
X-4.914 Y13.911
X-4.965 Y13.77
X-5.008 Y13.626
X-5.044 Y13.48
X-5.074 Y13.333
X-5.096 Y13.185
X-5.11 Y13.036
X-5.118 Y12.886
X-5.119 Y12.736
X-5.112 Y12.586
X-5.098 Y12.437
X-5.077 Y12.288
X-5.049 Y12.141
X-5.014 Y11.995
X-4.972 Y11.851
X-4.923 Y11.709
X-4.867 Y11.57
X-4.805 Y11.433
X-4.736 Y11.3
X-4.661 Y11.17
X-4.579 Y11.044
X-4.492 Y10.923
X-4.398 Y10.805
X-4.3 Y10.692
X-4.196 Y10.584
X-4.087 Y10.481
X-3.973 Y10.384
X-3.854 Y10.291
X-3.732 Y10.205
X-3.605 Y10.125
X-3.475 Y10.051
X-3.341 Y9.983
X-3.204 Y9.922
X-3.064 Y9.867
X-2.922 Y9.819
X-2.778 Y9.779
X-2.631 Y9.745
X-2.484 Y9.718
X-2.335 Y9.698
X-2.186 Y9.686
X-2.036 Y9.681
X-1.886 Y9.683
X-1.736 Y9.692
X-1.587 Y9.708
X-1.439 Y9.731
X-1.292 Y9.761
X-1.146 Y9.799
X-1.003 Y9.843
X-0.862 Y9.894
X-0.724 Y9.952
X-0.588 Y10.017
X-0.456 Y10.088
X-0.327 Y10.165
X-0.202 Y10.248
X-0.081 Y10.336
X0.035 Y10.43
X0.148 Y10.53
X0.255 Y10.634
X0.358 Y10.744
X0.456 Y10.858
X0.548 Y10.976
X0.635 Y11.098
X0.716 Y11.224
X0.791 Y11.354
X0.86 Y11.487
X0.923 Y11.623
X0.98 Y11.762
X1.03 Y11.904
X1.074 Y12.047
X1.111 Y12.192
X1.142 Y12.339
X1.165 Y12.487
X1.182 Y12.636
X1.193 Y12.786
X1.196 Y12.936
X1.192 Y13.086
X1.181 Y13.236
X1.164 Y13.385
X1.139 Y13.532
X1.107 Y13.679
X1.068 Y13.824
X1.023 Y13.967
X0.971 Y14.108
X0.912 Y14.246
X0.847 Y14.381
X0.776 Y14.513
X0.699 Y14.641
X0.615 Y14.766
X0.526 Y14.887
X0.432 Y15.003
X0.332 Y15.115
X0.226 Y15.222
X0.116 Y15.324
X0.001 Y15.42
X-0.118 Y15.511
X-0.241 Y15.596
X-0.369 Y15.675
X-0.5 Y15.749
X-0.634 Y15.816
X-0.771 Y15.877
X-0.91 Y15.932
X-1.052 Y15.98
X-1.197 Y16.022
X-1.342 Y16.056
X-1.49 Y16.085
X-1.638 Y16.106
X-1.788 Y16.12
X-1.937 Y16.128
X-2.087 Y16.129
X-2.237 Y16.122
X-2.387 Y16.109
X-2.535 Y16.089
X-2.683 Y16.062
X-2.829 Y16.029
X-2.974 Y15.989
X-3.116 Y15.943
X-3.257 Y15.89
X-3.395 Y15.831
X-3.53 Y15.766
X-3.662 Y15.695
X-3.791 Y15.617
X-3.916 Y15.535
X-4.037 Y15.446
X-4.154 Y15.352
X-4.266 Y15.253
X-4.374 Y15.149
X-4.477 Y15.04
X-4.575 Y14.926
X-4.668 Y14.809
X-4.756 Y14.687
X-4.838 Y14.561
X-4.914 Y14.432
X-4.985 Y14.3
X-5.049 Y14.164
X-5.108 Y14.026
X-5.16 Y13.886
X-5.206 Y13.743
X-5.245 Y13.598
X-5.277 Y13.452
X-5.303 Y13.304
X-5.323 Y13.155
X-5.335 Y13.006
X-5.341 Y12.856
X-5.34 Y12.706
X-5.332 Y12.556
X-5.318 Y12.407
X-5.297 Y12.258
X-5.269 Y12.111
X-5.235 Y11.964
X-5.195 Y11.82
X-5.148 Y11.678
X-5.094 Y11.537
X-5.035 Y11.4
X-4.969 Y11.265
X-4.897 Y11.133
X-4.819 Y11.005
X-4.736 Y10.881
X-4.647 Y10.76
X-4.552 Y10.643
X-4.453 Y10.531
X-4.349 Y10.423
X-4.24 Y10.32
X-4.126 Y10.222
X-4.008 Y10.129
X-3.887 Y10.041
X-3.761 Y9.959
X-3.632 Y9.883
X-3.499 Y9.813
X-3.364 Y9.749
X-3.225 Y9.691
X-3.085 Y9.639
X-2.942 Y9.593
X-2.797 Y9.555
X-2.65 Y9.522
X-2.503 Y9.496
X-2.354 Y9.477
X-2.204 Y9.465
X-2.054 Y9.459
X-1.904 Y9.46
X-1.755 Y9.467
X-1.605 Y9.481
X-1.457 Y9.502
X-1.309 Y9.53
X-1.163 Y9.564
X-1.019 Y9.605
X-0.877 Y9.652
X-0.736 Y9.705
X-0.599 Y9.765
X-0.464 Y9.831
X-0.332 Y9.902
X-0.204 Y9.979
X-0.078 Y10.062
X0.043 Y10.15
X0.16 Y10.244
X0.274 Y10.342
X0.383 Y10.445
X0.487 Y10.553
X0.587 Y10.665
X0.682 Y10.781
X0.771 Y10.901
X0.856 Y11.025
X0.935 Y11.153
X1.008 Y11.284
X1.076 Y11.418
X1.138 Y11.554
X1.194 Y11.693
X1.244 Y11.835
X1.288 Y11.978
X1.325 Y12.123
X1.357 Y12.27
X1.382 Y12.418
X1.401 Y12.567
X1.414 Y12.716
X1.42 Y12.866
X1.419 Y13.016
X1.412 Y13.166
X1.398 Y13.315
X1.378 Y13.464
X1.351 Y13.611
X1.318 Y13.758
X1.278 Y13.902
X1.232 Y14.045
X1.18 Y14.186
X1.122 Y14.324
X1.058 Y14.46
X0.988 Y14.592
X0.912 Y14.722
X0.831 Y14.848
X0.744 Y14.97
X0.652 Y15.088
X0.554 Y15.202
X0.452 Y15.312
X0.345 Y15.417
X0.233 Y15.517
X0.117 Y15.613
X-0.002 Y15.703
X-0.126 Y15.787
X-0.253 Y15.867
X-0.384 Y15.941
X-0.518 Y16.009
X-0.654 Y16.071
X-0.793 Y16.127
X-0.935 Y16.178
X-1.078 Y16.222
X-1.223 Y16.26
X-1.37 Y16.291
X-1.518 Y16.316
X-1.666 Y16.335
X-1.816 Y16.347
X-1.966 Y16.353
X-2.116 Y16.352
X-2.266 Y16.345
X-2.415 Y16.332
X-2.564 Y16.312
X-2.711 Y16.286
X-2.858 Y16.254
X-3.003 Y16.215
X-3.146 Y16.171
X-3.287 Y16.12
X-3.426 Y16.064
X-3.563 Y16.001
X-3.696 Y15.933
X-3.827 Y15.859
X-3.954 Y15.78
X-4.078 Y15.695
X-4.198 Y15.605
X-4.314 Y15.511
X-4.427 Y15.411
X-4.534 Y15.307
X-4.638 Y15.198
X-4.736 Y15.085
X-4.83 Y14.968
X-4.919 Y14.847
X-5.003 Y14.723
X-5.081 Y14.595
X-5.154 Y14.464
X-5.222 Y14.33
X-5.283 Y14.193
X-5.339 Y14.054
X-5.389 Y13.912
X-5.433 Y13.769
X-5.47 Y13.624
X-5.502 Y13.477
X-5.527 Y13.329
X-5.546 Y13.18
X-5.559 Y13.031
X-5.566 Y12.881
Y12.731
X-5.56 Y12.581
X-5.548 Y12.432
X-5.53 Y12.283
X-5.505 Y12.135
X-5.474 Y11.988
X-5.437 Y11.843
X-5.394 Y11.699
X-5.344 Y11.557
X-5.289 Y11.418
X-5.228 Y11.281
X-5.161 Y11.147
X-5.089 Y11.015
X-5.011 Y10.887
X-4.928 Y10.762
X-4.84 Y10.641
X-4.746 Y10.523
X-4.648 Y10.41
X-4.546 Y10.301
X-4.438 Y10.196
X-4.327 Y10.095
X-4.211 Y10
X-4.092 Y9.909
X-3.968 Y9.824
X-3.841 Y9.744
X-3.711 Y9.669
X-3.578 Y9.6
X-3.442 Y9.537
X-3.304 Y9.479
X-3.163 Y9.427
X-3.02 Y9.382
X-2.875 Y9.342
X-2.729 Y9.308
X-2.582 Y9.28
X-2.433 Y9.259
X-2.284 Y9.244
X-2.134 Y9.235
X-1.984 Y9.232
X-1.835 Y9.236
X-1.685 Y9.246
X-1.536 Y9.262
X-1.387 Y9.285
X-1.24 Y9.314
X-1.094 Y9.349
X-0.95 Y9.39
X-0.808 Y9.437
X-0.667 Y9.49
X-0.529 Y9.548
X-0.394 Y9.613
X-0.261 Y9.682
X-0.131 Y9.758
X-0.005 Y9.838
X0.119 Y9.924
X0.238 Y10.014
X0.354 Y10.109
X0.466 Y10.209
X0.574 Y10.314
X0.677 Y10.423
X0.776 Y10.536
X0.87 Y10.652
X0.959 Y10.773
X1.043 Y10.897
X1.123 Y11.024
X1.197 Y11.155
X1.266 Y11.288
X1.329 Y11.424
X1.387 Y11.562
X1.44 Y11.703
X1.486 Y11.845
X1.527 Y11.989
X1.562 Y12.135
X1.592 Y12.282
X1.615 Y12.431
X1.632 Y12.58
X1.643 Y12.729
X1.647 Y12.879
X1.646 Y13.029
X1.639 Y13.179
X1.625 Y13.328
X1.605 Y13.477
X1.58 Y13.625
X1.548 Y13.771
X1.51 Y13.917
X1.467 Y14.06
X1.417 Y14.202
X1.362 Y14.341
X1.301 Y14.478
X1.235 Y14.613
X1.163 Y14.744
X1.085 Y14.873
X1.003 Y14.998
X0.915 Y15.12
X0.822 Y15.238
X0.725 Y15.352
X0.623 Y15.461
X0.516 Y15.567
X0.405 Y15.668
X0.29 Y15.765
X0.172 Y15.856
X0.05 Y15.943
X-0.076 Y16.025
X-0.205 Y16.102
X-0.337 Y16.173
X-0.472 Y16.239
X-0.609 Y16.299
X-0.749 Y16.354
X-0.891 Y16.403
X-1.034 Y16.446
X-1.18 Y16.483
X-1.326 Y16.514
X-1.474 Y16.54
X-1.623 Y16.559
X-1.772 Y16.572
X-1.922 Y16.58
X-2.072 Y16.581
X-2.222 Y16.576
X-2.372 Y16.565
X-2.521 Y16.549
X-2.669 Y16.526
X-2.816 Y16.498
X-2.962 Y16.463
X-3.107 Y16.423
X-3.25 Y16.377
X-3.391 Y16.325
X-3.529 Y16.268
X-3.665 Y16.205
X-3.799 Y16.137
X-3.93 Y16.064
X-4.058 Y15.985
X-4.182 Y15.901
X-4.303 Y15.813
X-4.421 Y15.72
X-4.535 Y15.622
X-4.644 Y15.52
X-4.75 Y15.413
X-4.851 Y15.303
X-4.948 Y15.188
X-5.041 Y15.07
X-5.128 Y14.948
X-5.211 Y14.823
X-5.288 Y14.695
X-5.361 Y14.563
X-5.428 Y14.429
X-5.49 Y14.292
X-5.546 Y14.153
X-5.597 Y14.012
X-5.642 Y13.869
X-5.681 Y13.724
X-5.715 Y13.578
X-5.743 Y13.431
X-5.765 Y13.283
X-5.781 Y13.133
X-5.792 Y12.984
X-5.796 Y12.834
X-5.794 Y12.684
X-5.787 Y12.534
X-5.773 Y12.385
X-5.754 Y12.236
X-5.729 Y12.088
X-5.698 Y11.941
X-5.661 Y11.796
X-5.619 Y11.652
X-5.57 Y11.51
X-5.517 Y11.37
X-5.457 Y11.232
X-5.393 Y11.097
X-5.323 Y10.964
X-5.248 Y10.834
X-5.168 Y10.707
X-5.083 Y10.584
X-4.993 Y10.464
X-4.898 Y10.347
X-4.799 Y10.235
X-4.695 Y10.126
X-4.588 Y10.022
X-4.476 Y9.922
X-4.36 Y9.826
X-4.241 Y9.735
X-4.118 Y9.649
X-3.992 Y9.568
X-3.863 Y9.492
X-3.731 Y9.421
X-3.596 Y9.355
X-3.459 Y9.295
X-3.319 Y9.24
X-3.177 Y9.19
X-3.034 Y9.147
X-2.889 Y9.109
X-2.742 Y9.077
X-2.595 Y9.05
X-2.446 Y9.03
X-2.297 Y9.015
X-2.147 Y9.006
X-1.997 Y9.003
X-1.847 Y9.006
X-1.697 Y9.015
X-1.548 Y9.03
X-1.399 Y9.051
X-1.252 Y9.077
X-1.105 Y9.11
X-0.96 Y9.148
X-0.817 Y9.191
X-0.675 Y9.241
X-0.535 Y9.295
X-0.398 Y9.356
X-0.263 Y9.421
X-0.131 Y9.492
X-0.001 Y9.567
X0.125 Y9.648
X0.248 Y9.734
X0.368 Y9.824
X0.485 Y9.918
X0.597 Y10.018
X0.706 Y10.121
X0.811 Y10.228
X0.911 Y10.34
X1.008 Y10.455
X1.099 Y10.573
X1.187 Y10.695
X1.269 Y10.821
X1.347 Y10.949
X1.419 Y11.08
X1.487 Y11.214
X1.55 Y11.35
X1.607 Y11.489
X1.659 Y11.63
X1.706 Y11.772
X1.747 Y11.916
X1.783 Y12.062
X1.813 Y12.209
X1.837 Y12.357
X1.856 Y12.506
X1.869 Y12.655
X1.877 Y12.805
X1.878 Y12.955
X1.874 Y13.105
X1.864 Y13.255
X1.849 Y13.404
X1.827 Y13.552
X1.8 Y13.7
X1.767 Y13.846
X1.729 Y13.991
X1.685 Y14.135
X1.635 Y14.276
X1.58 Y14.416
X1.52 Y14.553
X1.455 Y14.688
X1.384 Y14.82
X1.308 Y14.95
X1.227 Y15.076
X1.142 Y15.199
X1.052 Y15.319
X0.957 Y15.435
X0.857 Y15.548
X0.754 Y15.656
X0.646 Y15.761
X0.535 Y15.861
X0.419 Y15.957
X0.3 Y16.048
X0.178 Y16.135
X0.052 Y16.217
X-0.077 Y16.294
X-0.208 Y16.366
X-0.343 Y16.433
X-0.479 Y16.494
X-0.618 Y16.551
X-0.759 Y16.602
X-0.902 Y16.648
X-1.047 Y16.688
X-1.193 Y16.723
X-1.34 Y16.752
X-1.488 Y16.775
X-1.637 Y16.793
X-1.786 Y16.805
X-1.936 Y16.811
X-2.086 Y16.812
X-2.236 Y16.807
X-2.386 Y16.796
X-2.535 Y16.78
X-2.683 Y16.758
X-2.831 Y16.731
X-2.977 Y16.698
X-3.122 Y16.659
X-3.266 Y16.616
X-3.407 Y16.566
X-3.547 Y16.512
X-3.685 Y16.452
X-3.82 Y16.387
X-3.953 Y16.317
X-4.082 Y16.242
X-4.21 Y16.163
X-4.334 Y16.078
X-4.454 Y15.989
X-4.572 Y15.896
X-4.685 Y15.798
X-4.795 Y15.696
X-4.902 Y15.59
X-5.004 Y15.48
X-5.102 Y15.367
X-5.195 Y15.249
X-5.284 Y15.129
X-5.369 Y15.005
X-5.449 Y14.878
X-5.524 Y14.748
X-5.595 Y14.616
X-5.66 Y14.481
X-5.72 Y14.343
X-5.775 Y14.204
X-5.825 Y14.062
X-5.869 Y13.919
X-5.908 Y13.774
X-5.942 Y13.628
X-5.97 Y13.481
X-5.992 Y13.332
X-6.009 Y13.183
X-6.021 Y13.034
X-6.027 Y12.884
Y12.734
X-6.022 Y12.584
X-6.012 Y12.434
X-5.995 Y12.285
X-5.973 Y12.137
X-5.946 Y11.989
X-5.913 Y11.843
X-5.875 Y11.698
X-5.831 Y11.554
X-5.782 Y11.413
X-5.728 Y11.273
X-5.668 Y11.135
X-5.604 Y11
X-5.534 Y10.867
X-5.46 Y10.737
X-5.381 Y10.609
X-5.297 Y10.485
X-5.208 Y10.364
X-5.115 Y10.246
X-5.018 Y10.132
X-4.917 Y10.021
X-4.811 Y9.914
X-4.702 Y9.812
X-4.589 Y9.713
X-4.472 Y9.619
X-4.352 Y9.529
X-4.229 Y9.444
X-4.102 Y9.363
X-3.973 Y9.287
X-3.841 Y9.216
X-3.706 Y9.15
X-3.569 Y9.09
X-3.43 Y9.034
X-3.288 Y8.983
X-3.145 Y8.938
X-3.001 Y8.898
X-2.855 Y8.863
X-2.708 Y8.834
X-2.56 Y8.81
X-2.411 Y8.792
X-2.261 Y8.779
X-2.112 Y8.773
X-1.962 Y8.771
X-1.812 Y8.775
X-1.662 Y8.785
X-1.513 Y8.801
X-1.364 Y8.821
X-1.216 Y8.848
X-1.07 Y8.879
X-0.925 Y8.917
X-0.781 Y8.959
X-0.638 Y9.007
X-0.498 Y9.06
X-0.36 Y9.118
X-0.224 Y9.181
X-0.09 Y9.249
X0.041 Y9.322
X0.17 Y9.399
X0.295 Y9.481
X0.417 Y9.568
X0.537 Y9.659
X0.652 Y9.755
X0.765 Y9.854
X0.873 Y9.958
X0.978 Y10.065
X1.079 Y10.176
X1.175 Y10.291
X1.268 Y10.409
X1.356 Y10.53
X1.44 Y10.654
X1.519 Y10.782
X1.594 Y10.912
X1.664 Y11.044
X1.729 Y11.179
X1.79 Y11.317
X1.845 Y11.456
X1.896 Y11.597
X1.941 Y11.741
X1.981 Y11.885
X2.015 Y12.031
X2.045 Y12.178
X2.069 Y12.326
X2.088 Y12.475
X2.101 Y12.624
X2.109 Y12.774
X2.112 Y12.924
X2.109 Y13.074
X2.101 Y13.224
X2.087 Y13.373
X2.068 Y13.522
X2.043 Y13.67
X2.014 Y13.817
X1.978 Y13.963
X1.938 Y14.107
X1.892 Y14.25
X1.841 Y14.391
X1.785 Y14.53
X1.724 Y14.667
X1.658 Y14.802
X1.587 Y14.934
X1.512 Y15.064
X1.431 Y15.19
X1.346 Y15.314
X1.257 Y15.435
X1.163 Y15.552
X1.065 Y15.665
X0.963 Y15.775
X0.857 Y15.882
X0.748 Y15.984
X0.634 Y16.082
X0.518 Y16.176
X0.397 Y16.266
X0.274 Y16.351
X0.148 Y16.432
X0.018 Y16.508
X-0.114 Y16.58
X-0.248 Y16.646
X-0.385 Y16.708
X-0.524 Y16.765
X-0.664 Y16.816
X-0.807 Y16.863
X-0.951 Y16.904
X-1.097 Y16.94
X-1.243 Y16.971
X-1.391 Y16.997
X-1.54 Y17.017
X-1.689 Y17.032
X-1.839 Y17.042
X-1.989 Y17.046
X-2.139 Y17.045
X-2.289 Y17.039
X-2.438 Y17.027
X-2.587 Y17.009
X-2.735 Y16.987
X-2.883 Y16.959
X-3.029 Y16.926
X-3.174 Y16.888
X-3.318 Y16.845
X-3.46 Y16.796
X-3.6 Y16.743
X-3.738 Y16.685
X-3.874 Y16.622
X-4.008 Y16.554
X-4.139 Y16.481
X-4.268 Y16.404
X-4.394 Y16.322
X-4.516 Y16.236
X-4.636 Y16.145
X-4.752 Y16.051
X-4.865 Y15.952
X-4.975 Y15.849
X-5.08 Y15.743
X-5.182 Y15.633
X-5.28 Y15.519
X-5.374 Y15.402
X-5.464 Y15.282
X-5.549 Y15.158
X-5.63 Y15.032
X-5.706 Y14.903
X-5.778 Y14.771
X-5.845 Y14.637
X-5.908 Y14.501
X-5.965 Y14.362
X-6.018 Y14.222
X-6.066 Y14.08
X-6.108 Y13.936
X-6.146 Y13.791
X-6.178 Y13.644
X-6.205 Y13.497
X-6.227 Y13.348
X-6.244 Y13.199
X-6.255 Y13.05
X-6.262 Y12.9
X-6.263 Y12.75
X-6.258 Y12.6
X-6.249 Y12.45
X-6.234 Y12.301
X-6.214 Y12.152
X-6.188 Y12.004
X-6.158 Y11.858
X-6.122 Y11.712
X-6.081 Y11.567
X-6.035 Y11.425
X-5.985 Y11.284
X-5.929 Y11.144
X-5.868 Y11.007
X-5.803 Y10.872
X-5.732 Y10.74
X-5.658 Y10.61
X-5.578 Y10.482
X-5.495 Y10.358
X-5.406 Y10.236
X-5.314 Y10.118
X-5.218 Y10.003
X-5.117 Y9.892
X-5.013 Y9.784
X-4.905 Y9.68
X-4.794 Y9.579
X-4.679 Y9.483
X-4.561 Y9.391
X-4.439 Y9.303
X-4.315 Y9.219
X-4.187 Y9.14
X-4.057 Y9.065
X-3.924 Y8.995
X-3.789 Y8.93
X-3.652 Y8.87
X-3.513 Y8.814
X-3.372 Y8.763
X-3.229 Y8.717
X-3.084 Y8.677
X-2.939 Y8.641
X-2.792 Y8.611
X-2.644 Y8.585
X-2.495 Y8.565
X-2.346 Y8.55
X-2.196 Y8.541
X-2.046 Y8.536
X-1.896 Y8.537
X-1.747 Y8.543
X-1.597 Y8.555
X-1.448 Y8.572
X-1.3 Y8.594
X-1.152 Y8.621
X-1.006 Y8.653
X-0.86 Y8.69
X-0.716 Y8.733
X-0.574 Y8.78
X-0.433 Y8.832
X-0.295 Y8.889
X-0.158 Y8.951
X-0.024 Y9.018
X0.108 Y9.089
X0.238 Y9.164
X0.365 Y9.245
X0.489 Y9.329
X0.61 Y9.417
X0.728 Y9.51
X0.843 Y9.607
X0.954 Y9.707
X1.062 Y9.812
X1.166 Y9.92
X1.266 Y10.031
X1.362 Y10.146
X1.455 Y10.264
X1.543 Y10.385
X1.628 Y10.509
X1.708 Y10.636
X1.783 Y10.766
X1.855 Y10.898
X1.921 Y11.032
X1.984 Y11.169
X2.041 Y11.307
X2.094 Y11.448
X2.142 Y11.59
X2.185 Y11.733
X2.223 Y11.879
X2.256 Y12.025
X2.284 Y12.172
X2.307 Y12.32
X2.325 Y12.469
X2.338 Y12.619
X2.346 Y12.769
X2.348 Y12.919
X2.345 Y13.069
X2.338 Y13.218
X2.325 Y13.368
X2.307 Y13.517
X2.284 Y13.665
X2.256 Y13.812
X2.223 Y13.959
X2.185 Y14.104
X2.142 Y14.247
X2.094 Y14.389
X2.041 Y14.53
X1.983 Y14.668
X1.92 Y14.805
X1.853 Y14.939
X1.781 Y15.07
X1.705 Y15.2
X1.624 Y15.326
X1.539 Y15.45
X1.45 Y15.57
X1.357 Y15.688
X1.26 Y15.802
X1.158 Y15.912
X1.053 Y16.02
X0.945 Y16.123
X0.833 Y16.223
X0.718 Y16.319
X0.599 Y16.411
X0.477 Y16.498
X0.353 Y16.582
X0.225 Y16.661
X0.095 Y16.736
X-0.037 Y16.806
X-0.172 Y16.872
X-0.309 Y16.933
X-0.448 Y16.989
X-0.589 Y17.04
X-0.732 Y17.087
X-0.876 Y17.129
X-1.021 Y17.165
X-1.168 Y17.197
X-1.315 Y17.224
X-1.464 Y17.246
X-1.613 Y17.263
X-1.762 Y17.275
X-1.912 Y17.281
X-2.062 Y17.283
X-2.212 Y17.279
X-2.362 Y17.271
X-2.511 Y17.257
X-2.66 Y17.239
X-2.808 Y17.215
X-2.956 Y17.186
X-3.102 Y17.153
X-3.247 Y17.114
X-3.39 Y17.07
X-3.532 Y17.022
X-3.673 Y16.969
X-3.811 Y16.912
X-3.948 Y16.849
X-4.082 Y16.782
X-4.214 Y16.711
X-4.343 Y16.636
X-4.47 Y16.556
X-4.594 Y16.471
X-4.716 Y16.383
X-4.834 Y16.291
X-4.949 Y16.195
X-5.061 Y16.095
X-5.169 Y15.991
X-5.274 Y15.884
X-5.375 Y15.773
X-5.473 Y15.659
X-5.566 Y15.542
X-5.656 Y15.421
X-5.741 Y15.298
X-5.823 Y15.172
X-5.9 Y15.043
X-5.972 Y14.912
X-6.041 Y14.779
X-6.104 Y14.643
X-6.164 Y14.505
X-6.218 Y14.365
X-6.268 Y14.224
X-6.314 Y14.081
X-6.354 Y13.936
X-6.39 Y13.791
X-6.42 Y13.644
X-6.446 Y13.496
X-6.467 Y13.348
X-6.483 Y13.198
X-6.493 Y13.049
X-6.499 Y12.899
X-6.5 Y12.749
X-6.496 Y12.599
X-6.487 Y12.449
X-6.473 Y12.3
X-6.453 Y12.151
X-6.429 Y12.003
X-6.4 Y11.856
X-6.367 Y11.71
X-6.328 Y11.565
X-6.284 Y11.421
X-6.236 Y11.279
X-6.183 Y11.139
X-6.126 Y11
X-6.063 Y10.864
X-5.997 Y10.73
X-5.925 Y10.598
X-5.85 Y10.468
X-5.77 Y10.341
X-5.686 Y10.217
X-5.598 Y10.095
X-5.506 Y9.977
X-5.41 Y9.862
X-5.31 Y9.75
X-5.206 Y9.641
X-5.099 Y9.536
X-4.989 Y9.435
X-4.875 Y9.337
X-4.758 Y9.243
X-4.638 Y9.153
X-4.515 Y9.067
X-4.389 Y8.985
X-4.261 Y8.908
X-4.13 Y8.835
X-3.997 Y8.766
X-3.861 Y8.702
X-3.724 Y8.642
X-3.584 Y8.587
X-3.443 Y8.536
X-3.3 Y8.491
X-3.156 Y8.45
X-3.01 Y8.414
X-2.863 Y8.383
X-2.716 Y8.356
X-2.567 Y8.335
X-2.418 Y8.318
X-2.268 Y8.307
X-2.119 Y8.3
X-1.969 Y8.299
X-1.819 Y8.302
X-1.669 Y8.31
X-1.52 Y8.324
X-1.371 Y8.342
X-1.222 Y8.365
X-1.075 Y8.394
X-0.929 Y8.427
X-0.784 Y8.465
X-0.64 Y8.507
X-0.498 Y8.555
X-0.357 Y8.607
X-0.218 Y8.663
X-0.081 Y8.724
X0.054 Y8.79
X0.187 Y8.86
X0.317 Y8.934
X0.445 Y9.013
X0.57 Y9.095
X0.692 Y9.182
X0.812 Y9.272
X0.929 Y9.367
X1.042 Y9.465
X1.152 Y9.567
X1.259 Y9.672
X1.362 Y9.781
X1.462 Y9.893
X1.558 Y10.008
X1.65 Y10.126
X1.739 Y10.247
X1.823 Y10.371
X1.904 Y10.498
X1.98 Y10.627
X2.052 Y10.759
X2.12 Y10.893
X2.183 Y11.029
X2.242 Y11.167
X2.297 Y11.306
X2.347 Y11.448
X2.392 Y11.591
X2.433 Y11.735
X2.469 Y11.881
X2.5 Y12.027
X2.527 Y12.175
X2.549 Y12.323
X2.566 Y12.472
X2.578 Y12.622
X2.585 Y12.772
X2.587 Y12.922
X2.584 Y13.072
X2.577 Y13.221
X2.565 Y13.371
X2.547 Y13.52
X2.525 Y13.668
X2.499 Y13.816
X2.467 Y13.963
X2.431 Y14.108
X2.39 Y14.252
X2.344 Y14.395
X2.294 Y14.537
X2.239 Y14.676
X2.179 Y14.814
X2.115 Y14.949
X2.047 Y15.083
X1.974 Y15.214
X1.897 Y15.343
X1.816 Y15.469
X1.731 Y15.592
X1.641 Y15.713
X1.548 Y15.83
X1.451 Y15.945
X1.351 Y16.056
X1.246 Y16.164
X1.139 Y16.269
X1.028 Y16.37
X0.914 Y16.467
X0.796 Y16.56
X0.676 Y16.65
X0.553 Y16.736
X0.427 Y16.817
X0.299 Y16.895
X0.168 Y16.968
X0.035 Y17.037
X-0.101 Y17.102
X-0.238 Y17.162
X-0.377 Y17.218
X-0.518 Y17.269
X-0.661 Y17.315
X-0.805 Y17.357
X-0.95 Y17.394
X-1.097 Y17.427
X-1.244 Y17.454
X-1.392 Y17.478
X-1.541 Y17.496
X-1.691 Y17.509
X-1.841 Y17.518
X-1.99 Y17.522
X-2.14 Y17.521
X-2.29 Y17.515
X-2.44 Y17.505
X-2.589 Y17.489
X-2.738 Y17.469
X-2.886 Y17.444
X-3.033 Y17.415
X-3.179 Y17.38
X-3.324 Y17.341
X-3.467 Y17.297
X-3.609 Y17.249
X-3.75 Y17.196
X-3.888 Y17.139
X-4.025 Y17.078
X-4.16 Y17.012
X-4.292 Y16.942
X-4.423 Y16.867
X-4.551 Y16.789
X-4.676 Y16.706
X-4.798 Y16.62
X-4.918 Y16.53
X-5.035 Y16.436
X-5.149 Y16.338
X-5.26 Y16.237
X-5.367 Y16.132
X-5.471 Y16.024
X-5.572 Y15.913
X-5.669 Y15.798
X-5.762 Y15.681
X-5.851 Y15.56
X-5.937 Y15.437
X-6.018 Y15.311
X-6.096 Y15.183
X-6.169 Y15.052
X-6.239 Y14.919
X-6.304 Y14.784
X-6.364 Y14.647
X-6.421 Y14.508
X-6.473 Y14.367
X-6.52 Y14.225
X-6.563 Y14.081
X-6.602 Y13.936
X-6.635 Y13.79
X-6.665 Y13.643
X-6.689 Y13.495
X-6.709 Y13.346
X-6.724 Y13.197
X-6.734 Y13.047
X-6.739 Y12.897
X-6.74 Y12.747
X-6.736 Y12.597
X-6.727 Y12.448
X-6.714 Y12.298
X-6.695 Y12.149
X-6.673 Y12.001
X-6.645 Y11.854
X-6.613 Y11.707
X-6.576 Y11.562
X-6.534 Y11.418
X-6.489 Y11.275
X-6.438 Y11.133
X-6.383 Y10.994
X-6.324 Y10.856
X-6.26 Y10.72
X-6.193 Y10.586
X-6.121 Y10.455
X-6.044 Y10.326
X-5.964 Y10.199
X-5.88 Y10.075
X-5.791 Y9.954
X-5.699 Y9.835
X-5.604 Y9.72
X-5.504 Y9.607
X-5.402 Y9.498
X-5.296 Y9.392
X-5.186 Y9.289
X-5.073 Y9.19
X-4.958 Y9.095
X-4.839 Y9.003
X-4.718 Y8.915
X-4.593 Y8.831
X-4.467 Y8.751
X-4.337 Y8.675
X-4.206 Y8.603
X-4.072 Y8.535
X-3.936 Y8.472
X-3.798 Y8.413
X-3.658 Y8.358
X-3.517 Y8.308
X-3.374 Y8.262
X-3.23 Y8.221
X-3.084 Y8.185
X-2.938 Y8.153
X-2.79 Y8.125
X-2.642 Y8.103
X-2.493 Y8.085
X-2.344 Y8.071
X-2.194 Y8.063
X-2.044 Y8.059
X-1.894 Y8.06
X-1.744 Y8.065
X-1.594 Y8.075
X-1.445 Y8.09
X-1.296 Y8.11
X-1.148 Y8.134
X-1.001 Y8.164
X-0.855 Y8.197
X-0.71 Y8.235
X-0.566 Y8.278
X-0.424 Y8.326
X-0.282 Y8.377
X-0.143 Y8.434
X-0.004 Y8.495
X0.132 Y8.56
X0.267 Y8.63
X0.399 Y8.703
X0.529 Y8.781
X0.657 Y8.863
X0.782 Y8.949
X0.904 Y9.039
X1.024 Y9.133
X1.14 Y9.23
X1.254 Y9.331
X1.364 Y9.436
X1.471 Y9.544
X1.575 Y9.656
X1.675 Y9.77
X1.771 Y9.888
X1.864 Y10.009
X1.953 Y10.133
X2.038 Y10.259
X2.12 Y10.388
X2.197 Y10.52
X2.27 Y10.654
X2.339 Y10.791
X2.404 Y10.93
X2.464 Y11.07
X2.52 Y11.213
X2.571 Y11.357
X2.618 Y11.502
X2.66 Y11.649
X2.697 Y11.796
X2.73 Y11.945
X2.758 Y12.095
X2.781 Y12.245
X2.8 Y12.396
X2.814 Y12.548
X2.823 Y12.7
X2.828 Y12.852
X2.827 Y13.005
X2.822 Y13.157
X2.812 Y13.309
X2.798 Y13.461
X2.778 Y13.612
X2.754 Y13.762
X2.726 Y13.911
X2.692 Y14.059
X2.655 Y14.205
X2.612 Y14.35
X2.566 Y14.493
X2.514 Y14.635
X2.478 Y14.723
X2.458 Y14.767
X2.436 Y14.811
X2.189 Y15.282
X2.186 Y15.288
X2.163 Y15.332
X2.051 Y15.522
X2.024 Y15.564
X1.983 Y15.625
X1.938 Y15.685
X1.89 Y15.741
G3 X1.394 Y15.347 I-0.231 J-0.219
G1 X1.61 Y15.019
G3 X2.163 Y15.332 I0.266 J0.175
G1 X2.043 Y15.559
X2.03 Y15.58
X1.897 Y15.734
X1.386 Y16.31
X1.364 Y16.335
X1.336 Y16.367
X1.23 Y16.476
G3 X0.807 Y16.008 I-0.181 J-0.261
G1 X0.849 Y15.958
G3 X1.336 Y16.367 I0.242 J0.207
G1 X1.255 Y16.456
X1.167 Y16.522
X0.416 Y17.041
X0.292 Y17.125
X0.146 Y17.187
X-0.73 Y17.519
X-0.803 Y17.546
X-0.839 Y17.555
X-0.876 Y17.562
X-1.97 Y17.694
X-2.007 Y17.695
X-2.043 Y17.693
X-3.138 Y17.56
X-3.174 Y17.553
X-3.211 Y17.541
X-4.232 Y17.154
X-4.269 Y17.138
X-4.305 Y17.117
X-5.108 Y16.563
X-5.254 Y16.456
X-5.4 Y16.296
X-5.983 Y15.637
X-6.03 Y15.58
X-6.109 Y15.434
X-6.567 Y14.561
X-6.611 Y14.412
X-6.827 Y13.536
X-6.859 Y13.397
X-6.86 Y13.39
X-6.863 Y13.244
Y12.367
X-6.861 Y12.221
X-6.859 Y12.204
X-6.829 Y12.075
X-6.613 Y11.199
X-6.573 Y11.053
X-6.567 Y11.039
X-6.115 Y10.177
X-6.036 Y10.031
X-5.983 Y9.963
X-5.266 Y9.154
X-5.254 Y9.142
X-5.108 Y9.037
X-4.305 Y8.483
X-4.269 Y8.462
X-4.232 Y8.446
X-3.211 Y8.059
X-3.174 Y8.048
X-3.138 Y8.04
X-2.043 Y7.907
X-2.007 Y7.905
X-1.97 Y7.906
X-0.876 Y8.038
X-0.839 Y8.045
X-0.803 Y8.054
X-0.438 Y8.192
X0.174 Y8.424
X0.292 Y8.475
X0.438 Y8.574
X1.167 Y9.078
X1.265 Y9.154
X1.313 Y9.207
X2.01 Y9.994
X2.036 Y10.031
X2.043 Y10.042
X2.191 Y10.323
X2.498 Y10.907
X2.573 Y11.053
X2.613 Y11.199
X2.829 Y12.075
X2.861 Y12.221
X2.863 Y12.367
Y13.244
X2.86 Y13.39
X2.827 Y13.536
X2.611 Y14.412
X2.568 Y14.558
X2.436 Y14.811
G3 X2.031 Y14.944 I-0.276 J-0.158
G1 X1.988 Y14.911 Z-1.245
X1.947 Y14.878 Z-1.231
X1.908 Y14.848 Z-1.208
X1.889 Y14.803 Z-1.173
X1.872 Y14.765 Z-1.129
X1.859 Y14.735 Z-1.078
X1.85 Y14.714 Z-1.022
X1.846 Y14.704 Z-0.963
Y14.702 Z-0.932
G0 Z5
X-2.598 Y11.413
Z1.25
G3 X-1.402 Y14.187 Z1.084 I0.598 J1.387 F283.3
X-2.598 Y11.413 Z0.919 I-0.598 J-1.387
X-1.402 Y14.187 Z0.753 I0.598 J1.387
X-2.598 Y11.413 Z0.587 I-0.598 J-1.387
X-1.402 Y14.187 Z0.421 I0.598 J1.387
X-2.598 Y11.413 Z0.256 I-0.598 J-1.387
X-1.402 Y14.187 Z0.09 I0.598 J1.387
X-2.598 Y11.413 Z-0.076 I-0.598 J-1.387
X-1.402 Y14.187 Z-0.241 I0.598 J1.387
X-2.598 Y11.413 Z-0.407 I-0.598 J-1.387
X-1.402 Y14.187 Z-0.573 I0.598 J1.387
X-2.598 Y11.413 Z-0.739 I-0.598 J-1.387
X-1.402 Y14.187 Z-0.904 I0.598 J1.387
X-2.598 Y11.413 Z-1.07 I-0.598 J-1.387
X-1.402 Y14.187 Z-1.236 I0.598 J1.387
X-2.598 Y11.413 Z-1.401 I-0.598 J-1.387
X-1.402 Y14.187 Z-1.567 I0.598 J1.387
X-2.598 Y11.413 Z-1.733 I-0.598 J-1.387
X-1.402 Y14.187 Z-1.899 I0.598 J1.387
X-2.598 Y11.413 Z-2.064 I-0.598 J-1.387
X-1.402 Y14.187 Z-2.23 I0.598 J1.387
X-2.598 Y11.413 Z-2.396 I-0.598 J-1.387
X-0.489 Y12.8 Z-2.5 I0.598 J1.387
X-3.51 I-1.51
X-0.489 I1.51
G1 X-0.479 Y13.183 F850
X-0.48 Y13.333
X-0.512 Y13.48
X-0.565 Y13.62
X-0.636 Y13.752
X-0.721 Y13.876
X-0.818 Y13.99
X-0.926 Y14.094
X-1.044 Y14.187
X-1.17 Y14.268
X-1.303 Y14.337
X-1.442 Y14.394
X-1.586 Y14.438
X-1.732 Y14.469
X-1.881 Y14.487
X-2.031 Y14.491
X-2.181 Y14.482
X-2.329 Y14.459
X-2.475 Y14.423
X-2.617 Y14.375
X-2.754 Y14.314
X-2.885 Y14.242
X-3.01 Y14.158
X-3.126 Y14.063
X-3.233 Y13.958
X-3.331 Y13.844
X-3.418 Y13.722
X-3.494 Y13.593
X-3.559 Y13.458
X-3.611 Y13.317
X-3.65 Y13.172
X-3.677 Y13.025
X-3.69 Y12.875
Y12.725
X-3.677 Y12.576
X-3.651 Y12.428
X-3.611 Y12.283
X-3.559 Y12.143
X-3.495 Y12.007
X-3.419 Y11.878
X-3.332 Y11.756
X-3.234 Y11.642
X-3.127 Y11.537
X-3.01 Y11.443
X-2.886 Y11.358
X-2.755 Y11.286
X-2.618 Y11.225
X-2.476 Y11.176
X-2.33 Y11.14
X-2.182 Y11.118
X-2.033 Y11.108
X-1.883 Y11.112
X-1.734 Y11.129
X-1.587 Y11.159
X-1.443 Y11.202
X-1.304 Y11.258
X-1.17 Y11.325
X-1.042 Y11.405
X-0.923 Y11.495
X-0.811 Y11.595
X-0.709 Y11.705
X-0.617 Y11.824
X-0.537 Y11.95
X-0.467 Y12.083
X-0.41 Y12.222
X-0.365 Y12.365
X-0.33 Y12.511
X-0.302 Y12.658
X-0.28 Y12.807
X-0.268 Y12.956
X-0.267 Y13.106
X-0.28 Y13.256
X-0.308 Y13.403
X-0.349 Y13.547
X-0.405 Y13.687
X-0.473 Y13.82
X-0.554 Y13.946
X-0.647 Y14.064
X-0.749 Y14.174
X-0.861 Y14.274
X-0.981 Y14.363
X-1.109 Y14.442
X-1.243 Y14.511
X-1.381 Y14.567
X-1.524 Y14.612
X-1.671 Y14.646
X-1.819 Y14.667
X-1.969 Y14.677
X-2.119 Y14.674
X-2.268 Y14.659
X-2.416 Y14.632
X-2.561 Y14.593
X-2.702 Y14.543
X-2.839 Y14.481
X-2.97 Y14.409
X-3.095 Y14.326
X-3.214 Y14.234
X-3.324 Y14.133
X-3.427 Y14.023
X-3.52 Y13.906
X-3.603 Y13.781
X-3.676 Y13.65
X-3.739 Y13.514
X-3.79 Y13.373
X-3.83 Y13.228
X-3.858 Y13.081
X-3.875 Y12.932
X-3.879 Y12.782
X-3.872 Y12.632
X-3.853 Y12.483
X-3.822 Y12.336
X-3.779 Y12.193
X-3.725 Y12.053
X-3.659 Y11.918
X-3.584 Y11.788
X-3.498 Y11.665
X-3.403 Y11.549
X-3.299 Y11.441
X-3.186 Y11.342
X-3.066 Y11.252
X-2.94 Y11.172
X-2.807 Y11.102
X-2.669 Y11.043
X-2.526 Y10.996
X-2.381 Y10.96
X-2.233 Y10.935
X-2.083 Y10.922
X-1.933 Y10.921
X-1.784 Y10.933
X-1.636 Y10.956
X-1.49 Y10.99
X-1.347 Y11.037
X-1.209 Y11.095
X-1.075 Y11.164
X-0.948 Y11.243
X-0.827 Y11.332
X-0.714 Y11.43
X-0.608 Y11.537
X-0.512 Y11.651
X-0.425 Y11.774
X-0.348 Y11.902
X-0.281 Y12.037
X-0.224 Y12.175
X-0.174 Y12.317
X-0.134 Y12.461
X-0.102 Y12.608
X-0.081 Y12.756
X-0.069 Y12.906
Y13.056
X-0.08 Y13.206
X-0.103 Y13.354
X-0.138 Y13.5
X-0.185 Y13.642
X-0.244 Y13.78
X-0.313 Y13.913
X-0.394 Y14.039
X-0.484 Y14.159
X-0.584 Y14.271
X-0.692 Y14.375
X-0.808 Y14.47
X-0.931 Y14.556
X-1.061 Y14.632
X-1.195 Y14.698
X-1.335 Y14.753
X-1.478 Y14.798
X-1.624 Y14.832
X-1.772 Y14.855
X-1.922 Y14.867
X-2.072 Y14.868
X-2.222 Y14.858
X-2.37 Y14.837
X-2.517 Y14.806
X-2.661 Y14.764
X-2.801 Y14.711
X-2.937 Y14.648
X-3.069 Y14.575
X-3.194 Y14.493
X-3.314 Y14.403
X-3.426 Y14.304
X-3.531 Y14.197
X-3.629 Y14.082
X-3.717 Y13.961
X-3.797 Y13.834
X-3.867 Y13.702
X-3.927 Y13.564
X-3.977 Y13.423
X-4.017 Y13.278
X-4.046 Y13.131
X-4.065 Y12.982
X-4.073 Y12.832
X-4.07 Y12.682
X-4.056 Y12.533
X-4.032 Y12.385
X-3.996 Y12.239
X-3.951 Y12.096
X-3.894 Y11.957
X-3.828 Y11.823
X-3.753 Y11.693
X-3.668 Y11.569
X-3.575 Y11.452
X-3.473 Y11.341
X-3.364 Y11.239
X-3.248 Y11.144
X-3.125 Y11.058
X-2.996 Y10.981
X-2.862 Y10.914
X-2.723 Y10.857
X-2.581 Y10.81
X-2.435 Y10.773
X-2.288 Y10.747
X-2.138 Y10.732
X-1.988 Y10.727
X-1.839 Y10.733
X-1.69 Y10.75
X-1.542 Y10.777
X-1.397 Y10.816
X-1.255 Y10.865
X-1.117 Y10.924
X-0.984 Y10.993
X-0.856 Y11.071
X-0.734 Y11.158
X-0.619 Y11.254
X-0.511 Y11.358
X-0.41 Y11.469
X-0.318 Y11.587
X-0.234 Y11.712
X-0.158 Y11.841
X-0.09 Y11.975
X-0.031 Y12.113
X0.019 Y12.254
X0.061 Y12.398
X0.093 Y12.545
X0.116 Y12.693
X0.129 Y12.842
X0.132 Y12.992
X0.125 Y13.142
X0.108 Y13.291
X0.08 Y13.438
X0.041 Y13.583
X-0.009 Y13.725
X-0.069 Y13.862
X-0.138 Y13.995
X-0.217 Y14.123
X-0.305 Y14.244
X-0.402 Y14.359
X-0.506 Y14.467
X-0.618 Y14.567
X-0.736 Y14.659
X-0.861 Y14.742
X-0.991 Y14.816
X-1.127 Y14.881
X-1.266 Y14.937
X-1.409 Y14.983
X-1.554 Y15.018
X-1.702 Y15.044
X-1.851 Y15.06
X-2.001 Y15.067
X-2.151 Y15.063
X-2.3 Y15.049
X-2.449 Y15.025
X-2.595 Y14.991
X-2.738 Y14.947
X-2.878 Y14.894
X-3.015 Y14.832
X-3.147 Y14.76
X-3.274 Y14.68
X-3.395 Y14.592
X-3.51 Y14.496
X-3.619 Y14.393
X-3.721 Y14.283
X-3.816 Y14.166
X-3.902 Y14.044
X-3.98 Y13.916
X-4.049 Y13.783
X-4.11 Y13.645
X-4.161 Y13.504
X-4.202 Y13.36
X-4.234 Y13.214
X-4.257 Y13.065
X-4.269 Y12.916
X-4.272 Y12.766
X-4.265 Y12.616
X-4.248 Y12.467
X-4.222 Y12.319
X-4.185 Y12.174
X-4.139 Y12.031
X-4.083 Y11.892
X-4.019 Y11.756
X-3.945 Y11.626
X-3.864 Y11.5
X-3.774 Y11.38
X-3.676 Y11.266
X-3.572 Y11.158
X-3.46 Y11.058
X-3.342 Y10.965
X-3.218 Y10.881
X-3.089 Y10.805
X-2.955 Y10.737
X-2.817 Y10.679
X-2.675 Y10.63
X-2.53 Y10.59
X-2.383 Y10.56
X-2.235 Y10.54
X-2.085 Y10.529
X-1.935 Y10.528
X-1.785 Y10.537
X-1.637 Y10.556
X-1.489 Y10.585
X-1.345 Y10.623
X-1.202 Y10.671
X-1.064 Y10.729
X-0.929 Y10.795
X-0.8 Y10.871
X-0.675 Y10.954
X-0.556 Y11.045
X-0.443 Y11.144
X-0.337 Y11.25
X-0.238 Y11.362
X-0.146 Y11.481
X-0.061 Y11.605
X0.016 Y11.733
X0.086 Y11.866
X0.147 Y12.003
X0.2 Y12.144
X0.245 Y12.287
X0.281 Y12.432
X0.308 Y12.58
X0.326 Y12.729
X0.336 Y12.878
Y13.028
X0.326 Y13.178
X0.307 Y13.327
X0.278 Y13.474
X0.24 Y13.619
X0.192 Y13.761
X0.134 Y13.9
X0.068 Y14.034
X-0.007 Y14.164
X-0.09 Y14.289
X-0.181 Y14.409
X-0.279 Y14.522
X-0.385 Y14.628
X-0.497 Y14.728
X-0.616 Y14.82
X-0.74 Y14.903
X-0.869 Y14.979
X-1.003 Y15.047
X-1.141 Y15.105
X-1.283 Y15.155
X-1.427 Y15.196
X-1.574 Y15.229
X-1.722 Y15.252
X-1.871 Y15.266
X-2.021 Y15.27
X-2.171 Y15.266
X-2.32 Y15.252
X-2.469 Y15.228
X-2.615 Y15.196
X-2.759 Y15.155
X-2.901 Y15.105
X-3.039 Y15.046
X-3.173 Y14.979
X-3.303 Y14.904
X-3.428 Y14.822
X-3.548 Y14.732
X-3.663 Y14.635
X-3.771 Y14.531
X-3.873 Y14.421
X-3.968 Y14.305
X-4.055 Y14.183
X-4.135 Y14.056
X-4.207 Y13.924
X-4.271 Y13.789
X-4.327 Y13.649
X-4.374 Y13.507
X-4.412 Y13.362
X-4.442 Y13.215
X-4.463 Y13.066
X-4.475 Y12.917
X-4.477 Y12.767
X-4.471 Y12.617
X-4.455 Y12.468
X-4.431 Y12.32
X-4.397 Y12.174
X-4.354 Y12.03
X-4.303 Y11.889
X-4.244 Y11.751
X-4.176 Y11.617
X-4.101 Y11.488
X-4.018 Y11.363
X-3.927 Y11.243
X-3.83 Y11.129
X-3.725 Y11.021
X-3.615 Y10.92
X-3.498 Y10.826
X-3.376 Y10.739
X-3.248 Y10.66
X-3.116 Y10.588
X-2.98 Y10.525
X-2.841 Y10.47
X-2.698 Y10.423
X-2.553 Y10.385
X-2.406 Y10.356
X-2.257 Y10.336
X-2.108 Y10.324
X-1.958 Y10.322
X-1.808 Y10.329
X-1.659 Y10.346
X-1.511 Y10.371
X-1.365 Y10.405
X-1.221 Y10.448
X-1.08 Y10.5
X-0.943 Y10.56
X-0.809 Y10.627
X-0.68 Y10.703
X-0.555 Y10.787
X-0.436 Y10.878
X-0.322 Y10.976
X-0.214 Y11.08
X-0.113 Y11.19
X-0.018 Y11.306
X0.071 Y11.427
X0.152 Y11.553
X0.227 Y11.683
X0.294 Y11.818
X0.353 Y11.955
X0.405 Y12.096
X0.449 Y12.239
X0.486 Y12.385
X0.513 Y12.532
X0.533 Y12.681
X0.543 Y12.831
X0.545 Y12.981
X0.539 Y13.131
X0.523 Y13.28
X0.499 Y13.428
X0.466 Y13.574
X0.424 Y13.718
X0.374 Y13.86
X0.316 Y13.998
X0.249 Y14.132
X0.175 Y14.263
X0.093 Y14.388
X0.003 Y14.508
X-0.093 Y14.623
X-0.196 Y14.732
X-0.306 Y14.834
X-0.421 Y14.93
X-0.542 Y15.019
X-0.668 Y15.101
X-0.798 Y15.175
X-0.933 Y15.241
X-1.071 Y15.3
X-1.212 Y15.351
X-1.356 Y15.393
X-1.502 Y15.427
X-1.65 Y15.452
X-1.799 Y15.469
X-1.949 Y15.477
X-2.099
X-2.249 Y15.468
X-2.398 Y15.451
X-2.545 Y15.425
X-2.692 Y15.391
X-2.836 Y15.349
X-2.977 Y15.299
X-3.115 Y15.241
X-3.25 Y15.175
X-3.381 Y15.102
X-3.508 Y15.022
X-3.629 Y14.934
X-3.746 Y14.84
X-3.858 Y14.74
X-3.963 Y14.633
X-4.062 Y14.521
X-4.155 Y14.403
X-4.242 Y14.28
X-4.321 Y14.153
X-4.393 Y14.021
X-4.457 Y13.886
X-4.514 Y13.747
X-4.563 Y13.605
X-4.604 Y13.461
X-4.637 Y13.315
X-4.662 Y13.167
X-4.678 Y13.018
X-4.686 Y12.868
Y12.718
X-4.677 Y12.568
X-4.66 Y12.419
X-4.634 Y12.271
X-4.601 Y12.125
X-4.559 Y11.981
X-4.51 Y11.839
X-4.452 Y11.701
X-4.387 Y11.566
X-4.314 Y11.434
X-4.234 Y11.307
X-4.148 Y11.185
X-4.054 Y11.068
X-3.954 Y10.956
X-3.848 Y10.85
X-3.737 Y10.749
X-3.62 Y10.656
X-3.498 Y10.569
X-3.371 Y10.488
X-3.24 Y10.416
X-3.105 Y10.35
X-2.966 Y10.292
X-2.825 Y10.243
X-2.681 Y10.2
X-2.535 Y10.167
X-2.387 Y10.141
X-2.238 Y10.123
X-2.088 Y10.114
X-1.938 Y10.113
X-1.788 Y10.121
X-1.639 Y10.137
X-1.491 Y10.161
X-1.345 Y10.194
X-1.2 Y10.234
X-1.059 Y10.283
X-0.92 Y10.34
X-0.784 Y10.404
X-0.652 Y10.475
X-0.524 Y10.554
X-0.401 Y10.639
X-0.283 Y10.731
X-0.169 Y10.83
X-0.061 Y10.934
X0.041 Y11.044
X0.137 Y11.159
X0.227 Y11.279
X0.311 Y11.403
X0.387 Y11.532
X0.458 Y11.665
X0.521 Y11.801
X0.577 Y11.94
X0.626 Y12.082
X0.667 Y12.226
X0.701 Y12.372
X0.727 Y12.52
X0.746 Y12.668
X0.756 Y12.818
X0.758 Y12.968
X0.753 Y13.118
X0.739 Y13.267
X0.717 Y13.416
X0.687 Y13.563
X0.648 Y13.708
X0.603 Y13.851
X0.549 Y13.991
X0.488 Y14.128
X0.419 Y14.261
X0.343 Y14.39
X0.261 Y14.516
X0.171 Y14.636
X0.075 Y14.751
X-0.027 Y14.861
X-0.135 Y14.965
X-0.249 Y15.063
X-0.368 Y15.154
X-0.491 Y15.239
X-0.619 Y15.317
X-0.751 Y15.389
X-0.887 Y15.453
X-1.026 Y15.509
X-1.168 Y15.559
X-1.312 Y15.6
X-1.458 Y15.634
X-1.606 Y15.66
X-1.754 Y15.678
X-1.904 Y15.689
X-2.054 Y15.691
X-2.204 Y15.685
X-2.353 Y15.672
X-2.502 Y15.65
X-2.649 Y15.621
X-2.794 Y15.584
X-2.938 Y15.54
X-3.079 Y15.488
X-3.217 Y15.429
X-3.351 Y15.363
X-3.482 Y15.291
X-3.609 Y15.211
X-3.732 Y15.125
X-3.85 Y15.032
X-3.963 Y14.934
X-4.071 Y14.829
X-4.173 Y14.72
X-4.27 Y14.605
X-4.36 Y14.485
X-4.444 Y14.361
X-4.522 Y14.232
X-4.593 Y14.1
X-4.656 Y13.964
X-4.713 Y13.826
X-4.763 Y13.684
X-4.805 Y13.54
X-4.84 Y13.394
X-4.867 Y13.247
X-4.886 Y13.098
X-4.897 Y12.948
X-4.901 Y12.798
X-4.897 Y12.648
X-4.885 Y12.499
X-4.866 Y12.35
X-4.839 Y12.203
X-4.804 Y12.057
X-4.762 Y11.913
X-4.713 Y11.771
X-4.656 Y11.632
X-4.592 Y11.496
X-4.521 Y11.364
X-4.444 Y11.236
X-4.36 Y11.112
X-4.269 Y10.992
X-4.173 Y10.877
X-4.07 Y10.767
X-3.962 Y10.663
X-3.849 Y10.565
X-3.731 Y10.472
X-3.609 Y10.386
X-3.482 Y10.306
X-3.351 Y10.232
X-3.217 Y10.166
X-3.079 Y10.106
X-2.938 Y10.054
X-2.795 Y10.009
X-2.65 Y9.972
X-2.503 Y9.942
X-2.354 Y9.92
X-2.205 Y9.906
X-2.055 Y9.899
X-1.905 Y9.9
X-1.755 Y9.909
X-1.606 Y9.925
X-1.458 Y9.949
X-1.312 Y9.981
X-1.167 Y10.02
X-1.024 Y10.067
X-0.884 Y10.121
X-0.747 Y10.182
X-0.614 Y10.251
X-0.484 Y10.325
X-0.358 Y10.407
X-0.236 Y10.494
X-0.119 Y10.588
X-0.006 Y10.687
X0.101 Y10.792
X0.203 Y10.901
X0.3 Y11.016
X0.391 Y11.135
X0.476 Y11.259
X0.555 Y11.387
X0.627 Y11.518
X0.693 Y11.653
X0.753 Y11.79
X0.805 Y11.931
X0.851 Y12.074
X0.89 Y12.219
X0.921 Y12.365
X0.946 Y12.513
X0.963 Y12.662
X0.973 Y12.812
X0.975 Y12.962
X0.97 Y13.112
X0.957 Y13.261
X0.937 Y13.41
X0.909 Y13.557
X0.874 Y13.703
X0.831 Y13.847
X0.782 Y13.989
X0.725 Y14.127
X0.661 Y14.263
X0.59 Y14.395
X0.513 Y14.524
X0.43 Y14.649
X0.34 Y14.769
X0.244 Y14.884
X0.143 Y14.995
X0.036 Y15.1
X-0.076 Y15.2
X-0.193 Y15.293
X-0.315 Y15.381
X-0.441 Y15.463
X-0.571 Y15.538
X-0.704 Y15.606
X-0.841 Y15.668
X-0.981 Y15.723
X-1.123 Y15.771
X-1.267 Y15.812
X-1.413 Y15.846
X-1.561 Y15.873
X-1.709 Y15.892
X-1.859 Y15.904
X-2.009 Y15.908
X-2.159 Y15.905
X-2.308 Y15.895
X-2.457 Y15.877
X-2.605 Y15.852
X-2.752 Y15.82
X-2.897 Y15.781
X-3.039 Y15.735
X-3.18 Y15.682
X-3.317 Y15.623
X-3.452 Y15.556
X-3.583 Y15.484
X-3.711 Y15.405
X-3.835 Y15.32
X-3.954 Y15.229
X-4.069 Y15.132
X-4.179 Y15.03
X-4.283 Y14.923
X-4.383 Y14.811
X-4.477 Y14.694
X-4.565 Y14.573
X-4.647 Y14.447
X-4.724 Y14.318
X-4.794 Y14.185
X-4.857 Y14.05
X-4.914 Y13.911
X-4.965 Y13.77
X-5.008 Y13.626
X-5.044 Y13.48
X-5.074 Y13.333
X-5.096 Y13.185
X-5.11 Y13.036
X-5.118 Y12.886
X-5.119 Y12.736
X-5.112 Y12.586
X-5.098 Y12.437
X-5.077 Y12.288
X-5.049 Y12.141
X-5.014 Y11.995
X-4.972 Y11.851
X-4.923 Y11.709
X-4.867 Y11.57
X-4.805 Y11.433
X-4.736 Y11.3
X-4.661 Y11.17
X-4.579 Y11.044
X-4.492 Y10.923
X-4.398 Y10.805
X-4.3 Y10.692
X-4.196 Y10.584
X-4.087 Y10.481
X-3.973 Y10.384
X-3.854 Y10.291
X-3.732 Y10.205
X-3.605 Y10.125
X-3.475 Y10.051
X-3.341 Y9.983
X-3.204 Y9.922
X-3.064 Y9.867
X-2.922 Y9.819
X-2.778 Y9.779
X-2.631 Y9.745
X-2.484 Y9.718
X-2.335 Y9.698
X-2.186 Y9.686
X-2.036 Y9.681
X-1.886 Y9.683
X-1.736 Y9.692
X-1.587 Y9.708
X-1.439 Y9.731
X-1.292 Y9.761
X-1.146 Y9.799
X-1.003 Y9.843
X-0.862 Y9.894
X-0.724 Y9.952
X-0.588 Y10.017
X-0.456 Y10.088
X-0.327 Y10.165
X-0.202 Y10.248
X-0.081 Y10.336
X0.035 Y10.43
X0.148 Y10.53
X0.255 Y10.634
X0.358 Y10.744
X0.456 Y10.858
X0.548 Y10.976
X0.635 Y11.098
X0.716 Y11.224
X0.791 Y11.354
X0.86 Y11.487
X0.923 Y11.623
X0.98 Y11.762
X1.03 Y11.904
X1.074 Y12.047
X1.111 Y12.192
X1.142 Y12.339
X1.165 Y12.487
X1.182 Y12.636
X1.193 Y12.786
X1.196 Y12.936
X1.192 Y13.086
X1.181 Y13.236
X1.164 Y13.385
X1.139 Y13.532
X1.107 Y13.679
X1.068 Y13.824
X1.023 Y13.967
X0.971 Y14.108
X0.912 Y14.246
X0.847 Y14.381
X0.776 Y14.513
X0.699 Y14.641
X0.615 Y14.766
X0.526 Y14.887
X0.432 Y15.003
X0.332 Y15.115
X0.226 Y15.222
X0.116 Y15.324
X0.001 Y15.42
X-0.118 Y15.511
X-0.241 Y15.596
X-0.369 Y15.675
X-0.5 Y15.749
X-0.634 Y15.816
X-0.771 Y15.877
X-0.91 Y15.932
X-1.052 Y15.98
X-1.197 Y16.022
X-1.342 Y16.056
X-1.49 Y16.085
X-1.638 Y16.106
X-1.788 Y16.12
X-1.937 Y16.128
X-2.087 Y16.129
X-2.237 Y16.122
X-2.387 Y16.109
X-2.535 Y16.089
X-2.683 Y16.062
X-2.829 Y16.029
X-2.974 Y15.989
X-3.116 Y15.943
X-3.257 Y15.89
X-3.395 Y15.831
X-3.53 Y15.766
X-3.662 Y15.695
X-3.791 Y15.617
X-3.916 Y15.535
X-4.037 Y15.446
X-4.154 Y15.352
X-4.266 Y15.253
X-4.374 Y15.149
X-4.477 Y15.04
X-4.575 Y14.926
X-4.668 Y14.809
X-4.756 Y14.687
X-4.838 Y14.561
X-4.914 Y14.432
X-4.985 Y14.3
X-5.049 Y14.164
X-5.108 Y14.026
X-5.16 Y13.886
X-5.206 Y13.743
X-5.245 Y13.598
X-5.277 Y13.452
X-5.303 Y13.304
X-5.323 Y13.155
X-5.335 Y13.006
X-5.341 Y12.856
X-5.34 Y12.706
X-5.332 Y12.556
X-5.318 Y12.407
X-5.297 Y12.258
X-5.269 Y12.111
X-5.235 Y11.964
X-5.195 Y11.82
X-5.148 Y11.678
X-5.094 Y11.537
X-5.035 Y11.4
X-4.969 Y11.265
X-4.897 Y11.133
X-4.819 Y11.005
X-4.736 Y10.881
X-4.647 Y10.76
X-4.552 Y10.643
X-4.453 Y10.531
X-4.349 Y10.423
X-4.24 Y10.32
X-4.126 Y10.222
X-4.008 Y10.129
X-3.887 Y10.041
X-3.761 Y9.959
X-3.632 Y9.883
X-3.499 Y9.813
X-3.364 Y9.749
X-3.225 Y9.691
X-3.085 Y9.639
X-2.942 Y9.593
X-2.797 Y9.555
X-2.65 Y9.522
X-2.503 Y9.496
X-2.354 Y9.477
X-2.204 Y9.465
X-2.054 Y9.459
X-1.904 Y9.46
X-1.755 Y9.467
X-1.605 Y9.481
X-1.457 Y9.502
X-1.309 Y9.53
X-1.163 Y9.564
X-1.019 Y9.605
X-0.877 Y9.652
X-0.736 Y9.705
X-0.599 Y9.765
X-0.464 Y9.831
X-0.332 Y9.902
X-0.204 Y9.979
X-0.078 Y10.062
X0.043 Y10.15
X0.16 Y10.244
X0.274 Y10.342
X0.383 Y10.445
X0.487 Y10.553
X0.587 Y10.665
X0.682 Y10.781
X0.771 Y10.901
X0.856 Y11.025
X0.935 Y11.153
X1.008 Y11.284
X1.076 Y11.418
X1.138 Y11.554
X1.194 Y11.693
X1.244 Y11.835
X1.288 Y11.978
X1.325 Y12.123
X1.357 Y12.27
X1.382 Y12.418
X1.401 Y12.567
X1.414 Y12.716
X1.42 Y12.866
X1.419 Y13.016
X1.412 Y13.166
X1.398 Y13.315
X1.378 Y13.464
X1.351 Y13.611
X1.318 Y13.758
X1.278 Y13.902
X1.232 Y14.045
X1.18 Y14.186
X1.122 Y14.324
X1.058 Y14.46
X0.988 Y14.592
X0.912 Y14.722
X0.831 Y14.848
X0.744 Y14.97
X0.652 Y15.088
X0.554 Y15.202
X0.452 Y15.312
X0.345 Y15.417
X0.233 Y15.517
X0.117 Y15.613
X-0.002 Y15.703
X-0.126 Y15.787
X-0.253 Y15.867
X-0.384 Y15.941
X-0.518 Y16.009
X-0.654 Y16.071
X-0.793 Y16.127
X-0.935 Y16.178
X-1.078 Y16.222
X-1.223 Y16.26
X-1.37 Y16.291
X-1.518 Y16.316
X-1.666 Y16.335
X-1.816 Y16.347
X-1.966 Y16.353
X-2.116 Y16.352
X-2.266 Y16.345
X-2.415 Y16.332
X-2.564 Y16.312
X-2.711 Y16.286
X-2.858 Y16.254
X-3.003 Y16.215
X-3.146 Y16.171
X-3.287 Y16.12
X-3.426 Y16.064
X-3.563 Y16.001
X-3.696 Y15.933
X-3.827 Y15.859
X-3.954 Y15.78
X-4.078 Y15.695
X-4.198 Y15.605
X-4.314 Y15.511
X-4.427 Y15.411
X-4.534 Y15.307
X-4.638 Y15.198
X-4.736 Y15.085
X-4.83 Y14.968
X-4.919 Y14.847
X-5.003 Y14.723
X-5.081 Y14.595
X-5.154 Y14.464
X-5.222 Y14.33
X-5.283 Y14.193
X-5.339 Y14.054
X-5.389 Y13.912
X-5.433 Y13.769
X-5.47 Y13.624
X-5.502 Y13.477
X-5.527 Y13.329
X-5.546 Y13.18
X-5.559 Y13.031
X-5.566 Y12.881
Y12.731
X-5.56 Y12.581
X-5.548 Y12.432
X-5.53 Y12.283
X-5.505 Y12.135
X-5.474 Y11.988
X-5.437 Y11.843
X-5.394 Y11.699
X-5.344 Y11.557
X-5.289 Y11.418
X-5.228 Y11.281
X-5.161 Y11.147
X-5.089 Y11.015
X-5.011 Y10.887
X-4.928 Y10.762
X-4.84 Y10.641
X-4.746 Y10.523
X-4.648 Y10.41
X-4.546 Y10.301
X-4.438 Y10.196
X-4.327 Y10.095
X-4.211 Y10
X-4.092 Y9.909
X-3.968 Y9.824
X-3.841 Y9.744
X-3.711 Y9.669
X-3.578 Y9.6
X-3.442 Y9.537
X-3.304 Y9.479
X-3.163 Y9.427
X-3.02 Y9.382
X-2.875 Y9.342
X-2.729 Y9.308
X-2.582 Y9.28
X-2.433 Y9.259
X-2.284 Y9.244
X-2.134 Y9.235
X-1.984 Y9.232
X-1.835 Y9.236
X-1.685 Y9.246
X-1.536 Y9.262
X-1.387 Y9.285
X-1.24 Y9.314
X-1.094 Y9.349
X-0.95 Y9.39
X-0.808 Y9.437
X-0.667 Y9.49
X-0.529 Y9.548
X-0.394 Y9.613
X-0.261 Y9.682
X-0.131 Y9.758
X-0.005 Y9.838
X0.119 Y9.924
X0.238 Y10.014
X0.354 Y10.109
X0.466 Y10.209
X0.574 Y10.314
X0.677 Y10.423
X0.776 Y10.536
X0.87 Y10.652
X0.959 Y10.773
X1.043 Y10.897
X1.123 Y11.024
X1.197 Y11.155
X1.266 Y11.288
X1.329 Y11.424
X1.387 Y11.562
X1.44 Y11.703
X1.486 Y11.845
X1.527 Y11.989
X1.562 Y12.135
X1.592 Y12.282
X1.615 Y12.431
X1.632 Y12.58
X1.643 Y12.729
X1.647 Y12.879
X1.646 Y13.029
X1.639 Y13.179
X1.625 Y13.328
X1.605 Y13.477
X1.58 Y13.625
X1.548 Y13.771
X1.51 Y13.917
X1.467 Y14.06
X1.417 Y14.202
X1.362 Y14.341
X1.301 Y14.478
X1.235 Y14.613
X1.163 Y14.744
X1.085 Y14.873
X1.003 Y14.998
X0.915 Y15.12
X0.822 Y15.238
X0.725 Y15.352
X0.623 Y15.461
X0.516 Y15.567
X0.405 Y15.668
X0.29 Y15.765
X0.172 Y15.856
X0.05 Y15.943
X-0.076 Y16.025
X-0.205 Y16.102
X-0.337 Y16.173
X-0.472 Y16.239
X-0.609 Y16.299
X-0.749 Y16.354
X-0.891 Y16.403
X-1.034 Y16.446
X-1.18 Y16.483
X-1.326 Y16.514
X-1.474 Y16.54
X-1.623 Y16.559
X-1.772 Y16.572
X-1.922 Y16.58
X-2.072 Y16.581
X-2.222 Y16.576
X-2.372 Y16.565
X-2.521 Y16.549
X-2.669 Y16.526
X-2.816 Y16.498
X-2.962 Y16.463
X-3.107 Y16.423
X-3.25 Y16.377
X-3.391 Y16.325
X-3.529 Y16.268
X-3.665 Y16.205
X-3.799 Y16.137
X-3.93 Y16.064
X-4.058 Y15.985
X-4.182 Y15.901
X-4.303 Y15.813
X-4.421 Y15.72
X-4.535 Y15.622
X-4.644 Y15.52
X-4.75 Y15.413
X-4.851 Y15.303
X-4.948 Y15.188
X-5.041 Y15.07
X-5.128 Y14.948
X-5.211 Y14.823
X-5.288 Y14.695
X-5.361 Y14.563
X-5.428 Y14.429
X-5.49 Y14.292
X-5.546 Y14.153
X-5.597 Y14.012
X-5.642 Y13.869
X-5.681 Y13.724
X-5.715 Y13.578
X-5.743 Y13.431
X-5.765 Y13.283
X-5.781 Y13.133
X-5.792 Y12.984
X-5.796 Y12.834
X-5.794 Y12.684
X-5.787 Y12.534
X-5.773 Y12.385
X-5.754 Y12.236
X-5.729 Y12.088
X-5.698 Y11.941
X-5.661 Y11.796
X-5.619 Y11.652
X-5.57 Y11.51
X-5.517 Y11.37
X-5.457 Y11.232
X-5.393 Y11.097
X-5.323 Y10.964
X-5.248 Y10.834
X-5.168 Y10.707
X-5.083 Y10.584
X-4.993 Y10.464
X-4.898 Y10.347
X-4.799 Y10.235
X-4.695 Y10.126
X-4.588 Y10.022
X-4.476 Y9.922
X-4.36 Y9.826
X-4.241 Y9.735
X-4.118 Y9.649
X-3.992 Y9.568
X-3.863 Y9.492
X-3.731 Y9.421
X-3.596 Y9.355
X-3.459 Y9.295
X-3.319 Y9.24
X-3.177 Y9.19
X-3.034 Y9.147
X-2.889 Y9.109
X-2.742 Y9.077
X-2.595 Y9.05
X-2.446 Y9.03
X-2.297 Y9.015
X-2.147 Y9.006
X-1.997 Y9.003
X-1.847 Y9.006
X-1.697 Y9.015
X-1.548 Y9.03
X-1.399 Y9.051
X-1.252 Y9.077
X-1.105 Y9.11
X-0.96 Y9.148
X-0.817 Y9.191
X-0.675 Y9.241
X-0.535 Y9.295
X-0.398 Y9.356
X-0.263 Y9.421
X-0.131 Y9.492
X-0.001 Y9.567
X0.125 Y9.648
X0.248 Y9.734
X0.368 Y9.824
X0.485 Y9.918
X0.597 Y10.018
X0.706 Y10.121
X0.811 Y10.228
X0.911 Y10.34
X1.008 Y10.455
X1.099 Y10.573
X1.187 Y10.695
X1.269 Y10.821
X1.347 Y10.949
X1.419 Y11.08
X1.487 Y11.214
X1.55 Y11.35
X1.607 Y11.489
X1.659 Y11.63
X1.706 Y11.772
X1.747 Y11.916
X1.783 Y12.062
X1.813 Y12.209
X1.837 Y12.357
X1.856 Y12.506
X1.869 Y12.655
X1.877 Y12.805
X1.878 Y12.955
X1.874 Y13.105
X1.864 Y13.255
X1.849 Y13.404
X1.827 Y13.552
X1.8 Y13.7
X1.767 Y13.846
X1.729 Y13.991
X1.685 Y14.135
X1.635 Y14.276
X1.58 Y14.416
X1.52 Y14.553
X1.455 Y14.688
X1.384 Y14.82
X1.308 Y14.95
X1.227 Y15.076
X1.142 Y15.199
X1.052 Y15.319
X0.957 Y15.435
X0.857 Y15.548
X0.754 Y15.656
X0.646 Y15.761
X0.535 Y15.861
X0.419 Y15.957
X0.3 Y16.048
X0.178 Y16.135
X0.052 Y16.217
X-0.077 Y16.294
X-0.208 Y16.366
X-0.343 Y16.433
X-0.479 Y16.494
X-0.618 Y16.551
X-0.759 Y16.602
X-0.902 Y16.648
X-1.047 Y16.688
X-1.193 Y16.723
X-1.34 Y16.752
X-1.488 Y16.775
X-1.637 Y16.793
X-1.786 Y16.805
X-1.936 Y16.811
X-2.086 Y16.812
X-2.236 Y16.807
X-2.386 Y16.796
X-2.535 Y16.78
X-2.683 Y16.758
X-2.831 Y16.731
X-2.977 Y16.698
X-3.122 Y16.659
X-3.266 Y16.616
X-3.407 Y16.566
X-3.547 Y16.512
X-3.685 Y16.452
X-3.82 Y16.387
X-3.953 Y16.317
X-4.082 Y16.242
X-4.21 Y16.163
X-4.334 Y16.078
X-4.454 Y15.989
X-4.572 Y15.896
X-4.685 Y15.798
X-4.795 Y15.696
X-4.902 Y15.59
X-5.004 Y15.48
X-5.102 Y15.367
X-5.195 Y15.249
X-5.284 Y15.129
X-5.369 Y15.005
X-5.449 Y14.878
X-5.524 Y14.748
X-5.595 Y14.616
X-5.66 Y14.481
X-5.72 Y14.343
X-5.775 Y14.204
X-5.825 Y14.062
X-5.869 Y13.919
X-5.908 Y13.774
X-5.942 Y13.628
X-5.97 Y13.481
X-5.992 Y13.332
X-6.009 Y13.183
X-6.021 Y13.034
X-6.027 Y12.884
Y12.734
X-6.022 Y12.584
X-6.012 Y12.434
X-5.995 Y12.285
X-5.973 Y12.137
X-5.946 Y11.989
X-5.913 Y11.843
X-5.875 Y11.698
X-5.831 Y11.554
X-5.782 Y11.413
X-5.728 Y11.273
X-5.668 Y11.135
X-5.604 Y11
X-5.534 Y10.867
X-5.46 Y10.737
X-5.381 Y10.609
X-5.297 Y10.485
X-5.208 Y10.364
X-5.115 Y10.246
X-5.018 Y10.132
X-4.917 Y10.021
X-4.811 Y9.914
X-4.702 Y9.812
X-4.589 Y9.713
X-4.472 Y9.619
X-4.352 Y9.529
X-4.229 Y9.444
X-4.102 Y9.363
X-3.973 Y9.287
X-3.841 Y9.216
X-3.706 Y9.15
X-3.569 Y9.09
X-3.43 Y9.034
X-3.288 Y8.983
X-3.145 Y8.938
X-3.001 Y8.898
X-2.855 Y8.863
X-2.708 Y8.834
X-2.56 Y8.81
X-2.411 Y8.792
X-2.261 Y8.779
X-2.112 Y8.773
X-1.962 Y8.771
X-1.812 Y8.775
X-1.662 Y8.785
X-1.513 Y8.801
X-1.364 Y8.821
X-1.216 Y8.848
X-1.07 Y8.879
X-0.925 Y8.917
X-0.781 Y8.959
X-0.638 Y9.007
X-0.498 Y9.06
X-0.36 Y9.118
X-0.224 Y9.181
X-0.09 Y9.249
X0.041 Y9.322
X0.17 Y9.399
X0.295 Y9.481
X0.417 Y9.568
X0.537 Y9.659
X0.652 Y9.755
X0.765 Y9.854
X0.873 Y9.958
X0.978 Y10.065
X1.079 Y10.176
X1.175 Y10.291
X1.268 Y10.409
X1.356 Y10.53
X1.44 Y10.654
X1.519 Y10.782
X1.594 Y10.912
X1.664 Y11.044
X1.729 Y11.179
X1.79 Y11.317
X1.845 Y11.456
X1.896 Y11.597
X1.941 Y11.741
X1.981 Y11.885
X2.015 Y12.031
X2.045 Y12.178
X2.069 Y12.326
X2.088 Y12.475
X2.101 Y12.624
X2.109 Y12.774
X2.112 Y12.924
X2.109 Y13.074
X2.101 Y13.224
X2.087 Y13.373
X2.068 Y13.522
X2.043 Y13.67
X2.014 Y13.817
X1.978 Y13.963
X1.938 Y14.107
X1.892 Y14.25
X1.841 Y14.391
X1.785 Y14.53
X1.724 Y14.667
X1.658 Y14.802
X1.587 Y14.934
X1.512 Y15.064
X1.431 Y15.19
X1.346 Y15.314
X1.257 Y15.435
X1.163 Y15.552
X1.065 Y15.665
X0.963 Y15.775
X0.857 Y15.882
X0.748 Y15.984
X0.634 Y16.082
X0.518 Y16.176
X0.397 Y16.266
X0.274 Y16.351
X0.148 Y16.432
X0.018 Y16.508
X-0.114 Y16.58
X-0.248 Y16.646
X-0.385 Y16.708
X-0.524 Y16.765
X-0.664 Y16.816
X-0.807 Y16.863
X-0.951 Y16.904
X-1.097 Y16.94
X-1.243 Y16.971
X-1.391 Y16.997
X-1.54 Y17.017
X-1.689 Y17.032
X-1.839 Y17.042
X-1.989 Y17.046
X-2.139 Y17.045
X-2.289 Y17.039
X-2.438 Y17.027
X-2.587 Y17.009
X-2.735 Y16.987
X-2.883 Y16.959
X-3.029 Y16.926
X-3.174 Y16.888
X-3.318 Y16.845
X-3.46 Y16.796
X-3.6 Y16.743
X-3.738 Y16.685
X-3.874 Y16.622
X-4.008 Y16.554
X-4.139 Y16.481
X-4.268 Y16.404
X-4.394 Y16.322
X-4.516 Y16.236
X-4.636 Y16.145
X-4.752 Y16.051
X-4.865 Y15.952
X-4.975 Y15.849
X-5.08 Y15.743
X-5.182 Y15.633
X-5.28 Y15.519
X-5.374 Y15.402
X-5.464 Y15.282
X-5.549 Y15.158
X-5.63 Y15.032
X-5.706 Y14.903
X-5.778 Y14.771
X-5.845 Y14.637
X-5.908 Y14.501
X-5.965 Y14.362
X-6.018 Y14.222
X-6.066 Y14.08
X-6.108 Y13.936
X-6.146 Y13.791
X-6.178 Y13.644
X-6.205 Y13.497
X-6.227 Y13.348
X-6.244 Y13.199
X-6.255 Y13.05
X-6.262 Y12.9
X-6.263 Y12.75
X-6.258 Y12.6
X-6.249 Y12.45
X-6.234 Y12.301
X-6.214 Y12.152
X-6.188 Y12.004
X-6.158 Y11.858
X-6.122 Y11.712
X-6.081 Y11.567
X-6.035 Y11.425
X-5.985 Y11.284
X-5.929 Y11.144
X-5.868 Y11.007
X-5.803 Y10.872
X-5.732 Y10.74
X-5.658 Y10.61
X-5.578 Y10.482
X-5.495 Y10.358
X-5.406 Y10.236
X-5.314 Y10.118
X-5.218 Y10.003
X-5.117 Y9.892
X-5.013 Y9.784
X-4.905 Y9.68
X-4.794 Y9.579
X-4.679 Y9.483
X-4.561 Y9.391
X-4.439 Y9.303
X-4.315 Y9.219
X-4.187 Y9.14
X-4.057 Y9.065
X-3.924 Y8.995
X-3.789 Y8.93
X-3.652 Y8.87
X-3.513 Y8.814
X-3.372 Y8.763
X-3.229 Y8.717
X-3.084 Y8.677
X-2.939 Y8.641
X-2.792 Y8.611
X-2.644 Y8.585
X-2.495 Y8.565
X-2.346 Y8.55
X-2.196 Y8.541
X-2.046 Y8.536
X-1.896 Y8.537
X-1.747 Y8.543
X-1.597 Y8.555
X-1.448 Y8.572
X-1.3 Y8.594
X-1.152 Y8.621
X-1.006 Y8.653
X-0.86 Y8.69
X-0.716 Y8.733
X-0.574 Y8.78
X-0.433 Y8.832
X-0.295 Y8.889
X-0.158 Y8.951
X-0.024 Y9.018
X0.108 Y9.089
X0.238 Y9.164
X0.365 Y9.245
X0.489 Y9.329
X0.61 Y9.417
X0.728 Y9.51
X0.843 Y9.607
X0.954 Y9.707
X1.062 Y9.812
X1.166 Y9.92
X1.266 Y10.031
X1.362 Y10.146
X1.455 Y10.264
X1.543 Y10.385
X1.628 Y10.509
X1.708 Y10.636
X1.783 Y10.766
X1.855 Y10.898
X1.921 Y11.032
X1.984 Y11.169
X2.041 Y11.307
X2.094 Y11.448
X2.142 Y11.59
X2.185 Y11.733
X2.223 Y11.879
X2.256 Y12.025
X2.284 Y12.172
X2.307 Y12.32
X2.325 Y12.469
X2.338 Y12.619
X2.346 Y12.769
X2.348 Y12.919
X2.345 Y13.069
X2.338 Y13.218
X2.325 Y13.368
X2.307 Y13.517
X2.284 Y13.665
X2.256 Y13.812
X2.223 Y13.959
X2.185 Y14.104
X2.142 Y14.247
X2.094 Y14.389
X2.041 Y14.53
X1.983 Y14.668
X1.92 Y14.805
X1.853 Y14.939
X1.781 Y15.07
X1.705 Y15.2
X1.624 Y15.326
X1.539 Y15.45
X1.45 Y15.57
X1.357 Y15.688
X1.26 Y15.802
X1.158 Y15.912
X1.053 Y16.02
X0.945 Y16.123
X0.833 Y16.223
X0.718 Y16.319
X0.599 Y16.411
X0.477 Y16.498
X0.353 Y16.582
X0.225 Y16.661
X0.095 Y16.736
X-0.037 Y16.806
X-0.172 Y16.872
X-0.309 Y16.933
X-0.448 Y16.989
X-0.589 Y17.04
X-0.732 Y17.087
X-0.876 Y17.129
X-1.021 Y17.165
X-1.168 Y17.197
X-1.315 Y17.224
X-1.464 Y17.246
X-1.613 Y17.263
X-1.762 Y17.275
X-1.912 Y17.281
X-2.062 Y17.283
X-2.212 Y17.279
X-2.362 Y17.271
X-2.511 Y17.257
X-2.66 Y17.239
X-2.808 Y17.215
X-2.956 Y17.186
X-3.102 Y17.153
X-3.247 Y17.114
X-3.39 Y17.07
X-3.532 Y17.022
X-3.673 Y16.969
X-3.811 Y16.912
X-3.948 Y16.849
X-4.082 Y16.782
X-4.214 Y16.711
X-4.343 Y16.636
X-4.47 Y16.556
X-4.594 Y16.471
X-4.716 Y16.383
X-4.834 Y16.291
X-4.949 Y16.195
X-5.061 Y16.095
X-5.169 Y15.991
X-5.274 Y15.884
X-5.375 Y15.773
X-5.473 Y15.659
X-5.566 Y15.542
X-5.656 Y15.421
X-5.741 Y15.298
X-5.823 Y15.172
X-5.9 Y15.043
X-5.972 Y14.912
X-6.041 Y14.779
X-6.104 Y14.643
X-6.164 Y14.505
X-6.218 Y14.365
X-6.268 Y14.224
X-6.314 Y14.081
X-6.354 Y13.936
X-6.39 Y13.791
X-6.42 Y13.644
X-6.446 Y13.496
X-6.467 Y13.348
X-6.483 Y13.198
X-6.493 Y13.049
X-6.499 Y12.899
X-6.5 Y12.749
X-6.496 Y12.599
X-6.487 Y12.449
X-6.473 Y12.3
X-6.453 Y12.151
X-6.429 Y12.003
X-6.4 Y11.856
X-6.367 Y11.71
X-6.328 Y11.565
X-6.284 Y11.421
X-6.236 Y11.279
X-6.183 Y11.139
X-6.126 Y11
X-6.063 Y10.864
X-5.997 Y10.73
X-5.925 Y10.598
X-5.85 Y10.468
X-5.77 Y10.341
X-5.686 Y10.217
X-5.598 Y10.095
X-5.506 Y9.977
X-5.41 Y9.862
X-5.31 Y9.75
X-5.206 Y9.641
X-5.099 Y9.536
X-4.989 Y9.435
X-4.875 Y9.337
X-4.758 Y9.243
X-4.638 Y9.153
X-4.515 Y9.067
X-4.389 Y8.985
X-4.261 Y8.908
X-4.13 Y8.835
X-3.997 Y8.766
X-3.861 Y8.702
X-3.724 Y8.642
X-3.584 Y8.587
X-3.443 Y8.536
X-3.3 Y8.491
X-3.156 Y8.45
X-3.01 Y8.414
X-2.863 Y8.383
X-2.716 Y8.356
X-2.567 Y8.335
X-2.418 Y8.318
X-2.268 Y8.307
X-2.119 Y8.3
X-1.969 Y8.299
X-1.819 Y8.302
X-1.669 Y8.31
X-1.52 Y8.324
X-1.371 Y8.342
X-1.222 Y8.365
X-1.075 Y8.394
X-0.929 Y8.427
X-0.784 Y8.465
X-0.64 Y8.507
X-0.498 Y8.555
X-0.357 Y8.607
X-0.218 Y8.663
X-0.081 Y8.724
X0.054 Y8.79
X0.187 Y8.86
X0.317 Y8.934
X0.445 Y9.013
X0.57 Y9.095
X0.692 Y9.182
X0.812 Y9.272
X0.929 Y9.367
X1.042 Y9.465
X1.152 Y9.567
X1.259 Y9.672
X1.362 Y9.781
X1.462 Y9.893
X1.558 Y10.008
X1.65 Y10.126
X1.739 Y10.247
X1.823 Y10.371
X1.904 Y10.498
X1.98 Y10.627
X2.052 Y10.759
X2.12 Y10.893
X2.183 Y11.029
X2.242 Y11.167
X2.297 Y11.306
X2.347 Y11.448
X2.392 Y11.591
X2.433 Y11.735
X2.469 Y11.881
X2.5 Y12.027
X2.527 Y12.175
X2.549 Y12.323
X2.566 Y12.472
X2.578 Y12.622
X2.585 Y12.772
X2.587 Y12.922
X2.584 Y13.072
X2.577 Y13.221
X2.565 Y13.371
X2.547 Y13.52
X2.525 Y13.668
X2.499 Y13.816
X2.467 Y13.963
X2.431 Y14.108
X2.39 Y14.252
X2.344 Y14.395
X2.294 Y14.537
X2.239 Y14.676
X2.179 Y14.814
X2.115 Y14.949
X2.047 Y15.083
X1.974 Y15.214
X1.897 Y15.343
X1.816 Y15.469
X1.731 Y15.592
X1.641 Y15.713
X1.548 Y15.83
X1.451 Y15.945
X1.351 Y16.056
X1.246 Y16.164
X1.139 Y16.269
X1.028 Y16.37
X0.914 Y16.467
X0.796 Y16.56
X0.676 Y16.65
X0.553 Y16.736
X0.427 Y16.817
X0.299 Y16.895
X0.168 Y16.968
X0.035 Y17.037
X-0.101 Y17.102
X-0.238 Y17.162
X-0.377 Y17.218
X-0.518 Y17.269
X-0.661 Y17.315
X-0.805 Y17.357
X-0.95 Y17.394
X-1.097 Y17.427
X-1.244 Y17.454
X-1.392 Y17.478
X-1.541 Y17.496
X-1.691 Y17.509
X-1.841 Y17.518
X-1.99 Y17.522
X-2.14 Y17.521
X-2.29 Y17.515
X-2.44 Y17.505
X-2.589 Y17.489
X-2.738 Y17.469
X-2.886 Y17.444
X-3.033 Y17.415
X-3.179 Y17.38
X-3.324 Y17.341
X-3.467 Y17.297
X-3.609 Y17.249
X-3.75 Y17.196
X-3.888 Y17.139
X-4.025 Y17.078
X-4.16 Y17.012
X-4.292 Y16.942
X-4.423 Y16.867
X-4.551 Y16.789
X-4.676 Y16.706
X-4.798 Y16.62
X-4.918 Y16.53
X-5.035 Y16.436
X-5.149 Y16.338
X-5.26 Y16.237
X-5.367 Y16.132
X-5.471 Y16.024
X-5.572 Y15.913
X-5.669 Y15.798
X-5.762 Y15.681
X-5.851 Y15.56
X-5.937 Y15.437
X-6.018 Y15.311
X-6.096 Y15.183
X-6.169 Y15.052
X-6.239 Y14.919
X-6.304 Y14.784
X-6.364 Y14.647
X-6.421 Y14.508
X-6.473 Y14.367
X-6.52 Y14.225
X-6.563 Y14.081
X-6.602 Y13.936
X-6.635 Y13.79
X-6.665 Y13.643
X-6.689 Y13.495
X-6.709 Y13.346
X-6.724 Y13.197
X-6.734 Y13.047
X-6.739 Y12.897
X-6.74 Y12.747
X-6.736 Y12.597
X-6.727 Y12.448
X-6.714 Y12.298
X-6.695 Y12.149
X-6.673 Y12.001
X-6.645 Y11.854
X-6.613 Y11.707
X-6.576 Y11.562
X-6.534 Y11.418
X-6.489 Y11.275
X-6.438 Y11.133
X-6.383 Y10.994
X-6.324 Y10.856
X-6.26 Y10.72
X-6.193 Y10.586
X-6.121 Y10.455
X-6.044 Y10.326
X-5.964 Y10.199
X-5.88 Y10.075
X-5.791 Y9.954
X-5.699 Y9.835
X-5.604 Y9.72
X-5.504 Y9.607
X-5.402 Y9.498
X-5.296 Y9.392
X-5.186 Y9.289
X-5.073 Y9.19
X-4.958 Y9.095
X-4.839 Y9.003
X-4.718 Y8.915
X-4.593 Y8.831
X-4.467 Y8.751
X-4.337 Y8.675
X-4.206 Y8.603
X-4.072 Y8.535
X-3.936 Y8.472
X-3.798 Y8.413
X-3.658 Y8.358
X-3.517 Y8.308
X-3.374 Y8.262
X-3.23 Y8.221
X-3.084 Y8.185
X-2.938 Y8.153
X-2.79 Y8.125
X-2.642 Y8.103
X-2.493 Y8.085
X-2.344 Y8.071
X-2.194 Y8.063
X-2.044 Y8.059
X-1.894 Y8.06
X-1.744 Y8.065
X-1.594 Y8.075
X-1.445 Y8.09
X-1.296 Y8.11
X-1.148 Y8.134
X-1.001 Y8.164
X-0.855 Y8.197
X-0.71 Y8.235
X-0.566 Y8.278
X-0.424 Y8.326
X-0.282 Y8.377
X-0.143 Y8.434
X-0.004 Y8.495
X0.132 Y8.56
X0.267 Y8.63
X0.399 Y8.703
X0.529 Y8.781
X0.657 Y8.863
X0.782 Y8.949
X0.904 Y9.039
X1.024 Y9.133
X1.14 Y9.23
X1.254 Y9.331
X1.364 Y9.436
X1.471 Y9.544
X1.575 Y9.656
X1.675 Y9.77
X1.771 Y9.888
X1.864 Y10.009
X1.953 Y10.133
X2.038 Y10.259
X2.12 Y10.388
X2.197 Y10.52
X2.27 Y10.654
X2.339 Y10.791
X2.404 Y10.93
X2.464 Y11.07
X2.52 Y11.213
X2.571 Y11.357
X2.618 Y11.502
X2.66 Y11.649
X2.697 Y11.796
X2.73 Y11.945
X2.758 Y12.095
X2.781 Y12.245
X2.8 Y12.396
X2.814 Y12.548
X2.823 Y12.7
X2.828 Y12.852
X2.827 Y13.005
X2.822 Y13.157
X2.812 Y13.309
X2.798 Y13.461
X2.778 Y13.612
X2.754 Y13.762
X2.726 Y13.911
X2.692 Y14.059
X2.655 Y14.205
X2.612 Y14.35
X2.566 Y14.493
X2.514 Y14.635
X2.478 Y14.723
X2.458 Y14.767
X2.436 Y14.811
X2.189 Y15.282
X2.186 Y15.288
X2.163 Y15.332
X2.051 Y15.522
X2.024 Y15.564
X1.983 Y15.625
X1.938 Y15.685
X1.89 Y15.741
G3 X1.394 Y15.347 I-0.231 J-0.219
G1 X1.61 Y15.019
G3 X2.163 Y15.332 I0.266 J0.175
G1 X2.043 Y15.559
X2.03 Y15.58
X1.897 Y15.734
X1.386 Y16.31
X1.364 Y16.335
X1.336 Y16.367
X1.23 Y16.476
G3 X0.807 Y16.008 I-0.181 J-0.261
G1 X0.849 Y15.958
G3 X1.336 Y16.367 I0.242 J0.207
G1 X1.255 Y16.456
X1.167 Y16.522
X0.416 Y17.041
X0.292 Y17.125
X0.146 Y17.187
X-0.73 Y17.519
X-0.803 Y17.546
X-0.839 Y17.555
X-0.876 Y17.562
X-1.97 Y17.694
X-2.007 Y17.695
X-2.043 Y17.693
X-3.138 Y17.56
X-3.174 Y17.553
X-3.211 Y17.541
X-4.232 Y17.154
X-4.269 Y17.138
X-4.305 Y17.117
X-5.108 Y16.563
X-5.254 Y16.456
X-5.4 Y16.296
X-5.983 Y15.637
X-6.03 Y15.58
X-6.109 Y15.434
X-6.567 Y14.561
X-6.611 Y14.412
X-6.827 Y13.536
X-6.859 Y13.397
X-6.86 Y13.39
X-6.863 Y13.244
Y12.367
X-6.861 Y12.221
X-6.859 Y12.204
X-6.829 Y12.075
X-6.613 Y11.199
X-6.573 Y11.053
X-6.567 Y11.039
X-6.115 Y10.177
X-6.036 Y10.031
X-5.983 Y9.963
X-5.266 Y9.154
X-5.254 Y9.142
X-5.108 Y9.037
X-4.305 Y8.483
X-4.269 Y8.462
X-4.232 Y8.446
X-3.211 Y8.059
X-3.174 Y8.048
X-3.138 Y8.04
X-2.043 Y7.907
X-2.007 Y7.905
X-1.97 Y7.906
X-0.876 Y8.038
X-0.839 Y8.045
X-0.803 Y8.054
X-0.438 Y8.192
X0.174 Y8.424
X0.292 Y8.475
X0.438 Y8.574
X1.167 Y9.078
X1.265 Y9.154
X1.313 Y9.207
X2.01 Y9.994
X2.036 Y10.031
X2.043 Y10.042
X2.191 Y10.323
X2.498 Y10.907
X2.573 Y11.053
X2.613 Y11.199
X2.829 Y12.075
X2.861 Y12.221
X2.863 Y12.367
Y13.244
X2.86 Y13.39
X2.827 Y13.536
X2.611 Y14.412
X2.568 Y14.558
X2.436 Y14.811
G3 X2.031 Y14.944 I-0.276 J-0.158
G1 X1.988 Y14.911 Z-2.495
X1.947 Y14.878 Z-2.481
X1.908 Y14.848 Z-2.458
X1.889 Y14.803 Z-2.423
X1.872 Y14.765 Z-2.379
X1.859 Y14.735 Z-2.328
X1.85 Y14.714 Z-2.272
X1.846 Y14.704 Z-2.213
Y14.702 Z-2.182
G0 Z5
X-2.598 Y11.413
Z0
G3 X-1.402 Y14.187 Z-0.166 I0.598 J1.387 F283.3
X-2.598 Y11.413 Z-0.331 I-0.598 J-1.387
X-1.402 Y14.187 Z-0.497 I0.598 J1.387
X-2.598 Y11.413 Z-0.663 I-0.598 J-1.387
X-1.402 Y14.187 Z-0.829 I0.598 J1.387
X-2.598 Y11.413 Z-0.994 I-0.598 J-1.387
X-1.402 Y14.187 Z-1.16 I0.598 J1.387
X-2.598 Y11.413 Z-1.326 I-0.598 J-1.387
X-1.402 Y14.187 Z-1.491 I0.598 J1.387
X-2.598 Y11.413 Z-1.657 I-0.598 J-1.387
X-1.402 Y14.187 Z-1.823 I0.598 J1.387
X-2.598 Y11.413 Z-1.989 I-0.598 J-1.387
X-1.402 Y14.187 Z-2.154 I0.598 J1.387
X-2.598 Y11.413 Z-2.32 I-0.598 J-1.387
X-1.402 Y14.187 Z-2.486 I0.598 J1.387
X-2.598 Y11.413 Z-2.651 I-0.598 J-1.387
X-1.402 Y14.187 Z-2.817 I0.598 J1.387
X-2.598 Y11.413 Z-2.983 I-0.598 J-1.387
X-1.402 Y14.187 Z-3.149 I0.598 J1.387
X-2.598 Y11.413 Z-3.314 I-0.598 J-1.387
X-1.402 Y14.187 Z-3.48 I0.598 J1.387
X-2.598 Y11.413 Z-3.646 I-0.598 J-1.387
X-0.489 Y12.8 Z-3.75 I0.598 J1.387
X-3.51 I-1.51
X-0.489 I1.51
G1 X-0.479 Y13.183 F850
X-0.48 Y13.333
X-0.512 Y13.48
X-0.565 Y13.62
X-0.636 Y13.752
X-0.721 Y13.876
X-0.818 Y13.99
X-0.926 Y14.094
X-1.044 Y14.187
X-1.17 Y14.268
X-1.303 Y14.337
X-1.442 Y14.394
X-1.586 Y14.438
X-1.732 Y14.469
X-1.881 Y14.487
X-2.031 Y14.491
X-2.181 Y14.482
X-2.329 Y14.459
X-2.475 Y14.423
X-2.617 Y14.375
X-2.754 Y14.314
X-2.885 Y14.242
X-3.01 Y14.158
X-3.126 Y14.063
X-3.233 Y13.958
X-3.331 Y13.844
X-3.418 Y13.722
X-3.494 Y13.593
X-3.559 Y13.458
X-3.611 Y13.317
X-3.65 Y13.172
X-3.677 Y13.025
X-3.69 Y12.875
Y12.725
X-3.677 Y12.576
X-3.651 Y12.428
X-3.611 Y12.283
X-3.559 Y12.143
X-3.495 Y12.007
X-3.419 Y11.878
X-3.332 Y11.756
X-3.234 Y11.642
X-3.127 Y11.537
X-3.01 Y11.443
X-2.886 Y11.358
X-2.755 Y11.286
X-2.618 Y11.225
X-2.476 Y11.176
X-2.33 Y11.14
X-2.182 Y11.118
X-2.033 Y11.108
X-1.883 Y11.112
X-1.734 Y11.129
X-1.587 Y11.159
X-1.443 Y11.202
X-1.304 Y11.258
X-1.17 Y11.325
X-1.042 Y11.405
X-0.923 Y11.495
X-0.811 Y11.595
X-0.709 Y11.705
X-0.617 Y11.824
X-0.537 Y11.95
X-0.467 Y12.083
X-0.41 Y12.222
X-0.365 Y12.365
X-0.33 Y12.511
X-0.302 Y12.658
X-0.28 Y12.807
X-0.268 Y12.956
X-0.267 Y13.106
X-0.28 Y13.256
